app/src/main/assets/cube/invert.cube

LUT_3D_SIZE 2

1 1 1
0 1 1
1 0 1
0 0 1
1 1 0
0 1 0
1 0 0
0 0 0
