assets/cube/action_magenta_01.cube
TITLE "Generated by Resolve"
LUT_3D_SIZE 5
0 0 0
0.115694 0.0352941 0.0347143
0.298924 0.0533455 0.0527352
0.478813 0.0719768 0.0722515
0.634379 0.0974289 0.0992599
0.0876478 0.216007 0.0556344
0.292332 0.229068 0.0554055
0.456886 0.253193 0.0684215
0.605234 0.2813 0.0869612
0.756863 0.308568 0.10663
0.135073 0.446708 0.0956283
0.368612 0.452216 0.0852674
0.544579 0.473136 0.0946822
0.695644 0.500481 0.114427
0.845182 0.52781 0.137194
0.197696 0.670863 0.15671
0.450858 0.670619 0.148119
0.633494 0.688945 0.16199
0.786465 0.715511 0.18555
0.937179 0.742412 0.209003
0.273152 0.889693 0.235203
0.533013 0.887709 0.224903
0.718746 0.905516 0.234745
0.87454 0.931823 0.252064
1 0.958267 0.267765
0.0206149 0.0169223 0.0349584
0.15436 0.0424811 0.119844
0.33611 0.0564584 0.182788
0.501823 0.0764782 0.230182
0.653239 0.101671 0.269657
0.0932479 0.22536 0.216922
0.30135 0.236378 0.226658
0.467048 0.258854 0.249638
0.615991 0.286061 0.278416
0.767224 0.312337 0.306615
0.136767 0.453529 0.290059
0.373144 0.457786 0.286992
0.549859 0.477653 0.302998
0.701106 0.504555 0.328389
0.850462 0.531533 0.355215
0.19971 0.675654 0.372915
0.45417 0.6748 0.3673
0.637186 0.69276 0.383566
0.790188 0.718944 0.409094
0.941344 0.745678 0.434836
0.274876 0.893751 0.460197
0.534951 0.891279 0.451469
0.721141 0.908949 0.463996
0.877012 0.934646 0.484321
1 0.9608 0.504036
0.0393378 0.0311437 0.107301
0.188434 0.0478676 0.234485
0.366217 0.0599069 0.324758
0.520592 0.0824598 0.383932
0.672251 0.106523 0.432883
0.0990311 0.234638 0.372732
0.310719 0.244068 0.391348
0.477791 0.265248 0.42269
0.627161 0.291569 0.45922
0.778225 0.317235 0.494026
0.139712 0.461234 0.47332
0.378607 0.464164 0.475868
0.556222 0.483299 0.496727
0.707347 0.509544 0.525673
0.85684 0.536492 0.555459
0.203311 0.681575 0.571878
0.458579 0.679957 0.568078
0.642176 0.697887 0.586419
0.795285 0.72369 0.613626
0.946899 0.75024 0.641535
0.277852 0.899199 0.665888
0.538262 0.896345 0.659007
0.724819 0.913725 0.674144
0.88101 0.938994 0.697612
1 0.964385 0.720775
0.0554665 0.042649 0.207767
0.218448 0.0530098 0.360449
0.391638 0.0654917 0.459953
0.539879 0.0894789 0.522271
0.692088 0.112688 0.578714
0.106218 0.245136 0.512901
0.321126 0.252811 0.53785
0.489754 0.273045 0.575616
0.639246 0.298451 0.617441
0.790494 0.323903 0.65716
0.144594 0.47039 0.63357
0.385687 0.471992 0.639643
0.564385 0.490776 0.663951
0.715648 0.516716 0.695262
0.865156 0.543511 0.726864
0.209186 0.689403 0.742428
0.465354 0.687373 0.740017
0.649256 0.705043 0.759762
0.802625 0.730648 0.788602
0.95436 0.756634 0.818158
0.282734 0.906676 0.841703
0.543679 0.903593 0.836728
0.730358 0.920363 0.853971
0.88716 0.945495 0.880613
1 0.970397 0.907073
0.0697185 0.0523232 0.334646
0.243977 0.0579538 0.497978
0.411658 0.0726787 0.594522
0.558648 0.0962997 0.661341
0.711513 0.118914 0.724575
0.113405 0.255512 0.653712
0.331426 0.261509 0.684123
0.501595 0.280919 0.727443
0.651484 0.305745 0.773846
0.802472 0.330846 0.817075
0.14992 0.479606 0.791333
0.393271 0.480232 0.800244
0.572671 0.498451 0.826688
0.724224 0.524269 0.859861
0.873533 0.550668 0.892576
0.215427 0.697353 0.90753
0.472511 0.695155 0.906493
0.656489 0.712367 0.927382
0.810346 0.737942 0.958221
0.962478 0.763592 0.989899
0.287755 0.914458 1
0.54934 0.911208 1
0.736416 0.927596 1
0.893584 0.95227 1
1 0.976211 1
