assets/cube/action_magenta_01.cube
TITLE "Generated by Resolve"
LUT_3D_SIZE 9
0 0 0
0.0430762 0.0214542 0.0212253
0.115694 0.0352941 0.0347143
0.204791 0.0449836 0.0442512
0.298924 0.0533455 0.0527352
0.392035 0.0619821 0.061677
0.478813 0.0719768 0.0722515
0.557229 0.084535 0.0855573
0.634379 0.0974289 0.0992599
0.0681315 0.0983749 0.0480964
0.148943 0.111421 0.0484321
0.244739 0.119844 0.0471504
0.331487 0.130755 0.0518349
0.40766 0.144259 0.06215
0.480812 0.158236 0.0733806
0.554116 0.172473 0.0851759
0.628763 0.186313 0.096849
0.706203 0.19939 0.107973
0.0876478 0.216007 0.0556344
0.189425 0.222858 0.0556649
0.292332 0.229068 0.0554055
0.379141 0.239918 0.060441
0.456886 0.253193 0.0684215
0.53135 0.267018 0.0772869
0.605234 0.2813 0.0869612
0.679911 0.295308 0.0969406
0.756863 0.308568 0.10663
0.109712 0.331975 0.0736095
0.219547 0.336675 0.0699626
0.329503 0.341222 0.0666514
0.420279 0.35111 0.0695659
0.500191 0.363882 0.0760815
0.575814 0.377462 0.0840467
0.65005 0.391653 0.0934615
0.724498 0.405722 0.103502
0.800519 0.418982 0.11342
0.135073 0.446708 0.0956283
0.252262 0.44921 0.0898451
0.368612 0.452216 0.0852674
0.462943 0.461082 0.0878157
0.544579 0.473136 0.0946822
0.621225 0.486473 0.103761
0.695644 0.500481 0.114427
0.769726 0.514473 0.125826
0.845182 0.52781 0.137194
0.163928 0.559884 0.122881
0.287541 0.560586 0.116793
0.408911 0.562066 0.112444
0.505974 0.570016 0.11603
0.588861 0.581399 0.124239
0.666255 0.594507 0.134981
0.740841 0.608331 0.147066
0.814771 0.62208 0.159457
0.890364 0.635477 0.171679
0.197696 0.670863 0.15671
0.326101 0.670237 0.151522
0.450858 0.670619 0.148119
0.549691 0.677928 0.15285
0.633494 0.688945 0.16199
0.711437 0.701823 0.173342
0.786465 0.715511 0.18555
0.860807 0.729061 0.197513
0.937179 0.742412 0.209003
0.235676 0.780163 0.195956
0.36672 0.77879 0.191257
0.493294 0.778622 0.187961
0.592889 0.785412 0.192248
0.677592 0.796521 0.201068
0.75613 0.809323 0.211475
0.83183 0.822934 0.222385
0.907027 0.836408 0.232792
0.984497 0.849607 0.242481
0.273152 0.889693 0.235203
0.405341 0.888075 0.229557
0.533013 0.887709 0.224903
0.633371 0.894408 0.227649
0.718746 0.905516 0.234745
0.798016 0.918303 0.243229
0.87454 0.931823 0.252064
0.950835 0.94522 0.260349
1 0.958267 0.267765
0.0102541 0.00862135 0.0125277
0.058793 0.0279393 0.0457618
0.135622 0.0392615 0.0716411
0.225772 0.0474098 0.0936141
0.318502 0.0550546 0.113252
0.408209 0.063508 0.131197
0.491371 0.0741588 0.148669
0.566873 0.0871901 0.166033
0.643977 0.0996567 0.182467
0.0722362 0.105394 0.101656
0.156207 0.116365 0.111574
0.253422 0.123735 0.118135
0.339101 0.134371 0.128695
0.414862 0.147662 0.142382
0.488197 0.161288 0.156588
0.561593 0.175189 0.171252
0.636301 0.188754 0.185672
0.713375 0.201343 0.19913
0.0905928 0.220874 0.133928
0.193088 0.226932 0.136248
0.297017 0.232898 0.138643
0.384298 0.243366 0.146227
0.462287 0.256306 0.156802
0.536889 0.269825 0.168338
0.610803 0.283818 0.180636
0.685466 0.297597 0.192996
0.762112 0.310491 0.2047
0.111498 0.336294 0.160647
0.222034 0.340352 0.159014
0.332845 0.34464 0.157977
0.424018 0.354192 0.163134
0.503838 0.36643 0.171756
0.579812 0.379995 0.182284
0.654032 0.393988 0.193759
0.728405 0.407889 0.205646
0.804334 0.421012 0.217166
0.136141 0.450401 0.190982
0.254063 0.452506 0.187015
0.371023 0.455146 0.184161
0.46566 0.463752 0.18851
0.547295 0.475456 0.196994
0.624109 0.488746 0.207782
0.698512 0.502632 0.219837
0.772473 0.516442 0.232364
0.847944 0.529763 0.2448
0.164767 0.56289 0.224857
0.289021 0.563348 0.220188
0.410834 0.564569 0.21706
0.50808 0.57232 0.22182
0.591089 0.583581 0.231128
0.668528 0.596582 0.242817
0.74313 0.61033 0.255695
0.816983 0.623926 0.268681
0.892699 0.637339 0.281559
0.198749 0.673335 0.263355
0.327581 0.672587 0.259052
0.452613 0.672816 0.256352
0.5514 0.67985 0.261585
0.635431 0.690944 0.271489
0.71342 0.703777 0.283391
0.788418 0.717311 0.296056
0.862898 0.730861 0.308614
0.939345 0.744137 0.320638
0.236927 0.782376 0.305455
0.368154 0.780911 0.301183
0.49485 0.780652 0.298283
0.594522 0.787366 0.303014
0.679271 0.798428 0.312352
0.75787 0.81117 0.323293
0.833417 0.824491 0.3346
0.908904 0.838071 0.345846
0.986481 0.851164 0.356252
0.274128 0.891798 0.346471
0.406409 0.89012 0.341222
0.534173 0.889677 0.336996
0.634623 0.896315 0.340291
0.720043 0.907332 0.348028
0.79939 0.920027 0.357244
0.875776 0.933227 0.36669
0.952377 0.946715 0.376059
1 0.95964 0.384436
0.0206149 0.0169223 0.0349584
0.0737774 0.0334783 0.0813153
0.15436 0.0424811 0.119844
0.24506 0.0492866 0.153445
0.33611 0.0564584 0.182788
0.422721 0.0650339 0.20795
0.501823 0.0764782 0.230182
0.57615 0.0895552 0.250507
0.653239 0.101671 0.269657
0.0757305 0.111589 0.165225
0.162692 0.120745 0.183337
0.26096 0.127275 0.196109
0.345693 0.137789 0.210681
0.421576 0.150637 0.2271
0.495216 0.164004 0.24416
0.568719 0.17763 0.261509
0.643458 0.190906 0.278492
0.720531 0.20325 0.294377
0.0932479 0.22536 0.216922
0.196628 0.230884 0.221744
0.30135 0.236378 0.226658
0.389075 0.246464 0.236774
0.467048 0.258854 0.249638
0.542046 0.272312 0.263798
0.615991 0.286061 0.278416
0.690471 0.299489 0.29279
0.767224 0.312337 0.306615
0.11284 0.340108 0.252125
0.224323 0.343847 0.252872
0.335836 0.347707 0.253986
0.42739 0.356924 0.261311
0.507408 0.368902 0.272007
0.583459 0.382239 0.284489
0.657679 0.396048 0.297765
0.731716 0.409567 0.311025
0.807828 0.422827 0.324224
0.136767 0.453529 0.290059
0.255619 0.455482 0.288136
0.373144 0.457786 0.286992
0.468086 0.466133 0.293004
0.549859 0.477653 0.302998
0.626734 0.490791 0.315145
0.701106 0.504555 0.328389
0.774884 0.518135 0.341787
0.850462 0.531533 0.355215
0.165377 0.565545 0.330144
0.290318 0.56585 0.326894
0.412543 0.566827 0.32491
0.509773 0.574182 0.33051
0.593103 0.58555 0.340948
0.670588 0.598459 0.35346
0.745205 0.612131 0.36701
0.819089 0.62565 0.380591
0.894835 0.639002 0.394003
0.19971 0.675654 0.372915
0.328908 0.674708 0.36936
0.45417 0.6748 0.3673
0.553002 0.681666 0.373022
0.637186 0.69276 0.383566
0.715221 0.705516 0.395987
0.790188 0.718944 0.409094
0.864805 0.732479 0.422232
0.941344 0.745678 0.434836
0.238025 0.784405 0.417426
0.36939 0.782849 0.413611
0.496162 0.782452 0.411063
0.595956 0.789151 0.416312
0.680766 0.800137 0.426169
0.759411 0.812818 0.437675
0.834989 0.826017 0.449577
0.910597 0.839536 0.46157
0.988281 0.852537 0.47274
0.274876 0.893751 0.460197
0.407248 0.891997 0.455375
0.534951 0.891279 0.451469
0.635645 0.898024 0.455558
0.721141 0.908949 0.463996
0.800443 0.921447 0.473899
0.877012 0.934646 0.484321
0.953704 0.948013 0.494636
1 0.9608 0.504036
0.0303044 0.0243992 0.0671244
0.0877241 0.0381781 0.125521
0.171908 0.045243 0.175448
0.262867 0.0510262 0.218418
0.352026 0.0579995 0.255024
0.435508 0.0670329 0.285039
0.511101 0.0792706 0.309911
0.585473 0.0920577 0.332845
0.662531 0.103838 0.354437
0.079057 0.117342 0.233097
0.168795 0.125002 0.257008
0.267903 0.130968 0.273762
0.3523 0.141329 0.290791
0.428305 0.153674 0.30959
0.502327 0.166903 0.329335
0.575921 0.180224 0.349111
0.650614 0.19321 0.368338
0.727779 0.205386 0.386481
0.095964 0.229862 0.297856
0.200305 0.234974 0.305104
0.305821 0.240009 0.312291
0.393988 0.249714 0.324712
0.472175 0.261784 0.339788
0.547341 0.275013 0.35613
0.621347 0.288533 0.372793
0.695735 0.301732 0.388998
0.772473 0.314473 0.404623
0.114488 0.344152 0.340948
0.226841 0.347524 0.343801
0.33904 0.350973 0.346853
0.430854 0.359762 0.355962
0.511193 0.371618 0.368612
0.58732 0.384771 0.382788
0.661555 0.398413 0.397604
0.735546 0.41181 0.412207
0.811551 0.424979 0.426612
0.137911 0.457115 0.385779
0.257481 0.458701 0.385473
0.37557 0.460685 0.385824
0.470542 0.468544 0.392981
0.552728 0.480156 0.404517
0.629648 0.493156 0.417823
0.703838 0.506645 0.431861
0.777768 0.520317 0.446265
0.8533 0.533654 0.46038
0.166491 0.568612 0.431159
0.291981 0.568643 0.428992
0.414618 0.569406 0.427985
0.512062 0.576608 0.43444
0.595483 0.587869 0.445655
0.672999 0.600702 0.458824
0.747387 0.614054 0.472679
0.821561 0.627771 0.487037
0.897353 0.641047 0.500923
0.201114 0.678279 0.477378
0.330648 0.67718 0.474449
0.456123 0.67715 0.472923
0.555077 0.683925 0.479149
0.639307 0.694957 0.490181
0.717403 0.707668 0.503059
0.792309 0.720897 0.516518
0.867109 0.734478 0.530297
0.94374 0.747585 0.54345
0.239521 0.786801 0.523919
0.371023 0.785153 0.5205
0.497734 0.784497 0.518151
0.597772 0.791333 0.524056
0.682643 0.802258 0.534417
0.761318 0.814817 0.546456
0.836988 0.827955 0.558999
0.912688 0.841398 0.571694
0.990478 0.854276 0.583627
0.276005 0.896101 0.568292
0.408453 0.894286 0.563943
0.536217 0.893416 0.560479
0.637049 0.90013 0.56524
0.722606 0.910964 0.57438
0.801923 0.923293 0.585
0.87863 0.936431 0.596338
0.955428 0.949691 0.607584
1 0.962264 0.617914
0.0393378 0.0311437 0.107301
0.101274 0.0425269 0.176211
0.188434 0.0478676 0.234485
0.279423 0.0529793 0.284031
0.366217 0.0599069 0.324758
0.446983 0.0697948 0.357549
0.520592 0.0824598 0.383932
0.594766 0.0947738 0.408835
0.672251 0.106523 0.432883
0.0823682 0.122728 0.300069
0.174929 0.129503 0.327901
0.274601 0.135164 0.346151
0.359243 0.145251 0.365148
0.435584 0.15729 0.38613
0.509789 0.170214 0.408026
0.583505 0.183322 0.429862
0.658 0.195926 0.450828
0.735424 0.208072 0.471015
0.0990311 0.234638 0.372732
0.204425 0.23946 0.382208
0.310719 0.244068 0.391348
0.399283 0.253391 0.405676
0.477791 0.265248 0.42269
0.553094 0.278233 0.440848
0.627161 0.291569 0.45922
0.701473 0.304555 0.476921
0.778225 0.317235 0.494026
0.116701 0.348684 0.422721
0.229908 0.351675 0.427314
0.342779 0.354757 0.431998
0.434836 0.363149 0.442542
0.515511 0.374914 0.45684
0.591745 0.3879 0.472404
0.665873 0.401328 0.488365
0.73994 0.41471 0.504158
0.815869 0.427802 0.519493
0.139712 0.461234 0.47332
0.259983 0.462486 0.474327
0.378607 0.464164 0.475868
0.473899 0.471839 0.484154
0.556222 0.483299 0.496727
0.633204 0.496193 0.510918
0.707347 0.509544 0.525673
0.781323 0.523217 0.54078
0.85684 0.536492 0.555459
0.168368 0.57229 0.522942
0.294392 0.572061 0.521645
0.417258 0.572488 0.521233
0.515038 0.579705 0.528527
0.59855 0.59089 0.540352
0.676143 0.603647 0.55404
0.750561 0.616938 0.568368
0.824765 0.63061 0.583139
0.900618 0.643824 0.597452
0.203311 0.681575 0.571878
0.333135 0.680339 0.569436
0.458579 0.679957 0.568078
0.55787 0.6869 0.574975
0.642176 0.697887 0.586419
0.720119 0.710323 0.599512
0.795285 0.72369 0.613626
0.870161 0.737209 0.627878
0.946899 0.75024 0.641535
0.241764 0.789929 0.62005
0.373404 0.788205 0.616983
0.500221 0.787472 0.615
0.600336 0.794247 0.621332
0.685252 0.805097 0.632166
0.763775 0.817365 0.644495
0.839734 0.830655 0.657877
0.915541 0.843992 0.671214
0.993439 0.856764 0.683864
0.277852 0.899199 0.665888
0.410376 0.897292 0.661967
0.538262 0.896345 0.659007
0.639185 0.902983 0.664332
0.724819 0.913725 0.674144
0.804135 0.925872 0.685389
0.88101 0.938994 0.697612
0.957916 0.952132 0.709712
1 0.964385 0.720775
0.0476234 0.0371252 0.154101
0.114137 0.0465095 0.231846
0.203952 0.0504463 0.296071
0.294606 0.0551308 0.349615
0.379644 0.0624552 0.392874
0.45716 0.0732738 0.425956
0.530266 0.0859388 0.453925
0.604578 0.0979934 0.480781
0.68217 0.109529 0.506752
0.0860761 0.128298 0.366873
0.181033 0.134249 0.395972
0.28127 0.139696 0.414466
0.366155 0.149248 0.43508
0.443076 0.161181 0.458305
0.517494 0.173877 0.482048
0.591333 0.186755 0.505684
0.665888 0.199161 0.528313
0.743328 0.211154 0.550088
0.102556 0.239841 0.443656
0.20885 0.244221 0.454856
0.315923 0.248432 0.465675
0.404715 0.257252 0.481422
0.483711 0.269062 0.500328
0.559167 0.281849 0.520043
0.633005 0.294789 0.539528
0.707607 0.307881 0.558846
0.784314 0.320455 0.577127
0.119356 0.353567 0.499428
0.233356 0.356161 0.505486
0.346914 0.358923 0.511543
0.439353 0.367056 0.523415
0.520241 0.378637 0.538964
0.596551 0.39147 0.555657
0.670542 0.404654 0.572442
0.744747 0.418112 0.589303
0.8206 0.431144 0.605386
0.142016 0.465721 0.554849
0.262974 0.466667 0.556954
0.382071 0.468025 0.559411
0.477714 0.475578 0.568673
0.560189 0.486915 0.582071
0.637232 0.499718 0.596979
0.711376 0.512993 0.612299
0.785351 0.526635 0.627955
0.860883 0.539864 0.643076
0.170809 0.576379 0.60798
0.297337 0.575936 0.60737
0.420478 0.576104 0.607416
0.518547 0.583307 0.615366
0.602167 0.594415 0.627665
0.679667 0.607004 0.641642
0.754253 0.620356 0.656504
0.828519 0.633967 0.671656
0.904402 0.647089 0.68632
0.206088 0.685374 0.659037
0.336141 0.683955 0.656947
0.46183 0.683528 0.655985
0.561212 0.69041 0.663249
0.645594 0.701335 0.675059
0.723537 0.71368 0.688487
0.798825 0.727031 0.703075
0.873777 0.74049 0.717784
0.950439 0.753246 0.731746
0.244572 0.793561 0.708583
0.376135 0.791592 0.705638
0.503243 0.790982 0.704204
0.603418 0.797696 0.710933
0.688411 0.808484 0.722225
0.766995 0.820691 0.735073
0.84303 0.83389 0.74902
0.918929 0.847135 0.762997
0.996704 0.859556 0.776043
0.280201 0.902831 0.75581
0.412604 0.900603 0.752041
0.540841 0.899825 0.749813
0.641855 0.906371 0.755703
0.727352 0.916808 0.765896
0.806973 0.929091 0.778088
0.88394 0.942107 0.791058
0.960967 0.955123 0.803983
1 0.967254 0.815885
0.0554665 0.042649 0.207767
0.126268 0.0501869 0.29221
0.218448 0.0530098 0.360449
0.308644 0.0575418 0.416114
0.391638 0.0654917 0.459953
0.466712 0.0770886 0.492531
0.539879 0.0894789 0.522271
0.61442 0.101366 0.551034
0.692088 0.112688 0.578714
0.0899367 0.133761 0.433875
0.18703 0.139116 0.462562
0.287999 0.14432 0.481331
0.373388 0.15349 0.5037
0.450645 0.165209 0.528695
0.525261 0.177661 0.554147
0.598962 0.190173 0.579126
0.673838 0.202579 0.60351
0.751293 0.214435 0.626673
0.106218 0.245136 0.512901
0.213397 0.249104 0.525673
0.321126 0.252811 0.53785
0.410498 0.261463 0.555261
0.489754 0.273045 0.575616
0.565347 0.285649 0.596704
0.639246 0.298451 0.617441
0.713848 0.311421 0.637873
0.790494 0.323903 0.65716
0.12221 0.358572 0.573892
0.237003 0.360815 0.581247
0.350973 0.362997 0.588174
0.444053 0.371145 0.601526
0.525124 0.382574 0.618158
0.601541 0.39527 0.635828
0.675547 0.408362 0.653452
0.749706 0.421744 0.671031
0.825513 0.434745 0.687739
0.144594 0.47039 0.63357
0.266224 0.471031 0.636591
0.385687 0.471992 0.639643
0.481773 0.479561 0.649882
0.564385 0.490776 0.663951
0.64123 0.503243 0.679164
0.715648 0.516716 0.695262
0.789639 0.530312 0.71136
0.865156 0.543511 0.726864
0.173587 0.580697 0.689616
0.300603 0.580056 0.689555
0.424079 0.580056 0.690089
0.522316 0.587182 0.698482
0.606027 0.598199 0.711177
0.683452 0.610605 0.725383
0.758221 0.624048 0.740734
0.832547 0.637613 0.756268
0.908446 0.650614 0.771221
0.209186 0.689403 0.742428
0.339437 0.687831 0.740597
0.465354 0.687373 0.740017
0.564843 0.694194 0.747616
0.649256 0.705043 0.759762
0.727275 0.717342 0.773587
0.802625 0.730648 0.788602
0.877668 0.744015 0.803769
0.95436 0.756634 0.818158
0.247639 0.797482 0.793194
0.379263 0.795377 0.790494
0.506523 0.794781 0.789487
0.60679 0.801419 0.796628
0.691676 0.811994 0.808209
0.770474 0.824262 0.821744
0.846616 0.837385 0.836271
0.922545 0.850477 0.850813
1 0.862852 0.864607
0.282734 0.906676 0.841703
0.415305 0.904448 0.838468
0.543679 0.903593 0.836728
0.6448 0.910048 0.843183
0.730358 0.920363 0.853971
0.810071 0.93257 0.86688
0.88716 0.945495 0.880613
0.96408 0.95819 0.894118
1 0.970397 0.907073
0.0628672 0.047715 0.268055
0.137667 0.0535897 0.357244
0.231922 0.0555581 0.427863
0.321355 0.0601205 0.483925
0.402304 0.068925 0.526925
0.476143 0.0808881 0.559503
0.549249 0.0928664 0.590753
0.624155 0.104707 0.621469
0.701915 0.115862 0.650767
0.0939193 0.139071 0.501839
0.192874 0.14406 0.528618
0.294606 0.148882 0.548516
0.380575 0.157763 0.57261
0.458137 0.169207 0.599268
0.532952 0.181445 0.626307
0.606699 0.193729 0.652689
0.681712 0.206027 0.678553
0.759152 0.217762 0.702998
0.10988 0.250401 0.582391
0.217929 0.253956 0.596643
0.326345 0.257221 0.610132
0.416251 0.26566 0.629023
0.49575 0.277028 0.650736
0.571389 0.289387 0.672953
0.645457 0.302144 0.694926
0.720043 0.315007 0.716381
0.796613 0.327428 0.736538
0.125093 0.363561 0.648264
0.240681 0.365454 0.656779
0.355306 0.36733 0.66479
0.448753 0.37528 0.679179
0.530022 0.386542 0.696773
0.606287 0.398917 0.714992
0.680568 0.412131 0.733639
0.754696 0.425467 0.751827
0.830289 0.438315 0.768902
0.14728 0.475059 0.711772
0.269413 0.475288 0.715419
0.389517 0.476158 0.719341
0.485878 0.483574 0.730236
0.568627 0.494697 0.744884
0.645533 0.507103 0.760571
0.719982 0.520531 0.777111
0.793973 0.534081 0.793561
0.869245 0.54699 0.80914
0.176501 0.585031 0.770352
0.303731 0.583963 0.770459
0.427771 0.584085 0.771679
0.526177 0.591119 0.780438
0.609979 0.602075 0.7935
0.687465 0.614435 0.808042
0.76228 0.627817 0.823743
0.836652 0.641321 0.839628
0.912474 0.654124 0.854795
0.212406 0.693507 0.824643
0.342748 0.691691 0.822934
0.468971 0.691295 0.822812
0.568551 0.69807 0.830747
0.652796 0.708629 0.843
0.731106 0.721096 0.857466
0.806516 0.734325 0.872923
0.881651 0.747631 0.888579
0.95845 0.760159 0.903502
0.250782 0.80148 0.876554
0.382513 0.799329 0.874205
0.50988 0.798657 0.873549
0.610208 0.805234 0.881132
0.695079 0.815641 0.893095
0.774044 0.827939 0.907286
0.850263 0.84097 0.922423
0.926238 0.853895 0.937545
1 0.866224 0.952102
0.285328 0.910613 0.926436
0.418051 0.908385 0.923735
0.546563 0.907439 0.922499
0.64773 0.913741 0.929503
0.73344 0.924025 0.941009
0.813245 0.936126 0.954635
0.890425 0.948943 0.969116
0.967437 0.961471 0.983383
1 0.973602 0.997269
0.0697185 0.0523232 0.334646
0.148302 0.056733 0.4271
0.243977 0.0579538 0.497978
0.333043 0.0629435 0.554009
0.411658 0.0726787 0.594522
0.485359 0.0845655 0.628336
0.558648 0.0962997 0.661341
0.633677 0.107958 0.693721
0.711513 0.118914 0.724575
0.0979934 0.144244 0.571099
0.19855 0.148928 0.596124
0.300877 0.15314 0.617319
0.387579 0.161898 0.643381
0.465461 0.173083 0.671641
0.540444 0.185107 0.700206
0.614328 0.197223 0.728008
0.689372 0.209384 0.755199
0.766812 0.220981 0.780835
0.113405 0.255512 0.653712
0.222324 0.258656 0.669398
0.331426 0.261509 0.684123
0.421836 0.269749 0.704463
0.501595 0.280919 0.727443
0.577173 0.292958 0.750591
0.651484 0.305745 0.773846
0.726055 0.318532 0.796216
0.802472 0.330846 0.817075
0.127916 0.368414 0.724254
0.244205 0.369894 0.733791
0.359533 0.371557 0.742885
0.45333 0.379294 0.758236
0.534783 0.390417 0.776699
0.611109 0.40267 0.795636
0.685435 0.415839 0.814954
0.759533 0.429129 0.833677
0.835004 0.441886 0.851118
0.14992 0.479606 0.791333
0.272633 0.479515 0.795605
0.393271 0.480232 0.800244
0.489906 0.487526 0.811704
0.572671 0.498451 0.826688
0.64976 0.510903 0.842954
0.724224 0.524269 0.859861
0.79823 0.537789 0.876661
0.873533 0.550668 0.892576
0.1794 0.589288 0.852155
0.307073 0.588037 0.852644
0.431418 0.588037 0.8542
0.529992 0.59498 0.86331
0.613611 0.605646 0.876402
0.691417 0.618189 0.891569
0.766278 0.631525 0.907622
0.840543 0.644816 0.92369
0.916609 0.65771 0.939467
0.215427 0.697353 0.90753
0.346151 0.695613 0.90631
0.472511 0.695155 0.906493
0.572183 0.701869 0.914748
0.656489 0.712367 0.927382
0.734859 0.724773 0.94229
0.810346 0.737942 0.958221
0.885298 0.750927 0.974105
0.962478 0.763592 0.989899
0.25362 0.805188 0.960525
0.385672 0.803204 0.958801
0.513146 0.802457 0.958556
0.61355 0.808972 0.966613
0.698482 0.819303 0.97911
0.777523 0.831525 0.993896
0.853834 0.844465 1
0.929778 0.85716 1
1 0.869505 1
0.287755 0.914458 1
0.420676 0.912261 1
0.54934 0.911208 1
0.650431 0.91722 1
0.736416 0.927596 1
0.816312 0.939605 1
0.893584 0.95227 1
0.970718 0.964706 1
1 0.976211 1
