assets/cube/action_magenta_01.cube
TITLE "Generated by Resolve"
LUT_3D_SIZE 33
0 0 0
0.0074464 0.00569161 0.0056611
0.0172274 0.0114137 0.0113222
0.0293126 0.0168154 0.0166629
0.0430762 0.0214542 0.0212253
0.058732 0.0255741 0.0252537
0.0762341 0.0292058 0.0287938
0.0953078 0.0324254 0.0319219
0.115694 0.0352941 0.0347143
0.137575 0.038056 0.0373999
0.159564 0.0404822 0.039765
0.181979 0.0427863 0.0420539
0.204791 0.0449836 0.0442512
0.227955 0.0471046 0.0463722
0.251469 0.0491951 0.0484932
0.275441 0.0513313 0.05066
0.298924 0.0533455 0.0527352
0.322362 0.0553902 0.0548409
0.345647 0.0574655 0.0569924
0.368688 0.0596017 0.0591897
0.392035 0.0619821 0.061677
0.41442 0.0642863 0.0641184
0.436347 0.0667277 0.0666819
0.457923 0.0692607 0.0693828
0.478813 0.0719768 0.0722515
0.499367 0.0749065 0.0753643
0.519371 0.0780499 0.0786908
0.538506 0.081239 0.0820783
0.557229 0.084535 0.0855573
0.57612 0.0877852 0.0890059
0.595193 0.0909895 0.0924086
0.614771 0.094255 0.0958724
0.634379 0.0974289 0.0992599
0.0231632 0.0214694 0.0187533
0.0335851 0.0271 0.0234073
0.0463417 0.0324102 0.0277104
0.0608835 0.0369268 0.0312047
0.0774701 0.0408942 0.0341344
0.0958572 0.044358 0.0365759
0.11574 0.047425 0.0386206
0.137316 0.05037 0.0405432
0.159213 0.052903 0.0420996
0.181598 0.0552987 0.043595
0.204181 0.0576333 0.0450752
0.226734 0.0599832 0.0466316
0.249332 0.0623026 0.0482338
0.272526 0.0647898 0.0500191
0.295079 0.0671244 0.0517281
0.317525 0.0694896 0.0535286
0.339757 0.0719005 0.055436
0.3617 0.0743877 0.0574655
0.383413 0.0769818 0.0596323
0.405035 0.0798199 0.062089
0.425879 0.0825818 0.0645609
0.446128 0.0855116 0.0672618
0.465812 0.0885786 0.0701762
0.484901 0.0917983 0.0732891
0.503517 0.0952621 0.0767071
0.522026 0.0988479 0.0802777
0.540413 0.102251 0.0836805
0.558938 0.105623 0.0870527
0.577661 0.108934 0.0903639
0.596597 0.1122 0.0936294
0.615976 0.115496 0.0969558
0.635538 0.11873 0.100206
0.655024 0.121843 0.103349
0.0430457 0.0453193 0.0332799
0.0558633 0.0504768 0.0364233
0.0708324 0.054963 0.0389258
0.087892 0.0588846 0.0408637
0.106874 0.0622873 0.0423285
0.127459 0.0652476 0.0433967
0.149569 0.0680858 0.044358
0.172076 0.0705425 0.0450599
0.194934 0.0728771 0.0457465
0.217853 0.0751965 0.0465095
0.240528 0.0775616 0.0474403
0.262776 0.0800336 0.0485847
0.285283 0.0827497 0.0500496
0.307073 0.0853437 0.0515297
0.328542 0.0879988 0.053193
0.349706 0.0907301 0.0550393
0.370489 0.0935683 0.0570687
0.390906 0.0965133 0.0593118
0.411109 0.0997787 0.0619669
0.430396 0.102983 0.0646525
0.449149 0.106325 0.0676127
0.467338 0.109804 0.0708171
0.48542 0.113313 0.0740826
0.503914 0.117037 0.0775616
0.522118 0.120516 0.080827
0.540413 0.123964 0.0840772
0.558831 0.127382 0.0872969
0.577447 0.130739 0.0904707
0.596323 0.134112 0.0936599
0.615579 0.13753 0.09691
0.63473 0.140749 0.0999619
0.654124 0.143893 0.102953
0.67364 0.147005 0.105928
0.057908 0.0710002 0.0428016
0.0729229 0.0755474 0.0444953
0.0901961 0.0794842 0.045655
0.109468 0.0828717 0.0463417
0.13051 0.085771 0.0466468
0.153231 0.0885481 0.0468605
0.176349 0.0908675 0.0468299
0.199817 0.09308 0.0468299
0.223255 0.0952926 0.0469978
0.246326 0.0975967 0.0474098
0.269154 0.100221 0.0482643
0.290944 0.102892 0.0493935
0.312154 0.105653 0.050782
0.332982 0.108507 0.0523995
0.353231 0.111498 0.0543374
0.373007 0.114611 0.0565499
0.392615 0.118074 0.0592508
0.411261 0.121462 0.0620432
0.42948 0.124956 0.0650339
0.447623 0.128481 0.0680247
0.465766 0.131991 0.071046
0.483925 0.1355 0.0741131
0.502419 0.139239 0.077409
0.520638 0.142733 0.0804761
0.538888 0.146212 0.0835584
0.557244 0.14966 0.0866102
0.575708 0.153079 0.089662
0.594369 0.156497 0.0927138
0.613474 0.160006 0.0958724
0.632456 0.163287 0.0988022
0.651621 0.166506 0.101686
0.671031 0.169665 0.104524
0.690547 0.172808 0.107347
0.0681315 0.0983749 0.0480964
0.0852674 0.102403 0.0487526
0.104631 0.105821 0.0489204
0.126024 0.108858 0.0488136
0.148943 0.111421 0.0484321
0.172717 0.113603 0.0478828
0.196887 0.115648 0.0473945
0.221027 0.117708 0.0471199
0.244739 0.119844 0.0471504
0.268009 0.122332 0.047715
0.290196 0.124941 0.0486305
0.311208 0.127749 0.0500343
0.331487 0.130755 0.0518349
0.351156 0.133898 0.0539864
0.370169 0.137209 0.0565042
0.389136 0.14081 0.0593881
0.40766 0.144259 0.06215
0.426032 0.147738 0.0649424
0.444327 0.151232 0.0677653
0.462547 0.154742 0.070573
0.480812 0.158236 0.0733806
0.499382 0.161975 0.076463
0.517586 0.165499 0.0793622
0.535821 0.168994 0.0822614
0.554116 0.172473 0.0851759
0.572488 0.175937 0.0880751
0.591333 0.179583 0.0911727
0.609949 0.182986 0.0940261
0.628763 0.186313 0.096849
0.647761 0.189609 0.0996414
0.666926 0.192844 0.102388
0.686366 0.196033 0.105089
0.706203 0.19939 0.107973
0.0747997 0.127108 0.0505074
0.093904 0.130617 0.0504921
0.115236 0.133669 0.0501717
0.138293 0.136233 0.0496071
0.162509 0.138308 0.0488289
0.187381 0.140185 0.0480812
0.212299 0.142016 0.0475624
0.236835 0.143938 0.0473793
0.260914 0.146273 0.0478676
0.283635 0.148623 0.0487221
0.30515 0.151293 0.0501411
0.325414 0.154269 0.0521248
0.345068 0.157412 0.0543374
0.364569 0.1608 0.0567941
0.383688 0.164202 0.0592966
0.402472 0.16759 0.061799
0.421088 0.171008 0.0643626
0.439597 0.174456 0.0669413
0.458 0.177935 0.0695811
0.476585 0.181628 0.0724041
0.494942 0.185168 0.0750744
0.513237 0.188678 0.0777752
0.531487 0.192203 0.0805066
0.549752 0.195697 0.0832532
0.568078 0.199191 0.0859998
0.586831 0.202884 0.0889601
0.605325 0.206332 0.0917067
0.623957 0.209735 0.0944381
0.642771 0.213077 0.0971237
0.661768 0.216388 0.0997787
0.680934 0.219638 0.102403
0.700679 0.223056 0.10518
0.72015 0.226215 0.107759
0.0793317 0.15668 0.0515908
0.100374 0.159915 0.0514534
0.123232 0.162356 0.0509194
0.147524 0.164385 0.0502022
0.172854 0.166125 0.0495308
0.19855 0.167727 0.0490272
0.224033 0.169467 0.0489509
0.24889 0.17145 0.049424
0.272572 0.173526 0.0502327
0.295186 0.175891 0.0513924
0.316701 0.178546 0.0528725
0.337148 0.181491 0.0546883
0.357168 0.184726 0.0568246
0.376806 0.188037 0.0590219
0.395972 0.191318 0.0612497
0.414893 0.194675 0.0635691
0.433631 0.198077 0.0659495
0.452232 0.201511 0.0683757
0.470939 0.205158 0.0710155
0.489418 0.208713 0.0735637
0.50779 0.212222 0.076051
0.526131 0.215732 0.078584
0.544427 0.219242 0.0811627
0.562737 0.222751 0.083772
0.581415 0.226474 0.0865949
0.599832 0.229953 0.0892195
0.618357 0.233402 0.0918441
0.636988 0.23682 0.0944533
0.655787 0.240177 0.0970321
0.67509 0.243702 0.0997635
0.69427 0.246998 0.102312
0.713634 0.250202 0.104784
0.733089 0.253391 0.107256
0.0832074 0.186648 0.0528572
0.105623 0.189166 0.052781
0.129824 0.191196 0.0525063
0.155215 0.192874 0.0522011
0.181353 0.194308 0.0519875
0.20766 0.195789 0.0519417
0.233616 0.197482 0.0521248
0.25864 0.199222 0.0523995
0.282704 0.201205 0.0529793
0.305653 0.203479 0.0538949
0.327459 0.206073 0.0551461
0.34844 0.209216 0.0569619
0.368505 0.212284 0.0587778
0.388159 0.215457 0.0607156
0.407462 0.218708 0.0627756
0.42652 0.222034 0.0649271
0.445533 0.225528 0.0672465
0.464393 0.229084 0.0696422
0.482948 0.232547 0.0719768
0.501411 0.236042 0.074342
0.519844 0.239521 0.0767071
0.538247 0.24303 0.0790875
0.556786 0.246708 0.0816815
0.575235 0.250294 0.0842451
0.593606 0.253803 0.0867628
0.612039 0.257282 0.0892805
0.630564 0.260746 0.0917983
0.649195 0.264164 0.094316
0.668254 0.267735 0.0969711
0.687297 0.271107 0.0994736
0.706416 0.274388 0.101915
0.72575 0.277607 0.104326
0.745159 0.280812 0.106737
0.0876478 0.216007 0.0556344
0.111299 0.218128 0.0560464
0.136416 0.219852 0.0560769
0.162493 0.221317 0.055848
0.189425 0.222858 0.0556649
0.216175 0.22414 0.0552834
0.24242 0.225544 0.0550698
0.267887 0.227176 0.0550698
0.292332 0.229068 0.0554055
0.315663 0.231327 0.0561379
0.337972 0.234058 0.0573739
0.358892 0.236896 0.058793
0.379141 0.239918 0.060441
0.398962 0.243061 0.0622263
0.418418 0.246281 0.0641337
0.43772 0.249683 0.0662089
0.456886 0.253193 0.0684215
0.475685 0.256611 0.070573
0.494331 0.26006 0.0727855
0.512856 0.263539 0.0750439
0.53135 0.267018 0.0772869
0.549966 0.270649 0.0796826
0.568475 0.274281 0.0821393
0.586847 0.27779 0.084535
0.605234 0.2813 0.0869612
0.623667 0.284779 0.0894026
0.642191 0.288243 0.0918593
0.661128 0.29192 0.0945144
0.679911 0.295308 0.0969406
0.698863 0.29865 0.0993515
0.717952 0.301946 0.101747
0.73727 0.30518 0.104112
0.756863 0.308568 0.10663
0.09308 0.244938 0.0599832
0.11725 0.246921 0.0601663
0.142885 0.248524 0.0599374
0.169711 0.250111 0.0596323
0.196948 0.25127 0.0589761
0.224201 0.25243 0.0583352
0.250919 0.253712 0.0578622
0.276799 0.255238 0.0576486
0.301656 0.257069 0.0578012
0.325505 0.259419 0.0584726
0.347845 0.261891 0.0593729
0.368994 0.264683 0.0606394
0.389441 0.267659 0.0621347
0.40943 0.270771 0.0637675
0.429328 0.274205 0.0657511
0.448661 0.277485 0.067628
0.467735 0.280827 0.0696117
0.486625 0.28423 0.0716564
0.505348 0.287663 0.0737621
0.524041 0.291188 0.0759747
0.542809 0.29485 0.0782635
0.561303 0.298344 0.0804913
0.579705 0.301854 0.0827955
0.598093 0.305364 0.0851301
0.616495 0.308873 0.0875105
0.635081 0.312474 0.0899977
0.653758 0.316075 0.0925154
0.672374 0.319524 0.0949264
0.691142 0.322911 0.097322
0.710063 0.326253 0.0997024
0.729122 0.32958 0.102083
0.748577 0.332967 0.104555
0.768017 0.336294 0.106996
0.098436 0.273899 0.0643015
0.123278 0.27599 0.0644083
0.149462 0.277501 0.0639658
0.176593 0.278691 0.0632334
0.204349 0.279728 0.0623331
0.23209 0.280751 0.0614633
0.259281 0.281926 0.0607614
0.285847 0.283604 0.0605631
0.31104 0.285313 0.060502
0.334966 0.287358 0.0608225
0.357595 0.289769 0.0615702
0.378958 0.2925 0.0626993
0.399603 0.295445 0.0640726
0.420035 0.298756 0.0657969
0.439796 0.301915 0.0674601
0.459236 0.305165 0.0692607
0.478431 0.308492 0.0711376
0.497414 0.311864 0.0730907
0.516274 0.315328 0.0751659
0.535195 0.318975 0.0773785
0.553796 0.322454 0.0794842
0.57232 0.325933 0.0816815
0.590753 0.329442 0.0839551
0.609171 0.332952 0.0862593
0.627695 0.336553 0.0886854
0.646326 0.3402 0.0911879
0.664836 0.343664 0.0935836
0.683421 0.347112 0.0959793
0.702174 0.350515 0.0983749
0.72105 0.353872 0.100771
0.740383 0.357443 0.103365
0.759609 0.360693 0.10573
0.778866 0.363943 0.10811
0.104036 0.303044 0.0689097
0.129229 0.304845 0.0686809
0.155901 0.306188 0.0679789
0.183536 0.30724 0.0670329
0.211795 0.308141 0.065919
0.24004 0.309056 0.0648356
0.267918 0.310353 0.0641489
0.294652 0.311681 0.0635691
0.320211 0.313298 0.0633555
0.344457 0.315267 0.0635386
0.367346 0.317617 0.0641642
0.388937 0.320287 0.0651713
0.41004 0.32343 0.0666361
0.430365 0.326452 0.0680858
0.450263 0.329595 0.0696727
0.469841 0.332815 0.0713817
0.489143 0.336095 0.0731975
0.508492 0.339696 0.075288
0.527382 0.343099 0.0772259
0.54612 0.346548 0.0792706
0.564782 0.349996 0.0813764
0.583337 0.353475 0.0835737
0.601831 0.357 0.0858473
0.620523 0.360723 0.0883345
0.638941 0.364218 0.0906996
0.657389 0.367712 0.09308
0.675883 0.371191 0.095491
0.694453 0.37464 0.0979171
0.713252 0.378119 0.100389
0.732326 0.381659 0.102968
0.751308 0.384985 0.105394
0.770474 0.388251 0.10779
0.789685 0.391516 0.110216
0.109712 0.331975 0.0736095
0.135317 0.333593 0.0731518
0.162478 0.334798 0.0722667
0.190631 0.335744 0.0711223
0.219547 0.336675 0.0699626
0.248371 0.337545 0.0687877
0.276463 0.338491 0.0677348
0.303578 0.339696 0.0670024
0.329503 0.341222 0.0666514
0.354055 0.343114 0.0667277
0.377417 0.345602 0.0673991
0.399268 0.348257 0.0683604
0.420279 0.35111 0.0695659
0.440772 0.354086 0.0709392
0.460807 0.357183 0.0724651
0.480507 0.360372 0.0741283
0.500191 0.363882 0.0760815
0.519356 0.367224 0.0778973
0.538323 0.370596 0.0798657
0.557122 0.374014 0.0819257
0.575814 0.377462 0.0840467
0.594415 0.380926 0.0862593
0.613184 0.384665 0.0887465
0.631632 0.388159 0.0910811
0.65005 0.391653 0.0934615
0.668498 0.395148 0.0958877
0.686976 0.398627 0.0983444
0.705577 0.402121 0.100847
0.724498 0.405722 0.103502
0.743328 0.409094 0.105974
0.762249 0.412436 0.108476
0.781369 0.415717 0.110933
0.800519 0.418982 0.11342
0.115648 0.360723 0.0786145
0.141726 0.362234 0.0779889
0.169375 0.363302 0.0769665
0.198154 0.364263 0.0757763
0.227512 0.365011 0.0744182
0.256718 0.365652 0.0730144
0.285252 0.366476 0.0718395
0.312764 0.36759 0.0710002
0.339025 0.369024 0.0705425
0.36408 0.371023 0.0706645
0.387533 0.373297 0.0711681
0.409552 0.37586 0.0720226
0.430747 0.378653 0.073167
0.451408 0.381598 0.0744945
0.47158 0.384649 0.0759747
0.491661 0.388067 0.0777752
0.511177 0.391302 0.07953
0.530419 0.394598 0.0814069
0.549447 0.397955 0.0834058
0.568307 0.401358 0.0855116
0.587304 0.405005 0.0878614
0.605966 0.408484 0.090135
0.62446 0.411963 0.0924697
0.642908 0.415442 0.0948501
0.661341 0.418936 0.0972915
0.679774 0.422431 0.0997787
0.698512 0.426139 0.102525
0.717037 0.429603 0.105074
0.735698 0.433005 0.107607
0.754482 0.436377 0.110155
0.773373 0.439719 0.112718
0.792477 0.44303 0.115282
0.811826 0.44654 0.118059
0.121889 0.38938 0.0838941
0.148409 0.390753 0.0831464
0.176761 0.391974 0.0821698
0.205905 0.392645 0.0807355
0.235645 0.393149 0.0791791
0.265309 0.393668 0.0776989
0.294255 0.394369 0.0764324
0.322271 0.395499 0.0755779
0.349004 0.396979 0.0751659
0.374151 0.398703 0.0750744
0.397787 0.400839 0.0754711
0.42002 0.403357 0.0762951
0.441382 0.406104 0.0773632
0.462364 0.409171 0.0788128
0.482765 0.412268 0.0803845
0.502693 0.415396 0.0820478
0.522286 0.418601 0.0838483
0.541604 0.421866 0.0857862
0.560708 0.425193 0.0878309
0.579843 0.428794 0.0901503
0.598672 0.432227 0.0924239
0.617334 0.43566 0.094728
0.635859 0.439139 0.0971389
0.654292 0.442618 0.0996109
0.672724 0.446097 0.102129
0.691432 0.449836 0.104906
0.70988 0.4533 0.107515
0.728374 0.456748 0.11014
0.747005 0.460151 0.112764
0.765759 0.463539 0.115404
0.784619 0.46688 0.118059
0.803922 0.470405 0.120928
0.822965 0.473701 0.123598
0.128328 0.418006 0.0895552
0.155474 0.419471 0.088838
0.18407 0.420294 0.087541
0.213687 0.420844 0.0859846
0.243885 0.42121 0.0842908
0.273991 0.421622 0.0826734
0.303441 0.422324 0.0813916
0.331868 0.423377 0.0805066
0.358785 0.424628 0.0799268
0.384207 0.426276 0.0798199
0.408087 0.428351 0.0801862
0.430503 0.430808 0.0810254
0.452186 0.433646 0.0822766
0.473243 0.436591 0.0837262
0.49366 0.439582 0.0852827
0.513695 0.442664 0.0869917
0.533379 0.445838 0.0888533
0.552773 0.449073 0.0908522
0.572198 0.452628 0.0931868
0.59115 0.456001 0.0954147
0.609964 0.459373 0.097734
0.628656 0.462806 0.10013
0.647181 0.466255 0.102602
0.665858 0.469902 0.105318
0.684352 0.473442 0.107988
0.70277 0.476921 0.110643
0.721187 0.480385 0.113344
0.739666 0.483833 0.11606
0.758282 0.487251 0.118791
0.777249 0.490837 0.121736
0.796078 0.494209 0.124514
0.815076 0.497505 0.12723
0.834073 0.500786 0.130007
0.135073 0.446708 0.0956283
0.162478 0.447852 0.094667
0.191531 0.448539 0.0932631
0.221607 0.448966 0.0916152
0.252262 0.44921 0.0898451
0.283009 0.44976 0.0883497
0.312764 0.450248 0.0869306
0.34139 0.451041 0.0858778
0.368612 0.452216 0.0852674
0.394308 0.453788 0.0851606
0.418479 0.455863 0.0856031
0.44126 0.458442 0.0866255
0.462943 0.461082 0.0878157
0.484016 0.46389 0.0892195
0.504555 0.466819 0.090837
0.524681 0.469871 0.0926223
0.544579 0.473136 0.0946822
0.564172 0.476478 0.0968643
0.583383 0.479759 0.0990616
0.602365 0.483101 0.101366
0.621225 0.486473 0.103761
0.639933 0.489876 0.106249
0.658656 0.493477 0.10898
0.677226 0.497017 0.111711
0.695644 0.500481 0.114427
0.714046 0.50396 0.117189
0.732448 0.507408 0.119982
0.750912 0.510857 0.122805
0.769726 0.514473 0.125826
0.788464 0.517891 0.128695
0.807248 0.521233 0.131533
0.826215 0.524514 0.13434
0.845182 0.52781 0.137194
0.141863 0.47512 0.101854
0.169696 0.476143 0.100832
0.199176 0.476707 0.0993668
0.229694 0.477012 0.0976577
0.26099 0.477394 0.0960403
0.29192 0.477562 0.0943008
0.322042 0.477943 0.0928359
0.350988 0.478645 0.0917678
0.378515 0.479728 0.0911727
0.404501 0.48127 0.0911116
0.428992 0.483421 0.0917067
0.451774 0.485756 0.0926375
0.473594 0.48835 0.0938735
0.494804 0.491112 0.0953841
0.515435 0.494011 0.0970626
0.53576 0.497124 0.0990158
0.555764 0.500389 0.101167
0.57528 0.503578 0.103334
0.594537 0.506828 0.105638
0.613565 0.510155 0.108049
0.632441 0.513497 0.110536
0.651438 0.517143 0.113359
0.670008 0.520562 0.116045
0.688472 0.52401 0.118791
0.706889 0.527474 0.121614
0.725292 0.530922 0.124468
0.743832 0.534524 0.127489
0.762402 0.538064 0.13051
0.780972 0.541466 0.133425
0.799649 0.544839 0.136339
0.818418 0.54818 0.139254
0.837354 0.551476 0.142138
0.856504 0.55494 0.145235
0.148898 0.50341 0.108446
0.177127 0.504326 0.107378
0.207034 0.504768 0.105882
0.238178 0.505211 0.104341
0.269673 0.505226 0.10248
0.300969 0.505287 0.100725
0.331441 0.505562 0.0992599
0.360693 0.506172 0.0982071
0.388724 0.507424 0.0978408
0.414893 0.508843 0.0977951
0.439399 0.510719 0.0982834
0.462318 0.513008 0.0992752
0.484291 0.515557 0.100587
0.505623 0.518303 0.102174
0.526589 0.521385 0.104158
0.546883 0.524361 0.106111
0.566796 0.527443 0.108248
0.586389 0.530602 0.110506
0.605676 0.533852 0.112902
0.624811 0.537209 0.11548
0.643915 0.540719 0.118242
0.662654 0.544091 0.120943
0.681224 0.547509 0.12372
0.699702 0.550942 0.126574
0.718135 0.554391 0.129473
0.736645 0.557961 0.132525
0.755184 0.561532 0.135637
0.773632 0.564965 0.138628
0.792187 0.568368 0.141619
0.810849 0.571725 0.144594
0.829618 0.575067 0.14757
0.848722 0.578515 0.150668
0.867765 0.581888 0.153719
0.156207 0.531609 0.115404
0.185 0.532616 0.114504
0.215335 0.532998 0.113024
0.246662 0.533043 0.111269
0.278523 0.532952 0.109407
0.310185 0.532906 0.107668
0.340978 0.533089 0.106233
0.370764 0.533852 0.105425
0.398795 0.534783 0.104891
0.425177 0.536126 0.104891
0.449836 0.537942 0.10544
0.472923 0.540185 0.106508
0.495018 0.542687 0.107927
0.51667 0.545617 0.109804
0.537499 0.54844 0.111681
0.55787 0.5514 0.113741
0.577844 0.554452 0.115969
0.597482 0.55758 0.118334
0.616876 0.560845 0.120867
0.636164 0.564324 0.123674
0.6551 0.567636 0.12636
0.673869 0.570993 0.129152
0.692454 0.574395 0.132021
0.710948 0.577813 0.134951
0.729625 0.581506 0.13817
0.748028 0.584939 0.141192
0.76643 0.588388 0.144228
0.784878 0.591806 0.14728
0.803433 0.595209 0.150332
0.822202 0.598657 0.153445
0.841138 0.602136 0.156619
0.860075 0.605417 0.159594
0.879042 0.608698 0.16257
0.163928 0.559884 0.122881
0.192966 0.560632 0.121874
0.223636 0.560845 0.120378
0.255329 0.560784 0.118639
0.287541 0.560586 0.116793
0.319524 0.560449 0.115068
0.350851 0.560784 0.113893
0.380652 0.561227 0.112917
0.408911 0.562066 0.112444
0.435492 0.563363 0.112505
0.460319 0.565118 0.113146
0.483757 0.567544 0.114519
0.505974 0.570016 0.11603
0.527489 0.572656 0.117784
0.548394 0.575463 0.119768
0.568826 0.578378 0.12192
0.588861 0.581399 0.124239
0.608789 0.584756 0.126925
0.628168 0.587961 0.129519
0.647288 0.591211 0.132219
0.666255 0.594507 0.134981
0.685039 0.597848 0.13785
0.70367 0.601267 0.14081
0.722408 0.604898 0.14403
0.740841 0.608331 0.147066
0.759258 0.611765 0.150134
0.777676 0.615198 0.153216
0.796124 0.618616 0.156313
0.814771 0.62208 0.159457
0.833631 0.625605 0.162692
0.85243 0.628931 0.165713
0.871397 0.632197 0.168688
0.890364 0.635477 0.171679
0.171862 0.587884 0.130694
0.20119 0.588449 0.129656
0.232212 0.588571 0.128191
0.264225 0.588418 0.126482
0.296925 0.588296 0.124834
0.32929 0.588129 0.123217
0.360647 0.588144 0.121874
0.390692 0.588495 0.120958
0.41915 0.589273 0.120546
0.445899 0.590509 0.120699
0.471092 0.592432 0.121614
0.494453 0.594614 0.122896
0.516747 0.597025 0.124498
0.538338 0.599634 0.126329
0.559319 0.602396 0.128405
0.579812 0.605295 0.130632
0.600153 0.608545 0.133272
0.619867 0.611643 0.135821
0.639292 0.614816 0.138476
0.658442 0.618051 0.141238
0.677424 0.621332 0.144076
0.696239 0.624674 0.14699
0.715114 0.62829 0.150225
0.733639 0.631693 0.153262
0.752102 0.635111 0.156344
0.77052 0.638544 0.159442
0.788952 0.641962 0.162539
0.807691 0.645624 0.165896
0.826291 0.649012 0.168978
0.844999 0.652354 0.172015
0.863813 0.655665 0.175036
0.882811 0.65893 0.177981
0.901869 0.662242 0.180987
0.180117 0.615656 0.138918
0.209766 0.616144 0.137926
0.241108 0.616159 0.136507
0.273579 0.616053 0.134981
0.306493 0.615763 0.133333
0.339055 0.615442 0.131701
0.370657 0.615366 0.130404
0.4009 0.615656 0.129564
0.429557 0.616373 0.129229
0.456687 0.617807 0.129702
0.481788 0.619471 0.130495
0.505226 0.621576 0.131823
0.527611 0.623957 0.133486
0.549279 0.626535 0.135409
0.57052 0.629465 0.137728
0.591119 0.632395 0.140108
0.611261 0.63537 0.142565
0.631022 0.638453 0.145159
0.650462 0.641611 0.147875
0.669657 0.644831 0.150683
0.688914 0.648341 0.153796
0.707759 0.651667 0.156756
0.726406 0.655039 0.159777
0.744961 0.658442 0.162829
0.763439 0.661845 0.165911
0.781888 0.665263 0.169009
0.80061 0.668925 0.172366
0.819104 0.672328 0.175448
0.837736 0.6757 0.1785
0.856474 0.679042 0.181521
0.875334 0.682353 0.184497
0.894392 0.685634 0.187442
0.913695 0.689128 0.19057
0.188724 0.643305 0.147585
0.218723 0.643763 0.146731
0.250507 0.64387 0.145525
0.283116 0.643534 0.143923
0.316197 0.643046 0.142214
0.349004 0.642649 0.140658
0.380804 0.642512 0.139422
0.411368 0.642863 0.13875
0.440284 0.643656 0.138613
0.467323 0.644785 0.138903
0.492531 0.646403 0.139773
0.51606 0.648478 0.141161
0.538506 0.650828 0.142901
0.560418 0.653559 0.145037
0.581598 0.656352 0.147311
0.602197 0.659205 0.14966
0.62237 0.662165 0.152178
0.642176 0.665232 0.154818
0.661662 0.668376 0.157549
0.681102 0.671809 0.160601
0.700175 0.67509 0.163531
0.719051 0.678401 0.166476
0.737728 0.681773 0.169497
0.756298 0.685145 0.172534
0.774807 0.688563 0.175601
0.793561 0.692226 0.178927
0.812039 0.695628 0.181994
0.830579 0.699031 0.185046
0.849256 0.702388 0.188052
0.86804 0.705715 0.191012
0.88719 0.70927 0.194186
0.906279 0.71252 0.19704
0.925399 0.71577 0.199863
0.197696 0.670863 0.15671
0.228061 0.671366 0.156024
0.259937 0.671214 0.154711
0.29279 0.670787 0.15317
0.326101 0.670237 0.151522
0.359091 0.669779 0.150011
0.39118 0.669673 0.148928
0.421927 0.670008 0.148333
0.450858 0.670619 0.148119
0.478004 0.671717 0.14847
0.503319 0.673304 0.149386
0.526909 0.675349 0.15082
0.549691 0.677928 0.15285
0.571481 0.680461 0.154864
0.592645 0.683162 0.157092
0.613291 0.685985 0.159472
0.633494 0.688945 0.16199
0.653483 0.692134 0.164782
0.673106 0.695369 0.167636
0.692363 0.698573 0.170459
0.711437 0.701823 0.173342
0.730343 0.705135 0.176272
0.74905 0.708492 0.179263
0.767849 0.712047 0.182452
0.786465 0.715511 0.18555
0.80499 0.718914 0.188571
0.823514 0.722316 0.191592
0.8421 0.725704 0.194583
0.860807 0.729061 0.197513
0.879881 0.732616 0.200641
0.898848 0.735943 0.203494
0.918013 0.739178 0.206271
0.937179 0.742412 0.209003
0.207065 0.698451 0.166323
0.237491 0.69868 0.165515
0.269581 0.698451 0.164263
0.302632 0.697963 0.162753
0.336172 0.697398 0.161181
0.369558 0.697093 0.15993
0.401694 0.696834 0.158785
0.432425 0.696971 0.158083
0.461479 0.697551 0.157916
0.488716 0.698604 0.158282
0.514183 0.700252 0.159319
0.538033 0.702449 0.160952
0.560616 0.704753 0.162737
0.582467 0.707271 0.164767
0.603662 0.709957 0.166995
0.624338 0.712764 0.169375
0.644724 0.715831 0.172015
0.664729 0.719005 0.174762
0.684276 0.722133 0.177493
0.703563 0.725322 0.180285
0.722683 0.728573 0.183124
0.741619 0.731868 0.186023
0.76054 0.735378 0.18912
0.779263 0.738842 0.192157
0.797848 0.742229 0.195117
0.816419 0.745632 0.198077
0.834989 0.74902 0.201022
0.85362 0.752407 0.203937
0.872648 0.756008 0.207034
0.891539 0.759319 0.209827
0.910552 0.762615 0.212589
0.929763 0.76585 0.215259
0.949004 0.76907 0.217899
0.216495 0.725734 0.176059
0.247105 0.725902 0.175296
0.279393 0.725612 0.174075
0.312612 0.725093 0.17261
0.346502 0.724681 0.171283
0.379828 0.724102 0.169833
0.4121 0.723812 0.168704
0.442939 0.723903 0.168032
0.472099 0.724453 0.167865
0.499474 0.725551 0.168307
0.525124 0.727291 0.169436
0.548852 0.72929 0.170901
0.571481 0.731594 0.172686
0.593378 0.734081 0.174701
0.614618 0.736767 0.176913
0.635599 0.739818 0.179522
0.655894 0.742763 0.181994
0.675807 0.745785 0.184573
