assets/cube/adventure_1453.cube
TITLE "Generated by Resolve"
LUT_3D_SIZE 5
0 0 0
0.1402 0 0
0.439582 0 0
0.775921 0 0
1 0 0
0 0.203281 0.00479133
0.176287 0.210544 0.0120394
0.47567 0.200992 0.00250248
0.812024 0.18146 0
1 0.155642 0
0 0.463752 0.0136721
0.185183 0.471 0.0209354
0.48455 0.461448 0.0113832
0.820905 0.441917 0
1 0.416114 0
0 0.728817 0.011017
0.182528 0.736065 0.0182803
0.481895 0.726513 0.00872816
0.81825 0.706981 0
1 0.681178 0
0 0.99675 0.00112917
0.172625 1 0.0083772
0.472007 0.994461 0
0.808362 0.974929 0
1 0.949111 0
0 0 0.240925
0.139559 0 0.248173
0.438941 0 0.238636
0.77528 0 0.219089
1 0 0.193286
0 0.20264 0.277012
0.175647 0.209903 0.284276
0.475029 0.200351 0.274723
0.811383 0.180819 0.255192
1 0.155001 0.229374
0 0.463111 0.285908
0.184543 0.470359 0.293156
0.483909 0.460807 0.283604
0.820264 0.441276 0.264073
1 0.415473 0.23827
0 0.728176 0.283253
0.181888 0.735424 0.290501
0.481254 0.725872 0.280949
0.817609 0.70634 0.261418
1 0.680537 0.235615
0 0.996109 0.27335
0.171984 1 0.280613
0.471366 0.99382 0.271061
0.807721 0.974289 0.25153
1 0.94847 0.225711
0 0 0.520287
0.138369 0 0.527535
0.437736 0 0.517998
0.77409 0 0.498451
1 0 0.472648
0 0.20145 0.556374
0.174456 0.208698 0.563638
0.473823 0.199161 0.554086
0.810178 0.179614 0.534554
1 0.153811 0.508736
0 0.461906 0.56527
0.183337 0.469169 0.572519
0.482719 0.459617 0.562966
0.819074 0.440085 0.543435
1 0.414267 0.517632
0 0.72697 0.562615
0.180682 0.734234 0.569863
0.480064 0.724681 0.560311
0.816419 0.70515 0.54078
1 0.679332 0.514977
0 0.994919 0.552712
0.170794 1 0.559976
0.470176 0.99263 0.550423
0.806516 0.973083 0.530892
1 0.94728 0.505074
0 0 0.802136
0.13698 0 0.809384
0.436347 0 0.799832
0.772702 0 0.780301
1 0 0.754498
0 0.200061 0.838224
0.173068 0.207309 0.845472
0.472435 0.197772 0.83592
0.808789 0.178225 0.816388
1 0.152422 0.790585
0 0.460533 0.847105
0.181949 0.467781 0.854368
0.481331 0.458228 0.844816
0.817685 0.438697 0.825284
1 0.412879 0.799466
0 0.725582 0.84445
0.179294 0.732845 0.851713
0.478676 0.723293 0.842161
0.81503 0.703761 0.822629
1 0.677943 0.796811
0 0.99353 0.834562
0.169406 1 0.84181
0.468788 0.991241 0.832273
0.805127 0.97171 0.812726
1 0.945891 0.786923
0 0 1
0.13547 0 1
0.434836 0 1
0.771191 0 1
1 0 1
0 0.19855 1
0.171557 0.205814 1
0.470939 0.196262 1
0.807279 0.17673 1
1 0.150912 1
0 0.459022 1
0.180453 0.46627 1
0.47982 0.456718 1
0.816175 0.437186 1
1 0.411383 1
0 0.724071 1
0.177798 0.731334 1
0.477165 0.721782 1
0.813519 0.702251 1
1 0.676432 1
0 0.99202 1
0.167895 0.999283 1
0.467277 0.989731 1
0.803616 0.970199 1
1 0.944381 1
