assets/cube/adventure_1453.cube
TITLE "Generated by Resolve"
LUT_3D_SIZE 9
0 0 0
0.0247501 0 0
0.1402 0 0
0.283619 0 0
0.439582 0 0
0.604303 0 0
0.775921 0 0
0.953262 0 0
1 0 0
0 0.0766155 0
0.047425 0.079408 0
0.162875 0.0838788 0
0.30631 0.0807965 0
0.462257 0.0743267 0
0.626993 0.0654917 0
0.798611 0.0547951 0
0.975952 0.0425574 0
1 0.0289769 0
0 0.203281 0.00479133
0.0608377 0.206073 0.00758373
0.176287 0.210544 0.0120394
0.319707 0.207462 0.00895705
0.47567 0.200992 0.00250248
0.640406 0.192157 0
0.812024 0.18146 0
0.989349 0.169223 0
1 0.155642 0
0 0.332738 0.0111696
0.067216 0.335531 0.013962
0.182681 0.340002 0.0184329
0.326101 0.336919 0.0153506
0.482048 0.330449 0.00888075
0.646784 0.321614 4.57771e-05
0.818402 0.310918 0
0.995743 0.29868 0
1 0.2851 0
0 0.463752 0.0136721
0.0697185 0.466545 0.0164645
0.185183 0.471 0.0209354
0.328603 0.467918 0.0178531
0.48455 0.461448 0.0113832
0.649287 0.452613 0.00254826
0.820905 0.441917 0
0.998245 0.429679 0
1 0.416114 0
0 0.59585 0.0134279
0.0694743 0.598642 0.0162203
0.184924 0.603113 0.020676
0.328359 0.600031 0.0175937
0.484306 0.593561 0.0111391
0.649042 0.584726 0.00228885
0.820661 0.574029 0
0.998001 0.561776 0
1 0.548211 0
0 0.728817 0.011017
0.0670634 0.731594 0.0138094
0.182528 0.736065 0.0182803
0.325948 0.732982 0.015198
0.481895 0.726513 0.00872816
0.646632 0.717678 0
0.81825 0.706981 0
0.99559 0.694743 0
1 0.681178 0
0 0.862486 0.00683604
0.0628824 0.865263 0.00962844
0.178332 0.869734 0.0140841
0.321752 0.866651 0.0110018
0.477714 0.860182 0.00454719
0.642451 0.851347 0
0.814069 0.84065 0
0.991394 0.828412 0
1 0.814847 0
0 0.99675 0.00112917
0.0571756 0.999542 0.00392157
0.172625 1 0.0083772
0.316045 1 0.00529488
0.472007 0.994461 0
0.636744 0.985626 0
0.808362 0.974929 0
0.985687 0.962692 0
1 0.949111 0
0 0 0.103075
0.0245518 0 0.105867
0.140017 0 0.110323
0.283436 0 0.10724
0.439384 0 0.100771
0.60412 0 0.0919356
0.775738 0 0.081239
0.953079 0 0.0690013
1 0 0.055436
0 0.0764324 0.12575
0.0472419 0.0792248 0.128542
0.162692 0.0836957 0.133013
0.306111 0.0806134 0.129931
0.462074 0.0741436 0.123461
0.62681 0.0653086 0.114626
0.798428 0.054612 0.103929
0.975753 0.0423743 0.0916915
1 0.0287938 0.0781109
0 0.203098 0.139162
0.0606546 0.20589 0.141955
0.176104 0.210361 0.146426
0.319524 0.207279 0.143343
0.475486 0.200809 0.136873
0.640208 0.191974 0.128038
0.811826 0.181277 0.117342
0.989166 0.169024 0.105089
1 0.155459 0.0915236
0 0.332555 0.145541
0.0670329 0.335348 0.148333
0.182483 0.339818 0.152804
0.325917 0.336736 0.149722
0.481865 0.330266 0.143252
0.646601 0.321431 0.134417
0.818219 0.310735 0.12372
0.99556 0.298497 0.111482
1 0.284916 0.0979019
0 0.463569 0.148058
0.0695354 0.466346 0.150835
0.185 0.470817 0.155306
0.32842 0.467735 0.152224
0.484367 0.461265 0.145754
0.649104 0.45243 0.136919
0.820722 0.441733 0.126223
0.998062 0.429496 0.113985
1 0.41593 0.10042
0 0.595666 0.147799
0.0692912 0.598459 0.150591
0.184741 0.602914 0.155062
0.328161 0.599832 0.15198
0.484123 0.593378 0.14551
0.648844 0.584527 0.136675
0.820462 0.573831 0.125978
0.997803 0.561593 0.113725
1 0.548028 0.10016
0 0.728618 0.145388
0.0668803 0.731411 0.14818
0.182345 0.735882 0.152651
0.325765 0.732799 0.149569
0.481712 0.726329 0.143099
0.646448 0.717494 0.134264
0.818067 0.706798 0.123568
0.995407 0.69456 0.11133
1 0.68098 0.0977493
0 0.862287 0.141207
0.0626993 0.86508 0.143999
0.178149 0.869551 0.14847
0.321569 0.866468 0.145388
0.477531 0.859998 0.138918
0.642252 0.851164 0.130083
0.81387 0.840467 0.119387
0.991211 0.828229 0.107134
1 0.814649 0.0935683
0 0.996567 0.1355
0.0569924 0.999359 0.138293
0.172442 1 0.142763
0.315862 1 0.139681
0.471824 0.994278 0.133211
0.636545 0.985443 0.124376
0.808164 0.974746 0.11368
0.985504 0.962493 0.101427
1 0.948928 0.0878614
0 0 0.240925
0.0241093 0 0.243717
0.139559 0 0.248173
0.282979 0 0.24509
0.438941 0 0.238636
0.603662 0 0.229786
0.77528 0 0.219089
0.952621 0 0.206851
1 0 0.193286
0 0.0759747 0.2636
0.0467842 0.0787671 0.266392
0.162234 0.083238 0.270863
0.305669 0.0801556 0.267781
0.461616 0.0736858 0.261311
0.626352 0.0648508 0.252476
0.797971 0.0541543 0.241779
0.975311 0.0419165 0.229541
1 0.028336 0.215961
0 0.20264 0.277012
0.0601968 0.205432 0.279805
0.175647 0.209903 0.284276
0.319066 0.206821 0.281193
0.475029 0.200351 0.274723
0.639765 0.191516 0.265888
0.811383 0.180819 0.255192
0.988708 0.168582 0.242939
1 0.155001 0.229374
0 0.332097 0.283391
0.0665751 0.33489 0.286183
0.18204 0.339361 0.290654
0.32546 0.336278 0.287572
0.481407 0.329809 0.281102
0.646143 0.320974 0.272267
0.817761 0.310277 0.26157
0.995102 0.298039 0.249332
1 0.284459 0.235752
0 0.463111 0.285908
0.0690776 0.465904 0.288685
0.184543 0.470359 0.293156
0.327962 0.467277 0.290074
0.483909 0.460807 0.283604
0.648646 0.451972 0.274769
0.820264 0.441276 0.264073
0.997604 0.429038 0.251835
1 0.415473 0.23827
0 0.595209 0.285649
0.0688334 0.598001 0.288441
0.184283 0.602472 0.292912
0.327718 0.59939 0.28983
0.483665 0.59292 0.28336
0.648402 0.584085 0.274525
0.82002 0.573388 0.263828
0.99736 0.561135 0.251591
1 0.54757 0.23801
0 0.728176 0.283253
0.0664225 0.730953 0.28603
0.181888 0.735424 0.290501
0.325307 0.732341 0.287419
0.481254 0.725872 0.280949
0.645991 0.717037 0.272114
0.817609 0.70634 0.261418
0.994949 0.694102 0.24918
1 0.680537 0.235615
0 0.861845 0.279057
0.0622416 0.864622 0.281849
0.177691 0.869093 0.28632
0.321111 0.866011 0.283238
0.477073 0.859541 0.276768
0.64181 0.850706 0.267933
0.813428 0.840009 0.257237
0.990753 0.827771 0.244984
1 0.814206 0.231418
0 0.996109 0.27335
0.0565347 0.998901 0.276143
0.171984 1 0.280613
0.315404 1 0.277531
0.471366 0.99382 0.271061
0.636103 0.984985 0.262226
0.807721 0.974289 0.25153
0.985046 0.962051 0.239292
1 0.94847 0.225711
0 0 0.380194
0.0235447 0 0.382971
0.138994 0 0.387442
0.282414 0 0.38436
0.438361 0 0.37789
0.603098 0 0.369055
0.774716 0 0.358358
0.952056 0 0.34612
1 0 0.332555
0 0.0754101 0.402869
0.0462196 0.0782025 0.405661
0.161669 0.0826734 0.410132
0.305104 0.0795911 0.40705
0.461051 0.0731212 0.40058
0.625788 0.0642863 0.391745
0.797406 0.0535897 0.381048
0.974746 0.0413519 0.368795
1 0.0277714 0.35523
0 0.202075 0.416281
0.0596323 0.204868 0.419074
0.175082 0.209339 0.423545
0.318502 0.206256 0.420447
0.474464 0.199786 0.413993
0.639185 0.190951 0.405158
0.810803 0.180255 0.394461
0.988144 0.168002 0.382208
1 0.154437 0.368643
0 0.331533 0.42266
0.0660105 0.334325 0.425452
0.181476 0.338796 0.429923
0.324895 0.335714 0.426841
0.480842 0.329244 0.420371
0.645579 0.320409 0.411536
0.817197 0.309712 0.400839
0.994537 0.297475 0.388602
1 0.283894 0.375021
0 0.462547 0.425162
0.068513 0.465324 0.427955
0.183978 0.469795 0.432425
0.327398 0.466712 0.429343
0.483345 0.460243 0.422873
0.648081 0.451408 0.414038
0.819699 0.440711 0.403342
0.99704 0.428473 0.391104
1 0.414908 0.377523
0 0.594644 0.424918
0.0682689 0.597436 0.42771
0.183719 0.601907 0.432181
0.327138 0.59881 0.429099
0.483101 0.592355 0.422629
0.647837 0.58352 0.413794
0.819455 0.572824 0.403098
0.99678 0.560571 0.390845
1 0.547005 0.377279
0 0.727611 0.422507
0.0658579 0.730388 0.425299
0.181323 0.734859 0.42977
0.324742 0.731777 0.426688
0.48069 0.725307 0.420218
0.645426 0.716472 0.411383
0.817044 0.705776 0.400687
0.994385 0.693538 0.388449
1 0.679973 0.374868
0 0.86128 0.418326
0.061677 0.864057 0.421118
0.177127 0.868528 0.425589
0.320546 0.865446 0.422492
0.476509 0.858976 0.416037
0.64123 0.850141 0.407202
0.812863 0.839445 0.396506
0.990188 0.827207 0.384253
1 0.813642 0.370687
0 0.995544 0.412619
0.0559701 0.998337 0.415412
0.17142 1 0.419883
0.314839 0.999725 0.4168
0.470802 0.993255 0.41033
0.635538 0.984421 0.401495
0.807157 0.973724 0.390799
0.984482 0.961486 0.378546
1 0.947906 0.364981
0 0 0.520287
0.0229038 0 0.523079
0.138369 0 0.527535
0.281788 0 0.524453
0.437736 0 0.517998
0.602472 0 0.509148
0.77409 0 0.498451
0.951431 0 0.486213
1 0 0.472648
0 0.0747845 0.542962
0.045594 0.0775769 0.545754
0.161044 0.0820478 0.550225
0.304463 0.0789654 0.547143
0.460426 0.0724956 0.540673
0.625147 0.0636606 0.531838
0.796765 0.0529641 0.521141
0.974105 0.0407111 0.508904
1 0.0271458 0.495323
0 0.20145 0.556374
0.0590066 0.204242 0.559167
0.174456 0.208698 0.563638
0.317876 0.205615 0.560555
0.473823 0.199161 0.554086
0.63856 0.190311 0.545251
0.810178 0.179614 0.534554
0.987518 0.167376 0.522316
1 0.153811 0.508736
0 0.330907 0.562768
0.0653849 0.3337 0.565545
0.180835 0.33817 0.570016
0.324254 0.335088 0.566934
0.480217 0.328618 0.560464
0.644938 0.319783 0.551629
0.816556 0.309087 0.540932
0.993896 0.296834 0.528695
1 0.283268 0.515129
0 0.461906 0.56527
0.0678874 0.464698 0.568048
0.183337 0.469169 0.572519
0.326772 0.466087 0.569436
0.482719 0.459617 0.562966
0.647456 0.450782 0.554131
0.819074 0.440085 0.543435
0.996414 0.427848 0.531197
1 0.414267 0.517632
0 0.594018 0.565011
0.0676432 0.596796 0.567803
0.183093 0.601267 0.572274
0.326513 0.598184 0.569192
0.482475 0.591714 0.562722
0.647196 0.582879 0.553887
0.818814 0.572183 0.543191
0.996155 0.559945 0.530953
1 0.54638 0.517372
0 0.72697 0.562615
0.0652323 0.729763 0.565393
0.180682 0.734234 0.569863
0.324117 0.731151 0.566781
0.480064 0.724681 0.560311
0.6448 0.715846 0.551476
0.816419 0.70515 0.54078
0.993759 0.692912 0.528542
1 0.679332 0.514977
0 0.860639 0.558419
0.0610513 0.863432 0.561212
0.176501 0.867903 0.565682
0.319921 0.86482 0.5626
0.475883 0.858351 0.55613
0.640604 0.849515 0.547295
0.812222 0.838819 0.536599
0.989563 0.826581 0.524361
1 0.813001 0.510781
0 0.994919 0.552712
0.0553445 0.997711 0.555505
0.170794 1 0.559976
0.314214 0.999084 0.556893
0.470176 0.99263 0.550423
0.634897 0.98378 0.541588
0.806516 0.973083 0.530892
0.983856 0.960845 0.518654
1 0.94728 0.505074
0 0 0.660975
0.0222324 0 0.663767
0.137682 0 0.668238
0.281117 0 0.665156
0.437064 0 0.658686
0.601801 0 0.649851
0.773419 0 0.639155
0.950759 0 0.626902
1 0 0.613336
0 0.0741131 0.683665
0.0449073 0.0769055 0.686442
0.160372 0.0813611 0.690913
0.303792 0.0782788 0.687831
0.459739 0.071809 0.681361
0.624475 0.062974 0.672526
0.796094 0.0522774 0.66183
0.973434 0.0400397 0.649592
1 0.0264744 0.636027
0 0.200778 0.697063
0.05832 0.203555 0.699855
0.173785 0.208026 0.704326
0.317205 0.204944 0.701244
0.473152 0.198474 0.694774
0.637888 0.189639 0.685939
0.809506 0.178943 0.675242
0.986847 0.166705 0.663005
1 0.15314 0.649424
0 0.330236 0.703456
0.0647135 0.333028 0.706233
0.180163 0.337484 0.710704
0.323583 0.334401 0.707622
0.47953 0.327932 0.701152
0.644266 0.319097 0.692317
0.815885 0.3084 0.68162
0.993225 0.296162 0.669383
1 0.282597 0.655818
0 0.461234 0.705959
0.067216 0.464027 0.708751
0.182666 0.468498 0.713207
0.326085 0.465415 0.710124
0.482048 0.458946 0.703655
0.646769 0.450111 0.69482
0.818387 0.439414 0.684123
0.995727 0.427161 0.671885
1 0.413596 0.65832
0 0.593332 0.705699
0.0669566 0.596124 0.708492
0.182422 0.600595 0.712963
0.325841 0.597513 0.70988
0.481788 0.591043 0.70341
0.646525 0.582208 0.694575
0.818143 0.571511 0.683879
0.995483 0.559274 0.671641
1 0.545693 0.658061
0 0.726299 0.703304
0.0645609 0.729091 0.706081
0.180011 0.733562 0.710552
0.32343 0.730465 0.707469
0.479393 0.72401 0.700999
0.644114 0.715175 0.692164
0.815732 0.704479 0.681468
0.993072 0.692226 0.66923
1 0.67866 0.655665
0 0.859968 0.699107
0.0603647 0.86276 0.7019
0.17583 0.867231 0.706371
0.319249 0.864134 0.703288
0.475196 0.857679 0.696818
0.639933 0.848844 0.687984
0.811551 0.838148 0.677287
0.988891 0.825895 0.665049
1 0.812329 0.651469
0 0.994247 0.693401
0.0546578 0.997024 0.696193
0.170123 1 0.700664
0.313542 0.998413 0.697581
0.46949 0.991943 0.691112
0.634226 0.983108 0.682277
0.805844 0.972412 0.67158
0.983185 0.960174 0.659342
1 0.946609 0.645762
0 0 0.802136
0.0215152 0 0.804913
0.13698 0 0.809384
0.2804 0 0.806302
0.436347 0 0.799832
0.601083 0 0.790997
0.772702 0 0.780301
0.950042 0 0.768063
1 0 0.754498
0 0.0733959 0.824811
0.0442054 0.0761883 0.827604
0.159655 0.0806592 0.832074
0.303075 0.0775769 0.828977
0.459037 0.071107 0.822522
0.623758 0.0622721 0.813687
0.795377 0.0515755 0.802991
0.972717 0.0393225 0.790738
1 0.0257572 0.777173
0 0.200061 0.838224
0.0576181 0.202853 0.841016
0.173068 0.207309 0.845472
0.316487 0.204227 0.84239
0.472435 0.197772 0.83592
0.637171 0.188922 0.827085
0.808789 0.178225 0.816388
0.98613 0.165988 0.80415
1 0.152422 0.790585
0 0.329519 0.844602
0.0639963 0.332311 0.847395
0.179446 0.336782 0.851865
0.322866 0.3337 0.848783
0.478828 0.32723 0.842313
0.643549 0.318395 0.833478
0.815183 0.307698 0.822782
0.992508 0.295445 0.810529
1 0.28188 0.796963
0 0.460533 0.847105
0.0664988 0.46331 0.849897
0.181949 0.467781 0.854368
0.325383 0.464698 0.851286
0.481331 0.458228 0.844816
0.646067 0.449393 0.835981
0.817685 0.438697 0.825284
0.995026 0.426459 0.813046
1 0.412879 0.799466
0 0.59263 0.84686
0.0662547 0.595422 0.849653
0.181704 0.599878 0.854109
0.325124 0.596796 0.851026
0.481086 0.590326 0.844572
0.645808 0.581491 0.835721
0.817426 0.570794 0.825025
0.994766 0.558556 0.812787
1 0.544991 0.799222
0 0.725582 0.84445
0.0638437 0.728374 0.847242
0.179294 0.732845 0.851713
0.322728 0.729763 0.84863
0.478676 0.723293 0.842161
0.643412 0.714458 0.833326
0.81503 0.703761 0.822629
0.99237 0.691524 0.810391
1 0.677943 0.796811
0 0.859251 0.840269
0.0596628 0.862043 0.843061
0.175113 0.866514 0.847517
0.318532 0.863432 0.844434
0.474495 0.856962 0.83798
0.639216 0.848127 0.829129
0.810834 0.83743 0.818433
0.988174 0.825193 0.806195
1 0.811612 0.79263
0 0.99353 0.834562
0.0539559 0.996323 0.837354
0.169406 1 0.84181
0.312825 0.997696 0.838727
0.468788 0.991241 0.832273
0.633509 0.982406 0.823423
0.805127 0.97171 0.812726
0.982467 0.959457 0.800488
1 0.945891 0.786923
0 0 0.943664
0.0207828 0 0.946456
0.136233 0 0.950912
0.279652 0 0.947829
0.435615 0 0.941375
0.600336 0 0.932525
0.771954 0 0.921828
0.949294 0 0.90959
1 0 0.896025
0 0.0726635 0.966339
0.0434577 0.0754406 0.969131
0.158923 0.0799115 0.973602
0.302342 0.0768292 0.97052
0.458289 0.0703593 0.96405
0.623026 0.0615244 0.955215
0.794644 0.0508278 0.944518
0.971984 0.0385901 0.93228
1 0.0250248 0.9187
0 0.199313 0.979751
0.0568704 0.202106 0.982544
0.17232 0.206577 0.987015
0.315755 0.203494 0.983932
0.471702 0.197024 0.977462
0.636439 0.18819 0.968627
0.808057 0.177493 0.957931
0.985397 0.165255 0.945693
1 0.151675 0.932113
0 0.328786 0.986145
0.0632486 0.331563 0.988922
0.178714 0.336034 0.993393
0.322133 0.332952 0.990311
0.47808 0.326482 0.983841
0.642817 0.317647 0.975006
0.814435 0.30695 0.964309
0.991775 0.294713 0.952071
1 0.281132 0.938506
0 0.459785 0.988647
0.0657511 0.462577 0.991424
0.181216 0.467033 0.995895
0.324636 0.463951 0.992813
0.480583 0.457496 0.986343
0.645319 0.448646 0.977508
0.816938 0.437949 0.966812
0.994278 0.425711 0.954574
1 0.412146 0.941009
0 0.591882 0.988388
0.065507 0.594675 0.99118
0.180972 0.599145 0.995651
0.324392 0.596063 0.992569
0.480339 0.589593 0.986099
0.645075 0.580758 0.977264
0.816693 0.570062 0.966567
0.994034 0.557809 0.95433
1 0.544244 0.940749
0 0.724849 0.985992
0.0630961 0.727626 0.988769
0.178561 0.732097 0.99324
0.321981 0.729015 0.990158
0.477928 0.722545 0.983688
0.642664 0.71371 0.974853
0.814282 0.703014 0.964157
0.991623 0.690776 0.951919
1 0.677211 0.938354
0 0.858518 0.981796
0.0589151 0.861295 0.984588
0.174365 0.865766 0.989059
0.3178 0.862684 0.985977
0.473747 0.856214 0.979507
0.638483 0.847379 0.970672
0.810101 0.836683 0.959976
0.987442 0.824445 0.947738
1 0.81088 0.934157
0 0.992782 0.976089
0.0532082 0.995575 0.978882
0.168658 1 0.983352
0.312093 0.996963 0.98027
0.46804 0.990494 0.9738
0.632776 0.981659 0.964965
0.804395 0.970962 0.954269
0.981735 0.958724 0.942031
1 0.945144 0.92845
0 0 1
0.0200046 0 1
0.13547 0 1
0.278889 0 1
0.434836 0 1
0.599573 0 1
0.771191 0 1
0.948531 0 1
1 0 1
0 0.0718853 1
0.0426947 0.0746777 1
0.158145 0.0791485 1
0.301564 0.0760662 1
0.457527 0.0695964 1
0.622248 0.0607614 1
0.793881 0.0500649 1
0.971206 0.0378271 1
1 0.0242466 1
0 0.19855 1
0.0561074 0.201343 1
0.171557 0.205814 1
0.314977 0.202731 1
0.470939 0.196262 1
0.63566 0.187427 1
0.807279 0.17673 1
0.984619 0.164477 1
1 0.150912 1
0 0.328008 1
0.0624857 0.3308 1
0.177935 0.335271 1
0.32137 0.332189 1
0.477317 0.325719 1
0.642054 0.316884 1
0.813672 0.306188 1
0.991012 0.29395 1
1 0.280369 1
0 0.459022 1
0.0649882 0.461799 1
0.180453 0.46627 1
0.323873 0.463188 1
0.47982 0.456718 1
0.644556 0.447883 1
0.816175 0.437186 1
0.993515 0.424949 1
1 0.411383 1
0 0.591119 1
0.064744 0.593912 1
0.180194 0.598367 1
0.323613 0.595285 1
0.479576 0.58883 1
0.644297 0.57998 1
0.815915 0.569284 1
0.993255 0.557046 1
1 0.543481 1
0 0.724071 1
0.0623331 0.726864 1
0.177798 0.731334 1
0.321218 0.728252 1
0.477165 0.721782 1
0.641901 0.712947 1
0.813519 0.702251 1
0.99086 0.690013 1
1 0.676432 1
0 0.85774 1
0.0581521 0.860533 1
0.173602 0.865003 1
0.317021 0.861921 1
0.472984 0.855451 1
0.637705 0.846616 1
0.809323 0.83592 1
0.986664 0.823682 1
1 0.810101 1
0 0.99202 1
0.0524453 0.994812 1
0.167895 0.999283 1
0.311315 0.996201 1
0.467277 0.989731 1
0.631998 0.980896 1
0.803616 0.970199 1
0.980957 0.957946 1
1 0.944381 1
