assets/cube/adventure_1453.cube
TITLE "Generated by Resolve"
LUT_3D_SIZE 33
0 0 0
0 0 0
0 0 0
0 0 0
0.0247501 0 0
0.0474861 0 0
0.0760662 0 0
0.107256 0 0
0.1402 0 0
0.174517 0 0
0.209964 0 0
0.246372 0 0
0.283619 0 0
0.32163 0 0
0.360342 0 0
0.399664 0 0
0.439582 0 0
0.480034 0 0
0.520989 0 0
0.562417 0 0
0.604303 0 0
0.646616 0 0
0.689342 0 0
0.732448 0 0
0.775921 0 0
0.81976 0 0
0.863935 0 0
0.908446 0 0
0.953262 0 0
0.998398 0 0
1 0 0
1 0 0
1 0 0
0 0 0
0 0 0
0 0 0
0.0024567 0 0
0.0286107 0 0
0.0513619 0 0
0.079942 0 0
0.111116 0 0
0.14406 0 0
0.178378 0 0
0.213825 0 0
0.250233 0 0
0.28748 0 0
0.325505 0 0
0.364202 0 0
0.403525 0 0
0.443442 0 0
0.483894 0 0
0.524849 0 0
0.566293 0 0
0.608179 0 0
0.650492 0 0
0.693202 0 0
0.736309 0 0
0.779797 0 0
0.823621 0 0
0.867796 0 0
0.912306 0 0
0.957122 0 0
1 0 0
1 0 0
1 0 0
1 0 0
0 0.016144 0
0 0.0159915 0
0 0.0162509 0
0.00740063 0.0170901 0
0.0335546 0.0189364 0
0.0563058 0.0216983 0
0.0848859 0.0229038 0
0.11606 0.0233921 0
0.149004 0.0234073 0
0.183322 0.0230411 0
0.218769 0.022385 0
0.255177 0.0214694 0
0.292439 0.020325 0
0.330449 0.018967 0
0.369146 0.0174258 0
0.408469 0.0157168 0
0.448386 0.0138552 0
0.488838 0.011841 0
0.529793 0.00968948 0
0.571237 0.00741588 0
0.613123 0.00502022 0
0.655436 0.00250248 0
0.698146 0 0
0.741253 0 0
0.784741 0 0
0.828565 0 0
0.87274 0 0
0.91725 0 0
0.962081 0 0
1 0 0
1 0 0
1 0 0
1 0 0
0 0.046067 0
0 0.0459144 0
0 0.0461738 0
0.0151217 0.047013 0
0.0412757 0.0488594 0
0.0640269 0.0516365 0
0.092607 0.0528267 0
0.123781 0.053315 0
0.156725 0.0533303 0
0.191043 0.0529793 0
0.22649 0.0523079 0
0.262898 0.0513924 0
0.30016 0.050248 0
0.33817 0.0488899 0
0.376867 0.0473487 0
0.41619 0.0456397 0
0.456107 0.0437781 0
0.496559 0.0417639 0
0.537514 0.0396124 0
0.578958 0.0373388 0
0.620844 0.0349432 0
0.663157 0.0324254 0
0.705867 0.0298009 0
0.748974 0.0270695 0
0.792462 0.0242466 0
0.836286 0.0213169 0
0.880461 0.0182956 0
0.924971 0.015198 0
0.969787 0.0120089 0
1 0.00872816 0
1 0.00537118 0
1 0.0019379 0
1 0 0
0 0.0766155 0
0 0.076463 0
0 0.0767224 0
0.0212711 0.0775616 0
0.047425 0.079408 0
0.0701762 0.0821851 0
0.0987564 0.0833753 0
0.129931 0.0838636 0
0.162875 0.0838788 0
0.197192 0.0835279 0
0.232639 0.0828565 0
0.269047 0.0819409 0
0.30631 0.0807965 0
0.34432 0.0794385 0
0.383017 0.0778973 0
0.422339 0.0761883 0
0.462257 0.0743267 0
0.502708 0.0723125 0
0.543664 0.070161 0
0.585107 0.0678874 0
0.626993 0.0654917 0
0.669306 0.062974 0
0.712016 0.0603494 0
0.755123 0.0576181 0
0.798611 0.0547951 0
0.842435 0.0518654 0
0.88661 0.0488594 0
0.931121 0.0457465 0
0.975952 0.0425574 0
1 0.0392767 0
1 0.0359197 0
1 0.0324865 0
1 0.0289769 0
0 0.107851 0
0 0.107698 0
0 0.107958 0
0.0257267 0.108797 0
0.0518807 0.110643 0
0.0746166 0.113405 0.00138857
0.103197 0.114595 0.00257877
0.134386 0.115099 0.00306706
0.16733 0.115114 0.00308232
0.201648 0.114748 0.00273136
0.237095 0.114092 0.00207523
0.273503 0.113176 0.00114443
0.31075 0.112032 0
0.34876 0.110674 0
0.387472 0.109133 0
0.426795 0.107424 0
0.466712 0.105562 0
0.507164 0.103548 0
0.548119 0.101396 0
0.589548 0.0991226 0
0.631434 0.0967269 0
0.673747 0.0942092 0
0.716472 0.0915847 0
0.759579 0.0888533 0
0.803052 0.0860304 0
0.846891 0.0831006 0
0.891066 0.0800793 0
0.935576 0.0769818 0
0.980392 0.0737774 0
1 0.0705119 0
1 0.067155 0
1 0.0637217 0
1 0.0602121 0
0 0.139437 0
0 0.139269 0
0 0.139528 0
0.0292821 0.140368 0.000335698
0.055436 0.142229 0.00218204
0.0781872 0.144991 0.00494392
0.106767 0.146181 0.00613413
0.137942 0.14667 0.00663767
0.170886 0.146685 0.00665293
0.205203 0.146334 0.00628672
0.24065 0.145678 0.00563058
0.277058 0.144762 0.00471504
0.314321 0.143603 0.00355535
0.352331 0.14226 0.00221256
0.391028 0.140719 0.000671397
0.43035 0.13901 0
0.470268 0.137133 0
0.510719 0.135134 0
0.551675 0.132982 0
0.593118 0.130709 0
0.635004 0.128298 0
0.677317 0.125795 0
0.720027 0.123171 0
0.763134 0.120439 0
0.806622 0.117601 0
0.850446 0.114687 0
0.894621 0.111666 0
0.939132 0.108553 0
0.983963 0.105364 0
1 0.102083 0
1 0.0987411 0
1 0.0953078 0
1 0.0917983 0
0 0.171267 0.00233463
0 0.171099 0.00216678
0.00233463 0.171359 0.00242618
0.0322271 0.172198 0.00326543
0.058381 0.174044 0.00511177
0.081117 0.176822 0.00788891
0.109697 0.178012 0.00907912
0.140887 0.1785 0.00956741
0.173831 0.178515 0.00958267
0.208148 0.178164 0.00923171
0.243595 0.177508 0.00857557
0.280003 0.176577 0.00764477
0.31725 0.175433 0.00650034
0.355276 0.174075 0.00515755
0.393973 0.172549 0.00361639
0.433295 0.17084 0.00190738
0.473213 0.168963 3.0518e-05
0.513664 0.166964 0
0.55462 0.164813 0
0.596048 0.162524 0
0.637934 0.160128 0
0.680247 0.15761 0
0.722972 0.154986 0
0.766079 0.15227 0
0.809552 0.149432 0
0.853391 0.146517 0
0.897566 0.143496 0
0.942077 0.140383 0
0.986893 0.137194 0
1 0.133913 0
1 0.130571 0
1 0.127138 0
1 0.123629 0
0 0.203281 0.00479133
0 0.203128 0.00462348
0.00479133 0.203387 0.00488289
0.0346838 0.204227 0.00572213
0.0608377 0.206073 0.00758373
0.0835889 0.208835 0.0103456
0.112169 0.21004 0.0115358
0.143343 0.210529 0.0120241
0.176287 0.210544 0.0120394
0.210605 0.210193 0.0116884
0.246052 0.209522 0.0110323
0.28246 0.208606 0.0101167
0.319707 0.207462 0.00895705
0.357733 0.206104 0.00761425
0.396429 0.204562 0.00607309
0.435752 0.202853 0.00436408
0.47567 0.200992 0.00250248
0.516121 0.198978 0.000488289
0.557076 0.196826 0
0.59852 0.194553 0
0.640406 0.192157 0
0.682704 0.189639 0
0.725429 0.187015 0
0.768536 0.184283 0
0.812024 0.18146 0
0.855848 0.178531 0
0.900023 0.175509 0
0.944533 0.172412 0
0.989349 0.169223 0
1 0.165942 0
1 0.162585 0
1 0.159152 0
1 0.155642 0
0 0.235462 0.0068513
0 0.235309 0.00669871
0.0068513 0.235569 0.00695811
0.0367437 0.236408 0.0077821
0.0628977 0.238254 0.0096437
0.0856489 0.241016 0.0124056
0.114229 0.242222 0.0135958
0.145403 0.24271 0.0140993
0.178347 0.242725 0.0141146
0.212665 0.242359 0.0137484
0.248112 0.241703 0.0130922
0.28452 0.240787 0.0121767
0.321782 0.239643 0.011017
0.359792 0.238285 0.00967422
0.398489 0.236744 0.00813306
0.437812 0.235035 0.00642405
0.477729 0.233173 0.00456245
0.518181 0.231159 0.00254826
0.559136 0.229007 0.000396735
0.60058 0.226734 0
0.642466 0.224338 0
0.684779 0.22182 0
0.727489 0.219196 0
0.770596 0.216464 0
0.814084 0.213642 0
0.857908 0.210712 0
0.902083 0.207691 0
0.946593 0.204593 0
0.991424 0.201389 0
1 0.198123 0
1 0.194766 0
1 0.191333 0
1 0.187823 0
0 0.267781 0.00857557
0 0.267613 0.00840772
0.00857557 0.267872 0.00868238
0.038468 0.268711 0.00950637
0.064622 0.270573 0.011368
0.0873732 0.273335 0.0141299
0.115953 0.274525 0.0153201
0.147127 0.275013 0.0158236
0.180072 0.275029 0.0158236
0.214389 0.274678 0.0154726
0.249836 0.274022 0.0148165
0.286244 0.273106 0.013901
0.323507 0.271946 0.0127413
0.361517 0.270604 0.0113985
0.400214 0.269062 0.00985733
0.439536 0.267353 0.00814832
0.479454 0.265476 0.00628672
0.519905 0.263478 0.00427253
0.560861 0.261326 0.002121
0.602304 0.259052 0
0.64419 0.256641 0
0.686503 0.254139 0
0.729213 0.251514 0
0.77232 0.248783 0
0.815808 0.245945 0
0.859632 0.24303 0
0.903807 0.240009 0
0.948318 0.236896 0
0.993149 0.233707 0
1 0.230442 0
1 0.227085 0
1 0.223651 0
1 0.220142 0
0 0.300206 0.0100099
0 0.300053 0.00984207
0.0100099 0.300313 0.0101015
0.0399023 0.301152 0.0109407
0.0660563 0.302998 0.0127871
0.0887922 0.30576 0.0155642
0.117372 0.306966 0.0167544
0.148562 0.307454 0.0172427
0.181506 0.307469 0.017258
0.215824 0.307103 0.016907
0.25127 0.306447 0.0162509
0.287678 0.305531 0.0153201
0.324926 0.304387 0.0141756
0.362936 0.303029 0.0128176
0.401648 0.301488 0.0112917
0.44097 0.299779 0.00958267
0.480888 0.297917 0.00770581
0.52134 0.295903 0.00569161
0.562295 0.293751 0.00355535
0.603723 0.291478 0.0012665
0.645609 0.289082 0
0.687922 0.286564 0
0.730648 0.28394 0
0.773754 0.281209 0
0.817227 0.278386 0
0.861067 0.275456 0
0.905241 0.272435 0
0.949752 0.269337 0
0.994568 0.266148 0
1 0.262867 0
1 0.25951 0
1 0.256077 0
1 0.252567 0
0 0.332738 0.0111696
0 0.332586 0.011017
0.0111696 0.332845 0.0112764
0.0410773 0.333684 0.0121157
0.067216 0.335531 0.013962
0.0899672 0.338308 0.0167239
0.118547 0.339498 0.0179294
0.149722 0.339986 0.0184176
0.182681 0.340002 0.0184329
0.216983 0.339651 0.0180667
0.25243 0.338979 0.0174105
0.288838 0.338064 0.016495
0.326101 0.336919 0.0153506
0.364111 0.335561 0.0139925
0.402808 0.33402 0.0124514
0.442145 0.332311 0.0107424
0.482048 0.330449 0.00888075
0.522499 0.328435 0.00686656
0.563455 0.326284 0.00471504
0.604898 0.32401 0.00244144
0.646784 0.321614 4.57771e-05
0.689097 0.319097 0
0.731807 0.316472 0
0.774914 0.313741 0
0.818402 0.310918 0
0.862242 0.307988 0
0.906416 0.304967 0
0.950912 0.301869 0
0.995743 0.29868 0
1 0.295399 0
1 0.292042 0
1 0.288609 0
1 0.2851 0
0 0.365377 0.0121004
0 0.365209 0.0119478
0.0121004 0.365469 0.0122072
0.0420081 0.366308 0.0130465
0.0681468 0.36817 0.0148928
0.090898 0.370932 0.0176547
0.119478 0.372122 0.0188602
0.150652 0.37261 0.0193484
0.183612 0.372625 0.0193637
0.217929 0.372274 0.0189975
0.253361 0.371618 0.0183413
0.289769 0.370703 0.0174258
0.327031 0.369543 0.0162814
0.365042 0.3682 0.0149233
0.403738 0.366659 0.0133822
0.443076 0.36495 0.0116732
0.482979 0.363073 0.00981155
0.52343 0.361074 0.00779736
0.564385 0.358923 0.00564584
0.605829 0.356649 0.00337224
0.647715 0.354238 0.000976577
0.690028 0.351736 0
0.732738 0.349111 0
0.77586 0.34638 0
0.819333 0.343542 0
0.863172 0.340627 0
0.907347 0.337606 0
0.951843 0.334493 0
0.996674 0.331304 0
1 0.328023 0
1 0.324681 0
1 0.321248 0
1 0.317739 0
0 0.398093 0.0128176
0 0.397925 0.012665
0.0128176 0.398184 0.0129244
0.0427253 0.399023 0.0137636
0.068864 0.400885 0.01561
0.0916152 0.403647 0.0183719
0.120195 0.404837 0.0195773
0.151369 0.405325 0.0200656
0.184329 0.405341 0.0200809
0.218647 0.40499 0.0197147
0.254078 0.404334 0.0190585
0.290486 0.403418 0.018143
0.327749 0.402258 0.0169985
0.365759 0.400916 0.0156405
0.404456 0.399374 0.0140993
0.443793 0.397665 0.0123903
0.483696 0.395789 0.0105287
0.524147 0.39379 0.00851453
0.565103 0.391638 0.00636301
0.606546 0.389364 0.00408942
0.648432 0.386954 0.00169375
0.690745 0.384451 0
0.733455 0.381826 0
0.776577 0.379095 0
0.82005 0.376257 0
0.86389 0.373342 0
0.908064 0.370321 0
0.95256 0.367208 0
0.997391 0.364019 0
1 0.360739 0
1 0.357397 0
1 0.353964 0
1 0.350454 0
0 0.430884 0.0133364
0 0.430716 0.0131838
0.0133364 0.430991 0.0134432
0.0432441 0.431815 0.0142824
0.0693828 0.433677 0.0161288
0.092134 0.436439 0.0188907
0.120714 0.437629 0.0200961
0.151888 0.438132 0.0205844
0.184848 0.438132 0.0205997
0.219165 0.437781 0.0202487
0.254597 0.437125 0.0195773
0.291005 0.43621 0.0186618
0.328267 0.43505 0.0175174
0.366278 0.433707 0.0161593
0.404974 0.432166 0.0146181
0.444312 0.430457 0.0129091
0.484215 0.428595 0.0110475
0.524666 0.426581 0.00903334
0.565621 0.42443 0.00688182
0.607065 0.422156 0.00460822
0.648951 0.419745 0.00221256
0.691264 0.417243 0
0.733989 0.414618 0
0.777096 0.411887 0
0.820569 0.409049 0
0.864408 0.406134 0
0.908583 0.403113 0
0.953079 0.4 0
0.997909 0.396811 0
1 0.393545 0
1 0.390188 0
1 0.386755 0
1 0.383246 0
0 0.463752 0.0136721
0 0.463584 0.0135195
0.0136721 0.463844 0.0137789
0.0435798 0.464683 0.0146181
0.0697185 0.466545 0.0164645
0.0924697 0.469306 0.0192416
0.12105 0.470497 0.0204318
0.152239 0.470985 0.0209201
0.185183 0.471 0.0209354
0.219501 0.470649 0.0205844
0.254932 0.469993 0.019913
0.291341 0.469078 0.0189975
0.328603 0.467918 0.0178531
0.366613 0.466575 0.016495
0.40531 0.465034 0.0149538
0.444648 0.463325 0.0132448
0.48455 0.461448 0.0113832
0.525002 0.459449 0.00936904
0.565972 0.457298 0.00721752
0.607401 0.455024 0.00494392
0.649287 0.452613 0.00254826
0.6916 0.450111 3.0518e-05
0.734325 0.447486 0
0.777432 0.444755 0
0.820905 0.441917 0
0.864744 0.439002 0
0.908919 0.435981 0
0.953414 0.432868 0
0.998245 0.429679 0
1 0.426398 0
1 0.423056 0
1 0.419623 0
1 0.416114 0
0 0.496681 0.0138399
0 0.496529 0.0136873
0.0138399 0.496788 0.0139467
0.0437476 0.497627 0.014786
0.0698863 0.499474 0.0166323
0.0926375 0.502235 0.0193942
0.121218 0.503441 0.0205997
0.152392 0.503929 0.021088
0.185351 0.503944 0.0211032
0.219669 0.503578 0.0207523
0.2551 0.502922 0.0200809
0.291508 0.502007 0.0191653
0.328771 0.500862 0.0180209
0.366781 0.499504 0.0166629
0.405478 0.497963 0.0151217
0.444816 0.496254 0.0134127
0.484718 0.494392 0.0115511
0.52517 0.492378 0.00953689
0.566125 0.490227 0.00738537
0.607569 0.487953 0.00511177
0.649454 0.485557 0.00271611
0.691768 0.48304 0.000198367
0.734493 0.480415 0
0.7776 0.477684 0
0.821073 0.474861 0
0.864912 0.471931 0
0.909087 0.46891 0
0.953582 0.465812 0
0.998413 0.462608 0
1 0.459342 0
1 0.455985 0
1 0.452552 0
1 0.449042 0
0 0.529686 0.0138552
0 0.529519 0.0136873
0.0138552 0.529778 0.0139467
0.0437476 0.530617 0.014786
0.0699016 0.532464 0.0166476
0.0926375 0.535241 0.0194095
0.121218 0.536431 0.0205997
0.152407 0.536919 0.021088
0.185351 0.536934 0.0211032
0.219669 0.536583 0.0207523
0.255116 0.535927 0.0200961
0.291524 0.534997 0.0191806
0.328771 0.533852 0.0180209
0.366796 0.532494 0.0166781
0.405493 0.530968 0.0151369
0.444816 0.529259 0.0134279
0.484733 0.527382 0.0115511
0.525185 0.525368 0.00955215
0.56614 0.523232 0.00740063
0.607569 0.520943 0.00512703
0.649454 0.518547 0.00271611
0.691768 0.51603 0.000213626
0.734493 0.513405 0
0.7776 0.510689 0
0.821073 0.507851 0
0.864912 0.504921 0
0.909087 0.501915 0
0.953597 0.498802 0
0.998413 0.495613 0
1 0.492332 0
1 0.488975 0
1 0.485542 0
1 0.482048 0
0 0.562737 0.0137179
0 0.562585 0.01355
0.0137179 0.562844 0.0138094
0.0436103 0.563684 0.0146487
0.0697642 0.56553 0.016495
0.0925002 0.568292 0.0192721
0.12108 0.569482 0.0204623
0.15227 0.569986 0.0209506
0.185214 0.570001 0.0209659
0.219532 0.569635 0.0206149
0.254978 0.568978 0.0199588
0.291386 0.568063 0.019028
0.328634 0.566903 0.0178836
0.366644 0.56556 0.0165255
0.405341 0.564019 0.0149844
0.444678 0.56231 0.0132753
0.484581 0.560449 0.0114137
0.525032 0.558434 0.00939956
0.566003 0.556283 0.00726329
0.607431 0.554009 0.00497444
0.649317 0.551614 0.00257877
0.69163 0.549096 6.10361e-05
0.734356 0.546471 0
0.777462 0.54374 0
0.820935 0.540917 0
0.864775 0.537987 0
0.908949 0.534966 0
0.95346 0.531853 0
0.998276 0.528664 0
1 0.525399 0
1 0.522042 0
1 0.518608 0
1 0.515099 0
0 0.59585 0.0134279
0 0.595697 0.0132601
0.0134279 0.595956 0.0135348
0.0433204 0.596796 0.0143587
0.0694743 0.598642 0.0162203
0.0922255 0.601404 0.0189822
0.120806 0.602594 0.0201724
0.15198 0.603098 0.020676
0.184924 0.603113 0.020676
0.219242 0.602747 0.020325
0.254688 0.60209 0.0196689
0.291096 0.601175 0.0187533
0.328359 0.600031 0.0175937
0.366369 0.598672 0.0162509
0.405066 0.597131 0.0147097
0.444389 0.595422 0.0130007
0.484306 0.593561 0.0111391
0.524758 0.591546 0.0091249
0.565713 0.589395 0.00697337
0.607156 0.587121 0.00469978
0.649042 0.584726 0.00228885
0.691356 0.582208 0
0.734066 0.579583 0
0.777173 0.576852 0
0.820661 0.574029 0
0.864485 0.571099 0
0.90866 0.568078 0
0.95317 0.564981 0
0.998001 0.561776 0
1 0.558511 0
1 0.555154 0
1 0.55172 0
1 0.548211 0
0 0.629023 0.0130159
0 0.628855 0.0128481
0.0130159 0.629114 0.0131075
0.0429084 0.629953 0.0139467
0.0690623 0.6318 0.0157931
0.0917983 0.634577 0.0185702
0.120378 0.635767 0.0197604
0.151568 0.636255 0.0202487
0.184512 0.636271 0.020264
0.21883 0.63592 0.019913
0.254276 0.635264 0.0192569
0.290684 0.634333 0.0183261
0.327932 0.633188 0.0171817
0.365942 0.63183 0.0158236
0.404654 0.630304 0.0142977
0.443976 0.628595 0.0125887
0.483894 0.626719 0.0107118
0.524346 0.624704 0.00869764
0.565301 0.622568 0.00656138
0.606729 0.620279 0.00427253
0.648615 0.617884 0.00187686
0.690929 0.615366 0
0.733654 0.612741 0
0.776761 0.610025 0
0.820233 0.607187 0
0.864073 0.604257 0
0.908248 0.601251 0
0.952758 0.598138 0
0.997574 0.594949 0
1 0.591669 0
1 0.588312 0
1 0.584894 0
1 0.581384 0
0 0.662242 0.0124666
0 0.662074 0.012314
0.0124666 0.662333 0.0125734
0.042359 0.663172 0.0134127
0.068513 0.665019 0.015259
0.0912642 0.667796 0.0180209
0.119844 0.668986 0.0192111
0.151019 0.669474 0.0197147
0.183963 0.66949 0.0197299
0.21828 0.669139 0.0193637
0.253727 0.668482 0.0187076
0.290135 0.667552 0.017792
0.327398 0.666407 0.0166323
0.365408 0.665049 0.0152895
0.404105 0.663508 0.0137484
0.443427 0.661799 0.0120394
0.483345 0.659937 0.0101778
0.523796 0.657923 0.00816358
0.564752 0.655787 0.00601205
0.606195 0.653498 0.00373846
0.648081 0.651102 0.00134279
0.690394 0.648585 0
0.733104 0.64596 0
0.776211 0.643229 0
0.819699 0.640406 0
0.863523 0.637476 0
0.907698 0.63447 0
0.952209 0.631357 0
0.99704 0.628168 0
1 0.624887 0
1 0.62153 0
1 0.618097 0
1 0.614603 0
0 0.695506 0.0117952
0 0.695338 0.0116426
0.0117952 0.695598 0.011902
0.0417029 0.696437 0.0127413
0.0678416 0.698283 0.0145876
0.0905928 0.70106 0.0173648
0.119173 0.702251 0.018555
0.150362 0.702739 0.0190433
0.183307 0.702754 0.0190585
0.217624 0.702403 0.0187076
0.253056 0.701747 0.0180362
0.289464 0.700816 0.0171206
0.326726 0.699672 0.0159762
0.364736 0.698314 0.0146181
0.403433 0.696773 0.013077
0.442771 0.695079 0.011368
0.482673 0.693202 0.00950637
0.523125 0.691188 0.00749218
0.564095 0.689052 0.00534066
0.605524 0.686763 0.00306706
0.64741 0.684367 0.000671397
0.689723 0.681849 0
0.732448 0.679225 0
0.775555 0.676493 0
0.819028 0.673671 0
0.862867 0.670741 0
0.907042 0.667735 0
0.951553 0.664622 0
0.996368 0.661433 0
1 0.658152 0
1 0.654795 0
1 0.651362 0
1 0.647868 0
0 0.728817 0.011017
0 0.728649 0.0108644
0.011017 0.728908 0.0111238
0.0409247 0.729747 0.0119631
0.0670634 0.731594 0.0138094
0.0898146 0.734371 0.0165713
0.118395 0.735561 0.0177768
0.149569 0.736049 0.018265
0.182528 0.736065 0.0182803
0.216846 0.735714 0.0179294
0.252277 0.735058 0.017258
0.288685 0.734127 0.0163424
0.325948 0.732982 0.015198
0.363958 0.731624 0.0138399
0.402655 0.730098 0.0122988
0.441993 0.728389 0.0105898
0.481895 0.726513 0.00872816
0.522347 0.724498 0.00671397
0.563302 0.722362 0.00456245
0.604746 0.720073 0.00228885
0.646632 0.717678 0
0.688945 0.71516 0
0.73167 0.712535 0
0.774777 0.709819 0
0.81825 0.706981 0
0.862089 0.704051 0
0.906264 0.701045 0
0.950759 0.697932 0
0.99559 0.694743 0
1 0.691463 0
1 0.688106 0
1 0.684688 0
1 0.681178 0
0 0.762173 0.010132
0 0.762005 0.00996414
0.010132 0.762264 0.0102235
0.0400244 0.763104 0.0110628
0.0661784 0.76495 0.0129244
0.0889296 0.767727 0.0156863
0.11751 0.768917 0.0168765
0.148684 0.769406 0.0173648
0.181628 0.769421 0.01738
0.215946 0.76907 0.0170291
0.251392 0.768414 0.0163729
0.2878 0.767483 0.0154574
0.325048 0.766339 0.0142977
0.363073 0.764981 0.0129549
0.40177 0.763439 0.0114137
0.441093 0.761746 0.00970474
0.48101 0.759869 0.00784314
0.521462 0.757855 0.00582895
0.562417 0.755718 0.00367742
0.603861 0.753429 0.00140383
0.645731 0.751034 0
0.688045 0.748516 0
0.73077 0.745892 0
0.773877 0.743175 0
0.817365 0.740337 0
0.861189 0.737408 0
0.905364 0.734401 0
0.949874 0.731289 0
0.99469 0.728099 0
1 0.724819 0
1 0.721462 0
1 0.718029 0
1 0.714534 0
0 0.79556 0.0091249
0 0.795407 0.0089723
0.0091249 0.795666 0.00923171
0.0390326 0.796506 0.010071
0.0651865 0.798352 0.0119173
0.0879225 0.801129 0.0146944
0.116503 0.802319 0.0158846
0.147692 0.802808 0.0163729
0.180636 0.802823 0.0163882
0.214954 0.802472 0.0160372
0.250401 0.801801 0.0153811
0.286809 0.800885 0.0144503
0.324056 0.799741 0.0133059
0.362066 0.798383 0.0119478
0.400763 0.796841 0.0104067
0.440101 0.795132 0.00869764
0.480003 0.793271 0.00683604
0.520455 0.791257 0.00482185
0.561425 0.789105 0.00267033
0.602853 0.786831 0.000396735
0.644739 0.784436 0
0.687053 0.781918 0
0.729778 0.779293 0
0.772885 0.776562 0
0.816358 0.773739 0
0.860197 0.770809 0
0.904372 0.767788 0
0.948882 0.764691 0
0.993698 0.761501 0
1 0.758221 0
1 0.754864 0
1 0.751431 0
1 0.747921 0
0 0.829007 0.00802625
0 0.82884 0.00787366
0.00802625 0.829099 0.00813306
0.0379339 0.829938 0.0089723
0.0640726 0.831785 0.0108186
0.0868238 0.834562 0.0135958
0.115404 0.835752 0.014786
0.146593 0.83624 0.0152743
0.179538 0.836255 0.0152895
