assets/cube/bleech_bypass_yellow_01.cube
TITLE "Generated by Resolve"
LUT_3D_SIZE 9
0 0 0
0.00656138 0 0
0.0262455 0 0
0.0590524 0 0
0.104997 0 0
0.348424 0 0
0.578744 0 0
0.795941 0 0
1 0 0
0 0.0218662 0
0.0284276 0.0284276 0
0.0699931 0.0349889 0
0.124681 0.0415503 0
0.192493 0.0481117 0
0.414038 0.0546731 0
0.622492 0.0612345 0
0.817807 0.0677958 0
1 0.0743572 0
0 0.0874952 0
0.050309 0.100618 0
0.113741 0.113741 0
0.190295 0.126864 0
0.279988 0.139986 0
0.479667 0.153109 0
0.666239 0.166232 0
0.839689 0.17937 0
1 0.192493 0
0 0.196872 0
0.0721752 0.216556 0
0.157488 0.23624 0
0.255924 0.255924 0
0.367483 0.275608 0
0.545296 0.295293 0
0.709987 0.314992 0
0.861555 0.334676 0
1 0.35436 0
0 0.349996 0
0.0940566 0.376242 0
0.201236 0.402487 0
0.321553 0.428733 0
0.454994 0.454994 0
0.610925 0.481239 0
0.75375 0.507485 0
0.883436 0.53373 0
1 0.559991 0
0 0.578119 0
0.115923 0.597803 0
0.244984 0.617487 0
0.387167 0.637171 0
0.542489 0.65687 0
0.676555 0.676555 0
0.797498 0.696239 0
0.905303 0.715923 0
1 0.735622 0
0 0.762493 0
0.137789 0.775616 0
0.288731 0.788739 0
0.452796 0.801877 0
0.629984 0.815 0
0.742184 0.828122 0
0.841245 0.841245 0
0.927184 0.854368 0
1 0.867491 0
0 0.90312 0
0.15967 0.909682 0
0.332479 0.916243 0
0.518425 0.922805 0
0.717479 0.929366 0
0.807813 0.935943 0
0.884993 0.942504 0
0.949065 0.949065 0
1 0.955627 0
0 1 0
0.181537 1 0
0.376226 1 0
0.584039 1 0
0.80499 1 0
0.873442 1 0
0.928756 1 0
0.970932 1 0
1 1 0
1.5259e-05 1.5259e-05 0.00265507
0.00941482 4.57771e-05 0.00885023
0.0319371 7.62951e-05 0.0150454
0.0675975 9.15541e-05 0.0212406
0.116365 0.000122072 0.0274357
0.357015 0.00015259 0.0336309
0.584558 0.000183108 0.0398413
0.798962 0.000213626 0.0460365
1 0.000244144 0.0522316
0.000106813 0.0247959 0.0233158
0.0313725 0.0313725 0.0295109
0.0757763 0.0379644 0.0357061
0.133303 0.0445563 0.0419013
0.203952 0.0511482 0.0480964
0.422736 0.0577401 0.0542916
0.628397 0.064332 0.0604868
0.82092 0.0709239 0.0666819
1 0.0775158 0.0728771
0.000198367 0.0933242 0.0439612
0.0533455 0.106462 0.0501564
0.119615 0.119615 0.0563516
0.199023 0.132769 0.0625467
0.291554 0.145922 0.0687419
0.488457 0.159075 0.0749523
0.672236 0.172229 0.0811475
0.842893 0.185382 0.0873426
1 0.198535 0.0935378
0.000289921 0.2056 0.064622
0.0753185 0.225315 0.0708171
0.16347 0.245029 0.0770123
0.264744 0.264744 0.0832074
0.379141 0.284459 0.0894026
0.554177 0.304173 0.0955978
0.716091 0.323888 0.101793
0.864866 0.343603 0.107988
1 0.363317 0.114199
0.000396735 0.361624 0.0852674
0.0972763 0.3879 0.0914626
0.207309 0.414176 0.097673
0.330465 0.440467 0.103868
0.466743 0.466743 0.110063
0.619898 0.493019 0.116258
0.75993 0.519295 0.122454
0.886839 0.545571 0.128649
1 0.571847 0.134844
0.000488289 0.587045 0.105928
0.119249 0.60676 0.112123
0.251148 0.626474 0.118318
0.396185 0.646189 0.124514
0.55433 0.665904 0.130709
0.685618 0.685618 0.136919
0.803769 0.705333 0.143114
0.908812 0.725048 0.14931
1 0.744762 0.155505
0.000579843 0.768704 0.126589
0.141222 0.781857 0.132784
0.295003 0.79501 0.138979
0.461906 0.808164 0.145174
0.641932 0.821317 0.151369
0.751339 0.83447 0.157565
0.847623 0.847623 0.16376
0.930785 0.860777 0.169955
1 0.87393 0.17615
0.000671397 0.906615 0.147234
0.16318 0.913207 0.153429
0.338842 0.919799 0.15964
0.527626 0.92639 0.165835
0.729519 0.932967 0.17203
0.81706 0.939559 0.178225
0.891463 0.946151 0.184421
0.952743 0.952743 0.190616
1 0.959335 0.196811
0.000762951 1 0.167895
0.185153 1 0.17409
0.382681 1 0.180285
0.593332 1 0.186481
0.817121 1 0.192676
0.88278 1 0.198871
0.935317 1 0.205081
0.974716 1 0.211276
1 1 0.217472
4.57771e-05 4.57771e-05 0.0106203
0.0122835 0.000106813 0.0230106
0.0376593 0.000167849 0.0354162
0.0761578 0.000213626 0.0478065
0.127779 0.000274662 0.0601968
0.365637 0.000335698 0.0725872
0.590387 0.000396735 0.0849775
0.801999 0.000442512 0.0973831
1 0.000503548 0.109773
0.000244144 0.0277256 0.0519265
0.0343481 0.0343481 0.0643168
0.08159 0.0409705 0.0767224
0.141955 0.0475929 0.0891127
0.215457 0.0542 0.101503
0.431449 0.0608225 0.113893
0.634318 0.0674449 0.126299
0.824063 0.0740673 0.138689
1 0.0806744 0.15108
0.000427253 0.0991684 0.0932479
0.0564126 0.112352 0.105638
0.125536 0.125536 0.118029
0.207767 0.138705 0.130419
0.303136 0.151888 0.142824
0.497261 0.165072 0.155215
0.678264 0.178256 0.167605
0.846128 0.19144 0.179995
1 0.204623 0.192401
0.000610361 0.214359 0.134554
0.0784772 0.234104 0.146944
0.169467 0.253849 0.15935
0.273579 0.273579 0.17174
0.390829 0.293324 0.184131
0.563073 0.313069 0.196521
0.722194 0.332815 0.208927
0.868193 0.35256 0.221317
1 0.372305 0.233707
0.000808728 0.373297 0.175875
0.100542 0.399603 0.188266
0.213413 0.42591 0.200656
0.339406 0.452216 0.213046
0.478523 0.478523 0.225452
0.628885 0.504829 0.237842
0.76614 0.531136 0.250233
0.890257 0.557443 0.262623
1 0.583749 0.275029
0.000991836 0.595987 0.217182
0.122606 0.615732 0.229572
0.257343 0.635477 0.241978
0.405219 0.655222 0.254368
0.566201 0.674968 0.266758
0.694713 0.694713 0.279149
0.810086 0.714458 0.291539
0.912322 0.734203 0.303944
1 0.753948 0.316335
0.0011902 0.774929 0.258503
0.144671 0.788113 0.270893
0.301289 0.801297 0.283284
0.471031 0.814481 0.295674
0.653895 0.827665 0.308064
0.760525 0.840833 0.32047
0.854017 0.854017 0.33286
0.934401 0.867201 0.345251
1 0.880385 0.357641
0.00137331 0.910124 0.299809
0.16672 0.916747 0.3122
0.34522 0.923369 0.32459
0.536843 0.929976 0.336996
0.741588 0.936599 0.349386
0.826337 0.943221 0.361776
0.897963 0.949844 0.374166
0.956466 0.956466 0.386572
1 0.963073 0.398962
0.00157168 1 0.341131
0.188785 1 0.353521
0.389166 1 0.365911
0.602655 1 0.378302
0.829282 1 0.390692
0.892164 1 0.403098
0.941909 1 0.415488
0.978531 1 0.427878
1 1 0.440269
0.000106813 0.000106813 0.0238956
0.015198 0.000198367 0.0424964
0.0433967 0.000274662 0.0610819
0.0847334 0.000366217 0.0796674
0.139193 0.000457771 0.0982681
0.374273 0.000534066 0.116854
0.596246 0.00062562 0.135454
0.805081 0.000701915 0.15404
1 0.000793469 0.172625
0.000396735 0.0307012 0.0858625
0.0373541 0.0373541 0.104448
0.0874342 0.0439918 0.123049
0.150637 0.0506447 0.141634
0.226963 0.0572824 0.160235
0.440177 0.0639353 0.17882
0.640269 0.0705882 0.197406
0.827237 0.0772259 0.216007
1 0.0838788 0.234592
0.000671397 0.105043 0.147829
0.0595102 0.118257 0.16643
0.131456 0.131456 0.185016
0.216541 0.144671 0.203601
0.314748 0.157885 0.222202
0.506096 0.171084 0.240787
0.684306 0.184298 0.259388
0.849393 0.197513 0.277974
1 0.210727 0.296559
0.000961318 0.223133 0.209812
0.0816663 0.242908 0.228397
0.175494 0.262684 0.246983
0.28246 0.28246 0.265583
0.402533 0.30222 0.284169
0.572 0.321996 0.30277
0.728344 0.341772 0.321355
0.87155 0.361547 0.33994
1 0.381323 0.358541
0.00125124 0.384985 0.271778
0.103822 0.411322 0.290364
0.219532 0.437659 0.308965
0.348363 0.463981 0.32755
0.490318 0.490318 0.346136
0.637919 0.516655 0.364736
0.772381 0.542992 0.383322
0.893721 0.569329 0.401923
1 0.595666 0.420508
0.0015259 0.604959 0.333745
0.125978 0.624735 0.352346
0.263554 0.644511 0.370932
0.414267 0.664271 0.389517
0.578103 0.684047 0.408118
0.703822 0.703822 0.426703
0.816419 0.723598 0.445289
0.915877 0.743374 0.46389
1 0.763149 0.482475
0.00181582 0.781186 0.395727
0.148135 0.7944 0.414313
0.307591 0.807599 0.432898
0.480186 0.820813 0.451499
0.665888 0.834028 0.470085
0.769741 0.847242 0.48867
0.860441 0.860441 0.507271
0.938033 0.873655 0.525856
1 0.88687 0.544457
0.00210575 0.913664 0.457694
0.170291 0.920302 0.47628
0.351629 0.926955 0.494881
0.54609 0.933608 0.513466
0.753674 0.940246 0.532052
0.835645 0.946899 0.550652
0.904479 0.953552 0.569238
0.960189 0.960189 0.587823
1 0.966842 0.606424
0.00238041 1 0.519661
0.192447 1 0.538247
0.395666 1 0.556848
0.611994 1 0.575433
0.841459 1 0.594034
0.901564 1 0.612619
0.948516 1 0.631205
0.982361 1 0.649805
1 1 0.668391
0.000198367 0.000198367 0.0424964
0.0181125 0.00030518 0.067277
0.0491646 0.000427253 0.0920729
0.0933394 0.000534066 0.116854
0.150652 0.000656138 0.141649
0.38294 0.000762951 0.16643
0.602121 0.000869764 0.191226
0.808179 0.000991836 0.216007
1 0.00109865 0.240803
0.000579843 0.0336919 0.125109
0.0403601 0.0403601 0.149905
0.0932937 0.0470436 0.174685
0.159335 0.0537118 0.199481
0.238514 0.0603952 0.224262
0.448936 0.0670634 0.249058
0.64625 0.0737469 0.273838
0.830427 0.080415 0.298634
1 0.0870985 0.323415
0.000946059 0.110948 0.207736
0.062623 0.124178 0.232532
0.137423 0.137423 0.257313
0.225345 0.150652 0.282109
0.32639 0.163897 0.306889
0.514946 0.177127 0.331685
0.690379 0.190372 0.356466
0.852689 0.203616 0.381262
1 0.216846 0.406043
0.00132753 0.231952 0.290364
0.0848707 0.251743 0.31516
0.181552 0.27155 0.33994
0.291341 0.291341 0.364736
0.414267 0.311147 0.389517
0.580957 0.330953 0.414313
0.734508 0.350744 0.439094
0.874937 0.37055 0.46389
1 0.390356 0.48867
0.00170901 0.396704 0.373007
0.107118 0.423056 0.397787
0.225681 0.449424 0.422568
0.357351 0.475792 0.447364
0.502144 0.502144 0.472145
0.646952 0.528511 0.496941
0.778637 0.554879 0.521737
0.897185 0.581247 0.546517
1 0.607599 0.571313
0.00209049 0.613962 0.455634
0.129381 0.633753 0.480415
0.269795 0.653559 0.505196
0.423346 0.673365 0.529992
0.590036 0.693156 0.554788
0.712963 0.712963 0.579568
0.822766 0.732769 0.604364
0.919448 0.75256 0.629145
1 0.772366 0.653941
0.00247196 0.787457 0.538262
0.151629 0.800702 0.563043
0.313924 0.813947 0.587839
0.489357 0.827176 0.612619
0.677913 0.840421 0.637415
0.778973 0.853651 0.662196
0.866896 0.866896 0.686992
0.941695 0.88014 0.711772
1 0.89337 0.736568
0.00285344 0.91722 0.62089
0.173877 0.923903 0.64567
0.358053 0.930571 0.670466
0.555367 0.937255 0.695247
0.765789 0.943923 0.720043
0.844968 0.950607 0.744823
0.911025 0.957275 0.769619
0.963958 0.963958 0.7944
1 0.970626 0.819196
0.00323491 1 0.703517
0.196139 1 0.728298
0.402182 1 0.753094
0.621363 1 0.777874
0.853666 1 0.80267
0.910979 1 0.827451
0.955154 1 0.852247
0.986206 1 0.877028
1 1 0.901823
0.0012665 0.0012665 0.275914
0.021973 0.00135805 0.294499
0.0558022 0.00143435 0.3131
0.10277 0.0015259 0.331685
0.16286 0.0016022 0.350271
0.392309 0.00169375 0.368872
0.608652 0.00177005 0.387457
0.811856 0.0018616 0.406058
1 0.00195315 0.424643
0.00155642 0.0374762 0.337881
0.0441291 0.0441291 0.356466
0.0998398 0.050782 0.375067
0.168673 0.0574197 0.393652
0.250629 0.0640726 0.412238
0.458213 0.0707103 0.430838
0.652674 0.0773632 0.449424
0.834012 0.0840162 0.468025
1 0.0906539 0.48661
0.00183108 0.117449 0.399847
0.0662852 0.130663 0.418448
0.143862 0.143862 0.437034
0.234577 0.157076 0.455619
0.338415 0.170291 0.47422
0.524117 0.183505 0.492805
0.696712 0.196704 0.511406
0.856184 0.209918 0.529992
1 0.223133 0.548592
0.002121 0.241169 0.46183
0.0884413 0.260945 0.480415
0.1879 0.280705 0.499001
0.300481 0.300481 0.517601
0.4262 0.320256 0.536187
0.590036 0.340032 0.554788
0.740749 0.359808 0.573373
0.87834 0.379568 0.591974
1 0.399344 0.610559
0.00239567 0.408637 0.523796
0.110597 0.434974 0.542382
0.231937 0.461311 0.560983
0.3664 0.487648 0.579568
0.513985 0.513985 0.598169
0.65594 0.540307 0.616754
0.784787 0.566644 0.635355
0.900496 0.592981 0.653941
1 0.619318 0.672526
0.00268559 0.622995 0.585779
0.132753 0.642756 0.604364
0.275959 0.662531 0.62295
0.432303 0.682307 0.64155
0.60177 0.702083 0.660136
0.721859 0.721859 0.678737
0.828824 0.741634 0.697322
0.922652 0.761395 0.715908
1 0.78117 0.734508
0.00297551 0.793591 0.647745
0.15491 0.806806 0.666331
0.319997 0.820005 0.684932
0.498207 0.833219 0.703517
0.68954 0.846433 0.722118
0.787762 0.859648 0.740703
0.872862 0.872862 0.759289
0.944823 0.886061 0.77789
1 0.899275 0.796475
0.00325017 0.920439 0.709712
0.177066 0.927092 0.728313
0.364034 0.93373 0.746899
0.564126 0.940383 0.765499
0.777325 0.947036 0.784085
0.853681 0.953674 0.80267
0.916884 0.960327 0.821271
0.96698 0.96698 0.839857
1 0.973617 0.858457
0.00354009 1 0.771695
0.199222 1 0.79028
0.408072 1 0.808881
0.63003 1 0.827466
0.86511 1 0.846067
0.919585 1 0.864652
0.960922 1 0.883238
0.989136 1 0.901839
1 1 0.920424
0.00231937 0.00231937 0.504036
0.025803 0.00236515 0.516426
0.0624247 0.00242618 0.528817
0.112169 0.00248722 0.541207
0.175036 0.002533 0.553613
0.401648 0.00259403 0.566003
0.615152 0.00265507 0.578393
0.815518 0.00271611 0.590799
1 0.00276188 0.603189
0.00250248 0.0412451 0.545342
0.0478676 0.0478676 0.557733
0.106355 0.0544747 0.570123
0.177966 0.0610971 0.582528
0.262715 0.0677195 0.594919
0.46746 0.074342 0.607309
0.659083 0.0809644 0.619715
0.837583 0.0875715 0.632105
1 0.0941939 0.644495
0.00268559 0.123934 0.586664
0.0699321 0.137118 0.599054
0.150286 0.150286 0.611444
0.243778 0.16347 0.623835
0.350408 0.176654 0.63624
0.533272 0.189837 0.64863
0.703029 0.203021 0.661021
0.859648 0.216205 0.673411
1 0.229389 0.685817
0.00288396 0.25037 0.62797
0.0919814 0.270115 0.64036
0.194232 0.28986 0.652766
0.309606 0.309606 0.665156
0.438087 0.329351 0.677546
0.599084 0.349081 0.689952
0.74696 0.368826 0.702342
0.881712 0.388571 0.714733
1 0.408316 0.727123
0.00306706 0.420554 0.669291
0.114046 0.44686 0.681682
0.238163 0.473167 0.694072
0.375418 0.499474 0.706477
0.52578 0.52578 0.718868
0.664912 0.552087 0.731258
0.790906 0.578393 0.743648
0.903777 0.6047 0.756054
1 0.631006 0.768444
0.00326543 0.631998 0.710597
0.13611 0.651743 0.723003
0.282109 0.671489 0.735393
0.44123 0.691234 0.747784
0.613474 0.710979 0.760174
0.730724 0.730724 0.77258
0.834852 0.750469 0.78497
0.925841 0.770214 0.79736
1 0.78996 0.809766
0.00344854 0.799695 0.751919
0.158175 0.812879 0.764309
0.32604 0.826062 0.776715
0.507042 0.839246 0.789105
0.701167 0.852415 0.801495
0.796536 0.865599 0.813886
0.878782 0.878782 0.826291
0.947906 0.891966 0.838682
1 0.90515 0.851072
0.00363165 0.923644 0.79324
0.18024 0.930251 0.805631
0.369985 0.936873 0.818021
0.572854 0.943496 0.830411
0.788846 0.950118 0.842817
0.862364 0.956741 0.855207
0.922728 0.963348 0.867597
0.96997 0.96997 0.880003
1 0.976593 0.892393
0.00383001 1 0.834546
0.202304 1 0.846952
0.413916 1 0.859342
0.638666 1 0.871733
0.876539 1 0.884123
0.928176 1 0.896529
0.966674 1 0.908919
0.992035 1 0.921309
1 1 0.933715
0.00334173 0.00334173 0.726833
0.0296025 0.00335698 0.733028
0.0690166 0.0033875 0.739239
0.121538 0.00341802 0.745434
0.187198 0.00344854 0.751629
0.410971 0.00347906 0.757824
0.621622 0.00350958 0.764019
0.81915 0.00354009 0.770214
1 0.00355535 0.77641
0.00343328 0.0449836 0.747494
0.0515755 0.0515755 0.753689
0.112856 0.0581674 0.759884
0.187243 0.0647593 0.766079
0.274784 0.0713512 0.772274
0.476677 0.0779431 0.778485
0.665461 0.0845197 0.78468
0.841123 0.0911116 0.790875
1 0.0977035 0.79707
0.00352483 0.130388 0.768154
0.0735485 0.143542 0.77435
0.156695 0.156695 0.780545
0.252964 0.169848 0.78674
0.362371 0.183001 0.792935
0.542397 0.196155 0.79913
0.709316 0.209308 0.805341
0.863096 0.222461 0.811536
1 0.235615 0.817731
0.00361639 0.259541 0.788815
0.0955062 0.279255 0.79501
0.200534 0.29897 0.801205
0.318685 0.318685 0.807401
0.449973 0.338399 0.813596
0.608118 0.358114 0.819791
0.753155 0.377844 0.825986
0.885069 0.397559 0.832197
1 0.417273 0.838392
0.00370794 0.432456 0.809461
0.117479 0.458732 0.815656
0.244373 0.485008 0.821866
0.384405 0.511284 0.828061
0.53756 0.53756 0.834257
0.673838 0.563836 0.840452
0.797009 0.590112 0.846647
0.907042 0.616403 0.852842
1 0.64268 0.859037
0.00381476 0.640986 0.830121
0.139452 0.6607 0.836316
0.288228 0.680415 0.842512
0.450126 0.70013 0.848722
0.625162 0.719844 0.854917
0.739574 0.739574 0.861112
0.840848 0.759289 0.867308
0.929 0.779004 0.873503
1 0.798718 0.879698
0.00390631 0.805768 0.850782
0.16141 0.818921 0.856977
0.332067 0.832074 0.863172
0.515846 0.845228 0.869368
0.712749 0.858381 0.875578
0.805295 0.871534 0.881773
0.884688 0.884688 0.887968
0.950973 0.897856 0.894163
1 0.911009 0.900359
0.00399786 0.926802 0.871443
0.183383 0.933394 0.877638
0.375906 0.939986 0.883833
0.581567 0.946578 0.890028
0.800351 0.95317 0.896223
0.871015 0.959762 0.902419
0.928542 0.966354 0.908629
0.972946 0.972946 0.914824
1 0.979538 0.921019
0.00408942 1 0.892103
0.205356 1 0.898299
0.41976 1 0.904494
0.647288 1 0.910689
0.887938 1 0.916884
0.936736 1 0.923079
0.972381 1 0.929274
0.994919 1 0.935485
1 1 0.94168
0.00433356 0.00433356 0.944335
0.0333867 0.00433356 0.944335
0.0755779 0.00433356 0.944335
0.130892 0.00433356 0.944335
0.199329 0.00433356 0.944335
0.420264 0.00433356 0.944335
0.628077 0.00433356 0.944335
0.822766 0.00433356 0.944335
1 0.00433356 0.944335
0.00433356 0.0487068 0.944335
0.0552682 0.0552682 0.944335
0.119326 0.0618296 0.944335
0.196506 0.0683909 0.944335
0.286824 0.0749523 0.944335
0.485878 0.0815137 0.944335
0.671824 0.0880751 0.944335
0.844633 0.0946365 0.944335
1 0.101198 0.944335
0.00433356 0.136828 0.944335
0.0771344 0.14995 0.944335
0.163073 0.163073 0.944335
0.262135 0.176196 0.944335
0.374319 0.189319 0.944335
0.551507 0.202441 0.944335
0.715572 0.215564 0.944335
0.866514 0.228687 0.944335
1 0.24181 0.944335
0.00433356 0.268696 0.944335
0.0990005 0.28838 0.944335
0.206821 0.308064 0.944335
0.327749 0.327749 0.944335
0.461814 0.347448 0.944335
0.617136 0.367132 0.944335
0.759319 0.386816 0.944335
0.888395 0.4065 0.944335
1 0.426184 0.944335
0.00433356 0.444327 0.944335
0.120882 0.470573 0.944335
0.250568 0.496818 0.944335
0.393378 0.523064 0.944335
0.54931 0.54931 0.944335
0.682765 0.57557 0.944335
0.803082 0.601816 0.944335
0.910262 0.628061 0.944335
1 0.654322 0.944335
0.00433356 0.649943 0.944335
0.142748 0.669627 0.944335
0.294316 0.689326 0.944335
0.459007 0.70901 0.944335
0.63682 0.728695 0.944335
0.748394 0.748394 0.944335
0.84683 0.768078 0.944335
0.932143 0.787762 0.944335
1 0.807446 0.944335
0.00433356 0.811826 0.944335
0.16463 0.824948 0.944335
0.338064 0.838071 0.944335
0.52462 0.851209 0.944335
0.724315 0.864332 0.944335
0.814008 0.877455 0.944335
0.890578 0.890578 0.944335
0.954025 0.9037 0.944335
1 0.916823 0.944335
0.00433356 0.929961 0.944335
0.186496 0.936522 0.944335
0.381811 0.943084 0.944335
0.590249 0.949645 0.944335
0.81181 0.956207 0.944335
0.879637 0.962768 0.944335
0.934325 0.969329 0.944335
0.975891 0.975891 0.944335
1 0.982452 0.944335
0.00433356 1 0.944335
0.208377 1 0.944335
0.425559 1 0.944335
0.655879 1 0.944335
0.899321 1 0.944335
0.945266 1 0.944335
0.978088 1 0.944335
0.997772 1 0.944335
1 1 0.944335
