assets/cube/bleech_bypass_yellow_01.cube
TITLE "Generated by Resolve"
LUT_3D_SIZE 33
0 0 0
0.000411994 0 0
0.00163272 0 0
0.00369268 0 0
0.00656138 0 0
0.0102541 0 0
0.0147707 0 0
0.0200961 0 0
0.0262455 0 0
0.0332189 0 0
0.0410163 0 0
0.0496223 0 0
0.0590524 0 0
0.0693065 0 0
0.0803845 0 0
0.0922866 0 0
0.104997 0 0
0.167071 0 0
0.228351 0 0
0.288792 0 0
0.348424 0 0
0.407233 0 0
0.465232 0 0
0.522393 0 0
0.578744 0 0
0.634272 0 0
0.688975 0 0
0.74287 0 0
0.795941 0 0
0.848188 0 0
0.899611 0 0
0.95021 0 0
1 0 0
0 0.00137331 0
0.00177005 0.00177005 0
0.00437934 0.00218204 0
0.0077821 0.00259403 0
0.0120241 0.00300603 0
0.0170901 0.00341802 0
0.0229648 0.00383001 0
0.0296635 0.00424201 0
0.0371862 0.00463874 0
0.0455177 0.00505074 0
0.0546731 0.00546273 0
0.0646525 0.00587472 0
0.0754559 0.00628672 0
0.0870832 0.00669871 0
0.0995193 0.0071107 0
0.112779 0.0075227 0
0.126864 0.00791943 0
0.187579 0.00833143 0
0.247471 0.00874342 0
0.306569 0.00915541 0
0.364828 0.00956741 0
0.422263 0.0099794 0
0.478889 0.0103914 0
0.534691 0.0107881 0
0.58967 0.0112001 0
0.643839 0.0116121 0
0.697185 0.0120241 0
0.749706 0.0124361 0
0.801404 0.0128481 0
0.852277 0.0132601 0
0.902342 0.0136721 0
0.951583 0.0140688 0
1 0.0144808 0
0 0.00546273 0
0.00314336 0.00628672 0
0.0071107 0.0071107 0
0.0118868 0.00791943 0
0.0175021 0.00874342 0
0.0239261 0.00956741 0
0.0311589 0.0103914 0
0.0392309 0.0112001 0
0.0481117 0.0120241 0
0.0578164 0.0128481 0
0.0683452 0.0136721 0
0.0796979 0.0144808 0
0.0918593 0.0153048 0
0.104845 0.0161288 0
0.118654 0.0169528 0
0.133288 0.0177615 0
0.14873 0.0185855 0
0.208087 0.0194095 0
0.266621 0.0202335 0
0.324331 0.0210422 0
0.381231 0.0218662 0
0.437308 0.0226902 0
0.492561 0.0235142 0
0.547005 0.0243229 0
0.60061 0.0251469 0
0.653407 0.0259709 0
0.705379 0.0267948 0
0.756542 0.0276036 0
0.806867 0.0284276 0
0.856382 0.0292515 0
0.905074 0.0300755 0
0.952941 0.0308843 0
1 0.0317082 0
0 0.0122988 0
0.00450141 0.0135348 0
0.00984207 0.0147555 0
0.0159915 0.0159915 0
0.0229648 0.0172274 0
0.0307622 0.0184482 0
0.0393683 0.0196841 0
0.0487984 0.0209201 0
0.0590524 0.0221408 0
0.0701305 0.0233768 0
0.0820172 0.0245975 0
0.094728 0.0258335 0
0.108263 0.0270695 0
0.122621 0.0282902 0
0.137804 0.0295262 0
0.153796 0.0307622 0
0.170611 0.0319829 0
0.228595 0.0332189 0
0.285756 0.0344396 0
0.342107 0.0356756 0
0.397635 0.0369116 0
0.452354 0.0381323 0
0.506233 0.0393683 0
0.559304 0.0406043 0
0.611551 0.041825 0
0.662974 0.043061 0
0.713588 0.0442817 0
0.763378 0.0455177 0
0.812345 0.0467536 0
0.860487 0.0479744 0
0.907805 0.0492103 0
0.954314 0.0504463 0
1 0.051667 0
0 0.0218662 0
0.00587472 0.0235142 0
0.0125734 0.0251469 0
0.0200961 0.0267948 0
0.0284276 0.0284276 0
0.0375982 0.0300755 0
0.0475776 0.0317082 0
0.0583658 0.0333562 0
0.0699931 0.0349889 0
0.0824292 0.0366369 0
0.0956893 0.0382696 0
0.109773 0.0399176 0
0.124681 0.0415503 0
0.140398 0.0431983 0
0.156939 0.044831 0
0.174304 0.046479 0
0.192493 0.0481117 0
0.249104 0.0497597 0
0.304906 0.0513924 0
0.359884 0.0530404 0
0.414038 0.0546731 0
0.467384 0.0563211 0
0.519905 0.0579538 0
0.571603 0.0596017 0
0.622492 0.0612345 0
0.672557 0.0628824 0
0.721782 0.0645151 0
0.770214 0.0661631 0
0.817807 0.0677958 0
0.864591 0.0694438 0
0.910552 0.0710765 0
0.955688 0.0727245 0
1 0.0743572 0
0 0.0341802 0
0.00724804 0.0362249 0
0.0153048 0.0382696 0
0.0242008 0.0403296 0
0.0339055 0.0423743 0
0.044419 0.044419 0
0.0557717 0.046479 0
0.0679332 0.0485237 0
0.0809339 0.0505837 0
0.0947433 0.0526284 0
0.109361 0.0546731 0
0.124819 0.056733 0
0.141085 0.0587778 0
0.158175 0.0608377 0
0.176074 0.0628824 0
0.194812 0.0649271 0
0.214359 0.0669871 0
0.269612 0.0690318 0
0.324041 0.0710918 0
0.377661 0.0731365 0
0.430457 0.0751812 0
0.482429 0.0772412 0
0.533578 0.0792859 0
0.583917 0.0813306 0
0.633433 0.0833906 0
0.682124 0.0854353 0
0.729992 0.0874952 0
0.77705 0.0895399 0
0.82327 0.0915847 0
0.868681 0.0936446 0
0.913283 0.0956893 0
0.957046 0.0977493 0
1 0.099794 0
0 0.0492103 0
0.00860609 0.051667 0
0.0180362 0.054139 0
0.0282902 0.0565957 0
0.0393683 0.0590524 0
0.0512551 0.0615091 0
0.0639811 0.0639811 0
0.0775158 0.0664378 0
0.0918593 0.0688945 0
0.107042 0.0713512 0
0.123033 0.0738231 0
0.139849 0.0762798 0
0.157488 0.0787366 0
0.175952 0.0812085 0
0.195224 0.0836652 0
0.21532 0.0861219 0
0.23624 0.0885786 0
0.29012 0.0910506 0
0.343191 0.0935073 0
0.395438 0.095964 0
0.44686 0.0984207 0
0.497459 0.100893 0
0.54725 0.103349 0
0.596216 0.105806 0
0.644358 0.108278 0
0.691691 0.110735 0
0.738201 0.113191 0
0.783886 0.115648 0
0.828748 0.11812 0
0.872786 0.120577 0
0.916014 0.123033 0
0.958419 0.12549 0
1 0.127962 0
0 0.0669871 0
0.0099794 0.0698558 0
0.0207675 0.0727245 0
0.0323949 0.0755932 0
0.044831 0.0784619 0
0.0580911 0.0813458 0
0.0721752 0.0842145 0
0.0870832 0.0870832 0
0.1028 0.0899519 0
0.119341 0.0928206 0
0.136706 0.0956893 0
0.154894 0.098558 0
0.173892 0.101442 0
0.193713 0.104311 0
0.214359 0.107179 0
0.235828 0.110048 0
0.258106 0.112917 0
0.310628 0.115785 0
0.362325 0.118654 0
0.413199 0.121538 0
0.463264 0.124407 0
0.512505 0.127275 0
0.560922 0.130144 0
0.60853 0.133013 0
0.655299 0.135882 0
0.701259 0.138766 0
0.746395 0.141634 0
0.790722 0.144503 0
0.834211 0.147372 0
0.87689 0.15024 0
0.918746 0.153109 0
0.959777 0.155978 0
1 0.158862 0
0 0.0874952 0
0.0113375 0.0907759 0
0.0235142 0.0940566 0
0.0364996 0.0973373 0
0.050309 0.100618 0
0.0649271 0.103899 0
0.0803845 0.107179 0
0.0966506 0.11046 0
0.113741 0.113741 0
0.131655 0.117021 0
0.150378 0.120302 0
0.169924 0.123583 0
0.190295 0.126864 0
0.21149 0.130144 0
0.233509 0.133425 0
0.256336 0.136706 0
0.279988 0.139986 0
0.331136 0.143267 0
0.38146 0.146548 0
0.430976 0.149828 0
0.479667 0.153109 0
0.52755 0.15639 0
0.574594 0.15967 0
0.620829 0.162951 0
0.666239 0.166232 0
0.710826 0.169512 0
0.754604 0.172793 0
0.797559 0.176074 0
0.839689 0.17937 0
0.880995 0.18265 0
0.921477 0.185931 0
0.961151 0.189212 0
1 0.192493 0
0 0.110735 0
0.0127108 0.114427 0
0.0262455 0.11812 0
0.0406043 0.121813 0
0.0557717 0.12549 0
0.0717632 0.129183 0
0.0885786 0.132876 0
0.106218 0.136568 0
0.124681 0.140261 0
0.143954 0.143954 0
0.16405 0.147646 0
0.18497 0.151339 0
0.206699 0.155032 0
0.229267 0.158724 0
0.252644 0.162417 0
0.276844 0.166094 0
0.301854 0.169787 0
0.351644 0.17348 0
0.40061 0.177172 0
0.448753 0.180865 0
0.496086 0.184558 0
0.54258 0.188251 0
0.588266 0.191943 0
0.633127 0.195636 0
0.67718 0.199329 0
0.720409 0.203021 0
0.762798 0.206699 0
0.804395 0.210391 0
0.845151 0.214084 0
0.8851 0.217777 0
0.924224 0.221469 0
0.962524 0.225162 0
1 0.228855 0
0 0.136706 0
0.0140688 0.14081 0
0.0289769 0.144915 0
0.0446937 0.14902 0
0.0612345 0.153109 0
0.0785992 0.157214 0
0.096788 0.161318 0
0.115785 0.165423 0
0.135607 0.169512 0
0.156252 0.173617 0
0.177722 0.177722 0
0.2 0.181827 0
0.223117 0.185931 0
0.247044 0.190021 0
0.271778 0.194125 0
0.297353 0.19823 0
0.323735 0.202335 0
0.372152 0.206439 0
0.419745 0.210529 0
0.466529 0.214633 0
0.512489 0.218738 0
0.557626 0.222843 0
0.601938 0.226947 0
0.645441 0.231037 0
0.688121 0.235142 0
0.729976 0.239246 0
0.771008 0.243351 0
0.811231 0.24744 0
0.850614 0.251545 0
0.889189 0.25565 0
0.926955 0.259754 0
0.963882 0.263859 0
1 0.267948 0
0 0.165423 0
0.0154421 0.169924 0
0.0317082 0.174441 0
0.0487984 0.178958 0
0.0667124 0.183459 0
0.0854353 0.187976 0
0.104982 0.192493 0
0.125353 0.196994 0
0.146548 0.201511 0
0.168566 0.206027 0
0.191394 0.210529 0
0.215045 0.215045 0
0.239521 0.219562 0
0.264805 0.224063 0
0.290929 0.22858 0
0.317861 0.233097 0
0.345617 0.237598 0
0.39266 0.242115 0
0.438895 0.246632 0
0.484306 0.251133 0
0.528893 0.25565 0
0.572671 0.260166 0
0.61561 0.264668 0
0.65774 0.269184 0
0.699062 0.273701 0
0.739544 0.278202 0
0.779217 0.282719 0
0.818067 0.287236 0
0.856092 0.291737 0
0.893294 0.296254 0
0.929686 0.300771 0
0.965255 0.305272 0
1 0.309789 0
0 0.196872 0
0.0168154 0.201785 0
0.0344396 0.206699 0
0.052903 0.211627 0
0.0721752 0.216556 0
0.0922713 0.221469 0
0.113191 0.226398 0
0.134936 0.231312 0
0.157488 0.23624 0
0.180865 0.241154 0
0.205066 0.246082 0
0.230091 0.250996 0
0.255924 0.255924 0
0.282582 0.260853 0
0.310063 0.265766 0
0.338369 0.270695 0
0.367483 0.275608 0
0.413169 0.280537 0
0.45803 0.285451 0
0.502083 0.290379 0
0.545296 0.295293 0
0.587701 0.300221 0
0.629282 0.30515 0
0.670054 0.310063 0
0.709987 0.314992 0
0.749111 0.319905 0
0.787411 0.324834 0
0.824903 0.329747 0
0.861555 0.334676 0
0.897398 0.33959 0
0.932418 0.344518 0
0.966613 0.349432 0
1 0.35436 0
0 0.231037 0
0.0181735 0.236378 0
0.037171 0.241703 0
0.0570077 0.247044 0
0.0776532 0.252369 0
0.0991073 0.257694 0
0.121401 0.263035 0
0.144503 0.26836 0
0.168429 0.273701 0
0.193164 0.279026 0
0.218738 0.284367 0
0.245121 0.289693 0
0.272328 0.295033 0
0.300359 0.300359 0
0.329198 0.305684 0
0.358877 0.311025 0
0.389364 0.31635 0
0.433677 0.321691 0
0.47718 0.327016 0
0.519844 0.332357 0
0.5617 0.337682 0
0.602747 0.343008 0
0.642954 0.348348 0
0.682353 0.353674 0
0.720928 0.359014 0
0.758679 0.36434 0
0.795621 0.36968 0
0.831739 0.375006 0
0.867033 0.380331 0
0.901503 0.385672 0
0.935149 0.390997 0
0.967987 0.396338 0
1 0.401663 0
0 0.267964 0
0.0195468 0.273701 0
0.0399176 0.279438 0
0.0610971 0.285176 0
0.0831159 0.290929 0
0.105943 0.296666 0
0.129595 0.302403 0
0.15407 0.308156 0
0.17937 0.313893 0
0.205478 0.319631 0
0.23241 0.325383 0
0.260166 0.331121 0
0.288731 0.336858 0
0.318135 0.342611 0
0.348348 0.348348 0
0.379385 0.354086 0
0.411231 0.359823 0
0.454185 0.365576 0
0.496315 0.371313 0
0.537621 0.37705 0
0.578119 0.382803 0
0.617777 0.38854 0
0.656626 0.394278 0
0.694667 0.400031 0
0.731868 0.405768 0
0.768261 0.411505 0
0.80383 0.417258 0
0.838575 0.422995 0
0.872496 0.428733 0
0.905608 0.434485 0
0.937896 0.440223 0
0.96936 0.44596 0
1 0.451698 0
0 0.307607 0
0.0209049 0.313756 0
0.042649 0.319905 0
0.0652018 0.326055 0
0.0885786 0.332219 0
0.112779 0.338369 0
0.137804 0.344518 0
0.163638 0.350668 0
0.190295 0.356817 0
0.217777 0.362982 0
0.246082 0.369131 0
0.275196 0.37528 0
0.30515 0.38143 0
0.335897 0.387579 0
0.367483 0.393729 0
0.399893 0.399893 0
0.433112 0.406043 0
0.474693 0.412192 0
0.51545 0.418341 0
0.555398 0.424491 0
0.594522 0.430655 0
0.632822 0.436805 0
0.670298 0.442954 0
0.706966 0.449104 0
0.742809 0.455253 0
0.777829 0.461418 0
0.812024 0.467567 0
0.845411 0.473716 0
0.877958 0.479866 0
0.909697 0.486015 0
0.940627 0.49218 0
0.970718 0.498329 0
1 0.504479 0
0 0.349996 0
0.0222782 0.356542 0
0.0453803 0.363104 0
0.0693065 0.36968 0
0.0940566 0.376242 0
0.119615 0.382803 0
0.145998 0.389364 0
0.173205 0.395926 0
0.201236 0.402487 0
0.230091 0.409049 0
0.259754 0.41561 0
0.290242 0.422171 0
0.321553 0.428733 0
0.353674 0.435294 0
0.386633 0.441855 0
0.420401 0.448417 0
0.454994 0.454994 0
0.495201 0.461555 0
0.5346 0.468116 0
0.573175 0.474678 0
0.610925 0.481239 0
0.647868 0.4878 0
0.68397 0.494362 0
0.719265 0.500923 0
0.75375 0.507485 0
0.787396 0.514046 0
0.820233 0.520607 0
0.852247 0.527169 0
0.883436 0.53373 0
0.913802 0.540291 0
0.943358 0.546868 0
0.972091 0.553429 0
1 0.559991 0
0 0.411124 0
0.0236362 0.417273 0
0.0481117 0.423423 0
0.0734112 0.429572 0
0.0995193 0.435721 0
0.126452 0.441886 0
0.154208 0.448035 0
0.182773 0.454185 0
0.212177 0.460334 0
0.24239 0.466484 0
0.273426 0.472648 0
0.305272 0.478798 0
0.337957 0.484947 0
0.37145 0.491096 0
0.405768 0.497246 0
0.440909 0.50341 0
0.47686 0.50956 0
0.515709 0.515709 0
0.553735 0.521859 0
0.590951 0.528008 0
0.627329 0.534173 0
0.662898 0.540322 0
0.697643 0.546471 0
0.731579 0.552621 0
0.764675 0.55877 0
0.796963 0.564935 0
0.828428 0.571084 0
0.859083 0.577234 0
0.888899 0.583383 0
0.917906 0.589532 0
0.94609 0.595697 0
0.973449 0.601846 0
1 0.607996 0
0 0.46952 0
0.0250095 0.475257 0
0.0508431 0.480995 0
0.0775006 0.486748 0
0.104982 0.492485 0
0.133288 0.498222 0
0.162402 0.503975 0
0.192355 0.509712 0
0.223117 0.51545 0
0.254688 0.521202 0
0.287098 0.52694 0
0.320317 0.532677 0
0.35436 0.53843 0
0.389227 0.544167 0
0.424903 0.549905 0
0.461418 0.555657 0
0.498741 0.561395 0
0.536217 0.567132 0
0.572885 0.572885 0
0.608713 0.578622 0
0.643748 0.58436 0
0.677943 0.590112 0
0.711315 0.59585 0
0.743877 0.601587 0
0.775616 0.60734 0
0.806531 0.613077 0
0.836637 0.618814 0
0.865919 0.624567 0
0.894377 0.630304 0
0.922011 0.636042 0
0.948821 0.641794 0
0.974823 0.647532 0
1 0.653269 0
0 0.525185 0
0.0263676 0.53051 0
0.0535744 0.535851 0
0.0816052 0.541176 0
0.11046 0.546517 0
0.140124 0.551843 0
0.170611 0.557168 0
0.201923 0.562509 0
0.234043 0.567834 0
0.267002 0.573175 0
0.300771 0.5785 0
0.335363 0.583841 0
0.370764 0.589166 0
0.407004 0.594507 0
0.444053 0.599832 0
0.481926 0.605158 0
0.520607 0.610498 0
0.556725 0.615824 0
0.59202 0.621164 0
0.62649 0.62649 0
0.660151 0.63183 0
0.692973 0.637156 0
0.724987 0.642496 0
0.756191 0.647822 0
0.786557 0.653147 0
0.816114 0.658488 0
0.844846 0.663813 0
0.872755 0.669154 0
0.89984 0.674479 0
0.926116 0.67982 0
0.951568 0.685145 0
0.976196 0.690486 0
1 0.695811 0
0 0.578119 0
0.0277409 0.583032 0
0.0563211 0.587961 0
0.0857099 0.592874 0
0.115923 0.597803 0
0.14696 0.602716 0
0.17882 0.607645 0
0.21149 0.612573 0
0.244984 0.617487 0
0.279301 0.622415 0
0.314443 0.627329 0
0.350393 0.632258 0
0.387167 0.637171 0
0.424765 0.6421 0
0.463188 0.647028 0
0.502434 0.651942 0
0.542489 0.65687 0
0.577234 0.661784 0
0.611154 0.666712 0
0.644266 0.671626 0
0.676555 0.676555 0
0.708019 0.681483 0
0.738659 0.686397 0
0.76849 0.691325 0
0.797498 0.696239 0
0.825681 0.701167 0
0.85304 0.706081 0
0.879591 0.711009 0
0.905303 0.715923 0
0.93022 0.720851 0
0.954299 0.72578 0
0.977554 0.730694 0
1 0.735622 0
0 0.628305 0
0.0291142 0.632822 0
0.0590524 0.637339 0
0.0898146 0.64184 0
0.121386 0.646357 0
0.153796 0.650874 0
0.187015 0.655375 0
0.221057 0.659892 0
0.255924 0.664408 0
0.2916 0.66891 0
0.328115 0.673426 0
0.365438 0.677943 0
0.403586 0.68246 0
0.442542 0.686961 0
0.482322 0.691478 0
0.522942 0.695994 0
0.564355 0.700496 0
0.597742 0.705013 0
0.630304 0.709529 0
0.662043 0.714031 0
0.692958 0.718547 0
0.723064 0.723064 0
0.752331 0.727565 0
0.780789 0.732082 0
0.808438 0.736599 0
0.835248 0.7411 0
0.86125 0.745617 0
0.886427 0.750134 0
0.91078 0.754635 0
0.93431 0.759152 0
0.957031 0.763668 0
0.978927 0.768185 0
1 0.772686 0
0 0.675776 0
0.0304723 0.679881 0
0.0617838 0.68397 0
0.093904 0.688075 0
0.126864 0.69218 0
0.160632 0.696284 0
0.195224 0.700389 0
0.230625 0.704479 0
0.266865 0.708583 0
0.303914 0.712688 0
0.341787 0.716793 0
0.380468 0.720897 0
0.419989 0.724987 0
0.460319 0.729091 0
0.501472 0.733196 0
0.54345 0.737301 0
0.586236 0.741405 0
0.61825 0.745495 0
0.649439 0.749599 0
0.67982 0.753704 0
0.709361 0.757809 0
0.738094 0.761913 0
0.766003 0.766003 0
0.793103 0.770108 0
0.819364 0.774212 0
0.844816 0.778317 0
0.869444 0.782422 0
0.893263 0.786511 0
0.916243 0.790616 0
0.938415 0.79472 0
0.959762 0.798825 0
0.980285 0.80293 0
1 0.807019 0
0 0.7205 0
0.0318456 0.724193 0
0.0645151 0.727886 0
0.0980087 0.731579 0
0.132326 0.735271 0
0.167468 0.738964 0
0.203418 0.742657 0
0.240192 0.746334 0
0.27779 0.750027 0
0.316213 0.753719 0
0.355459 0.757412 0
0.395514 0.761105 0
0.436393 0.764797 0
0.478096 0.76849 0
0.520607 0.772183 0
0.563958 0.775876 0
0.608118 0.779568 0
0.638758 0.783261 0
0.668589 0.786954 0
0.697597 0.790646 0
0.72578 0.794324 0
0.75314 0.798016 0
0.779675 0.801709 0
0.805402 0.805402 0
0.830304 0.809094 0
0.854383 0.812787 0
0.877653 0.81648 0
0.900099 0.820172 0
0.921721 0.823865 0
0.942519 0.827558 0
0.962493 0.83125 0
0.981659 0.834943 0
1 0.838636 0
0 0.762493 0
0.0332036 0.765774 0
0.0672465 0.769055 0
0.102113 0.772335 0
0.137789 0.775616 0
0.174304 0.778897 0
0.211627 0.782177 0
0.249775 0.785458 0
0.288731 0.788739 0
0.328527 0.79202 0
0.369131 0.7953 0
0.410544 0.798581 0
0.452796 0.801877 0
0.495857 0.805158 0
0.539757 0.808438 0
0.584451 0.811719 0
0.629984 0.815 0
0.659266 0.81828 0
0.687724 0.821561 0
0.715358 0.824842 0
0.742184 0.828122 0
0.768185 0.831403 0
0.793347 0.834684 0
0.817716 0.837964 0
0.841245 0.841245 0
0.863966 0.844526 0
0.885863 0.847807 0
0.906935 0.851087 0
0.927184 0.854368 0
0.946624 0.857649 0
0.96524 0.860929 0
0.983032 0.86421 0
1 0.867491 0
0 0.801755 0
0.0345769 0.804623 0
0.0699779 0.807492 0
0.106218 0.810361 0
0.143267 0.81323 0
0.18114 0.816114 0
0.219821 0.818982 0
0.259342 0.821851 0
0.299672 0.82472 0
0.340825 0.827588 0
0.382803 0.830457 0
0.425589 0.833341 0
0.4692 0.83621 0
0.513634 0.839078 0
0.558892 0.841947 0
0.604959 0.844816 0
0.651865 0.847684 0
0.679774 0.850568 0
0.706874 0.853437 0
0.733135 0.856306 0
0.758587 0.859174 0
0.783215 0.862043 0
0.807019 0.864912 0
0.830014 0.867796 0
0.852186 0.870665 0
0.873533 0.873533 0
0.894057 0.876402 0
0.913771 0.879271 0
0.932662 0.882139 0
0.950729 0.885023 0
0.967971 0.887892 0
0.98439 0.890761 0
1 0.893629 0
0 0.838285 0
0.035935 0.840742 0
0.0727245 0.843198 0
0.110307 0.845655 0
0.14873 0.848127 0
0.187976 0.850584 0
0.228031 0.85304 0
0.26891 0.855497 0
0.310613 0.857969 0
0.353124 0.860426 0
0.396475 0.862882 0
0.440635 0.865354 0
0.485603 0.867811 0
0.531411 0.870268 0
0.578027 0.872724 0
0.625467 0.875196 0
0.673732 0.877653 0
0.700282 0.88011 0
0.726009 0.882582 0
0.750912 0.885039 0
0.77499 0.887495 0
0.79826 0.889952 0
0.820691 0.892424 0
0.842313 0.894881 0
0.863127 0.897337 0
0.883101 0.899809 0
0.902266 0.902266 0
0.920607 0.904723 0
0.938125 0.907179 0
0.954818 0.909651 0
0.970703 0.912108 0
0.985763 0.914565 0
1 0.917037 0
0 0.872068 0
0.0373083 0.874113 0
0.0754559 0.876173 0
0.114412 0.878218 0
0.154208 0.880278 0
0.194812 0.882322 0
0.23624 0.884367 0
0.278477 0.886427 0
0.321538 0.888472 0
