assets/cube/bleech_bypass_green.cube
TITLE "Generated by Resolve"
LUT_3D_SIZE 33
0 0 0
0.000320439 3.0518e-05 3.0518e-05
0.00132753 9.15541e-05 9.15541e-05
0.0030518 0.000167849 0.000167849
0.00553903 0.000274662 0.000274662
0.00877394 0.000396735 0.000396735
0.0127871 0.000534066 0.000534066
0.0175937 0.000671397 0.000671397
0.0231785 0.000823987 0.000823987
0.029572 0.000991836 0.000991836
0.036759 0.00114443 0.00114443
0.04477 0.00131228 0.00131228
0.0536049 0.00148013 0.00148013
0.0632486 0.00163272 0.00163272
0.0737163 0.00180056 0.00180056
0.0850233 0.00195315 0.00195315
0.0971695 0.002121 0.002121
0.157076 0.00270085 0.00270085
0.216999 0.00306706 0.00306706
0.276661 0.00328069 0.00328069
0.335943 0.00337224 0.00337224
0.394766 0.00337224 0.00337224
0.453056 0.00328069 0.00328069
0.510765 0.00314336 0.00314336
0.567864 0.00292973 0.00292973
0.624338 0.00268559 0.00268559
0.680125 0.00239567 0.00239567
0.735241 0.00205997 0.00205997
0.789654 0.00169375 0.00169375
0.843351 0.00131228 0.00131228
0.8963 0.000885023 0.000885023
0.948531 0.000457771 0.000457771
1 0 0
0 0.00143435 0
0.00123598 0.00195315 0
0.00340276 0.00248722 0
0.00633249 0.00302129 4.57771e-05
0.0100404 0.00358587 0.000137331
0.0145266 0.00415045 0.000244144
0.0198062 0.0047303 0.000366217
0.0258946 0.00531014 0.000488289
0.0327764 0.00588998 0.00062562
0.0404669 0.00648508 0.000762951
0.0489815 0.00706493 0.000900282
0.05832 0.00766003 0.00102235
0.0684825 0.00823987 0.00115969
0.0794842 0.00881971 0.00129702
0.09131 0.00939956 0.00141909
0.103975 0.0099794 0.00155642
0.117479 0.010544 0.00166323
0.176349 0.0114595 0.00213626
0.235096 0.0121767 0.00241093
0.293523 0.0127718 0.00254826
0.351537 0.0132601 0.00259403
0.409033 0.0136568 0.002533
0.465995 0.0139773 0.00241093
0.522347 0.0142367 0.00224308
0.578088 0.0144503 0.00199893
0.633158 0.0146181 0.00172427
0.687572 0.0147402 0.00140383
0.741283 0.0148318 0.00105287
0.794278 0.0148928 0.000671397
0.846555 0.0149386 0.000259403
0.898085 0.0149386 0
0.948882 0.0149386 0
0.998917 0.0149081 0
0 0.0056611 0
0.00201419 0.00666819 0
0.00538643 0.00764477 0
0.00955215 0.00865187 0
0.0145113 0.0096437 0
0.020264 0.0106508 0
0.0268406 0.0116579 0.000106813
0.034226 0.012665 0.000228885
0.0424353 0.0136873 0.000350958
0.0514534 0.0146944 0.00047303
0.0613107 0.0157015 0.000595102
0.0719921 0.0167086 0.000717174
0.0834974 0.0177157 0.000823987
0.0958572 0.0187076 0.000946059
0.109056 0.0196994 0.00105287
0.123095 0.020676 0.00115969
0.137987 0.0216526 0.00125124
0.195773 0.0229038 0.00161746
0.25333 0.0239872 0.00183108
0.310521 0.0249638 0.00192264
0.367254 0.0258335 0.00190738
0.423453 0.026627 0.00183108
0.479088 0.0273442 0.00167849
0.534096 0.0280156 0.00148013
0.588464 0.0286412 0.00122072
0.642176 0.029221 0.0009308
0.695201 0.0297551 0.000595102
0.747509 0.0302739 0.000244144
0.799115 0.0307469 0
0.849973 0.0312047 0
0.900099 0.0316472 0
0.949477 0.0320745 0
0.998093 0.0324712 0
0 0.0126802 0
0.00273136 0.0141451 0
0.00730907 0.0155795 0
0.012726 0.0170291 0
0.018967 0.0184634 0
0.0260166 0.0198978 0
0.0338903 0.0213321 0
0.0425879 0.0227665 0
0.0521096 0.0242008 0
0.0624704 0.0256352 0.000106813
0.0736706 0.0270542 0.000228885
0.0857099 0.0284886 0.000335698
0.0985885 0.0298924 0.000442512
0.112322 0.0312963 0.000549325
0.126894 0.0327001 0.000640879
0.142321 0.0340887 0.000732433
0.158602 0.0354772 0.000808728
0.215259 0.0370642 0.00109865
0.271626 0.0385138 0.00125124
0.327581 0.0398718 0.00129702
0.383032 0.0411231 0.00125124
0.437919 0.0423133 0.00114443
0.492226 0.0434424 0.000976577
0.545892 0.0445106 0.000747692
0.598901 0.0455329 0.000488289
0.65124 0.0465248 0.000183108
0.702876 0.0474861 0
0.753811 0.0484169 0
0.804013 0.0493172 0
0.853483 0.0502022 0
0.90219 0.0510567 0
0.950149 0.0518959 0
0.997345 0.0527199 0
0 0.022446 0
0.0033875 0.0243839 0
0.00921645 0.0262608 0
0.0158846 0.0281376 0
0.0234073 0.0300145 0
0.031754 0.0318761 0
0.0409552 0.0337377 0
0.0509804 0.0355993 0
0.0618448 0.0374609 0
0.0735485 0.0393072 0
0.0861067 0.0411383 0
0.0995041 0.0429694 0
0.113756 0.0448005 3.0518e-05
0.128862 0.0466163 0.000122072
0.144823 0.0484169 0.000198367
0.161639 0.0502174 0.000274662
0.179324 0.0520027 0.000335698
0.234836 0.0539406 0.000564584
0.289998 0.0557565 0.000671397
0.344686 0.057496 0.000671397
0.39884 0.059144 0.000610361
0.45243 0.0607156 0.00047303
0.505394 0.0622416 0.000289921
0.557717 0.0637217 6.10361e-05
0.609384 0.065156 0
0.660349 0.0665599 0
0.710613 0.0679332 0
0.760159 0.069276 0
0.808957 0.0705882 0
0.857023 0.0719005 0
0.904341 0.0731823 0
0.950881 0.0744335 0
0.996658 0.0757 0
0 0.0349737 0
0.00402838 0.0373541 0
0.0111086 0.0396887 0
0.0190585 0.0420081 0
0.027863 0.0442969 0
0.0375372 0.0466011 0
0.0480354 0.0488746 0
0.0594034 0.0511635 0
0.0716106 0.0534218 0
0.0846723 0.0556954 0
0.0985885 0.0579385 0
0.113359 0.0601816 0
0.129 0.0624094 0
0.14548 0.0646372 0
0.162844 0.0668498 0
0.181048 0.0690471 0
0.200137 0.0712291 0
0.254475 0.0735332 3.0518e-05
0.308415 0.0757153 9.15541e-05
0.361837 0.0778363 7.62951e-05
0.41471 0.0798657 0
0.466987 0.0818494 0
0.518624 0.083772 0
0.569604 0.0856489 0
0.619898 0.0874952 0
0.669505 0.0893111 0
0.718395 0.0910964 0
0.766552 0.0928511 0
0.813962 0.0945907 0
0.860624 0.0962997 0
0.906538 0.0980087 0
0.951675 0.0996872 0
0.996048 0.101366 0
0 0.0502327 0
0.00466926 0.0530709 0
0.0130007 0.055848 0
0.0222324 0.0585946 0
0.0323491 0.061326 0
0.0433356 0.0640421 0
0.0551766 0.066743 0
0.0678874 0.0694285 0
0.0814374 0.0721141 0
0.0958724 0.0747845 0
0.111147 0.0774548 0
0.127306 0.0801099 0
0.14432 0.0827344 0
0.162203 0.085359 0
0.180941 0.0879683 0
0.200565 0.0905776 0
0.221057 0.0931563 0
0.27422 0.0958267 0
0.326909 0.0983902 0
0.379065 0.100877 0
0.43064 0.103304 0
0.48159 0.105684 0
0.531899 0.108019 0
0.581537 0.110292 0
0.630472 0.112551 0
0.678706 0.114778 0
0.726223 0.116976 0
0.772992 0.119142 0
0.819028 0.121294 0
0.864302 0.12343 0
0.908797 0.125551 0
0.952529 0.127657 0
0.995483 0.129747 0
0 0.0682383 0
0.00531014 0.071519 0
0.0149081 0.0747234 0
0.0254368 0.0779126 0
0.0368658 0.0810559 0
0.0491798 0.0841993 0
0.0623636 0.0873274 0
0.0764172 0.090425 0
0.0913405 0.0935225 0
0.107134 0.0966049 0
0.123781 0.0996719 0
0.141314 0.102739 0
0.159731 0.105776 0
0.179004 0.108797 0
0.199145 0.111818 0
0.220172 0.114809 0
0.242084 0.117784 0
0.294026 0.120821 0
0.34548 0.123766 0
0.396353 0.12665 0
0.446632 0.129458 0
0.496269 0.132235 0
0.545235 0.134966 0
0.59353 0.137652 0
0.641108 0.140307 0
0.687984 0.142947 0
0.734112 0.145556 0
0.779507 0.148135 0
0.82414 0.150713 0
0.868025 0.153262 0
0.911131 0.155795 0
0.95346 0.158328 0
0.994995 0.160845 0
0 0.0889601 0
0.00598154 0.0926986 0
0.0168612 0.0963455 0
0.028687 0.0999466 0
0.0414282 0.103517 0
0.0550698 0.107073 0
0.0695964 0.110613 0
0.085008 0.114137 0
0.101289 0.117647 0
0.118456 0.121141 0
0.136507 0.124605 0
0.155428 0.128069 0
0.175219 0.131518 0
0.195895 0.134936 0
0.217456 0.138354 0
0.239902 0.141741 0
0.263218 0.145113 0
0.313939 0.148516 0
0.364141 0.151843 0
0.413733 0.155108 0
0.462699 0.158328 0
0.511009 0.161501 0
0.558648 0.16463 0
0.605585 0.167712 0
0.65182 0.170779 0
0.697322 0.173831 0
0.742077 0.176852 0
0.786084 0.179843 0
0.829343 0.182834 0
0.871824 0.185794 0
0.913527 0.188754 0
0.954452 0.191699 0
0.994583 0.194644 0
0 0.112398 0
0.00669871 0.116594 0
0.0188449 0.120668 0
0.0319829 0.124697 0
0.0460517 0.128695 0
0.0610361 0.132662 0
0.0769055 0.136629 0
0.0936751 0.140551 0
0.11133 0.144472 0
0.129885 0.148363 0
0.14931 0.152239 0
0.169619 0.156115 0
0.190814 0.159945 0
0.212894 0.163775 0
0.235874 0.16759 0
0.259724 0.171374 0
0.284474 0.175143 0
0.333959 0.178927 0
0.382879 0.182635 0
0.431189 0.186282 0
0.478843 0.189899 0
0.525841 0.193454 0
0.572137 0.196994 0
0.617731 0.200488 0
0.662593 0.203967 0
0.706722 0.207416 0
0.750103 0.210849 0
0.792737 0.214267 0
0.834607 0.217655 0
0.875685 0.221042 0
0.915999 0.224414 0
0.95552 0.227787 0
0.994247 0.231144 0
0 0.138567 0
0.0074464 0.143206 0
0.0208743 0.147707 0
0.0353246 0.152163 0
0.0507362 0.156588 0
0.0670481 0.160967 0
0.0842908 0.165331 0
0.102419 0.16968 0
0.121462 0.173999 0
0.141375 0.178302 0
0.162203 0.182589 0
0.183917 0.186847 0
0.206516 0.191089 0
0.229999 0.195315 0
0.254383 0.199527 0
0.279667 0.203708 0
0.305837 0.207874 0
0.354086 0.212024 0
0.401724 0.216114 0
0.448737 0.220157 0
0.495079 0.224155 0
0.540749 0.228122 0
0.585702 0.232059 0
0.629938 0.235966 0
0.673457 0.239841 0
0.716213 0.243702 0
0.758221 0.247547 0
0.799466 0.251377 0
0.839948 0.255192 0
0.879637 0.258991 0
0.918547 0.262776 0
0.95668 0.26656 0
0.994003 0.270344 0
0 0.167452 0
0.00825513 0.172534 0
0.0229801 0.177462 0
0.0387427 0.182345 0
0.0554818 0.187182 0
0.0731518 0.191989 0
0.0917372 0.196765 0
0.111254 0.201511 0
0.13167 0.206241 0
0.152972 0.210941 0
0.175189 0.215625 0
0.198306 0.220295 0
0.222309 0.224933 0
0.247227 0.229557 0
0.27303 0.23415 0
0.299733 0.238727 0
0.327321 0.24329 0
0.374304 0.247822 0
0.420676 0.252293 0
0.466377 0.256733 0
0.511406 0.261128 0
0.555749 0.265492 0
0.599359 0.269825 0
0.642252 0.274144 0
0.684398 0.278431 0
0.725795 0.282704 0
0.766415 0.286946 0
0.806287 0.291188 0
0.84538 0.295415 0
0.88368 0.299641 0
0.921202 0.303853 0
0.957916 0.308049 0
0.993835 0.312245 0
0 0.199039 0
0.00910964 0.204562 0
0.0251316 0.209934 0
0.0422217 0.215228 0
0.0603037 0.220478 0
0.0793317 0.225696 0
0.0992905 0.230884 0
0.120165 0.236042 0
0.14197 0.241169 0
0.164675 0.246281 0
0.188281 0.251362 0
0.212802 0.256428 0
0.238224 0.261463 0
0.264546 0.266484 0
0.291768 0.271473 0
0.319905 0.276448 0
0.348943 0.281392 0
0.394659 0.286305 0
0.439734 0.291173 0
0.484123 0.29601 0
0.52784 0.300801 0
0.57084 0.305562 0
0.613108 0.310292 0
0.654643 0.315022 0
0.69543 0.319707 0
0.735454 0.324392 0
0.774716 0.329061 0
0.813199 0.3337 0
0.850904 0.338354 0
0.887816 0.342977 0
0.923934 0.347601 0
0.959258 0.352224 0
0.993774 0.356847 0
0 0.233341 0
0.0100404 0.239307 0
0.0273747 0.245106 0
0.0457923 0.250813 0
0.0652171 0.256489 0
0.0855879 0.262119 0
0.10692 0.267704 0
0.129183 0.273274 0
0.152361 0.278813 0
0.176471 0.284321 0
0.20148 0.289799 0
0.227405 0.295262 0
0.254246 0.300694 0
0.281987 0.306096 0
0.310643 0.311482 0
0.3402 0.316854 0
0.370672 0.322194 0
0.415122 0.327489 0
0.4589 0.332753 0
0.501991 0.337972 0
0.544366 0.34316 0
0.586023 0.348318 0
0.626947 0.35346 0
0.66714 0.358587 0
0.706554 0.363684 0
0.745205 0.36878 0
0.783093 0.373861 0
0.820203 0.378912 0
0.856519 0.383978 0
0.892042 0.389029 0
0.926757 0.394064 0
0.960678 0.3991 0
0.993805 0.404135 0
0 0.270344 0
0.0110628 0.276768 0
0.0296941 0.282979 0
0.0494392 0.289113 0
0.0702068 0.295186 0
0.0919509 0.301228 0
0.114656 0.307225 0
0.138293 0.313191 0
0.162875 0.319142 0
0.188373 0.325048 0
0.214786 0.330922 0
0.24213 0.336782 0
0.27039 0.342611 0
0.29955 0.348409 0
0.329641 0.354192 0
0.360632 0.359945 0
0.392538 0.365682 0
0.435706 0.371359 0
0.478187 0.377005 0
0.519951 0.38262 0
0.561013 0.38822 0
0.601328 0.393774 0
0.640909 0.399329 0
0.679728 0.404852 0
0.717784 0.410361 0
0.755077 0.415854 0
0.791577 0.421347 0
0.827298 0.426825 0
0.862226 0.432288 0
0.896361 0.437751 0
0.929702 0.443214 0
0.962219 0.448676 0
0.993927 0.454124 0
0 0.310063 0
0.0121462 0.316915 0
0.0320897 0.323552 0
0.0531777 0.330098 0
0.075288 0.336599 0
0.0984054 0.343038 0
0.122484 0.349447 0
0.147509 0.355825 0
0.17348 0.362158 0
0.200381 0.368475 0
0.228214 0.374746 0
0.256977 0.381003 0
0.286656 0.387228 0
0.31725 0.393423 0
0.34876 0.399588 0
0.381201 0.405737 0
0.414542 0.411841 0
0.456413 0.417914 0
0.497581 0.423957 0
0.538033 0.429969 0
0.577752 0.435966 0
0.616739 0.441932 0
0.654963 0.447883 0
0.692424 0.453803 0
0.729122 0.459724 0
0.765042 0.465644 0
0.800168 0.471534 0
0.834516 0.477424 0
0.868055 0.483314 0
0.900801 0.489189 0
0.932738 0.495064 0
0.963867 0.500923 0
0.994171 0.506798 0
0 0.352468 0
0.0133364 0.359762 0
0.0345922 0.366827 0
0.0570077 0.3738 0
0.0804761 0.380697 0
0.104967 0.387549 0
0.130419 0.394369 0
0.156847 0.401144 0
0.184207 0.407874 0
0.212512 0.414588 0
0.241764 0.421256 0
0.271931 0.427909 0
0.303044 0.434516 0
0.335073 0.441108 0
0.368017 0.447669 0
0.401892 0.4542 0
0.436683 0.4607 0
0.477256 0.46717 0
0.517113 0.473594 0
0.556237 0.480003 0
0.594629 0.486397 0
0.632258 0.492775 0
0.669139 0.499123 0
0.705242 0.505455 0
0.740566 0.511788 0
0.775113 0.518105 0
0.808865 0.524407 0
0.841825 0.530709 0
0.873991 0.537011 0
0.905333 0.543297 0
0.935882 0.549599 0
0.965606 0.555886 0
0.994522 0.562173 0
0 0.413581 0
0.0146334 0.420493 0
0.0372015 0.427161 0
0.0609751 0.433722 0
0.0858015 0.440208 0
0.111666 0.446647 0
0.138506 0.453056 0
0.166323 0.459403 0
0.195087 0.465721 0
0.224796 0.472007 0
0.255467 0.478264 0
0.287053 0.484474 0
0.319585 0.490669 0
0.353048 0.496818 0
0.387427 0.502953 0
0.422751 0.509056 0
0.458991 0.515129 0
0.498253 0.521157 0
0.536782 0.527169 0
0.574578 0.533165 0
0.611612 0.539132 0
0.647898 0.545083 0
0.683421 0.551034 0
0.718151 0.556954 0
0.752102 0.562875 0
0.785275 0.56878 0
0.817639 0.574685 0
0.84921 0.580591 0
0.879973 0.58648 0
0.909926 0.592371 0
0.939071 0.59826 0
0.967407 0.604135 0
0.994904 0.610025 0
0 0.471901 0
0.016083 0.478431 0
0.0399634 0.484703 0
0.0650797 0.490852 0
0.0912642 0.496941 0
0.118486 0.502968 0
0.146715 0.508949 0
0.175921 0.514885 0
0.206088 0.52079 0
0.237217 0.52665 0
0.269276 0.532479 0
0.302296 0.538277 0
0.336248 0.54403 0
0.37113 0.549767 0
0.406958 0.555474 0
0.443717 0.561135 0
0.481392 0.566781 0
0.519341 0.572396 0
0.556542 0.577981 0
0.592996 0.583551 0
0.628687 0.589105 0
0.663615 0.594644 0
0.697765 0.600168 0
0.731136 0.605692 0
0.763699 0.6112 0
0.795483 0.616709 0
0.826474 0.622202 0
0.856641 0.627695 0
0.886015 0.633188 0
0.914565 0.638682 0
0.942306 0.64416 0
0.969223 0.649653 0
0.995315 0.655131 0
0 0.527459 0
0.0176242 0.533608 0
0.0428321 0.539467 0
0.069276 0.54522 0
0.0968185 0.550912 0
0.125429 0.556527 0
0.155032 0.562081 0
0.185626 0.567605 0
0.217182 0.573083 0
0.249714 0.578531 0
0.283192 0.583932 0
0.317632 0.589303 0
0.353002 0.594644 0
0.389319 0.599939 0
0.426581 0.605219 0
0.464759 0.610452 0
0.503899 0.615656 0
0.540505 0.620859 0
0.576379 0.626017 0
0.611475 0.631174 0
0.645823 0.636316 0
0.679377 0.641443 0
0.712154 0.646571 0
0.744152 0.651682 0
0.775341 0.656779 0
0.805737 0.661875 0
0.835325 0.666972 0
0.864118 0.672068 0
0.892073 0.67715 0
0.919234 0.682246 0
0.945571 0.687327 0
0.971069 0.692409 0
0.995758 0.697505 0
0 0.58024 0
0.0192416 0.586007 0
0.0457618 0.591485 0
0.0735485 0.596826 0
0.102464 0.602106 0
0.132418 0.607309 0
0.163409 0.612451 0
0.195392 0.617563 0
0.228351 0.622629 0
0.262287 0.627634 0
0.297185 0.632624 0
0.333028 0.637568 0
0.369833 0.642481 0
0.407568 0.647349 0
0.446265 0.652201 0
0.485893 0.657008 0
0.526467 0.661784 0
0.561746 0.66656 0
0.596262 0.671321 0
0.630014 0.676051 0
0.662989 0.680781 0
0.695186 0.685496 0
0.726589 0.690211 0
0.757198 0.694911 0
0.787015 0.699611 0
0.816022 0.704311 0
0.844221 0.708995 0
0.871595 0.713695 0
0.898161 0.718379 0
0.923919 0.723064 0
0.948837 0.727749 0
0.97293 0.732433 0
0.996201 0.737133 0
0 0.630274 0
0.0209201 0.63566 0
0.0487526 0.640726 0
0.0778821 0.645685 0
0.108141 0.650538 0
0.139483 0.655329 0
0.171847 0.660075 0
0.205219 0.664759 0
0.239582 0.669398 0
0.274922 0.674006 0
0.311223 0.678569 0
0.348501 0.683085 0
0.386709 0.687572 0
0.425895 0.692012 0
0.466011 0.696437 0
0.507073 0.700816 0
0.549081 0.705165 0
0.583032 0.709514 0
0.616205 0.713863 0
0.648585 0.718181 0
0.680201 0.722499 0
0.711025 0.726818 0
0.741054 0.731121 0
0.770275 0.735409 0
0.798703 0.739712 0
0.826307 0.743999 0
0.853117 0.748287 0
0.879088 0.752575 0
0.904265 0.756863 0
0.928603 0.761151 0
0.952117 0.765438 0
0.974792 0.769726 0
0.996658 0.774029 0
0 0.677546 0
0.0226291 0.682551 0
0.0517891 0.687236 0
0.0822461 0.691783 0
0.113878 0.696239 0
0.146578 0.700618 0
0.180331 0.704936 0
0.215091 0.709209 0
0.250858 0.713436 0
0.287587 0.717617 0
0.325307 0.721752 0
0.363989 0.725841 0
0.403647 0.729915 0
0.444236 0.733928 0
0.485801 0.737911 0
0.528298 0.741863 0
0.571756 0.745785 0
0.604349 0.749722 0
0.636164 0.753658 0
0.667185 0.757565 0
0.697429 0.761486 0
0.726879 0.765377 0
0.75552 0.769284 0
0.783368 0.773175 0
0.810391 0.777066 0
0.836606 0.780957 0
0.862013 0.784833 0
0.886595 0.788724 0
0.910353 0.792615 0
0.933288 0.796506 0
0.955383 0.800397 0
0.976654 0.804288 0
0.997101 0.808179 0
0 0.722087 0
0.0243687 0.726711 0
0.0548409 0.730999 0
0.0866407 0.735134 0
0.119631 0.739178 0
0.153704 0.74316 0
0.18883 0.747066 0
0.224994 0.750912 0
0.26215 0.754726 0
0.300298 0.75848 0
0.339422 0.762203 0
0.379522 0.765866 0
0.4206 0.769512 0
0.462623 0.773098 0
0.505608 0.776654 0
0.549554 0.780179 0
0.594446 0.783673 0
0.625696 0.787198 0
0.656138 0.790707 0
0.685802 0.794217 0
0.714672 0.797726 0
0.742733 0.801221 0
0.770001 0.804715 0
0.796445 0.808194 0
0.82208 0.811688 0
0.846906 0.815167 0
0.870909 0.818662 0
0.894087 0.822141 0
0.916426 0.825635 0
0.937957 0.829129 0
0.958648 0.832624 0
0.9785 0.836118 0
0.997528 0.839612 0
0 0.763882 0
0.0261234 0.768124 0
0.057908 0.772015 0
0.0910506 0.775753 0
0.125399 0.779385 0
0.160845 0.782956 0
0.19736 0.78645 0
0.234897 0.789883 0
0.273457 0.793271 0.000137331
0.313008 0.796613 0.000244144
0.353552 0.799908 0.000320439
0.395071 0.803159 0.000350958
0.437568 0.806363 0.000335698
0.481025 0.809537 0.000289921
0.525444 0.812665 0.000198367
0.570825 0.815763 7.62951e-05
0.617166 0.818814 0
0.647059 0.821927 0
0.676143 0.82504 0
0.704433 0.828138 0
0.731914 0.831235 0
0.758602 0.834318 0
0.784466 0.8374 0
0.809522 0.840497 0
0.833768 0.84358 0
0.857191 0.846662 0
0.879789 0.849744 0
0.901549 0.852842 0
0.922499 0.855924 0
0.942611 0.859022 0
0.961883 0.862119 0
0.980331 0.865217 0
0.997925 0.868315 0
0 0.802945 0
0.0278782 0.806806 0
0.0609751 0.8103 0
0.0954757 0.813626 0
0.131167 0.816861 0
0.167987 0.82002 1.5259e-05
0.20589 0.823102 0.000274662
0.244816 0.826123 0.000488289
0.284779 0.829084 0.000640879
0.325734 0.831998 0.000732433
0.367697 0.834867 0.000793469
0.410636 0.837705 0.000793469
0.454551 0.840482 0.000762951
0.499443 0.843229 0.000701915
0.545296 0.84593 0.000579843
0.592126 0.8486 0.000427253
0.639902 0.851225 0.000244144
0.668421 0.853925 0.000137331
0.696132 0.856626 1.5259e-05
0.723049 0.859312 0
0.749157 0.861997 0
0.774456 0.864683 0
0.798932 0.867369 0
0.822599 0.870054 0
0.845441 0.87274 0
0.86746 0.875425 0
0.888655 0.878111 0
0.90901 0.880796 0
0.928542 0.883497 0
0.947234 0.886183 0
0.965103 0.888884 0
0.982132 0.891585 0
0.998322 0.894301 0
0 0.839261 0
0.029633 0.842756 0
0.0640421 0.845853 0
0.0998856 0.848783 0
0.136934 0.851606 0.000213626
0.175128 0.854337 0.000534066
0.214405 0.857008 0.000793469
0.254734 0.859617 0.000976577
0.296101 0.862165 0.00111391
0.338476 0.864668 0.00120546
0.381842 0.867109 0.00123598
0.4262 0.86952 0.00123598
0.47155 0.87187 0.00117494
0.517861 0.874189 0.00108339
0.565164 0.876463 0.000946059
0.613413 0.878691 0.000762951
0.662638 0.880888 0.000549325
0.689799 0.883192 0.000442512
0.716136 0.885481 0.000320439
0.741665 0.88777 0.000198367
0.766384 0.890043 6.10361e-05
0.790295 0.892332 0
0.813382 0.894606 0
0.835645 0.896895 0
0.857084 0.899184 0
0.877699 0.901457 0
0.89749 0.903746 0
0.916442 0.906035 0
0.934569 0.908339 0
0.951843 0.910628 0
0.968292 0.912932 0
0.983902 0.915251 0
0.998672 0.917556 0
0 0.872862 0
0.0313573 0.875975 0
0.0671092 0.878676 0
0.10428 0.881209 0.00030518
0.142702 0.883619 0.000717174
0.182269 0.885939 0.00103761
0.222934 0.888197 0.00128176
0.264652 0.890379 0.00146487
0.307408 0.892515 0.00157168
