assets/cube/bleech_bypass_green.cube
TITLE "Generated by Resolve"
LUT_3D_SIZE 9
0 0 0
0.00553903 0.000274662 0.000274662
0.0231785 0.000823987 0.000823987
0.0536049 0.00148013 0.00148013
0.0971695 0.002121 0.002121
0.335943 0.00337224 0.00337224
0.567864 0.00292973 0.00292973
0.789654 0.00169375 0.00169375
1 0 0
0 0.022446 0
0.0234073 0.0300145 0
0.0618448 0.0374609 0
0.113756 0.0448005 3.0518e-05
0.179324 0.0520027 0.000335698
0.39884 0.059144 0.000610361
0.609384 0.065156 0
0.808957 0.0705882 0
0.996658 0.0757 0
0 0.0889601 0
0.0414282 0.103517 0
0.101289 0.117647 0
0.175219 0.131518 0
0.263218 0.145113 0
0.462699 0.158328 0
0.65182 0.170779 0
0.829343 0.182834 0
0.994583 0.194644 0
0 0.199039 0
0.0603037 0.220478 0
0.14197 0.241169 0
0.238224 0.261463 0
0.348943 0.281392 0
0.52784 0.300801 0
0.69543 0.319707 0
0.850904 0.338354 0
0.993774 0.356847 0
0 0.352468 0
0.0804761 0.380697 0
0.184207 0.407874 0
0.303044 0.434516 0
0.436683 0.4607 0
0.594629 0.486397 0
0.740566 0.511788 0
0.873991 0.537011 0
0.994522 0.562173 0
0 0.58024 0
0.102464 0.602106 0
0.228351 0.622629 0
0.369833 0.642481 0
0.526467 0.661784 0
0.662989 0.680781 0
0.787015 0.699611 0
0.898161 0.718379 0
0.996201 0.737133 0
0 0.763882 0
0.125399 0.779385 0
0.273457 0.793271 0.000137331
0.437568 0.806363 0.000335698
0.617166 0.818814 0
0.731914 0.831235 0
0.833768 0.84358 0
0.922499 0.855924 0
0.997925 0.868315 0
0 0.903731 0
0.14844 0.912902 0.00120546
0.318715 0.920134 0.00201419
0.505516 0.926452 0.00190738
0.708125 0.932052 0.00108339
0.800809 0.937957 0.000579843
0.880308 0.943877 7.62951e-05
0.946502 0.949859 0
0.999268 0.955917 0
0 1 0
0.171176 1 0.00280766
0.363714 1 0.00337224
0.573251 1 0.00291447
0.798947 1 0.00163272
0.869337 1 0.00109865
0.92636 1 0.000640879
0.96994 1 0.000274662
1 1 0
9.15541e-05 9.15541e-05 0.00155642
0.00827039 0.000640879 0.00619516
0.0287633 0.00138857 0.0113832
0.0621042 0.00218204 0.016846
0.108644 0.00292973 0.022446
0.345174 0.00418097 0.0286412
0.574502 0.00383001 0.0333562
0.793545 0.00268559 0.0373846
1 0.00111391 0.0410315
0 0.0259251 0.0152743
0.0265965 0.0336614 0.0209354
0.0678874 0.0412299 0.026566
0.122728 0.0486763 0.0321965
0.191272 0.0559548 0.0377813
0.408362 0.0631113 0.0433356
0.616251 0.0692149 0.0479133
0.813092 0.0747387 0.0519875
0.997986 0.0799268 0.0558175
0 0.095613 0.0301366
0.0450141 0.110323 0.0365301
0.107759 0.124544 0.0425422
0.184634 0.138491 0.0483711
0.275624 0.152148 0.0540169
0.472557 0.165377 0.0593271
0.658976 0.177905 0.0639963
0.833738 0.190036 0.0683299
0.99617 0.201923 0.0725109
0 0.208804 0.0463417
0.0642557 0.23035 0.0533913
0.148821 0.251118 0.0597543
0.24802 0.271473 0.0657816
0.361746 0.291432 0.0715038
0.538018 0.310872 0.0767681
0.702892 0.329854 0.081651
0.855573 0.348562 0.0863355
0.995621 0.367132 0.0909438
0 0.36527 0.0641947
0.0847944 0.393591 0.0718853
0.191424 0.420829 0.0785687
0.313207 0.447517 0.0847791
0.449866 0.473716 0.0905776
0.605142 0.499458 0.0959793
0.748318 0.524895 0.101152
0.878935 0.550179 0.106249
0.996643 0.575418 0.11133
0 0.590417 0.084184
0.107057 0.612375 0.0923934
0.235859 0.632929 0.0992752
0.380301 0.652827 0.105531
0.53994 0.672145 0.111254
0.673747 0.691188 0.116747
0.79498 0.710063 0.122133
0.903304 0.728893 0.127489
0.998489 0.747707 0.132891
0 0.771435 0.105455
0.13019 0.78703 0.114
0.281163 0.800946 0.120897
0.448249 0.814054 0.127016
0.630854 0.826505 0.132509
0.74284 0.838972 0.138048
0.841871 0.851362 0.143572
0.927764 0.863783 0.149111
1 0.876234 0.154742
0.00062562 0.90866 0.127108
0.153384 0.917891 0.135851
0.326574 0.925155 0.142657
0.516335 0.931487 0.148547
0.721965 0.937072 0.153735
0.811841 0.943023 0.159304
0.888518 0.949004 0.164935
0.951858 0.955032 0.170626
1 0.961151 0.176425
0.00227359 1 0.148638
0.176226 1 0.157519
0.371695 1 0.164157
0.584207 1 0.169772
0.812909 1 0.174563
0.880476 1 0.180209
0.934646 1 0.185931
0.975357 1 0.19176
1 1 0.197726
0.000320439 0.000320439 0.0071107
0.0110933 0.00105287 0.0171054
0.0343481 0.00190738 0.0278172
0.0705425 0.00277714 0.0389563
0.119997 0.00358587 0.0503395
0.354177 0.00477607 0.0623484
0.580835 0.00442512 0.0730602
0.797101 0.00334173 0.0831769
1 0.00180056 0.0930343
0 0.0292821 0.0390478
0.0296178 0.0371405 0.0506142
0.0737163 0.04477 0.0622263
0.131426 0.0522469 0.0739147
0.202884 0.0595407 0.0856184
0.417456 0.0666514 0.0973068
0.622614 0.072755 0.108141
0.816648 0.078294 0.118578
0.998672 0.0835279 0.128832
0 0.101946 0.0737774
0.0482185 0.116732 0.0863966
0.113787 0.130983 0.0986496
0.19353 0.14493 0.11078
0.287434 0.158587 0.122774
0.481758 0.171786 0.134447
0.665415 0.184298 0.145571
0.837339 0.196429 0.156435
0.996887 0.208347 0.167208
0 0.218006 0.110826
0.0676127 0.239612 0.1243
0.154986 0.260395 0.137102
0.257099 0.28072 0.149599
0.373739 0.300664 0.161837
0.547326 0.320058 0.173663
0.709392 0.339025 0.185153
0.85922 0.357733 0.196521
0.996368 0.376318 0.207843
0 0.377295 0.15021
0.0882582 0.405646 0.164492
0.197726 0.432868 0.177768
0.322423 0.459525 0.1906
0.462013 0.485679 0.203037
0.614527 0.511391 0.215137
0.754894 0.536812 0.22707
0.882628 0.562097 0.238956
0.997421 0.58732 0.250889
0 0.599588 0.192233
0.110597 0.621561 0.207156
0.242237 0.642115 0.220752
0.389563 0.661952 0.233738
0.552148 0.681224 0.24622
0.683146 0.700221 0.258534
0.801511 0.719097 0.270771
0.90695 0.737911 0.28304
0.999207 0.756725 0.295369
0 0.777752 0.235935
0.133684 0.793347 0.251286
0.28751 0.807233 0.265003
0.457481 0.820294 0.277958
0.64303 0.832685 0.290303
0.752163 0.845106 0.30277
0.848325 0.857496 0.315236
0.931289 0.869886 0.327779
1 0.882338 0.340429
0.00132753 0.912108 0.280324
0.156786 0.92134 0.295995
0.332815 0.928557 0.309712
0.52549 0.934813 0.32253
0.734066 0.940322 0.334646
0.821057 0.946258 0.34725
0.894835 0.952209 0.359915
0.95523 0.958221 0.372686
1 0.964324 0.385595
0.00282292 1 0.324926
0.179492 1 0.34081
0.377798 1 0.354452
0.593225 1 0.367071
0.824887 1 0.378882
0.88954 1 0.391623
0.94078 1 0.404471
0.978546 1 0.417472
1 1 0.43061
0.00062562 0.00062562 0.0173495
0.013962 0.00149538 0.0332341
0.0399634 0.00242618 0.0499428
0.0789807 0.00334173 0.0672007
0.131319 0.00415045 0.0848096
0.363104 0.0052491 0.103059
0.587045 0.00489815 0.120165
0.800488 0.00381476 0.136812
1 0.00230411 0.153277
0 0.0325933 0.0691234
0.0325628 0.040528 0.0870222
0.0794385 0.048188 0.105028
0.139986 0.0556649 0.123186
0.214328 0.0629435 0.141421
0.426337 0.0699779 0.159655
0.628748 0.076051 0.177157
0.819928 0.08159 0.194339
0.999054 0.0868238 0.211414
0 0.10811 0.125124
0.0512398 0.122942 0.14435
0.119585 0.137194 0.163272
0.202182 0.15111 0.182101
0.298985 0.164721 0.200839
0.490639 0.177859 0.219287
0.671519 0.190341 0.237278
0.840558 0.202441 0.255085
0.997192 0.214359 0.272847
0 0.226947 0.18436
0.0706645 0.248569 0.204669
0.160861 0.269322 0.224323
0.265812 0.289616 0.243702
0.385367 0.309483 0.262852
0.556207 0.328832 0.281636
0.71545 0.347738 0.300145
0.862394 0.36643 0.318593
0.996612 0.384985 0.337057
0 0.388937 0.246632
0.0913405 0.417288 0.267903
0.203616 0.44448 0.288182
0.331182 0.471061 0.308034
0.473686 0.497154 0.327535
0.623407 0.522789 0.346746
0.760906 0.548165 0.365835
0.885725 0.573419 0.384939
0.997589 0.598611 0.404105
0 0.608286 0.312047
0.113619 0.630243 0.334096
0.248066 0.650736 0.354818
0.39826 0.670512 0.374945
0.563745 0.689677 0.394583
0.691905 0.708629 0.41413
0.807385 0.727459 0.433646
0.90988 0.746227 0.453223
0.999191 0.765011 0.472908
0 0.78349 0.379522
0.136568 0.799069 0.402106
0.293202 0.812879 0.423056
0.466041 0.825849 0.443244
0.654505 0.838132 0.462867
0.760754 0.850507 0.482658
0.853986 0.862852 0.50251
0.93402 0.875196 0.522469
1 0.887602 0.542565
0.00132753 0.91487 0.448035
0.159472 0.924056 0.471046
0.338323 0.931197 0.492088
0.533867 0.937362 0.512245
0.745342 0.942763 0.531716
0.829435 0.948638 0.551751
0.900252 0.954543 0.571878
0.957687 0.96051 0.592157
1 0.966552 0.612589
0.00257877 1 0.517082
0.181933 1 0.540398
0.383062 1 0.561456
0.601358 1 0.581491
0.835935 1 0.600748
0.897642 1 0.621012
0.945922 1 0.641413
0.980713 1 0.661982
1 1 0.682734
0.000961318 0.000961318 0.0327001
0.016846 0.0019379 0.0548562
0.0455787 0.00291447 0.0779278
0.0874037 0.00384527 0.10164
0.142596 0.00463874 0.125795
0.371923 0.00563058 0.150591
0.593133 0.0052491 0.174411
0.803723 0.00415045 0.197879
1 0.00262455 0.221256
0 0.0358434 0.105501
0.0354467 0.0438392 0.130068
0.085069 0.0514992 0.154772
0.14844 0.0589609 0.179706
0.22565 0.0661936 0.204761
0.435065 0.0731365 0.229847
0.634684 0.0791485 0.254322
0.822995 0.0846571 0.278553
0.999191 0.0898604 0.302739
0 0.114137 0.183825
0.0541085 0.128985 0.209979
0.125231 0.143206 0.235843
0.210651 0.157092 0.261662
0.310338 0.170626 0.287434
0.49929 0.183673 0.312963
0.677348 0.196094 0.338109
0.843488 0.208164 0.363134
0.997177 0.22005 0.38819
0 0.235676 0.266255
0.0735027 0.257298 0.29369
0.166461 0.277989 0.32047
0.274266 0.298207 0.347021
0.396689 0.317998 0.373373
0.564782 0.337255 0.399405
0.721172 0.356115 0.425238
0.865187 0.374746 0.451057
0.99646 0.393256 0.476936
0 0.40029 0.352377
0.0941176 0.428626 0.380941
0.209186 0.455741 0.408499
0.33959 0.482246 0.43566
0.484977 0.508232 0.462501
0.631876 0.533791 0.489113
0.766491 0.559106 0.515663
0.888395 0.584283 0.54226
0.997284 0.60943 0.568978
0 0.616632 0.442161
0.116258 0.638544 0.471611
0.253498 0.658961 0.499748
0.406546 0.67863 0.527291
0.574914 0.697688 0.554391
0.700206 0.716564 0.58146
0.812772 0.735317 0.608545
0.912306 0.754025 0.635721
0.998642 0.772747 0.66305
0 0.788785 0.534356
0.138994 0.804318 0.564477
0.298405 0.818036 0.592935
0.474113 0.8309 0.620676
0.665461 0.843061 0.647852
0.768795 0.85536 0.675273
0.859083 0.867628 0.7028
0.936141 0.879911 0.730449
0.999817 0.892241 0.758282
0.000823987 0.917113 0.627985
0.161624 0.926238 0.65861
0.343252 0.933272 0.687266
0.54165 0.93933 0.715053
0.756024 0.944595 0.742168
0.837171 0.950393 0.76994
0.905028 0.956222 0.797833
0.959487 0.962112 0.825895
1 0.968093 0.854154
0.00175479 1 0.722454
0.183749 1 0.753475
0.387686 1 0.782238
0.60885 1 0.809995
0.846311 1 0.836973
0.905058 1 0.865064
0.950347 1 0.893309
0.982132 1 0.921752
1 1 0.950408
0.00273136 0.00273136 0.257099
0.0208286 0.0034638 0.276982
0.0520027 0.00419623 0.296986
0.0963912 0.00488289 0.317098
0.154253 0.00547799 0.337209
0.380941 0.00621042 0.357595
0.599268 0.00564584 0.376776
0.806912 0.00440986 0.395422
1 0.0027924 0.413779
0.000747692 0.0395819 0.319432
0.0386358 0.047425 0.33994
0.0908522 0.0549325 0.36025
0.156909 0.0622416 0.380484
0.236881 0.0693217 0.40061
0.44361 0.0760967 0.420554
0.640375 0.082002 0.43975
0.825757 0.0874189 0.458564
0.998978 0.0925765 0.477211
0 0.120134 0.38291
0.0568551 0.134905 0.404135
0.130663 0.14902 0.424857
0.21886 0.162783 0.44535
0.32137 0.176211 0.465629
0.507607 0.189151 0.485527
0.682811 0.201495 0.504952
0.846052 0.213519 0.524147
0.996811 0.22536 0.543267
0 0.244099 0.448112
0.0760204 0.265675 0.470085
0.171725 0.286305 0.491218
0.282353 0.306432 0.511986
0.407675 0.326146 0.532448
0.573007 0.345327 0.552483
0.726543 0.364141 0.572259
0.867674 0.382742 0.591928
0.996033 0.401251 0.611597
0 0.411276 0.515435
0.0965286 0.439582 0.538125
0.214389 0.466651 0.559686
0.347677 0.493095 0.580728
0.495995 0.519005 0.601358
0.640116 0.544518 0.621698
0.771893 0.569818 0.641917
0.890913 0.59501 0.66212
0.996902 0.620157 0.682383
0 0.624628 0.585184
0.118624 0.646555 0.608454
0.258701 0.666926 0.630289
0.414649 0.686564 0.651438
0.585962 0.705577 0.672068
0.708461 0.724437 0.692622
0.818173 0.743191 0.713146
0.914839 0.761929 0.733715
0.998291 0.780682 0.754391
0 0.793927 0.656367
0.141329 0.809461 0.680034
0.303593 0.823163 0.701961
0.482231 0.835996 0.723079
0.676555 0.848127 0.743557
0.777081 0.860441 0.764279
0.864515 0.872724 0.785061
0.938704 0.885054 0.80592
0.999496 0.897444 0.826917
0.000381476 0.919432 0.728161
0.163928 0.928588 0.752132
0.34847 0.935622 0.77406
0.549813 0.941649 0.795026
0.767193 0.946899 0.815274
0.845502 0.952728 0.836164
0.910506 0.958602 0.85716
0.962097 0.964553 0.878279
1 0.970581 0.89955
0.00132753 1 0.800137
0.186099 1 0.824338
0.39295 1 0.846189
0.617075 1 0.866972
0.857572 1 0.886915
0.913481 1 0.907988
0.955917 1 0.929198
0.984833 1 0.950561
1 1 0.972076
0.00262455 0.00262455 0.499947
0.023209 0.00335698 0.51429
0.0570382 0.00404364 0.528649
0.104173 0.00468452 0.542977
0.164828 0.00520333 0.557244
0.388983 0.00579843 0.571588
0.604547 0.00515755 0.584756
0.809308 0.00389105 0.59733
1 0.00227359 0.609567
0.00030518 0.0421149 0.543175
0.0407721 0.049958 0.557855
0.0957046 0.057435 0.572244
0.164569 0.064683 0.58645
0.247395 0.0717174 0.600473
0.451484 0.0783856 0.614206
0.645472 0.0842451 0.627176
0.827985 0.089662 0.639719
0.998306 0.0948043 0.652064
0 0.125322 0.58677
0.0588998 0.140093 0.601938
0.13547 0.154192 0.616495
0.22652 0.16791 0.630762
0.33193 0.181292 0.644724
0.515465 0.194156 0.658228
0.687877 0.206485 0.67126
0.848264 0.218509 0.684031
0.996124 0.230365 0.696681
0 0.251987 0.631403
0.0780499 0.273579 0.647105
0.176577 0.294179 0.661906
0.290089 0.314275 0.676234
0.418326 0.333944 0.690196
0.580926 0.353094 0.703716
0.73167 0.371908 0.716945
0.869947 0.390524 0.730022
0.995422 0.409064 0.743084
0 0.421897 0.677577
0.0986191 0.450217 0.693828
0.219333 0.477272 0.708858
0.35552 0.503685 0.723308
0.506798 0.529564 0.737301
0.648173 0.555077 0.750973
0.777127 0.580392 0.764492
0.893309 0.6056 0.777981
0.996429 0.630793 0.791501
0 0.63241 0.725582
0.12079 0.654353 0.74226
0.263722 0.674723 0.757397
0.422599 0.694347 0.771817
0.596902 0.713329 0.785657
0.716609 0.732204 0.79942
0.823499 0.751003 0.813138
0.917327 0.769772 0.826871
0.997894 0.788571 0.840665
0 0.798917 0.774487
0.143542 0.814496 0.791424
0.308705 0.828199 0.806531
0.490272 0.841031 0.820783
0.687602 0.853132 0.834348
0.785321 0.865476 0.848173
0.869932 0.877806 0.862013
0.941253 0.890181 0.875929
0.999191 0.902632 0.889937
0 0.921691 0.82356
0.166201 0.930892 0.840665
0.353643 0.937942 0.85565
0.557961 0.943969 0.869642
0.778363 0.949187 0.882856
0.853849 0.955077 0.896742
0.916014 0.960998 0.910719
0.964752 0.96701 0.924788
0.999985 0.973114 0.938979
0.000885023 1 0.872419
0.188434 1 0.889647
0.398215 1 0.904448
0.62533 1 0.91812
0.868864 1 0.930938
0.92192 1 0.944915
0.961517 1 0.959014
0.987579 1 0.97322
1 1 0.987579
0.00161746 0.00161746 0.748943
0.0247501 0.00241093 0.756817
0.0612955 0.00311284 0.764645
0.111254 0.00375372 0.772381
0.174777 0.00427253 0.780011
0.396445 0.00479133 0.78764
0.609262 0.0041352 0.794125
0.8112 0.00288396 0.8
1 0.00129702 0.805554
0 0.0439612 0.770184
0.0422827 0.0518502 0.778302
0.0999924 0.0593423 0.786053
0.17171 0.0666056 0.793576
0.25745 0.0736095 0.800885
0.458946 0.0802472 0.807843
0.650187 0.0861067 0.814054
0.829877 0.0915389 0.819852
0.99733 0.0967269 0.825422
0 0.130007 0.791592
0.0604715 0.144823 0.800122
0.139879 0.158923 0.80795
0.233799 0.172641 0.815442
0.342153 0.186007 0.822614
0.523033 0.198871 0.829297
0.692668 0.2112 0.835492
0.850248 0.223255 0.841428
0.995239 0.235157 0.847242
0 0.259495 0.813825
0.0797589 0.281132 0.822797
0.18114 0.301762 0.830777
0.297551 0.321859 0.838285
0.428763 0.341497 0.845365
0.588663 0.360662 0.851987
0.736614 0.379492 0.85832
0.872068 0.398154 0.864515
0.994675 0.416739 0.870665
0 0.432242 0.837369
0.100511 0.460624 0.846799
0.224094 0.487694 0.854948
0.36321 0.514107 0.862486
0.517479 0.539971 0.86952
0.656107 0.565499 0.876249
0.782284 0.590845 0.882841
0.895613 0.616098 0.889372
0.99588 0.641352 0.895918
0 0.640024 0.86247
0.12282 0.662013 0.872251
0.268635 0.682414 0.88043
0.430472 0.702022 0.887861
0.607767 0.721004 0.894682
0.724697 0.73991 0.901442
0.828779 0.758755 0.908141
0.919768 0.777569 0.914855
0.997467 0.796429 0.92163
0 0.803815 0.888197
0.145678 0.81944 0.898177
0.313741 0.833173 0.906249
0.498299 0.846006 0.913436
0.698634 0.858106 0.919905
0.793545 0.870497 0.92668
0.875334 0.882887 0.933455
0.943816 0.895323 0.940291
0.998886 0.907835 0.947219
0 0.923903 0.913863
0.168444 0.933165 0.923934
0.358801 0.94023 0.931823
0.56611 0.946258 0.938689
0.789532 0.951492 0.944762
0.862211 0.957427 0.951537
0.921523 0.963409 0.958373
0.967422 0.969497 0.965316
0.999786 0.975677 0.972366
0.000442512 1 0.939086
0.190784 1 0.949218
0.403494 1 0.956863
0.633616 1 0.963363
0.880186 1 0.968978
0.930419 1 0.975784
0.967163 1 0.982712
0.990372 1 0.989731
1 1 0.996887
0 0 1
0.025742 0.000900282 1
0.0650645 0.00166323 1
0.117861 0.00234989 1
0.184298 0.00288396 1
0.403479 0.00335698 1
0.613611 0.00273136 1
0.812757 0.0015259 1
1 0 1
0 0.0453193 0.997604
0.0433661 0.053315 0.998703
0.103899 0.060853 0.99939
0.1785 0.0681315 0.999832
0.26717 0.0751659 1
0.466102 0.0817884 0.999832
0.654612 0.0876783 0.998932
0.83151 0.0931563 0.997635
0.996109 0.0984054 0.996109
0 0.134325 0.995407
0.061738 0.149218 0.996887
0.143984 0.163363 0.997635
0.240833 0.177111 0.998016
0.352148 0.190494 0.998047
0.530388 0.203342 0.997589
0.697276 0.215717 0.996658
0.852033 0.227832 0.995483
0.994186 0.239796 0.994186
0 0.266743 0.994018
0.081239 0.288457 0.995911
0.185489 0.309117 0.99678
0.304845 0.329229 0.997147
0.439033 0.348882 0.997086
0.596246 0.368063 0.996551
0.741436 0.386938 0.995758
0.874083 0.405661 0.994827
0.993835 0.424308 0.993835
0 0.44242 0.993896
0.102235 0.470878 0.996231
0.228717 0.497978 0.997253
0.370794 0.524392 0.997635
0.528054 0.550271 0.997482
0.663966 0.57583 0.997055
0.78735 0.601221 0.99649
0.897871 0.626551 0.99588
0.995285 0.651865 0.995285
0 0.647517 0.995239
0.124743 0.669581 0.997894
0.273487 0.689998 0.998917
0.438285 0.709636 0.999161
0.618585 0.728618 0.998764
0.732769 0.747585 0.998352
0.834043 0.766476 0.997894
0.922194 0.785367 0.997436
0.99704 0.804303 0.99704
0 0.808652 0.997101
0.147768 0.824353 0.999924
0.318761 0.838117 1
0.506279 0.85095 1
0.709651 0.863066 1
0.801785 0.875517 0.999603
0.880735 0.887968 0.999207
0.94638 0.900465 0.998856
0.998596 0.913054 0.998596
0 0.926101 0.998795
0.170687 0.935424 1
0.363973 0.942519 1
0.574273 0.948577 1
0.800717 0.953796 1
0.870588 0.959792 1
0.927077 0.965866 1
0.970123 0.972015 0.999786
0.999634 0.978271 0.999634
0 1 1
0.193149 1 1
0.408804 1 1
0.641932 1 1
0.891539 1 1
0.938949 1 1
0.972854 1 1
0.99321 1 1
1 1 1
