assets/cube/bleech_bypass_green.cube
TITLE "Generated by Resolve"
LUT_3D_SIZE 5
0 0 0
0.0231785 0.000823987 0.000823987
0.0971695 0.002121 0.002121
0.567864 0.00292973 0.00292973
1 0 0
0 0.0889601 0
0.101289 0.117647 0
0.263218 0.145113 0
0.65182 0.170779 0
0.994583 0.194644 0
0 0.352468 0
0.184207 0.407874 0
0.436683 0.4607 0
0.740566 0.511788 0
0.994522 0.562173 0
0 0.763882 0
0.273457 0.793271 0.000137331
0.617166 0.818814 0
0.833768 0.84358 0
0.997925 0.868315 0
0 1 0
0.363714 1 0.00337224
0.798947 1 0.00163272
0.92636 1 0.000640879
1 1 0
0.000320439 0.000320439 0.0071107
0.0343481 0.00190738 0.0278172
0.119997 0.00358587 0.0503395
0.580835 0.00442512 0.0730602
1 0.00180056 0.0930343
0 0.101946 0.0737774
0.113787 0.130983 0.0986496
0.287434 0.158587 0.122774
0.665415 0.184298 0.145571
0.996887 0.208347 0.167208
0 0.377295 0.15021
0.197726 0.432868 0.177768
0.462013 0.485679 0.203037
0.754894 0.536812 0.22707
0.997421 0.58732 0.250889
0 0.777752 0.235935
0.28751 0.807233 0.265003
0.64303 0.832685 0.290303
0.848325 0.857496 0.315236
1 0.882338 0.340429
0.00282292 1 0.324926
0.377798 1 0.354452
0.824887 1 0.378882
0.94078 1 0.404471
1 1 0.43061
0.000961318 0.000961318 0.0327001
0.0455787 0.00291447 0.0779278
0.142596 0.00463874 0.125795
0.593133 0.0052491 0.174411
1 0.00262455 0.221256
0 0.114137 0.183825
0.125231 0.143206 0.235843
0.310338 0.170626 0.287434
0.677348 0.196094 0.338109
0.997177 0.22005 0.38819
0 0.40029 0.352377
0.209186 0.455741 0.408499
0.484977 0.508232 0.462501
0.766491 0.559106 0.515663
0.997284 0.60943 0.568978
0 0.788785 0.534356
0.298405 0.818036 0.592935
0.665461 0.843061 0.647852
0.859083 0.867628 0.7028
0.999817 0.892241 0.758282
0.00175479 1 0.722454
0.387686 1 0.782238
0.846311 1 0.836973
0.950347 1 0.893309
1 1 0.950408
0.00262455 0.00262455 0.499947
0.0570382 0.00404364 0.528649
0.164828 0.00520333 0.557244
0.604547 0.00515755 0.584756
1 0.00227359 0.609567
0 0.125322 0.58677
0.13547 0.154192 0.616495
0.33193 0.181292 0.644724
0.687877 0.206485 0.67126
0.996124 0.230365 0.696681
0 0.421897 0.677577
0.219333 0.477272 0.708858
0.506798 0.529564 0.737301
0.777127 0.580392 0.764492
0.996429 0.630793 0.791501
0 0.798917 0.774487
0.308705 0.828199 0.806531
0.687602 0.853132 0.834348
0.869932 0.877806 0.862013
0.999191 0.902632 0.889937
0.000885023 1 0.872419
0.398215 1 0.904448
0.868864 1 0.930938
0.961517 1 0.959014
1 1 0.987579
0 0 1
0.0650645 0.00166323 1
0.184298 0.00288396 1
0.613611 0.00273136 1
1 0 1
0 0.134325 0.995407
0.143984 0.163363 0.997635
0.352148 0.190494 0.998047
0.697276 0.215717 0.996658
0.994186 0.239796 0.994186
0 0.44242 0.993896
0.228717 0.497978 0.997253
0.528054 0.550271 0.997482
0.78735 0.601221 0.99649
0.995285 0.651865 0.995285
0 0.808652 0.997101
0.318761 0.838117 1
0.709651 0.863066 1
0.880735 0.887968 0.999207
0.998596 0.913054 0.998596
0 1 1
0.408804 1 1
0.891539 1 1
0.972854 1 1
1 1 1
