assets/cube/bleech_bypass_yellow_01.cube
TITLE "Generated by Resolve"
LUT_3D_SIZE 5
0 0 0
0.0262455 0 0
0.104997 0 0
0.578744 0 0
1 0 0
0 0.0874952 0
0.113741 0.113741 0
0.279988 0.139986 0
0.666239 0.166232 0
1 0.192493 0
0 0.349996 0
0.201236 0.402487 0
0.454994 0.454994 0
0.75375 0.507485 0
1 0.559991 0
0 0.762493 0
0.288731 0.788739 0
0.629984 0.815 0
0.841245 0.841245 0
1 0.867491 0
0 1 0
0.376226 1 0
0.80499 1 0
0.928756 1 0
1 1 0
4.57771e-05 4.57771e-05 0.0106203
0.0376593 0.000167849 0.0354162
0.127779 0.000274662 0.0601968
0.590387 0.000396735 0.0849775
1 0.000503548 0.109773
0.000427253 0.0991684 0.0932479
0.125536 0.125536 0.118029
0.303136 0.151888 0.142824
0.678264 0.178256 0.167605
1 0.204623 0.192401
0.000808728 0.373297 0.175875
0.213413 0.42591 0.200656
0.478523 0.478523 0.225452
0.76614 0.531136 0.250233
1 0.583749 0.275029
0.0011902 0.774929 0.258503
0.301289 0.801297 0.283284
0.653895 0.827665 0.308064
0.854017 0.854017 0.33286
1 0.880385 0.357641
0.00157168 1 0.341131
0.389166 1 0.365911
0.829282 1 0.390692
0.941909 1 0.415488
1 1 0.440269
0.000198367 0.000198367 0.0424964
0.0491646 0.000427253 0.0920729
0.150652 0.000656138 0.141649
0.602121 0.000869764 0.191226
1 0.00109865 0.240803
0.000946059 0.110948 0.207736
0.137423 0.137423 0.257313
0.32639 0.163897 0.306889
0.690379 0.190372 0.356466
1 0.216846 0.406043
0.00170901 0.396704 0.373007
0.225681 0.449424 0.422568
0.502144 0.502144 0.472145
0.778637 0.554879 0.521737
1 0.607599 0.571313
0.00247196 0.787457 0.538262
0.313924 0.813947 0.587839
0.677913 0.840421 0.637415
0.866896 0.866896 0.686992
1 0.89337 0.736568
0.00323491 1 0.703517
0.402182 1 0.753094
0.853666 1 0.80267
0.955154 1 0.852247
1 1 0.901823
0.00231937 0.00231937 0.504036
0.0624247 0.00242618 0.528817
0.175036 0.002533 0.553613
0.615152 0.00265507 0.578393
1 0.00276188 0.603189
0.00268559 0.123934 0.586664
0.150286 0.150286 0.611444
0.350408 0.176654 0.63624
0.703029 0.203021 0.661021
1 0.229389 0.685817
0.00306706 0.420554 0.669291
0.238163 0.473167 0.694072
0.52578 0.52578 0.718868
0.790906 0.578393 0.743648
1 0.631006 0.768444
0.00344854 0.799695 0.751919
0.32604 0.826062 0.776715
0.701167 0.852415 0.801495
0.878782 0.878782 0.826291
1 0.90515 0.851072
0.00383001 1 0.834546
0.413916 1 0.859342
0.876539 1 0.884123
0.966674 1 0.908919
1 1 0.933715
0.00433356 0.00433356 0.944335
0.0755779 0.00433356 0.944335
0.199329 0.00433356 0.944335
0.628077 0.00433356 0.944335
1 0.00433356 0.944335
0.00433356 0.136828 0.944335
0.163073 0.163073 0.944335
0.374319 0.189319 0.944335
0.715572 0.215564 0.944335
1 0.24181 0.944335
0.00433356 0.444327 0.944335
0.250568 0.496818 0.944335
0.54931 0.54931 0.944335
0.803082 0.601816 0.944335
1 0.654322 0.944335
0.00433356 0.811826 0.944335
0.338064 0.838071 0.944335
0.724315 0.864332 0.944335
0.890578 0.890578 0.944335
1 0.916823 0.944335
0.00433356 1 0.944335
0.425559 1 0.944335
0.899321 1 0.944335
0.978088 1 0.944335
1 1 0.944335
