assets/cube/blue_dark.cube
TITLE "Generated by Resolve"
LUT_3D_SIZE 9
0 0 0
0.0113375 0 0
0.0303807 0 0.000427253
0.0541695 0 0.0018616
0.0817426 0.000396735 0.00401312
0.112535 0.00196841 0.00688182
0.146197 0.00408942 0.0104067
0.182452 0.00677501 0.0145876
0.221103 0.00999466 0.0193637
0.00125124 0.0177462 0.00764477
0.0171359 0.022446 0.0143282
0.0399939 0.0266728 0.0204166
0.0672465 0.0310063 0.026627
0.0980087 0.0356298 0.0331426
0.131807 0.040589 0.0400397
0.168307 0.0459144 0.0473487
0.207279 0.0516365 0.0551003
0.248539 0.0577707 0.0632944
0.00999466 0.0528115 0.026566
0.0289921 0.0610513 0.0374762
0.0547951 0.0685893 0.0475013
0.0848402 0.0760662 0.0574197
0.118273 0.0836805 0.0674449
0.15465 0.0915084 0.0776989
0.193637 0.0996109 0.0882277
0.235019 0.108003 0.0990768
0.27863 0.116732 0.110277
0.0253605 0.10016 0.0543069
0.0469978 0.111345 0.0686809
0.075349 0.121721 0.0820172
0.107851 0.131945 0.0950942
0.143679 0.142199 0.108186
0.182361 0.15259 0.121401
0.223606 0.16318 0.134798
0.267201 0.173999 0.148455
0.312947 0.185092 0.162356
0.0467689 0.157885 0.0897841
0.0707713 0.171695 0.107179
0.101411 0.184604 0.12343
0.136156 0.197299 0.139376
0.174166 0.209949 0.15523
0.214984 0.22269 0.17113
0.258335 0.235584 0.187167
0.303975 0.248661 0.203372
0.351736 0.261952 0.219806
0.0737926 0.224857 0.132265
0.0999771 0.241047 0.152407
0.132738 0.256306 0.171344
0.169558 0.27126 0.189883
0.209613 0.286152 0.208286
0.25243 0.301091 0.226688
0.297749 0.316121 0.245167
0.345327 0.331319 0.263783
0.394995 0.346685 0.282567
0.106142 0.300267 0.181277
0.13434 0.318685 0.203952
0.1691 0.33611 0.22536
0.207874 0.353216 0.246342
0.249851 0.370214 0.26714
0.294575 0.387213 0.287877
0.341741 0.404273 0.308659
0.391165 0.421469 0.329534
0.442649 0.438804 0.350545
0.143542 0.383536 0.236439
0.173663 0.404059 0.261479
0.2103 0.423529 0.285222
0.250935 0.442664 0.308492
0.294743 0.461646 0.331533
0.341268 0.480598 0.354498
0.390234 0.499611 0.377462
0.441398 0.5187 0.400488
0.494621 0.537926 0.423636
0.185794 0.474205 0.297429
0.217746 0.496696 0.324712
0.256184 0.518135 0.350668
0.298589 0.539193 0.376104
0.344152 0.560067 0.401297
0.392401 0.580911 0.426368
0.443076 0.60177 0.451423
0.495933 0.62269 0.476509
0.550835 0.643732 0.501671
0 0 0.0162661
0.0112917 0 0.0172885
0.0308385 0 0.0186618
0.0550546 0.000762951 0.0206912
0.0830091 0.00218204 0.0233768
0.114168 0.00415045 0.0267185
0.14815 0.00663767 0.0306859
0.18471 0.00967422 0.0352636
0.223651 0.0132143 0.0404364
0.00228885 0.0192569 0.0266728
0.0185397 0.0243687 0.0338598
0.0417487 0.0289769 0.0404059
0.0693065 0.0336919 0.0470588
0.100374 0.0386511 0.0539712
0.134463 0.0439307 0.0612345
0.171252 0.0495613 0.0689097
0.210483 0.0555886 0.076997
0.252003 0.0619974 0.0855268
0.0121767 0.0556039 0.0471351
0.0314641 0.0641794 0.0584421
0.057557 0.0720378 0.0688334
0.0878767 0.0798352 0.0791028
0.121584 0.0877394 0.0894636
0.158206 0.0958419 0.100038
0.197452 0.104219 0.110887
0.239063 0.112871 0.122042
0.282902 0.121859 0.133532
0.0284886 0.104021 0.0761273
0.0504005 0.115496 0.0908217
0.078996 0.126146 0.104479
0.111742 0.136645 0.117876
0.147799 0.147158 0.131273
0.186725 0.157809 0.144762
0.228199 0.168643 0.15845
0.272007 0.179706 0.172381
0.317983 0.191043 0.186557
0.0507362 0.162676 0.112657
0.0749828 0.176745 0.130358
0.105852 0.189914 0.146899
0.140826 0.202853 0.163119
0.179049 0.215747 0.179248
0.220096 0.228733 0.195422
0.263645 0.24184 0.211719
0.309499 0.255146 0.228183
0.357473 0.268666 0.244877
0.0785382 0.230488 0.156115
0.104936 0.246937 0.176532
0.137926 0.262409 0.195727
0.174945 0.277607 0.214527
0.215198 0.292729 0.233188
0.258244 0.307881 0.25185
0.303746 0.32314 0.270573
0.351522 0.338537 0.289433
0.401389 0.354116 0.308446
0.111604 0.306691 0.206027
0.140017 0.325338 0.228946
0.174975 0.342977 0.250614
0.213947 0.360296 0.271824
0.256123 0.377508 0.292866
0.30103 0.39472 0.313848
0.348394 0.411994 0.334859
0.398001 0.429374 0.355962
0.449668 0.446921 0.377203
0.149676 0.390692 0.262013
0.179995 0.411429 0.287297
0.216831 0.431113 0.311269
0.257649 0.450446 0.334768
0.30164 0.469627 0.358038
0.348363 0.488792 0.381231
0.397498 0.507988 0.40441
0.448844 0.527276 0.427665
0.502251 0.5467 0.451011
0.192569 0.482063 0.323781
0.224704 0.504753 0.351308
0.26334 0.52639 0.377478
0.305913 0.547631 0.403143
0.351659 0.568719 0.428534
0.400092 0.589746 0.453834
0.450935 0.610788 0.479088
0.503975 0.631907 0.504387
0.559045 0.653117 0.529763
0 0 0.0424659
0.0109102 0 0.0444495
0.0309453 0.000381476 0.0465248
0.0556039 0.00175479 0.0491493
0.0839399 0.00360113 0.0523537
0.115434 0.00596628 0.0561532
0.149752 0.00883497 0.0605631
0.186633 0.0122072 0.0655375
0.225864 0.0160678 0.0710918
0.00297551 0.0204013 0.0553292
0.0195926 0.0259403 0.0630045
0.0431373 0.0309453 0.0700084
0.0710307 0.0360113 0.0770733
0.102403 0.0413062 0.0843824
0.136782 0.0469062 0.0920424
0.173846 0.0528572 0.100069
0.213352 0.0591745 0.108507
0.255131 0.0658732 0.117357
0.0140078 0.0580453 0.0773022
0.0336004 0.0669566 0.0890059
0.0599832 0.0751354 0.0997635
0.0905623 0.0832227 0.110384
0.124544 0.0914321 0.121096
0.161425 0.0998245 0.131991
0.200916 0.108476 0.14316
0.242786 0.117403 0.15462
0.286854 0.126635 0.1664
0.031281 0.10753 0.10753
0.0534524 0.119295 0.12256
0.0823072 0.130236 0.136538
0.115297 0.140993 0.150256
0.151598 0.151766 0.163943
0.190753 0.162676 0.177737
0.232471 0.17377 0.191714
0.276493 0.185077 0.205921
0.322698 0.196643 0.220371
0.0543832 0.167132 0.145144
0.0788739 0.18146 0.163134
0.109972 0.194888 0.17998
0.145174 0.208057 0.196475
0.183627 0.22121 0.212894
0.224887 0.234424 0.229328
0.26865 0.247776 0.245899
0.314717 0.261311 0.262623
0.36289 0.275044 0.279561
0.0829633 0.235798 0.189578
0.10959 0.252476 0.210269
0.142779 0.268193 0.229725
0.180026 0.283619 0.248798
0.220493 0.29897 0.26772
0.263737 0.314351 0.286625
0.309438 0.329824 0.305592
0.357412 0.345434 0.324697
0.407477 0.361227 0.343954
0.116747 0.312779 0.240375
0.145373 0.331655 0.263569
0.180529 0.349523 0.285481
0.219715 0.367056 0.306935
0.262074 0.384482 0.328222
0.307195 0.401892 0.349432
0.354742 0.419379 0.370687
0.404532 0.436973 0.39202
0.456397 0.454719 0.413489
0.155505 0.397528 0.2972
0.186023 0.418463 0.322728
0.223056 0.438361 0.346944
0.264073 0.457908 0.370672
0.308248 0.477302 0.394171
0.355154 0.496666 0.417594
0.404471 0.51606 0.441001
0.456001 0.535546 0.464469
0.50959 0.555154 0.488029
0.199054 0.489601 0.359777
0.231373 0.512505 0.387518
0.270191 0.534325 0.413916
0.312963 0.555779 0.439796
0.358877 0.57705 0.465415
0.407492 0.598276 0.490929
0.458518 0.619516 0.516396
0.511727 0.640818 0.541909
0.566964 0.662211 0.567483
0 0 0.0744945
0.0104372 0 0.0773175
0.0309453 0.00077821 0.0800488
0.0560006 0.00260929 0.0832227
0.0847181 0.00488289 0.0869306
0.116564 0.00762951 0.0912032
0.151202 0.0108644 0.096025
0.188388 0.0145876 0.101411
0.227924 0.0187839 0.107347
0.00350958 0.0214237 0.0895857
0.0205081 0.0273747 0.0977646
0.0443885 0.0327459 0.105211
0.0726024 0.0381781 0.112703
0.10428 0.0438087 0.120409
0.138949 0.0497292 0.12842
0.176287 0.0560006 0.136812
0.216068 0.0626078 0.145602
0.258122 0.0695964 0.154788
0.0156863 0.0603342 0.113069
0.035584 0.0695811 0.125154
0.0622416 0.0780804 0.136278
0.0931106 0.0864729 0.147265
0.127352 0.0949721 0.158312
0.164492 0.103639 0.169528
0.204242 0.112566 0.181003
0.246357 0.121767 0.192767
0.290654 0.131258 0.204852
0.0339208 0.110872 0.144518
0.0563516 0.122942 0.159899
0.0854658 0.134157 0.174197
0.1187 0.14519 0.18822
0.155261 0.156237 0.202213
0.194644 0.167391 0.216297
0.236591 0.178729 0.230564
0.280842 0.190295 0.245045
0.32726 0.202106 0.25977
0.0578775 0.17142 0.183215
0.0825971 0.186007 0.201511
0.113939 0.199695 0.218647
0.149371 0.213123 0.235431
0.188037 0.226505 0.25211
0.229526 0.239963 0.268833
0.273503 0.253544 0.285649
0.319783 0.267308 0.302647
0.36817 0.28127 0.319829
0.0872358 0.24094 0.228626
0.114092 0.257862 0.249577
0.147509 0.273823 0.269322
0.184955 0.289479 0.288655
0.225635 0.305058 0.30782
0.269078 0.320653 0.326986
0.314992 0.336339 0.346212
0.363165 0.352178 0.365545
0.413413 0.368185 0.385046
0.121752 0.318715 0.280324
0.150591 0.337819 0.303761
0.185962 0.355901 0.325933
0.22533 0.373663 0.347631
0.267903 0.391302 0.369162
0.313207 0.408927 0.390616
0.360952 0.426627 0.412085
0.410941 0.444419 0.433661
0.462989 0.462379 0.45536
0.161196 0.404211 0.337987
0.191913 0.425361 0.36376
0.229145 0.445472 0.388205
0.270344 0.465217 0.412177
0.314717 0.484825 0.435904
0.361807 0.504387 0.459541
0.411307 0.52398 0.483177
0.46302 0.543664 0.506859
0.516793 0.56347 0.530648
0.205402 0.496986 0.401343
0.237903 0.520088 0.429328
0.276905 0.542123 0.45594
0.31986 0.563775 0.482048
0.365972 0.585245 0.507897
0.414755 0.606653 0.533608
0.465965 0.628077 0.559304
0.519341 0.649577 0.585016
0.574762 0.671168 0.610803
0 0 0.111025
0.00993362 0 0.114595
0.0308843 0.00111391 0.117952
0.0563516 0.00340276 0.12166
0.08542 0.00608835 0.125856
0.117617 0.00923171 0.130587
0.152575 0.0128176 0.135836
0.190082 0.0168765 0.141619
0.229908 0.0214084 0.147921
0.00399786 0.0223697 0.128222
0.0213321 0.0287327 0.136858
0.0455634 0.0344701 0.144762
0.0740826 0.0402533 0.152651
0.106065 0.0462196 0.160739
0.141024 0.0524758 0.169131
0.178653 0.0590372 0.177874
0.218708 0.0659495 0.186999
0.261006 0.073228 0.196521
0.0172885 0.0625467 0.15317
0.0374762 0.0721141 0.165621
0.0644236 0.0809186 0.177127
0.0955673 0.0896315 0.188449
0.130068 0.0984054 0.199832
0.167483 0.107378 0.211383
0.207462 0.116564 0.223163
0.249821 0.12604 0.235233
0.294377 0.13579 0.247623
0.0364691 0.114137 0.185824
0.0591745 0.126482 0.201541
0.0885328 0.137987 0.216144
0.122026 0.149279 0.230488
0.158816 0.160601 0.244785
0.198444 0.172015 0.259174
0.240604 0.183612 0.273716
0.2851 0.195407 0.288472
0.331731 0.207462 0.303471
0.0612802 0.175601 0.225589
0.086244 0.190463 0.24419
0.117815 0.204395 0.261616
0.153475 0.218082 0.278676
0.19237 0.231708 0.295644
0.234073 0.245411 0.312627
0.278279 0.25922 0.329717
0.324758 0.273213 0.34696
0.373342 0.287404 0.364401
0.0914321 0.245975 0.271962
0.118486 0.263142 0.293202
0.152132 0.279347 0.313207
0.189792 0.295232 0.332799
0.230686 0.31104 0.352239
0.274342 0.326863 0.371649
0.320455 0.342779 0.391119
0.368826 0.358831 0.410697
0.419272 0.375051 0.430442
0.126665 0.324559 0.324559
0.155703 0.343877 0.348257
0.191287 0.362203 0.370672
0.230869 0.380179 0.39263
0.273625 0.398032 0.414389
0.319127 0.415869 0.436088
0.367071 0.433768 0.457801
0.417243 0.451774 0.479606
0.469474 0.469932 0.501518
0.166796 0.410803 0.383078
0.197711 0.432166 0.409079
0.235142 0.452491 0.433768
0.276539 0.472435 0.457969
0.321096 0.492241 0.481926
0.368368 0.512001 0.505791
0.418067 0.531807 0.529641
0.469963 0.55169 0.553552
0.523903 0.571679 0.577554
0.211658 0.50428 0.447227
0.244358 0.527581 0.475425
0.283543 0.549813 0.502281
0.32668 0.571664 0.528603
0.372961 0.593332 0.554665
0.421942 0.614939 0.580606
0.47332 0.636561 0.6065
0.526879 0.658244 0.632441
0.582467 0.680018 0.658427
0 0 0.151308
0.00943008 0 0.155596
0.030808 0.00144961 0.159533
0.0566567 0.00418097 0.16376
0.0860914 0.00727855 0.168444
0.118624 0.0107881 0.173602
0.153903 0.014725 0.179263
0.191699 0.0191196 0.185428
0.23183 0.0239719 0.192111
0.00444038 0.0233005 0.170489
0.0221408 0.030045 0.179599
0.0466926 0.0361639 0.18793
0.0755322 0.0422827 0.196231
0.107805 0.0485847 0.2047
0.143053 0.0551614 0.213458
0.180957 0.0620279 0.222553
0.221271 0.0692302 0.232013
0.263828 0.0767987 0.241856
0.0188296 0.0646982 0.196887
0.0393225 0.0746014 0.20972
0.0665599 0.0837262 0.221576
0.0979782 0.0927291 0.233249
0.132738 0.101793 0.244968
0.170397 0.11104 0.25684
0.210636 0.120516 0.26894
0.253239 0.130236 0.281315
0.298024 0.140261 0.29398
0.0389715 0.117327 0.230747
0.0619211 0.129976 0.246784
0.0915389 0.141741 0.261723
0.125277 0.153323 0.276356
0.16231 0.164889 0.290959
0.202182 0.176577 0.305638
0.244572 0.188418 0.32047
0.289281 0.200458 0.3355
0.336141 0.212757 0.350774
0.064622 0.179736 0.27158
0.0898299 0.194858 0.290471
0.121645 0.209049 0.308186
0.157519 0.22298 0.325536
0.196643 0.236851 0.342763
0.23856 0.250782 0.360021
0.282979 0.264836 0.377371
0.329671 0.279057 0.394873
0.37847 0.293477 0.412573
0.095552 0.250965 0.318914
0.122835 0.268376 0.340429
0.156695 0.284794 0.360708
0.194568 0.300923 0.38056
0.235676 0.31696 0.400244
0.27953 0.333013 0.419913
0.325856 0.349142 0.439628
0.374411 0.365408 0.459449
0.425071 0.381842 0.479438
0.131518 0.330327 0.372412
0.160769 0.349889 0.396368
0.196551 0.368414 0.419028
0.236332 0.386618 0.44123
0.279301 0.404685 0.463233
0.325002 0.422736 0.485161
0.373129 0.440848 0.507118
0.423499 0.459052 0.529152
0.475914 0.477409 0.551293
0.172335 0.417319 0.431754
0.203449 0.438895 0.458
0.241062 0.459434 0.482933
0.282658 0.479591 0.507362
0.327413 0.499596 0.531548
0.374868 0.51957 0.555642
0.42475 0.539559 0.579721
0.476829 0.55964 0.603845
0.530953 0.579843 0.628061
0.217838 0.511498 0.496696
0.250736 0.535012 0.525124
0.290105 0.557443 0.552209
0.333425 0.579492 0.578759
0.379904 0.601358 0.605035
0.429053 0.623163 0.631189
0.480613 0.644968 0.657298
0.53434 0.666835 0.683436
0.590112 0.688807 0.709651
0 0 0.194903
0.00895705 0 0.199817
0.0307469 0.00180056 0.204318
0.0569619 0.00495918 0.209064
0.0867475 0.00843824 0.214206
0.119615 0.0123293 0.219791
0.155215 0.0166171 0.225864
0.193301 0.0213474 0.232425
0.233707 0.0265049 0.239475
0.00488289 0.0242161 0.215961
0.0229191 0.0313573 0.225528
0.0477913 0.0378271 0.234272
0.0769513 0.0442969 0.242969
0.109514 0.0509346 0.251835
0.145052 0.0578164 0.260945
0.183215 0.0649882 0.27039
0.223804 0.0724804 0.280171
0.266621 0.0803235 0.290349
0.0203555 0.0668193 0.243763
0.0411383 0.0770428 0.256977
0.0686503 0.0864881 0.269184
0.100343 0.0957809 0.281209
0.135363 0.10515 0.293248
0.173281 0.114672 0.30544
0.213764 0.124407 0.317845
0.256611 0.134401 0.330526
0.301625 0.144671 0.343481
0.0414282 0.1205 0.278828
0.0646372 0.133425 0.295186
0.0945144 0.14548 0.31043
0.128496 0.157321 0.325383
0.165774 0.169146 0.340276
0.205875 0.181079 0.355245
0.248493 0.193179 0.370352
0.293431 0.205478 0.385672
0.340505 0.218006 0.401205
0.0679332 0.183825 0.320699
0.09337 0.199207 0.339895
0.125414 0.213642 0.357885
0.161517 0.227832 0.375525
0.20087 0.241947 0.393027
0.243 0.256107 0.410559
0.287633 0.270405 0.428168
0.334539 0.28484 0.44593
0.383551 0.299489 0.46389
0.0996262 0.255894 0.369009
0.127138 0.273548 0.390784
0.161212 0.290211 0.411337
0.199313 0.306569 0.431449
0.24062 0.322835 0.451392
0.284672 0.339101 0.471305
0.331197 0.355459 0.491264
0.379965 0.371939 0.511345
0.430823 0.388586 0.531563
0.136324 0.336049 0.423392
0.165789 0.35584 0.447593
0.20177 0.374594 0.470512
0.241749 0.393011 0.492958
0.284916 0.411292 0.515206
0.330816 0.429557 0.537377
0.379141 0.447883 0.559564
0.429694 0.4663 0.581811
0.482307 0.484855 0.604196
0.177829 0.423789 0.483574
0.20914 0.445579 0.510063
0.246952 0.466316 0.535225
0.288731 0.486686 0.559884
0.333684 0.506905 0.584298
0.381323 0.527077 0.608621
0.431388 0.54728 0.632929
0.48365 0.567544 0.657267
0.537957 0.58793 0.681712
0.223987 0.518669 0.54931
0.257069 0.542382 0.577966
0.296635 0.565026 0.605264
0.340139 0.587274 0.632029
0.386786 0.609339 0.658534
0.436118 0.631327 0.684901
0.487861 0.65333 0.711238
0.541772 0.675395 0.737591
0.597711 0.697551 0.764004
0 0 0.241428
0.00849927 0 0.246967
0.0306859 0.00218204 0.252003
0.0572824 0.00575265 0.257237
0.0874037 0.00961318 0.262821
0.120592 0.0138552 0.268833
0.156497 0.0185092 0.275303
0.194903 0.0235599 0.282246
0.235584 0.0290379 0.289662
0.00531014 0.0251469 0.264302
0.0236973 0.0326696 0.274311
0.0488899 0.0395056 0.283467
0.0783551 0.0463111 0.292561
0.111223 0.053254 0.301778
0.147021 0.060441 0.311269
0.185473 0.0679179 0.32105
0.226322 0.0757 0.331167
0.269383 0.0838331 0.34165
0.0218662 0.0689555 0.293477
0.0429389 0.0794842 0.307057
0.0707256 0.0892348 0.319631
0.102678 0.0988327 0.331975
0.137972 0.108476 0.34435
0.176135 0.118273 0.356863
0.216876 0.128283 0.369574
0.259953 0.138537 0.382544
0.305211 0.149081 0.395804
0.0438697 0.123644 0.329717
0.0673381 0.136858 0.34641
0.0974594 0.149172 0.361975
0.131701 0.161288 0.377218
0.169207 0.173388 0.392416
0.209537 0.185565 0.407675
0.252384 0.19791 0.423056
0.297551 0.210452 0.438651
0.344839 0.223209 0.454459
0.0711986 0.187884 0.372641
0.0968795 0.203525 0.392126
0.129152 0.218219 0.410422
0.165484 0.232654 0.428321
0.205066 0.247013 0.446113
0.247425 0.261418 0.463905
0.292256 0.275929 0.481773
0.339376 0.290608 0.499794
0.388586 0.30547 0.517998
0.103685 0.260807 0.421912
0.131411 0.278691 0.443961
0.165698 0.295598 0.464759
0.204013 0.312184 0.485145
0.245533 0.328679 0.505348
0.289799 0.345174 0.525505
0.336522 0.361746 0.545724
0.385489 0.378439 0.566033
0.436545 0.3953 0.586496
0.1411 0.341756 0.47718
0.170764 0.361761 0.50164
0.206958 0.380728 0.524804
0.24715 0.399374 0.547494
0.290517 0.417868 0.569986
0.336599 0.436347 0.592386
0.385122 0.454871 0.614801
0.435874 0.473503 0.637293
0.48867 0.492256 0.659892
0.183291 0.430213 0.538186
0.214801 0.452232 0.56492
0.252811 0.473182 0.590311
0.294789 0.493767 0.615213
0.33991 0.514183 0.639857
0.387762 0.534554 0.664408
0.43801 0.554955 0.68893
0.490455 0.575418 0.713497
0.54493 0.596002 0.738155
0.230106 0.525811 0.604715
0.263371 0.549737 0.6336
0.30312 0.57258 0.661128
0.346822 0.59501 0.688121
0.393652 0.617273 0.714839
0.443168 0.63946 0.741421
0.495079 0.661662 0.767971
0.549157 0.683909 0.794522
0.60528 0.706249 0.821149
0 0 0.290639
0.00808728 0 0.296757
0.0306554 0.00259403 0.302312
0.0576181 0.00656138 0.308019
0.0880751 0.0108186 0.314046
0.121584 0.0154116 0.32047
0.157794 0.0203861 0.327337
0.19649 0.0257725 0.334646
0.237461 0.0315557 0.342428
0.00576791 0.0261082 0.315251
0.0244907 0.0339971 0.325689
0.0500038 0.0411841 0.335256
0.0797589 0.0483253 0.344732
0.112917 0.0555886 0.35433
0.149004 0.0630808 0.364157
0.187716 0.0708476 0.374273
0.228824 0.0789197 0.384726
0.272145 0.0873274 0.395529
0.0233768 0.0710765 0.345785
0.0447242 0.0819257 0.359731
0.0728008 0.0919814 0.372656
0.105028 0.101869 0.385336
0.140566 0.111803 0.398032
0.178988 0.121874 0.410849
0.219974 0.132158 0.42388
0.263294 0.142672 0.43714
0.308782 0.15346 0.45069
0.0462959 0.126787 0.383185
0.0700236 0.140276 0.400198
0.100404 0.152865 0.416068
0.134874 0.165255 0.431632
0.172625 0.1776 0.44712
0.213184 0.190036 0.462654
0.25626 0.202625 0.478325
0.30164 0.215412 0.494179
0.349157 0.228412 0.510262
0.074464 0.191943 0.427161
0.100389 0.207843 0.446937
0.132891 0.222782 0.465507
0.169451 0.237461 0.483696
0.209247 0.252049 0.501747
0.25182 0.266697 0.519799
0.29688 0.281453 0.537942
0.344198 0.296345 0.556207
0.393622 0.311437 0.57467
0.107713 0.26569 0.477363
0.135668 0.283833 0.499687
0.170169 0.300969 0.52076
0.208698 0.317784 0.541405
0.250416 0.334493 0.561852
0.294896 0.351217 0.582269
0.341833 0.368002 0.602716
0.390997 0.384909 0.62327
0.442237 0.401984 0.643977
0.145861 0.347417 0.533516
0.175738 0.367651 0.558236
0.212131 0.386862 0.581643
0.252522 0.405707 0.604593
0.296086 0.424414 0.627314
0.342367 0.443107 0.649958
0.391089 0.461845 0.672602
0.442023 0.480674 0.695323
0.495003 0.499641 0.718151
0.188739 0.436637 0.595361
0.220447 0.458854 0.622339
0.25864 0.480018 0.647959
0.300816 0.500801 0.673091
0.346136 0.521431 0.697963
0.394156 0.542 0.722744
0.444587 0.5626 0.747478
0.49723 0.583261 0.772274
0.551888 0.604044 0.797147
0.236194 0.532921 0.662669
0.269657 0.557061 0.691783
0.30959 0.580102 0.719539
0.353475 0.602731 0.746746
0.400488 0.625193 0.773693
0.450172 0.647578 0.800488
0.502266 0.669963 0.827253
0.556542 0.692393 0.854017
0.612818 0.714931 0.880858
