assets/cube/blue_dark.cube
TITLE "Generated by Resolve"
LUT_3D_SIZE 5
0 0 0
0.0303807 0 0.000427253
0.0817426 0.000396735 0.00401312
0.146197 0.00408942 0.0104067
0.221103 0.00999466 0.0193637
0.00999466 0.0528115 0.026566
0.0547951 0.0685893 0.0475013
0.118273 0.0836805 0.0674449
0.193637 0.0996109 0.0882277
0.27863 0.116732 0.110277
0.0467689 0.157885 0.0897841
0.101411 0.184604 0.12343
0.174166 0.209949 0.15523
0.258335 0.235584 0.187167
0.351736 0.261952 0.219806
0.106142 0.300267 0.181277
0.1691 0.33611 0.22536
0.249851 0.370214 0.26714
0.341741 0.404273 0.308659
0.442649 0.438804 0.350545
0.185794 0.474205 0.297429
0.256184 0.518135 0.350668
0.344152 0.560067 0.401297
0.443076 0.60177 0.451423
0.550835 0.643732 0.501671
0 0 0.0424659
0.0309453 0.000381476 0.0465248
0.0839399 0.00360113 0.0523537
0.149752 0.00883497 0.0605631
0.225864 0.0160678 0.0710918
0.0140078 0.0580453 0.0773022
0.0599832 0.0751354 0.0997635
0.124544 0.0914321 0.121096
0.200916 0.108476 0.14316
0.286854 0.126635 0.1664
0.0543832 0.167132 0.145144
0.109972 0.194888 0.17998
0.183627 0.22121 0.212894
0.26865 0.247776 0.245899
0.36289 0.275044 0.279561
0.116747 0.312779 0.240375
0.180529 0.349523 0.285481
0.262074 0.384482 0.328222
0.354742 0.419379 0.370687
0.456397 0.454719 0.413489
0.199054 0.489601 0.359777
0.270191 0.534325 0.413916
0.358877 0.57705 0.465415
0.458518 0.619516 0.516396
0.566964 0.662211 0.567483
0 0 0.111025
0.0308843 0.00111391 0.117952
0.08542 0.00608835 0.125856
0.152575 0.0128176 0.135836
0.229908 0.0214084 0.147921
0.0172885 0.0625467 0.15317
0.0644236 0.0809186 0.177127
0.130068 0.0984054 0.199832
0.207462 0.116564 0.223163
0.294377 0.13579 0.247623
0.0612802 0.175601 0.225589
0.117815 0.204395 0.261616
0.19237 0.231708 0.295644
0.278279 0.25922 0.329717
0.373342 0.287404 0.364401
0.126665 0.324559 0.324559
0.191287 0.362203 0.370672
0.273625 0.398032 0.414389
0.367071 0.433768 0.457801
0.469474 0.469932 0.501518
0.211658 0.50428 0.447227
0.283543 0.549813 0.502281
0.372961 0.593332 0.554665
0.47332 0.636561 0.6065
0.582467 0.680018 0.658427
0 0 0.194903
0.0307469 0.00180056 0.204318
0.0867475 0.00843824 0.214206
0.155215 0.0166171 0.225864
0.233707 0.0265049 0.239475
0.0203555 0.0668193 0.243763
0.0686503 0.0864881 0.269184
0.135363 0.10515 0.293248
0.213764 0.124407 0.317845
0.301625 0.144671 0.343481
0.0679332 0.183825 0.320699
0.125414 0.213642 0.357885
0.20087 0.241947 0.393027
0.287633 0.270405 0.428168
0.383551 0.299489 0.46389
0.136324 0.336049 0.423392
0.20177 0.374594 0.470512
0.284916 0.411292 0.515206
0.379141 0.447883 0.559564
0.482307 0.484855 0.604196
0.223987 0.518669 0.54931
0.296635 0.565026 0.605264
0.386786 0.609339 0.658534
0.487861 0.65333 0.711238
0.597711 0.697551 0.764004
0 0 0.290639
0.0306554 0.00259403 0.302312
0.0880751 0.0108186 0.314046
0.157794 0.0203861 0.327337
0.237461 0.0315557 0.342428
0.0233768 0.0710765 0.345785
0.0728008 0.0919814 0.372656
0.140566 0.111803 0.398032
0.219974 0.132158 0.42388
0.308782 0.15346 0.45069
0.074464 0.191943 0.427161
0.132891 0.222782 0.465507
0.209247 0.252049 0.501747
0.29688 0.281453 0.537942
0.393622 0.311437 0.57467
0.145861 0.347417 0.533516
0.212131 0.386862 0.581643
0.296086 0.424414 0.627314
0.391089 0.461845 0.672602
0.495003 0.499641 0.718151
0.236194 0.532921 0.662669
0.30959 0.580102 0.719539
0.400488 0.625193 0.773693
0.502266 0.669963 0.827253
0.612818 0.714931 0.880858
