assets/cube/blue_dark.cube
TITLE "Generated by Resolve"
LUT_3D_SIZE 33
0 0 0
0.0016022 0 0
0.00425727 0 0
0.00755322 0 0
0.0113375 0 0
0.0155642 0 0
0.0201724 0 1.5259e-05
0.0251164 0 0.000198367
0.0303807 0 0.000427253
0.035935 0 0.000717174
0.0417487 0 0.00105287
0.047837 0 0.00143435
0.0541695 0 0.0018616
0.0607309 0 0.00233463
0.0675212 0 0.00285344
0.0745251 0.000106813 0.00340276
0.0817426 0.000396735 0.00401312
0.0891585 0.000732433 0.00466926
0.0967575 0.00111391 0.00537118
0.104555 0.0015259 0.00610361
0.112535 0.00196841 0.00688182
0.120699 0.00244144 0.00770581
0.12903 0.00296025 0.00856031
0.13753 0.00350958 0.00946059
0.146197 0.00408942 0.0104067
0.155032 0.00471504 0.0113985
0.164019 0.00537118 0.0124208
0.173159 0.00605783 0.0134737
0.182452 0.00677501 0.0145876
0.191897 0.0075227 0.0157168
0.201495 0.00831617 0.0168917
0.211231 0.00914015 0.0181125
0.221103 0.00999466 0.0193637
0 0.00204471 0.000534066
0.00163272 0.00242618 0.00122072
0.004654 0.00268559 0.00175479
0.00828565 0.00291447 0.00225834
0.0124056 0.00314336 0.00277714
0.0169223 0.0033875 0.00331121
0.0218204 0.00364691 0.00386053
0.027039 0.00393683 0.00444038
0.0325475 0.00424201 0.00505074
0.0383612 0.00456245 0.00570687
0.0444343 0.00492866 0.00637827
0.0507515 0.00531014 0.00709544
0.0573129 0.00573739 0.00784314
0.0641031 0.0061799 0.00863661
0.071107 0.00666819 0.00946059
0.0783246 0.00717174 0.0103304
0.0857557 0.00772107 0.0112306
0.09337 0.00828565 0.0121614
0.101183 0.00889601 0.013138
0.109178 0.00953689 0.0141451
0.117357 0.0102083 0.0151827
0.125704 0.0108949 0.0162661
0.134234 0.0116274 0.0173953
0.142916 0.0123903 0.0185397
0.151781 0.0131838 0.0197452
0.160784 0.0140078 0.0209659
0.169955 0.0148775 0.0222324
0.179278 0.0157626 0.0235294
0.188754 0.0166781 0.0248722
0.198367 0.0176242 0.0262303
0.208133 0.0186007 0.0276341
0.218036 0.0196231 0.0290837
0.228077 0.0206607 0.0305638
0 0.0059968 0.00210575
0.00199893 0.00674449 0.00325017
0.00531014 0.00735485 0.00422675
0.00923171 0.00791943 0.00515755
0.013611 0.00846876 0.00605783
0.0183871 0.00901808 0.00695811
0.0235294 0.00956741 0.00787366
0.0289769 0.010132 0.00880446
0.0347295 0.0106966 0.00975052
0.0407721 0.0113069 0.0107118
0.0470588 0.0119173 0.0117037
0.0536049 0.0125582 0.012726
0.0603799 0.0132143 0.0137789
0.0673686 0.0139162 0.014847
0.0745861 0.0146181 0.0159609
0.0820172 0.0153658 0.0170901
0.0896315 0.0161288 0.018265
0.0974441 0.0169223 0.0194705
0.105455 0.0177462 0.0206912
0.113634 0.0186007 0.0219577
0.122011 0.0194858 0.0232547
0.130541 0.0203861 0.0245823
0.139239 0.0213321 0.0259556
0.148119 0.0222934 0.0273442
0.157153 0.0232853 0.0287785
0.166339 0.0243076 0.0302281
0.175677 0.0253605 0.0317235
0.185168 0.0264439 0.0332494
0.194812 0.0275425 0.0348058
0.204593 0.028687 0.036408
0.214527 0.0298466 0.0380255
0.224598 0.0310521 0.0396735
0.234806 0.0322728 0.0413672
0.000213626 0.0113069 0.00450141
0.00282292 0.0123751 0.00604257
0.00639353 0.0132753 0.00738537
0.0105592 0.0141299 0.00866712
0.0151675 0.0149538 0.0099031
0.0201877 0.0157626 0.0111391
0.0255436 0.0165713 0.0123598
0.03122 0.0173953 0.0135958
0.0372015 0.0182193 0.014847
0.0434424 0.0190585 0.0160983
0.0499428 0.019913 0.01738
0.0566873 0.0207828 0.018677
0.0636606 0.0216831 0.0200046
0.0708629 0.0225834 0.0213474
0.0782635 0.0235294 0.0227207
0.0858778 0.0244755 0.0241093
0.0936904 0.0254673 0.0255283
0.101701 0.0264744 0.026978
0.10988 0.0274968 0.0284581
0.118242 0.0285496 0.0299687
0.126787 0.029633 0.0315099
0.1355 0.0307469 0.0330663
0.144381 0.0318761 0.0346532
0.153429 0.0330358 0.036286
0.162631 0.0342107 0.0379339
0.171984 0.0354314 0.0396124
0.181491 0.0366674 0.0413367
0.19115 0.0379339 0.0430762
0.200961 0.0392309 0.0448463
0.21091 0.0405432 0.0466468
0.220996 0.041886 0.0484779
0.231235 0.0432593 0.0503395
0.241596 0.0446632 0.0522469
0.00125124 0.0177462 0.00764477
0.00410468 0.019089 0.00950637
0.00791943 0.020264 0.0111849
0.0122988 0.0213626 0.0127718
0.0171359 0.022446 0.0143282
0.0223545 0.0234989 0.0158541
0.0279393 0.0245518 0.0173648
0.033814 0.0256046 0.0188907
0.0399939 0.0266728 0.0204166
0.0464332 0.0277256 0.0219425
0.0531319 0.028809 0.0234836
0.0600748 0.0299077 0.0250401
0.0672465 0.0310063 0.026627
0.0746166 0.0321355 0.0282139
0.0822156 0.0332799 0.0298314
0.090013 0.0344396 0.0314794
0.0980087 0.0356298 0.0331426
0.106188 0.0368353 0.0348211
0.114549 0.038056 0.0365301
0.123095 0.0393072 0.0382696
0.131807 0.040589 0.0400397
0.140688 0.041886 0.041825
0.149737 0.0431983 0.0436408
0.158938 0.0445411 0.0454719
0.168307 0.0459144 0.0473487
0.177829 0.047303 0.0492409
0.187503 0.0487221 0.0511635
0.197314 0.0501717 0.0531167
0.207279 0.0516365 0.0551003
0.217395 0.0531319 0.0570993
0.227634 0.0546578 0.059144
0.238025 0.056199 0.0612039
0.248539 0.0577707 0.0632944
0.00277714 0.0251926 0.0114595
0.00584421 0.0267796 0.0136263
0.00985733 0.0281987 0.0155947
0.0144503 0.0295567 0.0174716
0.019501 0.030869 0.0193027
0.0249332 0.0321508 0.0211032
0.0307012 0.0334325 0.0229038
0.0367895 0.034699 0.0246738
0.0431525 0.0359808 0.0264591
0.0497902 0.0372625 0.0282444
0.056672 0.0385443 0.030045
0.0637827 0.0398413 0.0318456
0.0711376 0.0411536 0.0336614
0.0786908 0.0424811 0.0355077
0.0864729 0.0438239 0.0373541
0.0944381 0.045182 0.0392309
0.102602 0.0465705 0.0411231
0.110948 0.0479591 0.0430304
0.119493 0.0493782 0.0449683
0.128191 0.0508278 0.0469215
0.137072 0.0522774 0.0489052
0.14612 0.0537575 0.0509041
0.155337 0.0552682 0.0529335
0.164706 0.0567941 0.0549783
0.174228 0.0583352 0.0570535
0.183917 0.0599069 0.0591592
0.193744 0.0614939 0.0612802
0.203708 0.0631113 0.063447
0.21384 0.0647593 0.0656138
0.224094 0.0664225 0.0678264
0.234485 0.0681163 0.0700542
0.245029 0.0698253 0.0723125
0.255695 0.0715648 0.0746014
0.00474556 0.0335699 0.0158999
0.00802625 0.0353857 0.0183566
0.0122377 0.0370336 0.0205997
0.0170291 0.0386053 0.0227359
0.0222629 0.0401312 0.0248417
0.0278935 0.0416419 0.0269017
0.0338445 0.0431373 0.0289464
0.040116 0.0446174 0.0309758
0.0466621 0.0460975 0.03299
0.0534829 0.0475776 0.0350195
0.0605478 0.049073 0.0370642
0.0678416 0.0505684 0.0390936
0.0753643 0.052079 0.0411536
0.0831006 0.0535897 0.0432136
0.0910353 0.0551308 0.0452888
0.0991836 0.0566873 0.0473793
0.107515 0.0582437 0.049485
0.11603 0.0598306 0.0516213
0.124727 0.0614328 0.0537728
0.133593 0.0630503 0.0559396
0.142641 0.064683 0.0581216
0.151843 0.0663462 0.0603342
0.161212 0.0680247 0.062562
0.170733 0.0697185 0.0648203
0.180423 0.0714427 0.0670939
0.190249 0.0731823 0.069398
0.200229 0.0749523 0.0717174
0.210361 0.0767376 0.0740673
0.22063 0.0785382 0.0764477
0.231037 0.0803693 0.0788434
0.241581 0.0822309 0.0812695
0.252277 0.0841077 0.083711
0.263096 0.0859998 0.086183
0.00715648 0.0427863 0.0209506
0.0106203 0.044831 0.0236667
0.0150301 0.0466926 0.026154
0.0200198 0.0484779 0.0285496
0.0254368 0.0502174 0.0308995
0.0312352 0.0519265 0.0332036
0.0373846 0.0536202 0.0354925
0.0438239 0.0552987 0.0377508
0.0505531 0.0569772 0.0400092
0.0575418 0.0586557 0.0422675
0.0647746 0.0603342 0.0445258
0.0722362 0.0620279 0.0467994
0.0799268 0.0637217 0.0490578
0.0878309 0.0654307 0.0513466
0.0959335 0.067155 0.0536355
0.104234 0.0688792 0.0559396
0.112734 0.070634 0.0582589
0.121416 0.0723888 0.0606088
0.130266 0.0741588 0.0629587
0.1393 0.0759594 0.0653239
0.148486 0.0777752 0.0677195
0.157855 0.0796063 0.0701305
0.167376 0.0814527 0.0725567
0.17705 0.0833143 0.0750134
0.186892 0.0852064 0.0774853
0.196872 0.0871138 0.0799725
0.207004 0.0890516 0.0824903
0.217273 0.0909895 0.0850385
0.227695 0.092958 0.0875868
0.238254 0.0949569 0.0901808
0.248936 0.0969711 0.0927901
0.25977 0.0990005 0.0954147
0.270726 0.101061 0.0980697
0.00999466 0.0528115 0.026566
0.0136416 0.0550546 0.0295262
0.0182345 0.0571145 0.0322576
0.0233921 0.0591135 0.0348974
0.0289921 0.0610513 0.0374762
0.0349737 0.0629587 0.0400092
0.0412909 0.0648356 0.0425269
0.0478981 0.0667124 0.0450141
0.0547951 0.0685893 0.0475013
0.0619516 0.0704509 0.0499733
0.0693523 0.0723125 0.0524605
0.0769818 0.0741894 0.0549325
0.0848402 0.0760662 0.0574197
0.0928969 0.0779583 0.0599069
0.101167 0.0798505 0.0624094
0.109621 0.0817578 0.0649271
0.118273 0.0836805 0.0674449
0.127108 0.0856184 0.0699779
0.136126 0.0875715 0.0725414
0.145296 0.0895247 0.0751049
0.15465 0.0915084 0.0776989
0.164157 0.0935073 0.080293
0.173831 0.0955215 0.0829175
0.183658 0.0975509 0.0855573
0.193637 0.0996109 0.0882277
0.203769 0.101686 0.0909133
0.214054 0.103761 0.0936141
0.22446 0.105882 0.0963302
0.235019 0.108003 0.0990768
0.245731 0.110155 0.101839
0.256565 0.112322 0.104631
0.267521 0.114519 0.107439
0.27863 0.116732 0.110277
0.0132448 0.0635843 0.0327306
0.0170748 0.0660258 0.0359197
0.0218357 0.0682994 0.0388952
0.0271611 0.0704814 0.0417639
0.032929 0.0726024 0.0445563
0.0390784 0.0747082 0.0473182
0.0455634 0.0767834 0.0500496
0.0523384 0.0788434 0.0527504
0.0594034 0.0808881 0.0554513
0.0667277 0.0829328 0.0581369
0.0742809 0.0849775 0.0608225
0.0820783 0.0870375 0.063508
0.0900893 0.0890822 0.0661936
0.0982986 0.0911421 0.0688945
0.106722 0.0932174 0.0715953
0.115343 0.0952926 0.0743114
0.124147 0.0973831 0.0770275
0.13312 0.0994888 0.0797589
0.14229 0.10161 0.0825055
0.151614 0.103731 0.0852674
0.16112 0.105882 0.0880446
0.170779 0.108034 0.090837
0.180591 0.110216 0.0936599
0.19057 0.112413 0.0964828
0.200687 0.114626 0.099321
0.210956 0.116854 0.10219
0.221378 0.119097 0.105074
0.231937 0.12137 0.107973
0.242649 0.123644 0.110903
0.253483 0.125948 0.113848
0.264454 0.128267 0.116808
0.275563 0.130617 0.119799
0.286793 0.132982 0.122805
0.0168917 0.0750896 0.0394141
0.0208896 0.0777295 0.0428321
0.0258183 0.0801862 0.0460212
0.0313268 0.0825513 0.0491035
0.0372625 0.0848554 0.0521248
0.0435645 0.0871443 0.0551003
0.0502022 0.0893873 0.0580453
0.057145 0.0916304 0.0609598
0.0643626 0.0938582 0.063859
0.0718395 0.0960861 0.0667582
0.0795605 0.0982986 0.0696422
0.0875105 0.100526 0.0725261
0.0956741 0.102754 0.0754101
0.104036 0.104982 0.0783093
0.112612 0.107225 0.0811933
0.121386 0.109468 0.0841077
0.130327 0.111711 0.0870222
0.139467 0.113985 0.0899367
0.148775 0.116258 0.0928817
0.158251 0.118547 0.0958267
0.167895 0.120867 0.0987869
0.177691 0.123186 0.101762
0.187655 0.125521 0.104753
0.197772 0.127871 0.107759
0.208026 0.130236 0.110796
0.218448 0.132616 0.113832
0.229007 0.135012 0.116884
0.239704 0.137438 0.119966
0.250538 0.139864 0.123064
0.261509 0.142321 0.126177
0.272633 0.144793 0.12932
0.283864 0.14728 0.132479
0.295232 0.149798 0.135653
0.0209354 0.0872969 0.0466163
0.0251011 0.0901045 0.050248
0.0301976 0.0927443 0.0536507
0.0358434 0.0952926 0.0569467
0.0419471 0.0977798 0.0601663
0.0484169 0.100237 0.0633555
0.0552224 0.102663 0.0664988
0.0623178 0.105074 0.0696117
0.069688 0.107485 0.0727092
0.0773175 0.109865 0.0758068
0.0851759 0.112261 0.0788891
0.0932784 0.114656 0.0819715
0.101595 0.117037 0.0850538
0.110109 0.119432 0.0881361
0.118837 0.121843 0.0912184
0.127749 0.124239 0.0943008
0.136843 0.126665 0.0973983
0.14612 0.129091 0.100511
0.155566 0.131518 0.103639
0.165194 0.133974 0.106767
0.174975 0.136431 0.109911
0.184909 0.138903 0.113054
0.19501 0.14139 0.116228
0.205264 0.143908 0.119417
0.215671 0.146426 0.122621
0.22623 0.148959 0.125826
0.236912 0.151507 0.129061
0.247761 0.15407 0.132311
0.258732 0.156664 0.135576
0.269841 0.159258 0.138872
0.281086 0.161883 0.142168
0.292454 0.164523 0.145495
0.30396 0.167178 0.148836
0.0253605 0.10016 0.0543069
0.0296788 0.103151 0.0581521
0.0349432 0.105959 0.0617533
0.0407568 0.10869 0.0652628
0.0469978 0.111345 0.0686809
0.0536202 0.11397 0.0720531
0.0605783 0.116579 0.0753948
0.0678264 0.119158 0.0787213
0.075349 0.121721 0.0820172
0.0831311 0.124285 0.0852979
0.0911421 0.126833 0.0885634
0.099382 0.129381 0.0918288
0.107851 0.131945 0.0950942
0.116518 0.134493 0.0983749
0.125383 0.137057 0.10164
0.134432 0.13962 0.104906
0.143679 0.142199 0.108186
0.153094 0.144778 0.111482
0.162676 0.147372 0.114778
0.172442 0.149966 0.11809
0.182361 0.15259 0.121401
0.192447 0.155215 0.124727
0.202686 0.157855 0.128069
0.213077 0.16051 0.131426
0.223606 0.16318 0.134798
0.234302 0.16585 0.138186
0.245121 0.168551 0.141588
0.256092 0.171267 0.145006
0.267201 0.173999 0.148455
0.278447 0.176745 0.151904
0.289815 0.179507 0.155367
0.30132 0.182284 0.158862
0.312947 0.185092 0.162356
0.0301671 0.113664 0.0624857
0.034638 0.116838 0.0665293
0.0400549 0.119814 0.0703288
0.0460212 0.122713 0.0740215
0.0524147 0.125536 0.0776532
0.0591897 0.128328 0.0812238
0.0663005 0.131106 0.0847486
0.0736858 0.133837 0.0882582
0.0813611 0.136568 0.0917372
0.0892805 0.1393 0.095201
0.0974441 0.142 0.0986648
0.105837 0.144717 0.102113
0.114443 0.147433 0.105562
0.123247 0.150134 0.10901
0.13225 0.15285 0.112459
0.141451 0.155581 0.115908
0.15082 0.158297 0.119371
0.160372 0.161044 0.122835
0.170108 0.163775 0.126299
0.180011 0.166537 0.129778
0.190066 0.169299 0.133272
0.200275 0.172076 0.136782
0.210651 0.174868 0.140291
0.22118 0.177661 0.143816
0.231846 0.180484 0.147356
0.242664 0.183307 0.150912
0.25362 0.186145 0.154482
0.264729 0.189014 0.158068
0.275959 0.191882 0.161654
0.287327 0.194766 0.16527
0.298833 0.197681 0.168902
0.310475 0.200595 0.172549
0.322225 0.20354 0.176226
0.0353399 0.12781 0.0711376
0.0399634 0.131151 0.0753643
0.0455177 0.134295 0.0793622
0.0516365 0.137346 0.0832532
0.0581826 0.140337 0.0870527
0.0651102 0.143297 0.0908064
0.0723583 0.146227 0.0945296
0.0798962 0.149126 0.0982223
0.0877089 0.15201 0.101884
0.0957809 0.154894 0.105531
0.104082 0.157763 0.109178
0.112612 0.160632 0.11281
0.121355 0.163485 0.116426
0.130297 0.166354 0.120058
0.139437 0.169223 0.123674
0.148775 0.172091 0.127306
0.158297 0.174975 0.130938
0.167987 0.177859 0.134569
0.177844 0.180743 0.138216
0.187869 0.183658 0.141863
0.198062 0.186557 0.145525
0.208423 0.189487 0.149187
0.218921 0.192416 0.15288
0.229572 0.195361 0.156558
0.240375 0.198322 0.160266
0.251331 0.201297 0.163989
0.262425 0.204273 0.167712
0.27364 0.207279 0.171466
0.285008 0.210285 0.175219
0.296513 0.213321 0.178988
0.308141 0.216358 0.182788
0.319905 0.219425 0.186587
0.331792 0.222507 0.190417
0.0408789 0.14255 0.0802319
0.045655 0.146044 0.0846571
0.0513466 0.149355 0.088838
0.0576181 0.152575 0.0929122
0.0643015 0.155734 0.0968948
0.0713664 0.158846 0.100847
0.0787671 0.161929 0.104738
0.0864424 0.164981 0.108614
0.0943923 0.168032 0.112459
0.102602 0.171069 0.116289
0.11104 0.17409 0.120104
0.119707 0.177096 0.123903
0.128588 0.180117 0.127703
0.137682 0.183139 0.131502
0.14696 0.186145 0.135302
0.15642 0.189166 0.139086
0.166064 0.192203 0.142885
0.175891 0.195224 0.1467
0.185885 0.19826 0.1505
0.196048 0.201312 0.154314
0.206378 0.204364 0.158145
0.216861 0.207431 0.161975
0.227497 0.210513 0.16582
0.238285 0.213596 0.169665
0.24921 0.216693 0.173541
0.260288 0.219806 0.177417
0.271504 0.222934 0.181308
0.282856 0.226062 0.185214
0.294347 0.229221 0.18912
0.305974 0.23238 0.193057
0.317723 0.235569 0.197009
0.32961 0.238758 0.200961
0.341619 0.241978 0.204944
0.0467689 0.157885 0.0897841
0.0516823 0.161547 0.094377
0.0575265 0.165011 0.0987564
0.0639353 0.168383 0.102998
0.0707713 0.171695 0.107179
0.0779736 0.17496 0.111299
0.0854963 0.178195 0.115373
0.0933242 0.181415 0.119417
0.101411 0.184604 0.12343
0.109758 0.187793 0.127443
0.118334 0.190967 0.131426
0.127138 0.194125 0.135393
0.136156 0.197299 0.139376
0.145373 0.200458 0.143328
0.154788 0.203616 0.147295
0.164385 0.20679 0.151263
0.174166 0.209949 0.15523
0.184115 0.213123 0.159197
0.194247 0.216312 0.163165
0.204532 0.219501 0.167147
0.214984 0.22269 0.17113
0.225605 0.225895 0.175128
0.236362 0.229114 0.179126
0.247272 0.232349 0.183139
0.258335 0.235584 0.187167
0.269535 0.238834 0.191196
0.280873 0.2421 0.195239
0.292363 0.245365 0.199298
0.303975 0.248661 0.203372
0.315724 0.251957 0.207462
0.327596 0.255268 0.211566
0.339605 0.25861 0.215671
0.351736 0.261952 0.219806
0.0530098 0.1738 0.0997635
0.0580758 0.177615 0.104555
0.0640574 0.181231 0.109087
0.0706035 0.184756 0.113527
0.0775769 0.18822 0.117876
0.0849165 0.191638 0.122164
0.0925765 0.195026 0.126406
0.100542 0.198398 0.130632
0.108766 0.20174 0.134813
0.117235 0.205066 0.138994
0.125948 0.208392 0.143145
0.13489 0.211704 0.147295
0.14403 0.215 0.151431
0.153384 0.218311 0.15555
0.162921 0.221622 0.159686
0.172656 0.224933 0.163806
0.182574 0.228244 0.167941
0.192645 0.231556 0.172061
0.202899 0.234882 0.176196
0.213321 0.238209 0.180331
0.223911 0.241535 0.184482
0.234638 0.244892 0.188632
0.245533 0.248234 0.192798
0.256565 0.251606 0.196963
0.26775 0.254978 0.201144
0.279072 0.258366 0.205325
0.290547 0.261769 0.209537
0.302144 0.265171 0.213748
0.313878 0.268589 0.217975
0.32575 0.272023 0.222202
0.337758 0.275471 0.226459
0.349889 0.278935 0.230716
0.362142 0.282414 0.235004
0.0596017 0.190265 0.110185
0.0647898 0.194232 0.115145
0.0709239 0.198016 0.11986
0.0776074 0.201678 0.124453
0.0847181 0.205295 0.128985
0.092195 0.208865 0.13344
0.0999924 0.212406 0.137865
0.10808 0.215915 0.142245
0.116442 0.219394 0.146609
0.125048 0.222873 0.150942
0.133883 0.226337 0.155261
0.142947 0.229801 0.159564
0.152224 0.233249 0.163867
0.161715 0.236698 0.168154
0.171374 0.240146 0.172442
0.181231 0.243595 0.17673
0.191272 0.247044 0.181018
0.201495 0.250492 0.185306
0.211872 0.253956 0.189593
0.222416 0.25742 0.193896
0.233112 0.260899 0.198199
0.243977 0.264378 0.202502
0.254994 0.267872 0.206821
0.266148 0.271366 0.211139
0.277455 0.274876 0.215473
0.288914 0.278386 0.219806
0.300496 0.281926 0.22417
0.312215 0.285466 0.228534
0.324086 0.289021 0.232898
0.336065 0.292592 0.237293
0.348196 0.296162 0.241688
0.360433 0.299763 0.246098
0.372808 0.303365 0.250523
0.0665293 0.207294 0.121019
0.07187 0.211414 0.126146
0.0781262 0.215335 0.131029
0.0849317 0.21915 0.135805
0.0921798 0.222919 0.14049
0.099794 0.226627 0.145129
0.107713 0.230304 0.149706
0.115938 0.233951 0.154253
0.124437 0.237598 0.15877
0.133165 0.241215 0.163272
0.142138 0.244816 0.167758
0.151339 0.248417 0.172229
0.160739 0.252003 0.176684
0.170352 0.255589 0.18114
0.180148 0.259174 0.18558
0.190127 0.26276 0.190036
0.20029 0.266346 0.194476
0.210636 0.269947 0.198917
0.221134 0.273533 0.203357
0.2318 0.277134 0.207813
0.242634 0.280751 0.212268
0.25362 0.284367 0.216724
0.264744 0.287984 0.221195
0.276036 0.291615 0.225666
0.287465 0.295262 0.230152
0.299031 0.298909 0.234638
0.310735 0.302571 0.239139
0.322576 0.306249 0.243656
0.334554 0.309926 0.248173
0.34667 0.313619 0.252705
0.358907 0.317327 0.257252
0.371267 0.32105 0.261814
0.383764 0.324788 0.266377
0.0737926 0.224857 0.132265
0.0792554 0.229114 0.13756
0.0856489 0.233188 0.142626
0.0925917 0.237156 0.147555
0.0999771 0.241047 0.152407
0.107713 0.244907 0.157198
0.11577 0.248737 0.161944
0.124117 0.252522 0.166659
0.132738 0.256306 0.171344
0.141604 0.26006 0.175998
0.150713 0.263798 0.180636
0.160021 0.267536 0.18526
0.169558 0.27126 0.189883
0.179294 0.274983 0.194491
0.189212 0.278706 0.1991
0.199313 0.282429 0.203693
0.209613 0.286152 0.208286
0.220066 0.289891 0.212894
0.230701 0.293614 0.217487
0.241489 0.297353 0.22208
0.25243 0.301091 0.226688
0.263539 0.304845 0.231296
0.2748 0.308598 0.23592
0.286198 0.312352 0.240543
0.297749 0.316121 0.245167
0.309438 0.319905 0.249805
0.321263 0.323705 0.254459
0.333227 0.327504 0.259113
0.345327 0.331319 0.263783
0.357549 0.335134 0.268467
0.369909 0.338979 0.273152
0.382391 0.342824 0.277852
0.394995 0.346685 0.282567
0.0813916 0.242939 0.143923
0.0869917 0.247349 0.149386
0.0935073 0.25156 0.154604
0.100587 0.255665 0.159701
0.108095 0.259709 0.164721
0.115953 0.263706 0.169665
0.124147 0.267674 0.174578
0.132616 0.271595 0.179446
0.141375 0.275517 0.184283
0.150362 0.279408 0.189105
0.159579 0.283284 0.193896
0.169024 0.28716 0.198688
0.178683 0.29102 0.203449
0.18854 0.294881 0.208209
0.198581 0.298741 0.21297
0.20882 0.302602 0.217716
0.219226 0.306462 0.222461
0.229801 0.310323 0.227222
0.240558 0.314183 0.231968
0.251469 0.318044 0.236713
0.262531 0.32192 0.241474
0.273762 0.325795 0.24622
0.28513 0.329671 0.250996
0.296651 0.333562 0.255756
0.308324 0.337469 0.260533
0.320119 0.341375 0.265324
0.332067 0.345296 0.270115
0.344152 0.349233 0.274922
0.356359 0.35317 0.279728
0.368704 0.357122 0.28455
0.38117 0.361074 0.289387
0.393774 0.365057 0.294224
0.4065 0.369039 0.299077
0.0893263 0.26154 0.155978
0.0950484 0.266087 0.161608
0.101701 0.270436 0.166979
0.108904 0.274693 0.172244
0.116533 0.278874 0.177417
0.124514 0.283009 0.182528
0.13283 0.287114 0.187594
0.141436 0.291173 0.192615
0.150301 0.295232 0.197604
0.159426 0.29926 0.202579
0.168765 0.303273 0.207523
0.178332 0.307271 0.212467
0.188113 0.311284 0.21738
0.198093 0.315267 0.222293
0.208255 0.319265 0.227207
0.218616 0.323247 0.232105
0.229145 0.32723 0.237003
0.239841 0.331228 0.241901
0.250706 0.335225 0.246799
0.261738 0.339208 0.251698
0.272923 0.343221 0.256596
0.284276 0.347219 0.261494
0.295766 0.351232 0.266407
0.307393 0.355245 0.271321
0.319173 0.359274 0.276234
0.331106 0.363317 0.281163
0.34316 0.367361 0.286107
0.355352 0.37142 0.291051
0.367681 0.375479 0.295995
0.380148 0.379553 0.300969
0.392721 0.383642 0.305943
0.405432 0.387732 0.310918
0.41828 0.391852 0.315908
0.0975662 0.280659 0.168444
0.103426 0.285344 0.174212
0.110201 0.28983 0.179751
0.117525 0.294209 0.185168
0.125277 0.298543 0.190494
0.133394 0.302815 0.195758
0.141833 0.307042 0.200977
0.150561 0.311254 0.206149
0.159548 0.315435 0.211307
0.168795 0.319585 0.216419
0.178256 0.323735 0.22153
0.187945 0.327886 0.226612
0.197848 0.332006 0.231693
0.207935 0.336141 0.236744
0.218235 0.340261 0.241794
0.228702 0.344366 0.246845
0.239353 0.348486 0.251896
0.250172 0.352605 0.256931
0.261158 0.356725 0.261982
0.272297 0.360845 0.267018
0.283604 0.364981 0.272068
0.295064 0.369116 0.277119
0.306676 0.373251 0.28217
0.318425 0.377401 0.287221
0.330327 0.381552 0.292287
0.342367 0.385718 0.297353
0.354528 0.389883 0.302434
0.366842 0.394064 0.307515
0.379278 0.398245 0.312612
0.391852 0.402441 0.317708
0.404547 0.406653 0.32282
0.41738 0.41088 0.327947
0.43032 0.415106 0.333074
0.106142 0.300267 0.181277
0.112108 0.305089 0.187213
0.11902 0.309712 0.192905
0.126467 0.314229 0.198474
0.13434 0.318685 0.203952
0.14258 0.323095 0.209369
0.151141 0.327459 0.21474
0.159991 0.331792 0.220066
0.1691 0.33611 0.22536
0.178454 0.340414 0.23064
0.188052 0.344686 0.235889
0.197864 0.348959 0.241123
0.207874 0.353216 0.246342
0.218097 0.357473 0.251545
0.228489 0.361715 0.256748
0.239078 0.365972 0.261952
0.249851 0.370214 0.26714
0.260792 0.374456 0.272328
0.271885 0.378698 0.277501
0.283146 0.382956 0.282689
0.294575 0.387213 0.287877
0.306142 0.39147 0.293065
0.317876 0.395727 0.298268
0.329732 0.4 0.303456
0.341741 0.404273 0.308659
0.353902 0.40856 0.313863
0.366186 0.412848 0.319081
0.378607 0.417151 0.3243
0.391165 0.421469 0.329534
0.403845 0.425788 0.334783
0.416648 0.430106 0.340032
0.429587 0.434455 0.345281
0.442649 0.438804 0.350545
0.115023 0.320363 0.194507
0.121126 0.325322 0.200595
0.128145 0.330083 0.206439
0.135714 0.334737 0.212161
0.143709 0.33933 0.217792
0.152071 0.343862 0.223362
0.160754 0.348363 0.22887
0.169726 0.352834 0.234348
0.178958 0.357275 0.239796
0.188434 0.3617 0.245212
0.198138 0.36611 0.250614
0.208072 0.370504 0.255985
0.218204 0.374899 0.261357
0.228534 0.379278 0.266712
0.239063 0.383642 0.272053
0.24976 0.388022 0.277394
0.260639 0.392401 0.282719
0.271687 0.396765 0.288045
0.282918 0.401144 0.293385
0.294286 0.405509 0.298711
0.305821 0.409888 0.304036
0.31751 0.414267 0.309361
0.329351 0.418662 0.314687
0.341329 0.423056 0.320027
0.353445 0.427451 0.325368
0.365713 0.431861 0.330709
0.378119 0.436271 0.336065
0.390646 0.440696 0.341421
0.403311 0.445121 0.346792
0.416098 0.449561 0.352163
0.429023 0.454017 0.357549
0.442069 0.458473 0.362951
0.455238 0.462943 0.368353
0.124224 0.340948 0.208118
0.130434 0.346044 0.214359
0.137591 0.350927 0.22034
0.145281 0.355718 0.226215
0.153399 0.360433 0.231998
