assets/cube/bright_green_01.cube
TITLE "Generated by Resolve"
LUT_3D_SIZE 33
0 0 0
0.00213626 0.000396735 0.000396735
0.00944533 0.00180056 0.00180056
0.0211032 0.00631724 0.00650034
0.0346532 0.0115969 0.0120241
0.0492866 0.0168765 0.0175479
0.0648966 0.0220188 0.0229496
0.081529 0.0269474 0.0281529
0.0992294 0.0316167 0.0331273
0.117998 0.0360113 0.0378424
0.137804 0.0401007 0.0422827
0.158709 0.0439155 0.0464485
0.180911 0.047425 0.0503548
0.204273 0.0506142 0.0539559
0.211063 0.0514382 0.054902
0.211063 0.0514382 0.054902
0.211063 0.0514382 0.054902
0.211063 0.0514382 0.054902
0.211063 0.0514382 0.054902
0.211063 0.0514382 0.054902
0.211063 0.0514382 0.054902
0.211063 0.0514382 0.054902
0.211063 0.0514382 0.054902
0.211063 0.0514382 0.054902
0.211063 0.0514382 0.054902
0.211063 0.0514382 0.054902
0.211063 0.0514382 0.054902
0.211063 0.0514382 0.054902
0.211063 0.0514382 0.054902
0.211063 0.0514382 0.054902
0.211063 0.0514382 0.054902
0.211063 0.0514382 0.054902
0.211063 0.0514382 0.054902
0.00984207 0.0148623 0.0120394
0.0150759 0.016083 0.0137484
0.0266575 0.0211337 0.0188296
0.0397803 0.0256657 0.0234836
0.0539559 0.0298009 0.0277714
0.068864 0.0337835 0.0319829
0.084123 0.0376135 0.0360571
0.0999313 0.041413 0.0400549
0.116365 0.0449836 0.0437781
0.133654 0.0483864 0.0473793
0.151461 0.0515145 0.0507057
0.16994 0.0543679 0.0538033
0.189303 0.0570535 0.0567788
0.209583 0.0594949 0.0595254
0.230579 0.061677 0.0620432
0.252094 0.0635386 0.0643168
0.249317 0.0627298 0.0637064
0.24654 0.0619059 0.0630961
0.243946 0.0611429 0.0625162
0.241413 0.0603952 0.0619211
0.239017 0.0596933 0.0613718
0.236759 0.0590219 0.060853
0.234363 0.05832 0.0602884
0.232105 0.0576486 0.0597696
0.229969 0.057023 0.0592813
0.22771 0.0563516 0.0587625
0.225574 0.0557259 0.0582589
0.223438 0.0551003 0.0577707
0.221454 0.0545052 0.0573129
0.219318 0.0538796 0.0568093
0.217319 0.0532845 0.0563516
0.21532 0.0526894 0.0558938
0.213458 0.0521401 0.0554665
0.0297551 0.043183 0.0343938
0.0318456 0.0399023 0.0326543
0.0451057 0.0446937 0.0374762
0.0606088 0.0489662 0.0416724
0.0774548 0.0527047 0.0454261
0.095079 0.0560616 0.0488594
0.112993 0.0593576 0.0522469
0.130938 0.0625925 0.0555886
0.149172 0.0657511 0.0586709
0.167865 0.0686961 0.0615854
0.187396 0.0714733 0.0643931
0.207568 0.074052 0.0670481
0.228458 0.0764172 0.0695506
0.24976 0.0785077 0.071809
0.271809 0.0803998 0.0739452
0.295003 0.0821393 0.0759289
0.316213 0.0832837 0.0774548
0.313191 0.0823072 0.0768597
0.310155 0.0813458 0.0762798
0.307118 0.0803693 0.0756847
0.304219 0.0794385 0.0751354
0.301457 0.0785687 0.0746014
0.298695 0.0776837 0.0740673
0.296071 0.0768444 0.0735637
0.293446 0.0760052 0.0730449
0.290959 0.0752117 0.0725719
0.288487 0.0744182 0.0720836
0.286 0.0736248 0.0716106
0.28365 0.0728771 0.0711528
0.281163 0.0720836 0.0706798
0.27895 0.0714275 0.0701915
0.276585 0.0707256 0.069688
0.274357 0.0700694 0.0691997
0.046128 0.0734264 0.0543069
0.0454871 0.0649729 0.0496223
0.0599069 0.06981 0.0542458
0.0772412 0.0735637 0.0577096
0.0965438 0.0766613 0.0607004
0.117098 0.0793927 0.0634165
0.137743 0.0819257 0.0659953
0.158083 0.084596 0.0684672
0.17818 0.0872358 0.0709087
0.198657 0.0897841 0.0732738
0.219684 0.0922255 0.0755627
0.241062 0.0944839 0.0776837
0.262974 0.0965438 0.0796826
0.285206 0.098436 0.0815747
0.308019 0.100206 0.0832227
0.331365 0.101762 0.0847639
0.355612 0.103243 0.0862593
0.371099 0.103578 0.0869459
0.367971 0.102342 0.0864271
0.364828 0.101106 0.0859083
0.361822 0.0999161 0.08542
0.358938 0.0987716 0.084947
0.356069 0.0976425 0.0844739
0.353323 0.0965591 0.0840314
0.350576 0.0954757 0.0835737
0.347875 0.0945144 0.0831006
0.34519 0.0935531 0.0826123
0.342489 0.092607 0.0821393
0.339925 0.0916915 0.0816815
0.337362 0.0907912 0.0812238
0.334951 0.0899214 0.0807965
0.332525 0.0890669 0.080354
0.330098 0.0882124 0.0799268
0.0581674 0.104891 0.0709239
0.0547799 0.0913863 0.0643931
0.0701152 0.096025 0.068452
0.0892653 0.0994583 0.0714122
0.111009 0.102022 0.0737621
0.134096 0.103868 0.0755779
0.157504 0.105806 0.0772259
0.180468 0.10779 0.0789349
0.202777 0.109895 0.0808118
0.22504 0.112047 0.0827192
0.247181 0.11397 0.084535
0.269657 0.115908 0.0861982
0.292668 0.117861 0.0878614
0.315404 0.119509 0.0892805
0.339055 0.121172 0.0907759
0.363043 0.122713 0.0922255
0.387152 0.12401 0.0940261
0.412299 0.125246 0.0960403
0.419257 0.12462 0.0963912
0.416144 0.123018 0.0954299
0.413001 0.121614 0.0948043
0.409979 0.120272 0.0942092
0.406958 0.118914 0.0935988
0.404059 0.117632 0.0930343
0.401297 0.116396 0.0924849
0.39852 0.11516 0.0919356
0.395758 0.113924 0.0913863
0.393118 0.112749 0.0908675
0.3906 0.11162 0.0903639
0.388083 0.110506 0.0898604
0.385565 0.109377 0.0893568
0.383139 0.108339 0.0889143
0.380652 0.107362 0.0885023
0.0658885 0.137972 0.0842145
0.0624552 0.121065 0.0778668
0.0763714 0.123552 0.0803845
0.0966964 0.126452 0.0828717
0.120378 0.128588 0.0845045
0.145876 0.129885 0.0855268
0.172137 0.13106 0.0865034
0.197925 0.132296 0.0875868
0.222461 0.1337 0.088777
0.246159 0.13547 0.0901198
0.269642 0.137224 0.0914931
0.293309 0.138918 0.0929122
0.316869 0.14049 0.094316
0.340902 0.142077 0.0961471
0.364706 0.143389 0.0975204
0.38941 0.145022 0.100923
0.413916 0.146517 0.104204
0.438926 0.147921 0.107637
0.463386 0.14902 0.110887
0.460456 0.147234 0.10985
0.457542 0.145434 0.108827
0.454719 0.143709 0.107836
0.452003 0.142046 0.106889
0.449287 0.140398 0.105928
0.446662 0.138811 0.105013
0.443915 0.137377 0.104158
0.441169 0.135958 0.103288
0.438529 0.1346 0.102464
0.435889 0.133227 0.101625
0.433387 0.13193 0.100832
0.430869 0.130632 0.100053
0.428351 0.129335 0.0992599
0.425971 0.128084 0.098497
0.0763561 0.172946 0.0958724
0.0697795 0.153552 0.0895705
0.0790417 0.151888 0.0901808
0.100175 0.154818 0.0922866
0.125444 0.156466 0.093431
0.153155 0.157244 0.0940261
0.181964 0.157717 0.0942855
0.210056 0.158145 0.0945296
0.237064 0.158999 0.0951095
0.262654 0.160235 0.0961624
0.287465 0.161547 0.0975509
0.312001 0.162951 0.0989548
0.33666 0.164645 0.102586
0.361059 0.166247 0.105699
0.385779 0.16788 0.109178
0.4103 0.169284 0.112551
0.435248 0.170657 0.115953
0.460365 0.171969 0.119371
0.485756 0.173159 0.122759
0.498192 0.172808 0.124056
0.495384 0.170794 0.122957
0.492668 0.168841 0.121889
0.489952 0.166888 0.120836
0.487343 0.165011 0.119799
0.484825 0.16321 0.118822
0.482307 0.16141 0.11783
0.479896 0.15967 0.116884
0.477592 0.158007 0.115984
0.475273 0.156359 0.115084
0.472831 0.154788 0.114199
0.470436 0.153338 0.113359
0.468055 0.151873 0.11252
0.465782 0.150484 0.111727
0.0922255 0.21001 0.106935
0.0829786 0.188388 0.100725
0.0815595 0.181689 0.0984207
0.100618 0.183963 0.10013
0.126955 0.185397 0.10103
0.15613 0.185611 0.101045
0.187076 0.185458 0.100801
0.21799 0.185275 0.100679
0.247501 0.185443 0.10071
0.275029 0.186267 0.10396
0.301213 0.187579 0.106996
0.326772 0.188861 0.110445
0.352163 0.190341 0.113939
0.377371 0.191699 0.117372
0.402182 0.193118 0.12079
0.427115 0.194675 0.124269
0.451728 0.196017 0.127626
0.476768 0.197436 0.13106
0.501762 0.198642 0.134417
0.527108 0.199802 0.137789
0.527184 0.197772 0.137011
0.52488 0.195422 0.135851
0.522515 0.19321 0.134722
0.520073 0.191135 0.133639
0.517723 0.18912 0.132601
0.515358 0.187121 0.131548
0.5131 0.185199 0.130541
0.510826 0.183261 0.129549
0.508659 0.181415 0.128588
0.506569 0.179644 0.127657
0.504479 0.177874 0.126741
0.502403 0.176104 0.125811
0.500404 0.174411 0.124926
0.108217 0.247532 0.116991
0.0984665 0.224659 0.110933
0.0939803 0.21416 0.107836
0.0983291 0.213718 0.106737
0.125612 0.214786 0.107485
0.156329 0.214817 0.107408
0.188907 0.21413 0.106859
0.222019 0.213519 0.108492
0.254139 0.213382 0.111482
0.284123 0.213626 0.115053
0.311757 0.21445 0.118563
0.338338 0.215732 0.122118
0.364126 0.216922 0.125551
0.389654 0.218311 0.129046
0.41474 0.219547 0.132403
0.439811 0.220935 0.135851
0.464683 0.222141 0.139178
0.489448 0.223606 0.142596
0.514092 0.224872 0.145937
0.539162 0.226276 0.149371
0.553277 0.225879 0.150851
0.55111 0.223316 0.149615
0.54902 0.220813 0.148409
0.547005 0.218418 0.14725
0.544976 0.216007 0.14609
0.542931 0.213764 0.144991
0.540871 0.211658 0.143938
0.538888 0.209644 0.142931
0.536889 0.20763 0.141924
0.534905 0.2056 0.140917
0.532998 0.203662 0.139956
0.53109 0.201724 0.138994
0.529259 0.199878 0.138064
0.123995 0.284581 0.126467
0.113985 0.261051 0.12047
0.108659 0.248554 0.11725
0.10753 0.246067 0.115023
0.123018 0.244556 0.113466
0.154391 0.244419 0.114031
0.188495 0.243656 0.115587
0.223789 0.242741 0.119295
0.257954 0.242008 0.122957
0.290089 0.24184 0.126589
0.319402 0.242161 0.130114
0.346899 0.242969 0.133593
0.373449 0.244083 0.137087
0.399161 0.245304 0.140536
0.424506 0.246509 0.143923
0.449531 0.247852 0.147326
0.474327 0.249165 0.150698
0.498939 0.250492 0.154055
0.52369 0.251865 0.157443
0.548135 0.253101 0.160739
0.57261 0.254322 0.164034
0.573312 0.251987 0.16321
0.57142 0.249332 0.161975
0.569574 0.246769 0.160769
0.567803 0.244297 0.159609
0.566033 0.241825 0.158465
0.564324 0.239429 0.157336
0.562615 0.237049 0.156222
0.560769 0.234806 0.155154
0.558968 0.23267 0.154116
0.557168 0.230518 0.153079
0.555367 0.228367 0.152056
0.553628 0.226307 0.151064
0.13991 0.321462 0.13991
0.129259 0.296864 0.130236
0.123735 0.28397 0.126314
0.121645 0.279194 0.124178
0.120317 0.274693 0.119692
0.151919 0.274449 0.123262
0.186831 0.273579 0.126894
0.223514 0.272343 0.130648
0.259693 0.271122 0.134356
0.293706 0.270329 0.137987
0.32488 0.270253 0.141558
0.353353 0.270756 0.145037
0.380484 0.271611 0.148501
0.406744 0.272587 0.151904
0.432364 0.273869 0.155367
0.457221 0.275013 0.158679
0.48188 0.276402 0.162051
0.50634 0.277729 0.165393
0.530556 0.279103 0.168719
0.554681 0.2804 0.172
0.579049 0.281773 0.175341
0.592462 0.281376 0.17673
0.5906 0.278416 0.175387
0.588861 0.275654 0.174121
0.587167 0.272969 0.172885
0.585489 0.270298 0.171664
0.583856 0.267704 0.170489
0.582284 0.265217 0.169345
0.580728 0.26273 0.1682
0.579217 0.260334 0.167102
0.577615 0.257984 0.166018
0.576028 0.255787 0.164996
0.574456 0.253574 0.163958
0.155489 0.357275 0.155489
0.144793 0.332692 0.144793
0.138979 0.319341 0.138979
0.135805 0.312047 0.135805
0.133989 0.307851 0.133989
0.149538 0.304417 0.134447
0.184848 0.303502 0.138186
0.222202 0.301976 0.141909
0.259739 0.300298 0.145602
0.295491 0.29897 0.149218
0.32874 0.29839 0.152834
0.358495 0.298558 0.156329
0.386221 0.299229 0.159792
0.412909 0.30013 0.163226
0.438529 0.301122 0.166567
0.463783 0.302434 0.169986
0.488273 0.303685 0.173297
0.512367 0.305043 0.176593
0.536278 0.306493 0.179919
0.55993 0.307866 0.183185
0.583703 0.30927 0.186465
0.607324 0.310582 0.1897
0.607019 0.307729 0.188571
0.605447 0.304799 0.187259
0.603906 0.301991 0.185992
0.602365 0.299168 0.184726
0.60087 0.296452 0.183505
0.59942 0.293828 0.18233
0.598032 0.291295 0.181201
0.596643 0.288762 0.180056
0.595254 0.286229 0.178927
0.593927 0.283787 0.177829
0.592523 0.281468 0.176776
0.17055 0.391882 0.17055
0.159869 0.36733 0.159869
0.15407 0.354025 0.15407
0.150072 0.344823 0.150072
0.148302 0.340734 0.148302
0.147982 0.334096 0.145708
0.182849 0.333043 0.149325
0.220432 0.331319 0.153002
0.259098 0.329412 0.156725
0.296498 0.327657 0.160372
0.331151 0.326497 0.163928
0.362814 0.326314 0.167514
0.39118 0.32665 0.170916
0.418067 0.327382 0.174304
0.443961 0.328344 0.177676
0.469169 0.329564 0.181048
0.49366 0.330816 0.18436
0.517617 0.332174 0.18764
0.541176 0.333639 0.190936
0.564553 0.335164 0.194217
0.587625 0.336629 0.197452
0.610666 0.338064 0.200656
0.621637 0.337224 0.201602
0.620188 0.334112 0.200244
0.618769 0.331106 0.198917
0.617319 0.328206 0.197635
0.615869 0.325322 0.196368
0.614466 0.322545 0.195132
0.613108 0.319844 0.193927
0.611765 0.317159 0.192737
0.610452 0.314565 0.191592
0.609201 0.312062 0.190478
0.607935 0.30956 0.18938
0.185 0.425071 0.185
0.174472 0.400885 0.174472
0.168643 0.387488 0.168643
0.164034 0.376913 0.164034
0.162234 0.372747 0.162234
0.159152 0.365682 0.159152
0.181918 0.36199 0.160357
0.219364 0.360449 0.164096
0.258289 0.358144 0.167697
0.296925 0.35613 0.171389
0.333181 0.354604 0.17499
0.36611 0.353841 0.1785
0.395727 0.353826 0.181903
0.423117 0.354498 0.185336
0.449195 0.355367 0.188678
0.474296 0.356374 0.191959
0.498741 0.357717 0.1953
0.52256 0.359182 0.198611
0.545769 0.360555 0.201831
0.568597 0.36199 0.20502
0.591424 0.363729 0.208316
0.613962 0.365255 0.211505
0.635264 0.366461 0.214435
0.633814 0.363333 0.213062
0.632364 0.36022 0.211688
0.630945 0.357183 0.210361
0.629587 0.354269 0.209079
0.628229 0.351339 0.207797
0.626917 0.348516 0.206561
0.625589 0.345693 0.205325
0.624369 0.343069 0.204166
0.623102 0.340337 0.202976
0.621912 0.337804 0.201862
0.19881 0.456825 0.19881
0.188434 0.432959 0.188434
0.182727 0.419852 0.182727
0.178088 0.409186 0.178088
0.175723 0.403754 0.175723
0.172808 0.39707 0.172808
0.182177 0.390707 0.17145
0.218616 0.388937 0.174975
0.25771 0.386679 0.178622
0.297017 0.384283 0.182239
0.334554 0.3823 0.185809
0.369024 0.381109 0.189319
0.399969 0.380865 0.192813
0.427939 0.381216 0.19617
0.454215 0.381903 0.199466
0.479561 0.382971 0.202808
0.503914 0.384222 0.206104
0.527413 0.385565 0.209339
0.550378 0.386969 0.212528
0.573053 0.388586 0.215763
0.595514 0.390295 0.219013
0.617655 0.391852 0.222171
0.63975 0.393439 0.225345
0.647379 0.392081 0.225696
0.645823 0.388846 0.224277
0.644297 0.385718 0.222889
0.642832 0.382666 0.221546
0.641459 0.379736 0.220264
0.640085 0.376806 0.218982
0.638773 0.373983 0.217731
0.637491 0.371252 0.216541
0.636225 0.368505 0.215335
0.635004 0.365881 0.214176
0.212024 0.48719 0.212024
0.201846 0.463783 0.201846
0.196201 0.450828 0.196201
0.191638 0.44033 0.191638
0.188571 0.433295 0.188571
0.185992 0.427375 0.185992
0.187289 0.419455 0.183108
0.21912 0.416815 0.185763
0.257679 0.414664 0.18938
0.297169 0.4121 0.192966
0.335714 0.409857 0.196551
0.371466 0.408255 0.200061
0.403891 0.407431 0.203494
0.432609 0.407538 0.206851
0.459358 0.408179 0.210178
0.48481 0.409186 0.213504
0.509133 0.410315 0.216754
0.532708 0.411627 0.219974
0.555718 0.413184 0.223239
0.578149 0.41471 0.226413
0.600305 0.416312 0.229587
0.622126 0.418051 0.232776
0.644068 0.419883 0.236011
0.661372 0.4206 0.238285
0.659693 0.417227 0.236789
0.658091 0.414054 0.235386
0.656504 0.41088 0.233982
0.654963 0.407797 0.232624
0.653529 0.404837 0.231312
0.65211 0.401892 0.230015
0.650736 0.399054 0.228763
0.649409 0.396307 0.227558
0.648081 0.393561 0.226352
0.224689 0.516274 0.224689
0.214725 0.49337 0.214725
0.209171 0.480613 0.209171
0.204669 0.470268 0.204669
0.201144 0.462165 0.201144
0.198779 0.456748 0.198779
0.195026 0.448112 0.195026
0.220859 0.444083 0.19646
0.258457 0.441978 0.199985
0.297749 0.43949 0.203571
0.337011 0.436988 0.207141
0.3738 0.435019 0.210636
0.407324 0.433921 0.214084
0.437385 0.433616 0.217426
0.464622 0.434226 0.220813
0.490227 0.434958 0.224048
0.514626 0.435981 0.227268
0.538415 0.4374 0.230564
0.561303 0.438911 0.233783
0.583642 0.440436 0.236942
0.6056 0.44213 0.240131
0.627192 0.443763 0.243259
0.648798 0.44567 0.246494
0.670192 0.447501 0.249668
0.673838 0.445335 0.249256
0.67219 0.442069 0.247807
0.670588 0.438926 0.246403
0.668986 0.435767 0.245014
0.667445 0.4327 0.243656
0.665949 0.429725 0.242329
0.664454 0.426749 0.241016
0.66302 0.423865 0.239734
0.661631 0.421088 0.238514
0.236896 0.544335 0.236896
0.227008 0.521614 0.227008
0.22153 0.509026 0.22153
0.217121 0.498863 0.217121
0.213397 0.490318 0.213397
0.211017 0.484855 0.211017
0.207462 0.476707 0.207462
0.223621 0.47071 0.207019
0.260349 0.468818 0.210544
0.299168 0.466438 0.214099
0.338323 0.463874 0.217639
0.375952 0.461585 0.221103
0.41088 0.460166 0.224598
0.442145 0.459663 0.228016
0.469963 0.4598 0.231281
0.495888 0.460502 0.234531
0.520653 0.461616 0.237827
0.544457 0.462943 0.241093
0.567315 0.464332 0.244266
0.589532 0.465904 0.24744
0.611261 0.467475 0.250553
0.632837 0.469368 0.253773
0.653941 0.471214 0.256916
0.674983 0.473045 0.26006
0.687816 0.472938 0.261494
0.686152 0.469673 0.260044
0.684489 0.466392 0.258595
0.682887 0.463218 0.257191
0.681285 0.460044 0.255772
0.679774 0.457069 0.254459
0.678218 0.454017 0.253101
0.676783 0.451148 0.251835
0.675334 0.448295 0.250568
0.248859 0.571801 0.248859
0.239002 0.549142 0.239002
0.233524 0.536583 0.233524
0.229129 0.526482 0.229129
0.225315 0.517708 0.225315
0.222843 0.512016 0.222843
0.219532 0.504402 0.219532
0.228244 0.497246 0.217777
0.263523 0.495125 0.221027
0.301228 0.492958 0.224552
0.340032 0.490394 0.228046
0.378408 0.488045 0.231571
0.414099 0.486351 0.23505
0.446708 0.485344 0.238422
0.47538 0.485237 0.241688
0.501778 0.485847 0.244984
0.526757 0.486885 0.248264
0.550622 0.48806 0.251469
0.573526 0.489464 0.254658
0.595621 0.490959 0.257786
0.617334 0.492699 0.26096
0.638636 0.494514 0.264118
0.65951 0.4963 0.267216
0.680064 0.498161 0.270298
0.700511 0.500008 0.273381
0.699962 0.49691 0.272114
0.698299 0.493614 0.270665
0.696635 0.490333 0.2692
0.695018 0.487144 0.267796
0.693446 0.484047 0.266423
0.69189 0.48098 0.265049
0.690379 0.478004 0.263737
0.688914 0.47512 0.262455
0.260502 0.59855 0.260502
0.25069 0.576013 0.25069
0.245212 0.563439 0.245212
0.240833 0.553384 0.240833
0.237018 0.54461 0.237018
0.23415 0.538003 0.23415
0.231266 0.531395 0.231266
0.232685 0.523354 0.228336
0.267445 0.521004 0.231449
0.303899 0.51902 0.234897
0.34226 0.516518 0.238361
0.380835 0.514229 0.241932
0.417487 0.512215 0.245396
0.450889 0.510948 0.248768
0.480949 0.510506 0.252064
0.507881 0.510964 0.255344
0.533074 0.511772 0.258579
0.556954 0.512901 0.261769
0.579934 0.514183 0.264912
0.60206 0.51577 0.26807
0.623697 0.517525 0.27126
0.644663 0.519326 0.274357
0.665293 0.521172 0.277455
0.685496 0.522988 0.280491
0.705577 0.524956 0.283574
0.71368 0.523934 0.284108
0.711955 0.520546 0.282612
0.710277 0.51725 0.281147
0.708659 0.514046 0.279728
0.707027 0.510857 0.278309
0.705455 0.507759 0.276936
0.703899 0.504677 0.275563
0.702388 0.501686 0.274235
0.271885 0.62472 0.271885
0.262119 0.602274 0.262119
0.256641 0.5897 0.256641
0.252277 0.579644 0.252262
0.248447 0.570855 0.248447
0.245304 0.563638 0.245304
0.242786 0.55787 0.242786
0.239902 0.549477 0.239231
0.271946 0.546487 0.241779
0.30779 0.54464 0.245197
0.345251 0.542443 0.248692
0.38349 0.540063 0.252186
0.42063 0.537835 0.255619
0.455268 0.536263 0.259022
0.486305 0.535592 0.262333
0.514321 0.535805 0.26566
0.539559 0.536538 0.268849
0.563592 0.537499 0.272007
0.586496 0.538705 0.275105
0.608743 0.540261 0.278279
0.630121 0.541955 0.281407
0.650935 0.54374 0.284489
0.67126 0.545663 0.287572
0.691218 0.54757 0.290608
0.710918 0.549523 0.293645
0.727367 0.550866 0.296056
0.725567 0.547341 0.294499
0.723873 0.544015 0.293019
0.722179 0.540673 0.291539
0.720546 0.537453 0.290105
0.718898 0.534218 0.28867
0.717327 0.531121 0.287297
0.715801 0.52813 0.285969
0.281071 0.645808 0.281071
0.27332 0.628 0.27332
0.267857 0.615473 0.267857
0.263447 0.605341 0.263447
0.259648 0.596597 0.259648
0.256336 0.588983 0.256336
0.254002 0.583612 0.254002
0.252186 0.575891 0.250813
0.276875 0.571679 0.252049
0.312612 0.569863 0.255467
0.349172 0.567987 0.258976
0.386816 0.565606 0.262409
0.424109 0.563226 0.265797
0.459373 0.561425 0.269169
0.491737 0.560403 0.272511
0.520424 0.560357 0.275807
0.546273 0.560815 0.278981
0.570459 0.561761 0.282139
0.593408 0.562951 0.285237
0.615488 0.564446 0.288365
0.636896 0.566186 0.291508
0.657435 0.567864 0.29453
0.677485 0.569757 0.297566
0.697154 0.571756 0.300618
0.716381 0.573693 0.303578
0.735561 0.575921 0.306645
0.738903 0.573831 0.306233
0.737209 0.570443 0.304723
0.735515 0.567041 0.303227
0.733913 0.563836 0.301808
0.732326 0.560647 0.300389
0.730694 0.557427 0.29897
0.729152 0.554391 0.297627
0.281071 0.645808 0.281071
0.281071 0.645808 0.281071
0.278737 0.640452 0.278737
0.274418 0.630533 0.274418
0.270649 0.621897 0.270649
0.267216 0.613993 0.267216
0.264866 0.608576 0.264866
0.261631 0.60116 0.261631
0.282536 0.596506 0.262257
0.318532 0.594675 0.265705
0.353841 0.59292 0.269108
0.390631 0.590631 0.27248
0.427893 0.588251 0.275868
0.46389 0.586236 0.27924
0.49691 0.585107 0.282628
0.526818 0.584634 0.285893
0.553079 0.584863 0.289021
0.577447 0.585626 0.292134
0.600473 0.586831 0.295247
0.622675 0.588327 0.29839
0.643778 0.58996 0.301457
0.664164 0.591684 0.304479
0.683955 0.59353 0.307683
0.703273 0.59556 0.310475
0.722148 0.597604 0.313451
0.740963 0.59997 0.317891
0.752041 0.600122 0.320439
0.750301 0.596658 0.318303
0.748562 0.593194 0.316167
0.746868 0.589822 0.314107
0.745235 0.586557 0.312093
0.743633 0.583337 0.31043
0.742031 0.580133 0.309026
0.281071 0.645808 0.281071
0.281071 0.645808 0.281071
0.281071 0.645808 0.281071
0.281071 0.645808 0.281071
0.281071 0.645808 0.281071
0.277867 0.638437 0.277867
0.275242 0.632395 0.275456
0.27248 0.625879 0.272694
0.289158 0.620844 0.272389
0.324971 0.619043 0.275837
0.359838 0.617319 0.279286
0.39559 0.61529 0.282689
0.432319 0.612924 0.285878
0.468391 0.610834 0.289235
0.502525 0.60943 0.292638
0.532876 0.608591 0.295827
0.560189 0.608576 0.298985
0.58471 0.609323 0.302083
0.607874 0.61033 0.30515
0.629908 0.611765 0.308537
0.651164 0.613535 0.312993
0.671397 0.615351 0.316777
0.690913 0.617258 0.319875
0.709972 0.619318 0.324483
0.728786 0.621729 0.330694
0.74728 0.624201 0.336187
0.765469 0.626795 0.341955
0.76376 0.623178 0.338567
0.761929 0.619623 0.335195
0.760082 0.616068 0.331823
0.758312 0.612604 0.328542
0.756634 0.609308 0.326101
0.755047 0.606149 0.324147
0.281071 0.645808 0.281071
0.281071 0.645808 0.281071
0.281071 0.645808 0.281071
0.281071 0.645808 0.281071
0.281071 0.645808 0.281071
0.281071 0.645808 0.281071
0.281254 0.646235 0.281254
0.281819 0.647227 0.28426
0.297383 0.645151 0.286397
0.332433 0.643305 0.28957
0.367285 0.641398 0.292103
0.401541 0.639536 0.294636
0.437644 0.637278 0.297353
0.473716 0.635172 0.301091
0.50808 0.633509 0.304723
0.539544 0.632532 0.307942
0.567422 0.632166 0.310307
0.592493 0.632654 0.313695
0.615885 0.633875 0.319493
0.638102 0.635401 0.324392
0.659113 0.637171 0.329183
0.679362 0.639155 0.334707
0.698817 0.641199 0.34023
0.717632 0.643427 0.345892
0.736004 0.645792 0.351888
0.75407 0.648402 0.35819
0.771756 0.651026 0.364538
0.777478 0.649851 0.364736
0.775647 0.646281 0.361059
0.7738 0.642695 0.357397
0.771969 0.639109 0.353719
0.770245 0.635752 0.350469
0.768505 0.63241 0.347295
0.281071 0.645808 0.281071
0.281071 0.645808 0.281071
0.281071 0.645808 0.281071
0.281071 0.645808 0.281071
0.281071 0.645808 0.281071
0.281071 0.645808 0.281071
0.281163 0.646036 0.281163
0.281834 0.647334 0.28368
0.289433 0.647288 0.286519
0.329046 0.65185 0.294301
0.368368 0.655848 0.301823
0.406424 0.659815 0.309499
0.444465 0.661738 0.315709
0.480217 0.659648 0.318776
0.514763 0.657755 0.321859
0.546578 0.656519 0.325277
0.575479 0.656031 0.329168
0.601205 0.656489 0.333776
0.624735 0.657496 0.33904
0.646922 0.659098 0.344808
0.668009 0.660914 0.350652
0.687938 0.662791 0.356466
0.707179 0.664942 0.362463
0.72575 0.667231 0.368536
0.74377 0.669718 0.375113
0.761379 0.672297 0.381735
0.778561 0.674968 0.388418
0.79118 0.676402 0.392844
0.789258 0.672709 0.388769
0.787396 0.669123 0.384817
0.785534 0.665553 0.38085
0.783749 0.662074 0.377264
0.78201 0.658701 0.3738
0.281071 0.645808 0.281071
0.281071 0.645808 0.281071
0.281071 0.645808 0.281071
0.281071 0.645808 0.281071
0.281071 0.645808 0.281071
0.281071 0.645808 0.281071
0.281086 0.645853 0.281086
0.281849 0.647456 0.283116
0.283192 0.646693 0.285176
0.318853 0.650706 0.292302
0.357855 0.654795 0.299825
0.395804 0.658793 0.307408
0.434455 0.662303 0.314839
0.473594 0.6654 0.322179
0.512169 0.66865 0.330007
0.548226 0.672099 0.338048
0.581338 0.676188 0.346838
0.610483 0.680003 0.355367
0.634195 0.68098 0.361074
0.656336 0.682399 0.367025
0.677256 0.68426 0.373373
0.697124 0.686275 0.37969
0.716075 0.688411 0.386053
0.734356 0.690806 0.392721
0.752026 0.693263 0.399588
0.769223 0.695994 0.406683
0.785946 0.698756 0.413825
0.802396 0.701717 0.421118
