assets/cube/bright_green_01.cube
TITLE "Generated by Resolve"
LUT_3D_SIZE 9
0 0 0
0.0346532 0.0115969 0.0120241
0.0992294 0.0316167 0.0331273
0.180911 0.047425 0.0503548
0.211063 0.0514382 0.054902
0.211063 0.0514382 0.054902
0.211063 0.0514382 0.054902
0.211063 0.0514382 0.054902
0.211063 0.0514382 0.054902
0.0581674 0.104891 0.0709239
0.111009 0.102022 0.0737621
0.202777 0.109895 0.0808118
0.292668 0.117861 0.0878614
0.387152 0.12401 0.0940261
0.413001 0.121614 0.0948043
0.401297 0.116396 0.0924849
0.3906 0.11162 0.0903639
0.380652 0.107362 0.0885023
0.108217 0.247532 0.116991
0.125612 0.214786 0.107485
0.254139 0.213382 0.111482
0.364126 0.216922 0.125551
0.464683 0.222141 0.139178
0.553277 0.225879 0.150851
0.544976 0.216007 0.14609
0.536889 0.20763 0.141924
0.529259 0.199878 0.138064
0.17055 0.391882 0.17055
0.148302 0.340734 0.148302
0.259098 0.329412 0.156725
0.39118 0.32665 0.170916
0.49366 0.330816 0.18436
0.587625 0.336629 0.197452
0.618769 0.331106 0.198917
0.613108 0.319844 0.193927
0.607935 0.30956 0.18938
0.224689 0.516274 0.224689
0.201144 0.462165 0.201144
0.258457 0.441978 0.199985
0.407324 0.433921 0.214084
0.514626 0.435981 0.227268
0.6056 0.44213 0.240131
0.673838 0.445335 0.249256
0.667445 0.4327 0.243656
0.661631 0.421088 0.238514
0.271885 0.62472 0.271885
0.248447 0.570855 0.248447
0.271946 0.546487 0.241779
0.42063 0.537835 0.255619
0.539559 0.536538 0.268849
0.630121 0.541955 0.281407
0.710918 0.549523 0.293645
0.722179 0.540673 0.291539
0.715801 0.52813 0.285969
0.281071 0.645808 0.281071
0.281071 0.645808 0.281071
0.297383 0.645151 0.286397
0.437644 0.637278 0.297353
0.567422 0.632166 0.310307
0.659113 0.637171 0.329183
0.736004 0.645792 0.351888
0.775647 0.646281 0.361059
0.768505 0.63241 0.347295
0.281071 0.645808 0.281071
0.281071 0.645808 0.281071
0.281819 0.647227 0.284306
0.412879 0.660426 0.31075
0.561608 0.673609 0.341405
0.671626 0.694484 0.381292
0.757519 0.719844 0.427741
0.828244 0.746075 0.476173
0.822812 0.736065 0.463584
0.281071 0.645808 0.281071
0.281071 0.645808 0.281071
0.281392 0.64651 0.281682
0.373175 0.656321 0.302739
0.520928 0.669398 0.331823
0.640665 0.687037 0.367636
0.730526 0.711131 0.411704
0.805814 0.737255 0.459861
0.828244 0.746075 0.476173
0.000488289 0.000518807 0.00503548
0.052781 0.0234531 0.0330816
0.125994 0.0431983 0.059266
0.214374 0.0579385 0.0808728
0.25713 0.0625925 0.0880446
0.256046 0.0623484 0.0869764
0.25507 0.0621195 0.0860304
0.254139 0.0619059 0.0851148
0.253269 0.0617075 0.0842756
0.0634012 0.107424 0.0883803
0.105623 0.0983291 0.0836042
0.192676 0.104829 0.0907759
0.277562 0.111666 0.0979629
0.367437 0.117311 0.103731
0.405234 0.115679 0.103746
0.39147 0.110048 0.10013
0.378866 0.105043 0.0968795
0.367254 0.10045 0.0939345
0.105852 0.239658 0.133562
0.117311 0.201984 0.115587
0.236057 0.199466 0.112352
0.341588 0.200855 0.11693
0.438697 0.205005 0.12958
0.535332 0.209079 0.142306
0.530495 0.199603 0.138109
0.5205 0.190723 0.133532
0.51075 0.182757 0.129335
0.163699 0.375921 0.165255
0.139376 0.320134 0.140337
0.233829 0.308095 0.145602
0.364309 0.303471 0.158892
0.466712 0.306889 0.172045
0.560922 0.312047 0.184909
0.607752 0.309178 0.189197
0.60174 0.298054 0.184222
0.596139 0.287816 0.179644
0.21651 0.497475 0.21651
0.190845 0.438514 0.190845
0.22855 0.418372 0.187457
0.37673 0.409979 0.201328
0.48687 0.411032 0.21445
0.578485 0.416403 0.2271
0.662272 0.422385 0.239078
0.655909 0.409674 0.233463
0.650217 0.397971 0.22829
0.262715 0.603662 0.262715
0.239033 0.549233 0.239033
0.240162 0.522316 0.228794
0.38587 0.513649 0.242298
0.509239 0.510689 0.255406
0.601572 0.515312 0.267842
0.683864 0.522408 0.280079
0.71017 0.517052 0.281056
0.703792 0.504479 0.275471
0.281071 0.645808 0.281071
0.281071 0.645808 0.281071
0.270634 0.621851 0.270634
0.399542 0.61294 0.282109
0.533669 0.606668 0.295171
0.628779 0.609827 0.307622
0.707744 0.617075 0.32282
0.762783 0.621302 0.336782
0.755764 0.607569 0.325032
0.281071 0.645808 0.281071
0.281071 0.645808 0.281071
0.281849 0.64744 0.283131
0.391318 0.658305 0.306462
0.540383 0.67126 0.336172
0.655497 0.69044 0.373922
0.740444 0.710323 0.413626
0.806241 0.721202 0.442634
0.809201 0.710765 0.432349
0.281071 0.645808 0.281071
0.281071 0.645808 0.281071
0.281117 0.64593 0.281117
0.351507 0.654169 0.298619
0.4981 0.667475 0.327123
0.62356 0.683391 0.360861
0.715877 0.706691 0.403586
0.792691 0.732311 0.450752
0.828244 0.746075 0.476173
0.0028687 0.00476081 0.0158999
0.0677806 0.0326085 0.0568856
0.147768 0.051545 0.0902266
0.241764 0.0652781 0.118898
0.291524 0.0699016 0.129915
0.290333 0.0696574 0.128328
0.289235 0.0694285 0.126848
0.288258 0.0692302 0.125521
0.287434 0.0690623 0.124315
0.0701915 0.116274 0.122499
0.11165 0.104585 0.114122
0.201846 0.109606 0.123964
0.288472 0.115801 0.134249
0.379187 0.120653 0.142855
0.424262 0.119554 0.143648
0.410651 0.113695 0.137804
0.398047 0.108476 0.132555
0.386069 0.104005 0.127749
0.111376 0.247074 0.180102
0.120958 0.207675 0.154421
0.241398 0.204318 0.151873
0.348287 0.204761 0.15285
0.444785 0.207828 0.15642
0.540444 0.210941 0.160586
0.543893 0.202457 0.15581
0.534112 0.193484 0.150439
0.524865 0.185351 0.145586
0.16846 0.381109 0.214984
0.143114 0.324132 0.179706
0.236484 0.311452 0.167987
0.366278 0.305028 0.163821
0.467277 0.306996 0.172168
0.560372 0.311315 0.184558
0.614237 0.309209 0.18996
0.607614 0.297093 0.184543
0.601175 0.286229 0.179614
0.219013 0.499275 0.249821
0.192477 0.440116 0.20914
0.228473 0.417594 0.19234
0.3738 0.40766 0.200092
0.482658 0.407294 0.212528
0.573175 0.411551 0.224628
0.658076 0.41706 0.236545
0.656962 0.40473 0.231678
0.650523 0.392233 0.226123
0.26479 0.604791 0.293004
0.238285 0.546304 0.247501
0.235584 0.517555 0.228428
0.378103 0.507698 0.239109
0.500633 0.503243 0.251545
0.592126 0.506661 0.263416
0.673518 0.512367 0.275029
0.707179 0.508019 0.277241
0.699779 0.494347 0.271122
0.286824 0.65565 0.313283
0.28101 0.644007 0.29398
0.26862 0.615442 0.274846
0.386557 0.603861 0.27834
0.519188 0.595697 0.289281
0.614466 0.597116 0.300938
0.693278 0.602731 0.313634
0.755917 0.607874 0.325216
0.749126 0.594308 0.316869
0.285115 0.652918 0.302098
0.28307 0.6495 0.290089
0.28275 0.648966 0.288212
0.381857 0.658167 0.307012
0.528435 0.670115 0.333501
0.645609 0.686961 0.368658
0.724041 0.694591 0.394034
0.791409 0.704753 0.421347
0.801892 0.696956 0.415946
0.283665 0.650507 0.293416
0.281697 0.647044 0.283345
0.281071 0.645808 0.281071
0.339864 0.652964 0.296391
0.485298 0.666392 0.324544
0.613855 0.681514 0.357321
0.707713 0.704311 0.399237
0.785428 0.729625 0.445808
0.828244 0.746075 0.476173
0.00852979 0.0113375 0.0306706
0.081651 0.0407416 0.0819104
0.167712 0.0587167 0.122347
0.266224 0.0714275 0.158114
0.322057 0.0760815 0.173693
0.320806 0.0758221 0.171817
0.319646 0.0755779 0.170123
0.318578 0.075349 0.168551
0.317586 0.0751507 0.167071
0.0759594 0.124498 0.158175
0.117556 0.110872 0.147539
0.211536 0.114473 0.161639
0.299947 0.119707 0.176242
0.391012 0.123873 0.188937
0.442222 0.122942 0.192096
0.428595 0.116793 0.184405
0.415503 0.111604 0.177279
0.403388 0.106828 0.170794
0.117189 0.254383 0.233066
0.124178 0.213382 0.201434
0.24622 0.209232 0.201511
0.355428 0.208637 0.204746
0.45214 0.211353 0.210391
0.547601 0.214313 0.216297
0.557656 0.206607 0.210941
0.548135 0.197208 0.203738
0.538643 0.189151 0.197253
0.174014 0.386679 0.276387
0.147921 0.328801 0.233967
0.239261 0.316121 0.222812
0.370779 0.309194 0.218143
0.471687 0.310491 0.220768
0.563958 0.314031 0.225925
0.623636 0.312657 0.227222
0.616999 0.300237 0.218433
0.610712 0.289143 0.210803
0.223835 0.503075 0.311192
0.19707 0.44419 0.264118
0.232212 0.421836 0.246174
0.376104 0.410864 0.239918
0.484688 0.409613 0.24152
0.574807 0.413581 0.247532
0.65919 0.41886 0.254871
0.664118 0.407507 0.246357
0.657465 0.394598 0.236408
0.269032 0.607767 0.349798
0.242237 0.54934 0.298573
0.241703 0.521477 0.277287
0.380941 0.510857 0.273625
0.5028 0.505562 0.274174
0.593851 0.508751 0.281453
0.674891 0.514611 0.291112
0.714595 0.511742 0.291356
0.706935 0.497627 0.278874
0.294423 0.666636 0.371206
0.284352 0.646189 0.340017
0.271519 0.617975 0.317342
0.391974 0.607584 0.317205
0.523323 0.599145 0.319005
0.618296 0.600824 0.329046
0.69691 0.606912 0.34287
0.764813 0.613642 0.357595
0.75668 0.598428 0.341222
0.292485 0.66392 0.355764
0.290059 0.660441 0.336873
0.289174 0.659236 0.329702
0.396582 0.671458 0.349203
0.541405 0.683406 0.373358
0.648264 0.689067 0.393561
0.724559 0.695247 0.413138
0.790677 0.704295 0.436072
0.805432 0.696956 0.430121
0.290761 0.661479 0.342077
0.288273 0.657801 0.323796
0.287068 0.656016 0.314961
0.351186 0.663737 0.327947
0.492805 0.676097 0.35137
0.619181 0.689906 0.379812
0.710842 0.711162 0.41735
0.786999 0.735348 0.460487
0.833982 0.752834 0.491798
0.00950637 0.0124056 0.0331579
0.0858625 0.0433204 0.090837
0.175082 0.0614481 0.136278
0.276677 0.0741741 0.177386
0.33756 0.0791791 0.19765
0.33756 0.0791791 0.19765
0.33756 0.0791791 0.19765
0.33756 0.0791791 0.19765
0.33756 0.0791791 0.19765
0.0814679 0.132403 0.193469
0.123491 0.117113 0.180804
0.221012 0.119356 0.19823
0.311269 0.12343 0.216587
0.403159 0.127291 0.23331
0.45922 0.126146 0.239292
0.445197 0.119982 0.230152
0.432319 0.114534 0.221942
0.420493 0.109606 0.214496
0.122789 0.261555 0.282841
0.127626 0.219181 0.246921
0.251453 0.214282 0.249912
0.362463 0.212696 0.255726
0.46009 0.214984 0.264347
0.555001 0.217838 0.272755
0.570428 0.2103 0.267872
0.5608 0.200961 0.259724
0.551766 0.19263 0.252277
0.179446 0.392325 0.334951
0.152911 0.333822 0.289082
0.242069 0.321019 0.279316
0.375006 0.313375 0.275608
0.476555 0.314214 0.279271
0.568643 0.317784 0.285466
0.633387 0.317281 0.287831
0.626917 0.304738 0.278447
0.620905 0.293233 0.269886
0.22884 0.507225 0.373388
0.20209 0.448615 0.324498
0.235264 0.426047 0.305837
0.378988 0.415152 0.299123
0.488334 0.413657 0.300145
0.578332 0.417472 0.305455
0.662531 0.422904 0.312474
0.672908 0.412482 0.304219
0.666438 0.399573 0.293721
0.273686 0.611139 0.411582
0.246815 0.552773 0.358389
0.245304 0.525139 0.335744
0.384024 0.515023 0.33106
0.506172 0.509514 0.3299
0.59736 0.512795 0.336034
0.678096 0.518776 0.344625
0.722927 0.517311 0.345129
0.715328 0.503044 0.331823
0.30193 0.6766 0.435233
0.288487 0.648981 0.396307
0.275853 0.620783 0.371695
0.396246 0.611444 0.370535
0.526925 0.603189 0.370245
0.622034 0.604837 0.37847
0.700282 0.61117 0.390845
0.771252 0.619135 0.405249
0.764706 0.604364 0.389013
0.299855 0.673854 0.417487
0.297215 0.670405 0.394614
0.296071 0.66891 0.384573
0.409262 0.683207 0.404578
0.551217 0.693767 0.425559
0.652705 0.693111 0.43711
0.728542 0.699565 0.45507
0.793927 0.708797 0.475685
0.813275 0.703273 0.472007
0.297963 0.671397 0.400931
0.295262 0.66775 0.378454
0.293935 0.665949 0.367193
0.364019 0.67538 0.379797
0.504692 0.688365 0.40206
0.630396 0.702663 0.429129
0.721614 0.724468 0.465629
0.796628 0.749157 0.507271
0.847425 0.769146 0.540749
0.00955215 0.0124666 0.0332189
0.0852369 0.0431678 0.090486
0.173678 0.0612192 0.135637
0.274418 0.0739605 0.176562
0.33756 0.0791791 0.19765
0.33756 0.0791791 0.19765
0.33756 0.0791791 0.19765
0.33756 0.0791791 0.19765
0.33756 0.0791791 0.19765
0.0806134 0.129625 0.190417
0.122316 0.116518 0.187228
0.221378 0.119631 0.211231
0.313588 0.124025 0.235447
0.406989 0.127977 0.257847
0.468421 0.127504 0.269245
0.45568 0.121584 0.262287
0.444038 0.116167 0.255924
0.433051 0.111635 0.249928
0.123995 0.261952 0.302449
0.129671 0.222477 0.280385
0.25594 0.218631 0.293156
0.36997 0.216968 0.303532
0.467948 0.218708 0.314015
0.562829 0.221485 0.324407
0.582742 0.214466 0.320287
0.57322 0.204822 0.311421
0.564401 0.196002 0.303319
0.183368 0.396109 0.379431
0.157778 0.339117 0.339818
0.245167 0.325948 0.331044
0.379614 0.317708 0.328298
0.481926 0.31841 0.333196
0.573938 0.321752 0.34049
0.642863 0.32221 0.344686
0.636622 0.3093 0.335103
0.63064 0.297673 0.326452
0.2336 0.51165 0.428748
0.206912 0.453178 0.37998
0.23856 0.430472 0.361135
0.382223 0.419577 0.354711
0.492149 0.417731 0.355795
0.582238 0.421561 0.361639
0.666117 0.426886 0.368978
0.681331 0.417548 0.362173
0.6748 0.404395 0.351461
0.278248 0.614908 0.468162
0.251392 0.556481 0.415961
0.248829 0.528984 0.392889
0.386984 0.519219 0.388006
0.509682 0.513634 0.38645
0.600748 0.516838 0.392096
0.681193 0.522866 0.400412
0.73048 0.522744 0.40206
0.722896 0.508309 0.388586
0.308934 0.685771 0.496132
0.292775 0.651972 0.454078
0.281697 0.624201 0.429007
0.400046 0.615228 0.426871
0.530495 0.607156 0.425559
0.625406 0.608804 0.432319
0.703334 0.615259 0.443732
0.773831 0.623606 0.457008
0.771817 0.610101 0.442542
0.306935 0.683116 0.479026
0.304234 0.679561 0.455695
0.302983 0.678004 0.444297
0.42121 0.694026 0.464317
0.555734 0.697658 0.477256
0.656916 0.697124 0.486702
0.732052 0.703655 0.502586
0.796902 0.713237 0.521599
0.820188 0.709453 0.519524
0.304982 0.680568 0.462211
0.302296 0.677089 0.438514
0.300832 0.675151 0.425788
0.37583 0.685985 0.437949
0.515389 0.699611 0.459007
0.640894 0.714336 0.484306
0.731411 0.736614 0.518929
0.805432 0.761913 0.558358
0.859525 0.784176 0.59292
0.00959792 0.0125124 0.0332952
0.0847486 0.0430457 0.0902113
0.172625 0.0610513 0.135149
0.272526 0.0737774 0.175875
0.33756 0.0791791 0.19765
0.33756 0.0791791 0.19765
0.33756 0.0791791 0.19765
0.33756 0.0791791 0.19765
0.33756 0.0791791 0.19765
0.0798962 0.127275 0.187854
0.118883 0.11368 0.183444
0.215763 0.116838 0.20734
0.306294 0.121187 0.231312
0.398688 0.124926 0.25391
0.462486 0.124743 0.265995
0.4495 0.1187 0.258915
0.4374 0.113359 0.252308
0.426017 0.108858 0.246098
0.121996 0.257481 0.299519
0.126543 0.217777 0.276722
0.25005 0.214069 0.289784
0.364462 0.21294 0.303822
0.463539 0.215549 0.319936
0.559609 0.218799 0.3355
0.584253 0.212985 0.336233
0.576181 0.203845 0.331075
0.5682 0.195758 0.326116
0.181094 0.390951 0.37673
0.156741 0.335637 0.347219
0.242573 0.324559 0.348547
0.379065 0.317342 0.353353
0.483162 0.318914 0.364782
0.576364 0.323171 0.377905
0.650278 0.325322 0.38819
0.645212 0.313161 0.383078
0.640223 0.302281 0.378286
0.232639 0.508263 0.437095
0.208606 0.453574 0.408957
0.239734 0.432731 0.400412
0.384756 0.423346 0.401968
0.496422 0.42208 0.4065
0.586648 0.425879 0.412589
0.670268 0.431159 0.420142
0.689708 0.422721 0.414527
0.683162 0.409339 0.403922
0.279484 0.614481 0.49482
0.255451 0.560082 0.464622
0.252949 0.533227 0.444373
0.390204 0.523842 0.439429
0.513664 0.518013 0.437552
0.604669 0.521187 0.443168
0.68484 0.527337 0.451453
0.737758 0.528145 0.454383
0.73022 0.513558 0.441154
0.314519 0.693309 0.542901
0.296864 0.655268 0.505791
0.284749 0.627283 0.480659
0.404105 0.619318 0.478584
0.534249 0.611322 0.476722
0.629191 0.613031 0.48307
0.706767 0.619623 0.493828
0.776638 0.628168 0.506722
0.778515 0.615747 0.494087
0.31342 0.691844 0.533501
0.310796 0.688273 0.511925
0.309926 0.686641 0.500847
0.432746 0.704189 0.520851
0.560189 0.701747 0.52723
0.66125 0.70135 0.535546
0.735851 0.708064 0.549859
0.800015 0.7178 0.567498
0.82681 0.715755 0.567651
0.311498 0.689204 0.517861
0.308888 0.68571 0.49572
0.307454 0.683803 0.483619
0.387182 0.695979 0.495491
0.52575 0.710201 0.515511
0.650843 0.725338 0.539361
0.740856 0.74818 0.572351
0.814038 0.77406 0.609689
0.870909 0.798566 0.644816
0.0096437 0.0125582 0.0333562
0.0843519 0.0429541 0.0899977
0.171695 0.0608988 0.134722
0.270893 0.0736248 0.175296
0.33756 0.0791791 0.19765
0.33756 0.0791791 0.19765
0.33756 0.0791791 0.19765
0.33756 0.0791791 0.19765
0.33756 0.0791791 0.19765
0.0792706 0.125231 0.185611
0.115938 0.111223 0.180163
0.210864 0.114397 0.203906
0.29987 0.118654 0.227634
0.391241 0.122194 0.250309
0.457145 0.122255 0.263081
0.443915 0.116106 0.255863
0.431388 0.110979 0.249027
0.419745 0.106371 0.242679
0.120211 0.253498 0.29691
0.123766 0.213581 0.273289
0.244862 0.210208 0.286717
0.358587 0.208698 0.300786
0.457023 0.211231 0.316915
0.552621 0.214221 0.332525
0.580606 0.208865 0.333898
0.572427 0.199664 0.328679
0.56379 0.191699 0.323461
0.179034 0.386267 0.374273
0.154391 0.330343 0.344198
0.236683 0.31957 0.3458
0.373037 0.312139 0.350607
0.477119 0.313298 0.361883
0.570352 0.317357 0.37499
0.648051 0.319921 0.385916
0.642756 0.30779 0.380789
0.637766 0.296864 0.376165
0.230488 0.503349 0.434546
0.206363 0.448447 0.406348
0.232914 0.4271 0.39733
0.377111 0.41767 0.398886
0.490288 0.416556 0.406348
0.581933 0.421241 0.418219
0.666865 0.427619 0.431189
0.69099 0.420813 0.431113
0.685512 0.408331 0.425147
0.277211 0.609339 0.491875
0.253101 0.554726 0.461723
0.249271 0.52903 0.449073
0.385138 0.52105 0.452232
0.511147 0.516518 0.457145
0.603922 0.520836 0.468727
0.6851 0.528023 0.482231
0.742931 0.531289 0.491356
0.7364 0.517693 0.483192
0.314519 0.693309 0.542901
0.2963 0.65243 0.517082
0.284657 0.626001 0.502724
0.403815 0.620188 0.509163
0.535698 0.613901 0.514244
0.632807 0.616999 0.526436
0.710491 0.624155 0.538994
0.779751 0.632898 0.551217
0.785229 0.621683 0.540612
0.314519 0.693309 0.542901
0.314519 0.693309 0.542901
0.314519 0.693309 0.542901
0.442573 0.712139 0.569802
0.56466 0.705974 0.571801
0.665751 0.705684 0.579065
0.740078 0.712718 0.59263
0.803388 0.722545 0.608789
0.83328 0.722103 0.611032
0.314519 0.693309 0.542901
0.314519 0.693309 0.542901
0.313619 0.692119 0.535225
0.398856 0.70576 0.547402
0.536248 0.720516 0.566522
0.660746 0.736034 0.589227
0.750362 0.75935 0.620691
0.822721 0.785855 0.656352
0.881926 0.812329 0.69189
0.00968948 0.012604 0.0334325
0.0840009 0.0428626 0.0897993
0.170855 0.0607614 0.13434
0.269535 0.0734874 0.174792
0.33756 0.0791791 0.19765
0.33756 0.0791791 0.19765
0.33756 0.0791791 0.19765
0.33756 0.0791791 0.19765
0.33756 0.0791791 0.19765
0.0787366 0.123476 0.183673
0.11339 0.109071 0.177279
0.206531 0.11223 0.200855
0.294163 0.116396 0.224353
0.384405 0.119951 0.246983
0.452415 0.120058 0.260502
0.438804 0.113924 0.253071
0.425879 0.108797 0.246021
0.414115 0.104143 0.239612
0.118639 0.249973 0.294469
0.121401 0.209796 0.270024
0.240162 0.206744 0.283864
0.353307 0.205051 0.298054
0.451041 0.207279 0.314122
0.546014 0.210178 0.329702
0.577249 0.205066 0.331762
0.568444 0.195987 0.326268
0.559716 0.187945 0.321004
0.177157 0.381994 0.372045
0.152285 0.325582 0.34136
0.231495 0.314977 0.343236
0.367407 0.307378 0.348074
0.471656 0.308248 0.359258
0.564874 0.312093 0.372351
0.646021 0.315007 0.383856
0.640528 0.302892 0.378714
0.635447 0.291783 0.373999
0.228534 0.498909 0.432258
0.204288 0.443717 0.403937
0.226749 0.421851 0.394461
0.370108 0.412406 0.396033
0.483986 0.41088 0.40322
0.575814 0.41532 0.414893
0.660822 0.421469 0.427802
0.688548 0.41532 0.428428
0.683085 0.402762 0.422538
0.275135 0.604654 0.489204
0.250935 0.549798 0.459098
0.244617 0.523873 0.446204
0.37702 0.515465 0.448905
0.5037 0.510369 0.4533
0.596902 0.51426 0.464515
0.678523 0.52134 0.477913
0.740063 0.525307 0.487709
0.733562 0.511757 0.479759
0.314519 0.693309 0.542901
0.294118 0.647532 0.514092
0.282292 0.620691 0.499458
0.394751 0.614084 0.504997
0.526833 0.607569 0.509621
0.625162 0.610239 0.52134
0.704097 0.617761 0.536583
0.774914 0.627604 0.553445
0.784817 0.618708 0.549157
0.314519 0.693309 0.542901
0.314519 0.693309 0.542901
0.314519 0.693309 0.542901
0.432395 0.706081 0.565362
0.556985 0.701457 0.57435
0.661036 0.702098 0.586923
0.737438 0.71043 0.605554
0.802136 0.721569 0.625986
0.836194 0.723873 0.634409
0.314519 0.693309 0.542901
0.314519 0.693309 0.542901
0.314519 0.693309 0.542901
0.399496 0.708537 0.563439
0.538964 0.725383 0.589944
0.665568 0.742489 0.618067
0.757015 0.767605 0.654063
0.830106 0.79585 0.693004
0.892699 0.825727 0.733272
