assets/cube/bright_green_01.cube
TITLE "Generated by Resolve"
LUT_3D_SIZE 5
0 0 0
0.0992294 0.0316167 0.0331273
0.211063 0.0514382 0.054902
0.211063 0.0514382 0.054902
0.211063 0.0514382 0.054902
0.108217 0.247532 0.116991
0.254139 0.213382 0.111482
0.464683 0.222141 0.139178
0.544976 0.216007 0.14609
0.529259 0.199878 0.138064
0.224689 0.516274 0.224689
0.258457 0.441978 0.199985
0.514626 0.435981 0.227268
0.673838 0.445335 0.249256
0.661631 0.421088 0.238514
0.281071 0.645808 0.281071
0.297383 0.645151 0.286397
0.567422 0.632166 0.310307
0.736004 0.645792 0.351888
0.768505 0.63241 0.347295
0.281071 0.645808 0.281071
0.281392 0.64651 0.281682
0.520928 0.669398 0.331823
0.730526 0.711131 0.411704
0.828244 0.746075 0.476173
0.0028687 0.00476081 0.0158999
0.147768 0.051545 0.0902266
0.291524 0.0699016 0.129915
0.289235 0.0694285 0.126848
0.287434 0.0690623 0.124315
0.111376 0.247074 0.180102
0.241398 0.204318 0.151873
0.444785 0.207828 0.15642
0.543893 0.202457 0.15581
0.524865 0.185351 0.145586
0.219013 0.499275 0.249821
0.228473 0.417594 0.19234
0.482658 0.407294 0.212528
0.658076 0.41706 0.236545
0.650523 0.392233 0.226123
0.286824 0.65565 0.313283
0.26862 0.615442 0.274846
0.519188 0.595697 0.289281
0.693278 0.602731 0.313634
0.749126 0.594308 0.316869
0.283665 0.650507 0.293416
0.281071 0.645808 0.281071
0.485298 0.666392 0.324544
0.707713 0.704311 0.399237
0.828244 0.746075 0.476173
0.00950637 0.0124056 0.0331579
0.175082 0.0614481 0.136278
0.33756 0.0791791 0.19765
0.33756 0.0791791 0.19765
0.33756 0.0791791 0.19765
0.122789 0.261555 0.282841
0.251453 0.214282 0.249912
0.46009 0.214984 0.264347
0.570428 0.2103 0.267872
0.551766 0.19263 0.252277
0.22884 0.507225 0.373388
0.235264 0.426047 0.305837
0.488334 0.413657 0.300145
0.662531 0.422904 0.312474
0.666438 0.399573 0.293721
0.30193 0.6766 0.435233
0.275853 0.620783 0.371695
0.526925 0.603189 0.370245
0.700282 0.61117 0.390845
0.764706 0.604364 0.389013
0.297963 0.671397 0.400931
0.293935 0.665949 0.367193
0.504692 0.688365 0.40206
0.721614 0.724468 0.465629
0.847425 0.769146 0.540749
0.00959792 0.0125124 0.0332952
0.172625 0.0610513 0.135149
0.33756 0.0791791 0.19765
0.33756 0.0791791 0.19765
0.33756 0.0791791 0.19765
0.121996 0.257481 0.299519
0.25005 0.214069 0.289784
0.463539 0.215549 0.319936
0.584253 0.212985 0.336233
0.5682 0.195758 0.326116
0.232639 0.508263 0.437095
0.239734 0.432731 0.400412
0.496422 0.42208 0.4065
0.670268 0.431159 0.420142
0.683162 0.409339 0.403922
0.314519 0.693309 0.542901
0.284749 0.627283 0.480659
0.534249 0.611322 0.476722
0.706767 0.619623 0.493828
0.778515 0.615747 0.494087
0.311498 0.689204 0.517861
0.307454 0.683803 0.483619
0.52575 0.710201 0.515511
0.740856 0.74818 0.572351
0.870909 0.798566 0.644816
0.00968948 0.012604 0.0334325
0.170855 0.0607614 0.13434
0.33756 0.0791791 0.19765
0.33756 0.0791791 0.19765
0.33756 0.0791791 0.19765
0.118639 0.249973 0.294469
0.240162 0.206744 0.283864
0.451041 0.207279 0.314122
0.577249 0.205066 0.331762
0.559716 0.187945 0.321004
0.228534 0.498909 0.432258
0.226749 0.421851 0.394461
0.483986 0.41088 0.40322
0.660822 0.421469 0.427802
0.683085 0.402762 0.422538
0.314519 0.693309 0.542901
0.282292 0.620691 0.499458
0.526833 0.607569 0.509621
0.704097 0.617761 0.536583
0.784817 0.618708 0.549157
0.314519 0.693309 0.542901
0.314519 0.693309 0.542901
0.538964 0.725383 0.589944
0.757015 0.767605 0.654063
0.892699 0.825727 0.733272
