assets/cube/brownish.cube
TITLE "Generated by Resolve"
LUT_3D_SIZE 33
0 0 0
0 0 0
0 0 0
0 0 0
0 0 0
0 0 0
0 0 0
0 0 0
0 0 0
0 0 0
0 0 0
0 0 0
0 0 0
0 0 0
0 0 0
0 0 0
0 0 0
0.00941482 0.00318914 0.00320439
0.0219425 0.00628672 0.00631724
0.0349279 0.00891127 0.00895705
0.0493935 0.0113527 0.0114443
0.0643473 0.0134279 0.0135653
0.0799878 0.0152285 0.0154269
0.09691 0.0169833 0.017258
0.113802 0.0184176 0.0187686
0.132006 0.0198062 0.0202487
0.149767 0.0209964 0.0215305
0.167788 0.0221256 0.0227665
0.18674 0.023331 0.0240787
0.204944 0.024445 0.0252842
0.223957 0.0256657 0.026627
0.24213 0.0268254 0.0278782
0.260304 0.0280308 0.0291752
0 0 0
0 0 0
0 0 0
0 0 0
0 0 0
0 0 0
0 0 0
0 0 0
0 0 0
0 0 0
0 0 0
0 0 0
0 0 0
0.00230411 0.0012665 0.00120546
0.0119478 0.00488289 0.00454719
0.0232547 0.00831617 0.00767529
0.0351873 0.0112306 0.0102693
0.0481727 0.0138247 0.0125429
0.0627451 0.0162966 0.0146639
0.0774701 0.0183566 0.0164187
0.09337 0.0204166 0.0181582
0.109453 0.0221103 0.0195468
0.126131 0.023621 0.0207675
0.144137 0.0250858 0.0219425
0.161807 0.0263371 0.0229191
0.180056 0.0275425 0.0238804
0.198672 0.0287785 0.0248569
0.216815 0.0299535 0.0257877
0.235737 0.0312657 0.0268711
0.253758 0.0325322 0.0278935
0.271885 0.0339055 0.0290379
0.290135 0.0354314 0.0303349
0.307774 0.0369421 0.0316167
0 0 0
0 0 0
0 0 0
0 0 0
0 0 0
0 0 0
0 0 0
0 0 0
0 0 0
0 0 0
0.00495918 0.00289921 0.00257877
0.0134432 0.0068513 0.00595102
0.0228885 0.0104982 0.0089723
0.0339055 0.0140078 0.0117952
0.0455634 0.0169833 0.0140841
0.0583963 0.0196841 0.016083
0.0724956 0.0222019 0.0178836
0.0870985 0.0243229 0.0193179
0.10309 0.0263828 0.0206455
0.11899 0.0281224 0.0217136
0.135653 0.0298161 0.0227359
0.152972 0.0313725 0.023621
0.170413 0.0327306 0.0243534
0.188937 0.0341192 0.0251164
0.20705 0.0353399 0.0257572
0.225696 0.0366217 0.0264439
0.244205 0.0379187 0.0271916
0.262287 0.0392615 0.027985
0.280949 0.0408026 0.0289921
0.298573 0.0423438 0.0300298
0.315969 0.0440223 0.0311894
0.333822 0.0459602 0.0326238
0.350698 0.0478981 0.0340887
0 0 0
0 0 0
0 0 0
0 0 0
0 0 0
0 0 0
0 0 0
0.00646983 0.00450141 0.00375372
0.0142061 0.00901808 0.00732433
0.0223392 0.0130312 0.0103761
0.0315404 0.0168765 0.0131991
0.0418708 0.0204318 0.0157473
0.0529641 0.0235599 0.0178225
0.0655375 0.0266117 0.0197757
0.0788128 0.0291142 0.02121
0.0933394 0.0314488 0.0223392
0.108812 0.0334936 0.0233005
0.124681 0.0352941 0.024033
0.141741 0.0370947 0.0247501
0.158556 0.0386511 0.0253147
0.17615 0.0402686 0.0259251
0.19379 0.0417182 0.0264134
0.211719 0.0430457 0.0268406
0.230564 0.04448 0.0273442
0.248875 0.0457771 0.0278019
0.26714 0.0471504 0.0283513
0.285893 0.0487526 0.0291142
0.303761 0.0503395 0.0299382
0.321813 0.0522164 0.0310369
0.338994 0.0541543 0.0322576
0.355734 0.05626 0.0336614
0.372595 0.0586404 0.0353704
0.388815 0.0611429 0.0372168
0 0 0
0 0 0
0 0 0
0.00190738 0.00175479 0.00148013
0.00770581 0.0065156 0.00511177
0.0142824 0.0112459 0.00860609
0.0214084 0.015671 0.0117342
0.0291447 0.019791 0.0145418
0.0380255 0.0239109 0.0172122
0.047425 0.0275273 0.01944
0.057969 0.0310369 0.0215457
0.0695354 0.034165 0.0232395
0.082002 0.0369116 0.024567
0.0960708 0.0395514 0.0257267
0.11075 0.0417029 0.0264591
0.12639 0.043595 0.0269474
0.143359 0.0454871 0.0273594
0.160327 0.0470588 0.0275883
0.178164 0.0487373 0.027924
0.195636 0.0502327 0.0281682
0.213245 0.0517281 0.0284581
0.231815 0.053315 0.0288396
0.249989 0.0547494 0.02916
0.268956 0.0563211 0.029633
0.287312 0.0578164 0.0300908
0.30547 0.0594186 0.0307012
0.323919 0.0613413 0.0316625
0.341329 0.0633097 0.0327153
0.358251 0.0654765 0.0340124
0.375296 0.0680247 0.0357061
0.391165 0.0706645 0.0375525
0.406607 0.073518 0.0396277
0.422263 0.0767376 0.0422675
0.00328069 0.00373846 0.00288396
0.0081178 0.00875868 0.00646983
0.01355 0.0135805 0.00976577
0.019852 0.0184634 0.0129702
0.0264286 0.0229343 0.0157626
0.0336767 0.0271916 0.0183108
0.0419471 0.0314641 0.020798
0.0507057 0.0352789 0.0228885
0.0606088 0.0391089 0.0248417
0.071107 0.0424353 0.0263828
0.0826429 0.0454871 0.0276493
0.0956283 0.0484627 0.0287633
0.109438 0.0509041 0.0294347
0.124758 0.0532692 0.0299992
0.140658 0.0551766 0.0302129
0.157519 0.0568856 0.0302586
0.175387 0.0585946 0.0303197
0.193225 0.0600595 0.0302281
0.211688 0.0617075 0.0303349
0.229618 0.0632639 0.0304723
0.247517 0.0648661 0.0307012
0.266224 0.0666361 0.0310216
0.28455 0.0682383 0.031342
0.302831 0.0699168 0.0318456
0.321584 0.0718853 0.032639
0.339452 0.0738384 0.0335241
0.356939 0.0760662 0.034699
0.374151 0.078645 0.0362707
0.390402 0.0813153 0.0381628
0.405966 0.0842756 0.040238
0.421363 0.0877546 0.0428321
0.43566 0.0913252 0.0456245
0.449546 0.0951247 0.0488594
0.0169833 0.0213474 0.0141146
0.0227817 0.0263371 0.0169985
0.0290379 0.0308995 0.0194705
0.0360876 0.035523 0.0219425
0.0435645 0.0397192 0.0240482
0.0517739 0.0437629 0.0259403
0.0609598 0.0477455 0.0276951
0.0706798 0.0513313 0.0291295
0.0816205 0.054902 0.0304723
0.0931716 0.0579995 0.0315099
0.105943 0.0608988 0.0322881
0.119982 0.0635843 0.0328374
0.134859 0.0658274 0.0330816
0.151293 0.0680247 0.0332189
0.168261 0.0697948 0.0330663
0.186007 0.0713664 0.0328222
0.204761 0.0730602 0.0326543
0.223194 0.0745556 0.0324712
0.241779 0.0762036 0.0324407
0.260212 0.0780346 0.0326238
0.278218 0.0798505 0.0329747
0.29659 0.0817273 0.033463
0.315236 0.0837568 0.0341497
0.333333 0.0857862 0.0349737
0.351415 0.0880751 0.0361028
0.368994 0.0905928 0.0375372
0.385779 0.0932784 0.0392004
0.401755 0.0963149 0.0413062
0.417502 0.099855 0.0440986
0.431952 0.103563 0.0469978
0.445579 0.107622 0.050309
0.458534 0.111986 0.0540017
0.471519 0.116716 0.0581979
0.0288853 0.039765 0.0230259
0.0355688 0.0444038 0.0251469
0.0427405 0.0487068 0.0269322
0.0506447 0.0531319 0.0287327
0.0589609 0.0571298 0.0302281
0.0680552 0.060914 0.0315251
0.078233 0.0647593 0.0328374
0.0889296 0.0681468 0.0337835
0.100847 0.0715648 0.0346532
0.113436 0.0744945 0.0352026
0.127001 0.0771954 0.0355688
0.142214 0.0798199 0.0357977
0.158068 0.0819715 0.0357519
0.175448 0.0840925 0.0356603
0.193332 0.0858015 0.0353246
0.211826 0.0873884 0.0349432
0.231144 0.0891585 0.0347753
0.25005 0.0907759 0.034638
0.268666 0.0925612 0.0347753
0.287388 0.0947127 0.0353246
0.305409 0.0968032 0.0359808
0.32343 0.0990005 0.0368353
0.341711 0.101442 0.0380102
0.359594 0.104005 0.0393988
0.376837 0.106737 0.0411078
0.3935 0.109758 0.043183
0.409705 0.113359 0.0458991
0.424659 0.117098 0.0489052
0.438834 0.121157 0.0524147
0.452445 0.125536 0.0560616
0.466056 0.130312 0.060029
0.479362 0.135103 0.0641489
0.492302 0.140093 0.0682383
0.0387579 0.0586404 0.0296178
0.0464485 0.0631723 0.0311284
0.054612 0.0672618 0.0323644
0.0633402 0.071519 0.0337377
0.0725719 0.075349 0.0347601
0.0826734 0.0789807 0.0356146
0.0937667 0.0826886 0.0364691
0.105425 0.0859541 0.0370489
0.118105 0.0891432 0.037644
0.131823 0.0921187 0.0380102
0.14641 0.094728 0.038117
0.162463 0.097322 0.0382086
0.179232 0.099443 0.0380102
0.197055 0.101366 0.0377203
0.216037 0.103349 0.0375219
0.23505 0.105074 0.0372931
0.254307 0.106813 0.0371862
0.273808 0.108888 0.0375067
0.292393 0.110994 0.0380407
0.310582 0.113298 0.0389105
0.328695 0.115953 0.0401923
0.346471 0.118715 0.0417639
0.363973 0.121569 0.0435798
0.380957 0.124666 0.0457771
0.397757 0.128283 0.0485847
0.413626 0.131945 0.0515297
0.428992 0.135882 0.0547036
0.443976 0.140063 0.0582437
0.458366 0.144549 0.0618601
0.472618 0.149493 0.0658579
0.486503 0.154467 0.0699626
0.499886 0.159686 0.0740673
0.513344 0.165011 0.0784772
0.0469062 0.0784314 0.0343633
0.0556344 0.0827649 0.0353857
0.0645914 0.0867323 0.0362249
0.0742657 0.0908522 0.0371405
0.0844892 0.0945754 0.0378576
0.0955367 0.0981003 0.0385138
0.107576 0.101747 0.0391241
0.120165 0.104952 0.0395056
0.133623 0.107973 0.0397803
0.148348 0.11104 0.0402075
0.163821 0.113664 0.0402838
0.180423 0.11603 0.0402075
0.198291 0.118471 0.0402533
0.216648 0.120516 0.0401312
0.235752 0.122454 0.0400549
0.255604 0.12459 0.0402686
0.275013 0.12665 0.0406195
0.294072 0.128893 0.0413519
0.312795 0.13167 0.0427405
0.330632 0.134478 0.0443732
0.347997 0.137545 0.0464027
0.365057 0.14081 0.0488136
0.382177 0.144259 0.0514687
0.399237 0.148043 0.0543984
0.415869 0.151827 0.0573281
0.432258 0.15581 0.0606088
0.447944 0.160143 0.0639963
0.463233 0.164736 0.0675517
0.478355 0.169848 0.0715343
0.492866 0.17496 0.0753338
0.506798 0.180377 0.0795911
0.520699 0.185946 0.0840009
0.534249 0.191745 0.0886244
0.0533608 0.0991684 0.0374304
0.0631571 0.103365 0.0381476
0.0730144 0.107256 0.0388037
0.0835584 0.111223 0.0394598
0.0948196 0.114977 0.0400092
0.106844 0.118441 0.0404364
0.119844 0.12195 0.0410315
0.133272 0.125261 0.0414588
0.147601 0.128313 0.0417639
0.163165 0.131441 0.0421607
0.1794 0.134127 0.0425269
0.196704 0.136629 0.0426947
0.214893 0.139025 0.0429236
0.234028 0.141497 0.0433204
0.253437 0.143725 0.0437781
0.273075 0.145998 0.04448
0.292744 0.148699 0.0457771
0.311543 0.151431 0.0473793
0.329534 0.154498 0.0494698
0.347143 0.157809 0.0518196
0.36466 0.161349 0.0544594
0.382376 0.165133 0.0573587
0.399847 0.168887 0.0601358
0.41709 0.172854 0.0630961
0.43418 0.177005 0.0661784
0.450797 0.181445 0.0692454
0.466957 0.18616 0.0727855
0.482719 0.191119 0.0765393
0.498024 0.196521 0.080705
0.512825 0.202197 0.0850996
0.527291 0.207965 0.089662
0.541283 0.214008 0.094377
0.555322 0.220172 0.0993362
0.0584115 0.120989 0.0392462
0.0692149 0.125124 0.0397498
0.0800641 0.128969 0.0403601
0.0914168 0.132738 0.0408942
0.103822 0.136629 0.0415198
0.11667 0.140139 0.0420233
0.130404 0.143481 0.0426184
0.145037 0.147021 0.0433204
0.160204 0.150149 0.0438849
0.176104 0.153185 0.0444953
0.193256 0.156054 0.045243
0.211231 0.159014 0.046128
0.229847 0.161639 0.046952
0.249042 0.164218 0.0479591
0.268681 0.166949 0.0493477
0.288457 0.169787 0.0506905
0.307958 0.172641 0.0525063
0.326879 0.175769 0.0545815
0.345327 0.179187 0.0568704
0.363409 0.18294 0.0594797
0.381476 0.186984 0.0622873
0.399313 0.190982 0.0650339
0.417151 0.195148 0.0680247
0.434882 0.199466 0.0711376
0.45243 0.203983 0.0745708
0.469505 0.208789 0.0780957
0.486046 0.213901 0.0817578
0.502037 0.219303 0.0858625
0.517632 0.224948 0.0903182
0.532601 0.230915 0.0948653
0.547433 0.237186 0.0999313
0.561685 0.243534 0.104891
0.575784 0.249973 0.110124
0.0623484 0.144015 0.040238
0.0740368 0.147814 0.0406043
0.0860456 0.151934 0.0414588
0.0982681 0.155764 0.0421759
0.111452 0.159411 0.0428626
0.125612 0.16321 0.0437781
0.140291 0.166644 0.0447089
0.155398 0.170077 0.0457313
0.171618 0.173632 0.047013
0.188464 0.176806 0.0483406
0.205936 0.179919 0.0497597
0.224216 0.182956 0.0510262
0.243275 0.18587 0.0525521
0.263218 0.188998 0.0543221
0.28307 0.191974 0.0559091
0.30309 0.195026 0.0576181
0.322881 0.198291 0.0595712
0.342107 0.201846 0.0617838
0.361196 0.205798 0.0644083
0.379751 0.209918 0.0672007
0.398169 0.214115 0.0700999
0.416434 0.218509 0.0731365
0.434669 0.223056 0.0762798
0.452842 0.227771 0.0796063
0.470665 0.232731 0.083238
0.488228 0.237903 0.0870375
0.505058 0.243381 0.0911727
0.52134 0.249165 0.0955367
0.537224 0.255146 0.100298
0.552422 0.261418 0.105272
0.567391 0.267857 0.11046
0.581918 0.274495 0.115938
0.596139 0.2813 0.121508
0.0656596 0.168246 0.0409705
0.0784924 0.172045 0.0415808
0.0911879 0.175952 0.0426795
0.104768 0.180087 0.0439002
0.11902 0.18381 0.0450752
0.134051 0.187427 0.04654
0.149599 0.191226 0.0482185
0.165759 0.194873 0.0500191
0.182559 0.198322 0.0520333
0.199863 0.201816 0.0536507
0.218067 0.205188 0.055436
0.237293 0.208713 0.0574044
0.256794 0.211994 0.059144
0.276875 0.215244 0.060853
0.297368 0.21854 0.0625162
0.317815 0.221973 0.0644694
0.338048 0.225589 0.0666972
0.357626 0.229557 0.0691844
0.376928 0.233722 0.07187
0.396124 0.238407 0.0749828
0.414816 0.243046 0.0780194
0.433677 0.247776 0.0813611
0.452323 0.252705 0.0848249
0.470878 0.257771 0.0884718
0.489128 0.26305 0.0923018
0.506828 0.268574 0.0965133
0.523995 0.274342 0.100954
0.540688 0.280339 0.105669
0.556649 0.286625 0.110719
0.572183 0.293095 0.116014
0.587076 0.299809 0.121599
0.601846 0.30663 0.127321
0.61619 0.313603 0.133165
0.0688792 0.193378 0.0420691
0.0832532 0.197452 0.0435187
0.0969406 0.20148 0.045182
0.111452 0.205402 0.0469825
0.126802 0.209247 0.0491646
0.142901 0.213245 0.0514229
0.159243 0.217044 0.0535134
0.176013 0.220859 0.0556344
0.193454 0.224643 0.0575418
0.211582 0.228351 0.0595712
0.230533 0.232273 0.0617227
0.25008 0.235935 0.0636606
0.270298 0.239506 0.065568
0.290898 0.243107 0.0675059
0.311879 0.246754 0.0694896
0.332738 0.250584 0.071519
0.353445 0.254582 0.074052
0.373404 0.258946 0.0767529
0.393164 0.263493 0.0796674
0.412482 0.268299 0.0827802
0.431617 0.273259 0.0863203
0.450767 0.27834 0.0898909
0.469749 0.283558 0.0936599
0.488533 0.288945 0.0975052
0.507164 0.294438 0.101747
0.525109 0.300221 0.106218
0.542504 0.306218 0.110811
0.559365 0.312398 0.116014
0.575509 0.318883 0.121218
0.591165 0.32549 0.127031
0.606302 0.332311 0.132921
0.620935 0.3393 0.139071
0.635538 0.346303 0.145357
0.0737774 0.219745 0.0452888
0.0888228 0.223682 0.0473793
0.103761 0.227771 0.0497139
0.119371 0.232136 0.0523995
0.13547 0.236194 0.0546731
0.152239 0.240192 0.057023
0.169162 0.244327 0.0590372
0.18677 0.248386 0.0613718
0.204944 0.252522 0.0635843
0.22385 0.256764 0.0659648
0.243305 0.260761 0.0681468
0.263539 0.264683 0.0702678
0.284276 0.268605 0.0723735
0.305486 0.272557 0.0745861
0.326925 0.276585 0.0768444
0.348287 0.280751 0.0791943
0.369268 0.285161 0.0819562
0.389624 0.28986 0.0849928
0.409766 0.294697 0.0882429
0.429572 0.299733 0.0918441
0.448936 0.305013 0.095491
0.46836 0.310323 0.0993668
0.487678 0.315755 0.103471
0.506783 0.321309 0.107637
0.52549 0.327047 0.112108
0.543633 0.332967 0.116838
0.561334 0.339071 0.121904
0.578149 0.345434 0.127337
0.594507 0.351965 0.133013
0.610132 0.358694 0.139055
0.625376 0.36553 0.14522
0.639963 0.372305 0.151522
0.654444 0.379431 0.158312
0.0801709 0.246769 0.0503243
0.0961013 0.251179 0.0529488
0.111604 0.25565 0.0555428
0.12784 0.259998 0.0580758
0.144686 0.264332 0.0605783
0.162036 0.268696 0.0627451
0.179995 0.273014 0.0652171
0.198169 0.277409 0.0677043
0.217166 0.281727 0.0701915
0.236805 0.28632 0.0728161
0.257115 0.290608 0.0753185
0.277943 0.294881 0.0776226
0.299428 0.299077 0.0801404
0.320989 0.303395 0.0825208
0.34284 0.307729 0.0851301
0.364614 0.312169 0.0880446
0.385718 0.316915 0.0909895
0.406394 0.321859 0.0943618
0.426993 0.326894 0.098024
0.446998 0.332189 0.101701
0.466545 0.33756 0.105699
0.486412 0.343069 0.110048
0.505776 0.348547 0.114137
0.524849 0.354116 0.118563
0.54374 0.35993 0.123461
0.562142 0.365927 0.128374
0.579736 0.372137 0.133791
0.596826 0.3785 0.13959
0.613123 0.385077 0.145525
0.628901 0.391791 0.151812
0.644099 0.398627 0.158572
0.6589 0.40557 0.16524
0.673457 0.412528 0.172305
0.0877241 0.275273 0.0563363
0.104005 0.279942 0.0591287
0.120348 0.284611 0.0618601
0.13727 0.289265 0.0645762
0.154971 0.293873 0.0670787
0.173312 0.298436 0.0695964
0.191928 0.303059 0.0724804
0.21117 0.307668 0.0751049
0.230747 0.312322 0.0779583
0.251148 0.316884 0.0806134
0.271931 0.321462 0.0833753
0.293294 0.325994 0.0860456
0.315221 0.330434 0.0889296
0.337392 0.334951 0.0916304
0.359533 0.339513 0.0947585
0.381445 0.344228 0.0979324
0.402716 0.349218 0.101244
0.423758 0.354284 0.105043
0.44445 0.359518 0.108919
0.464729 0.364935 0.112871
0.484657 0.370443 0.117372
0.504448 0.376043 0.121859
0.524193 0.381689 0.126314
0.543648 0.387396 0.131273
0.56257 0.393256 0.13637
0.581048 0.399252 0.141573
0.598749 0.405432 0.147372
0.615732 0.41181 0.153201
0.631998 0.418189 0.159564
0.647791 0.424887 0.16614
0.662654 0.431495 0.17293
0.67747 0.438254 0.179934
0.691798 0.445136 0.18706
0.0965896 0.304982 0.0634012
0.113405 0.309865 0.0663462
0.130419 0.314839 0.0694285
0.148379 0.319738 0.0720684
0.166888 0.32459 0.0750286
0.186221 0.329366 0.0780499
0.205615 0.334249 0.0809033
0.225727 0.339055 0.0838941
0.246006 0.343923 0.0870222
0.267063 0.348653 0.0900893
0.288426 0.353399 0.0932631
0.310384 0.358068 0.0963912
0.33257 0.362737 0.0996109
0.355093 0.367391 0.1028
0.377356 0.372183 0.106188
0.399512 0.37702 0.109834
0.420935 0.382147 0.113481
0.442069 0.387366 0.117479
0.462974 0.39266 0.121767
0.483482 0.398108 0.126009
0.503243 0.40354 0.130556
0.523125 0.409033 0.135348
0.542885 0.414694 0.140063
0.56231 0.420417 0.145144
0.581323 0.426215 0.15053
0.599725 0.432181 0.155947
0.617334 0.4383 0.161898
0.634302 0.444556 0.168002
0.650538 0.450965 0.174563
0.666102 0.457496 0.181231
0.681086 0.464088 0.188388
0.695644 0.470771 0.195483
0.710033 0.477516 0.202914
0.107179 0.335668 0.0718242
0.124636 0.340932 0.0749371
0.142687 0.34612 0.0781109
0.161517 0.351202 0.0813611
0.180987 0.356222 0.0844434
0.201053 0.361166 0.0878462
0.221271 0.366186 0.0910811
0.242084 0.371115 0.0944533
0.263127 0.376059 0.098024
0.284581 0.380911 0.101335
0.306294 0.385611 0.104891
0.328634 0.390524 0.108354
0.351003 0.395132 0.111894
0.373373 0.400015 0.115389
0.395865 0.404868 0.119219
0.417823 0.409903 0.122942
0.439399 0.415061 0.127062
0.460716 0.420279 0.131426
0.481621 0.425635 0.135775
0.502174 0.431083 0.140352
0.52224 0.436606 0.145388
0.542123 0.442191 0.150179
0.561791 0.447791 0.155291
0.581292 0.453407 0.160647
0.600122 0.459159 0.165927
0.618433 0.464988 0.17174
0.635935 0.47097 0.177722
0.652705 0.477104 0.183886
0.668711 0.483223 0.190524
0.684031 0.489601 0.197253
0.699153 0.4963 0.204791
0.713832 0.502998 0.212406
0.728206 0.509896 0.220127
0.11931 0.367285 0.0814832
0.137575 0.372671 0.0850233
0.156603 0.377951 0.0885481
0.176287 0.383139 0.0921035
0.196719 0.388205 0.0955825
0.217456 0.393271 0.0991531
0.238468 0.398322 0.102785
0.259815 0.403342 0.106493
0.2813 0.408377 0.110338
0.303166 0.413352 0.114168
0.325307 0.41828 0.118059
0.347784 0.423163 0.121889
0.370352 0.428031 0.125765
0.392813 0.432959 0.129732
0.415091 0.437934 0.133822
0.436957 0.443015 0.138003
0.458549 0.448173 0.142367
0.479728 0.453346 0.146822
0.500526 0.458427 0.151247
0.520989 0.46389 0.156191
0.540917 0.469276 0.161196
0.560815 0.474723 0.166247
0.580362 0.480201 0.171466
0.599634 0.48571 0.176776
0.618402 0.491279 0.182223
0.6365 0.497047 0.188098
0.654002 0.503014 0.194324
0.670924 0.509178 0.200946
0.687099 0.515587 0.20798
0.702754 0.522148 0.215412
0.717861 0.528878 0.223087
0.732509 0.535729 0.231174
0.747097 0.542626 0.239307
0.133089 0.399939 0.0928511
0.151995 0.405463 0.0966201
0.172061 0.410742 0.10045
0.192477 0.415991 0.104204
0.21355 0.421118 0.107973
0.235187 0.426123 0.111894
0.256641 0.431235 0.115724
0.278569 0.43624 0.119722
0.300389 0.441291 0.12401
0.322347 0.44622 0.127993
0.344564 0.450996 0.132052
0.366995 0.45594 0.136233
0.389441 0.460838 0.14052
0.411826 0.465782 0.144732
0.434058 0.470726 0.149203
0.45565 0.475822 0.153536
0.477043 0.480949 0.158145
0.498436 0.48603 0.162783
0.519203 0.491218 0.167529
0.539467 0.496498 0.172534
0.559457 0.501778 0.17763
0.57908 0.507103 0.182803
0.598566 0.512535 0.18819
0.617884 0.518029 0.193912
0.636713 0.52372 0.199603
0.654994 0.52958 0.205951
0.672541 0.535546 0.212329
0.689494 0.541878 0.219425
0.705608 0.548119 0.226535
0.721187 0.554696 0.234287
0.736324 0.56144 0.242222
0.751064 0.568261 0.250614
0.765515 0.575158 0.258808
0.147784 0.432975 0.105196
0.167681 0.438499 0.109346
0.188373 0.443748 0.113191
0.209689 0.44889 0.117357
0.231388 0.453971 0.121355
0.253513 0.458961 0.12546
0.275502 0.464012 0.129686
0.297688 0.469017 0.133837
0.319783 0.474022 0.13843
0.341909 0.479011 0.142916
0.364172 0.48397 0.147265
0.386557 0.488853 0.151919
0.40882 0.493767 0.156268
0.431037 0.498619 0.160967
0.452903 0.503563 0.165377
0.474357 0.508461 0.170123
0.495689 0.513512 0.174884
0.516716 0.518364 0.179324
0.537316 0.523247 0.184222
0.557549 0.528481 0.189425
0.577432 0.533867 0.194812
0.597314 0.539284 0.200397
0.616876 0.544808 0.206165
0.636149 0.550454 0.211994
0.655161 0.556161 0.21825
0.673411 0.562097 0.224811
0.691051 0.568185 0.231495
0.708049 0.574426 0.23888
0.724193 0.580911 0.246311
0.739925 0.587442 0.254307
0.755077 0.594125 0.262379
0.76968 0.600916 0.270649
0.7841 0.607691 0.279133
0.164065 0.466499 0.119097
0.184802 0.471855 0.123384
0.206256 0.477043 0.127611
0.228214 0.482109 0.131884
0.250446 0.487083 0.136126
0.273121 0.491951 0.140368
0.295338 0.496925 0.144915
0.317449 0.501671 0.14934
0.339712 0.506477 0.153964
0.3617 0.511437 0.158709
0.38381 0.51632 0.16347
0.405951 0.521141 0.168215
0.428077 0.525917 0.172869
0.449821 0.530739 0.177646
0.471351 0.535561 0.182345
0.492638 0.540475 0.187213
0.513893 0.545449 0.192187
0.535195 0.550469 0.197192
0.555962 0.555657 0.202518
0.576272 0.560998 0.208103
0.596292 0.56643 0.213825
0.616159 0.571923 0.219715
0.635798 0.577493 0.225803
0.655131 0.583139 0.231876
0.674006 0.588891 0.238315
0.692226 0.59469 0.244862
0.709712 0.60058 0.251698
0.726482 0.606821 0.259083
0.742763 0.613169 0.266651
0.758328 0.619623 0.274662
0.773388 0.6262 0.282612
0.788006 0.632822 0.290822
0.802213 0.639475 0.299199
0.181643 0.499626 0.134188
0.203235 0.504784 0.13875
0.225177 0.50985 0.143069
0.247822 0.514717 0.147433
0.270497 0.519524 0.15201
0.293126 0.524346 0.15642
0.315801 0.529076 0.161227
0.337957 0.533928 0.166003
0.360159 0.53872 0.170794
0.382116 0.543481 0.175891
0.403845 0.548287 0.180713
0.425666 0.553017 0.185718
0.447456 0.557794 0.190616
0.469169 0.562646 0.195865
0.49044 0.567697 0.200946
0.511894 0.572641 0.206256
0.533028 0.577539 0.211368
0.554192 0.582757 0.2168
0.575082 0.587854 0.222416
0.595422 0.593256 0.228077
0.615274 0.598764 0.23415
0.635172 0.604227 0.240345
0.65481 0.609781 0.246326
0.674022 0.615396 0.252659
0.692866 0.621073 0.259266
0.711131 0.626902 0.265797
0.728542 0.632868 0.272847
0.745403 0.638941 0.280125
0.761456 0.645182 0.287633
0.776944 0.651484 0.295323
0.791836 0.657847 0.30341
0.806302 0.664271 0.311284
0.820447 0.670665 0.319509
0.201099 0.53254 0.150912
0.223316 0.537484 0.155474
0.245884 0.542275 0.160189
0.26862 0.547021 0.164645
0.291722 0.551568 0.169329
0.314382 0.555993 0.173846
0.33698 0.560723 0.178637
0.358953 0.565209 0.183627
0.380728 0.569924 0.188693
0.402609 0.574701 0.19379
0.424414 0.579522 0.199298
0.446067 0.584451 0.204593
0.467689 0.589395 0.210239
0.489082 0.594476 0.215671
0.510384 0.599557 0.221424
0.531762 0.604654 0.226932
0.553033 0.609781 0.232441
0.574166 0.614923 0.238254
0.594873 0.620203 0.243885
0.615198 0.625544 0.249866
0.635065 0.630976 0.256153
0.654719 0.636439 0.262242
0.674174 0.641932 0.268345
0.693355 0.647272 0.274617
0.711833 0.652735 0.280781
0.730037 0.658503 0.287434
0.747295 0.664195 0.294331
0.763912 0.670115 0.301244
0.779873 0.676097 0.30869
0.795087 0.6822 0.315999
0.809781 0.688334 0.323781
0.824048 0.694484 0.331289
0.83798 0.700587 0.339132
0.222095 0.56434 0.169055
0.244587 0.56907 0.173632
0.267613 0.573587 0.17818
0.290684 0.578027 0.182986
0.313512 0.582483 0.187594
0.336614 0.586877 0.192477
0.359045 0.591516 0.197742
0.381262 0.596262 0.202991
0.403174 0.601099 0.208759
0.424811 0.606043 0.214466
0.446311 0.611078 0.220172
0.467948 0.616053 0.226154
0.489128 0.621195 0.231937
0.510109 0.626215 0.237903
0.531289 0.631434 0.243656
0.552224 0.636378 0.249287
0.573404 0.641459 0.255177
0.59443 0.646601 0.260761
0.615015 0.651789 0.266697
0.635126 0.657069 0.272801
0.65481 0.662425 0.278721
0.674311 0.667765 0.284825
0.69366 0.673075 0.29102
0.712581 0.678447 0.296971
0.731106 0.683833 0.303181
0.748989 0.689281 0.309682
0.766155 0.694865 0.316045
0.782589 0.700511 0.322896
0.798276 0.706233 0.3299
0.81326 0.712047 0.336828
0.82768 0.717876 0.344152
0.841672 0.72369 0.351186
0.855299 0.729442 0.35848
0.244495 0.595438 0.188479
0.267521 0.599817 0.193271
0.290761 0.604227 0.198016
0.314122 0.608621 0.202914
0.337606 0.613016 0.208118
0.360342 0.617456 0.213199
0.383017 0.622034 0.218631
0.40499 0.626886 0.224674
0.426551 0.631922 0.230594
