assets/cube/brownish.cube
TITLE "Generated by Resolve"
LUT_3D_SIZE 5
0 0 0
0 0 0
0 0 0
0.113802 0.0184176 0.0187686
0.260304 0.0280308 0.0291752
0.0387579 0.0586404 0.0296178
0.118105 0.0891432 0.037644
0.254307 0.106813 0.0371862
0.397757 0.128283 0.0485847
0.513344 0.165011 0.0784772
0.0801709 0.246769 0.0503243
0.217166 0.281727 0.0701915
0.385718 0.316915 0.0909895
0.54374 0.35993 0.123461
0.673457 0.412528 0.172305
0.181643 0.499626 0.134188
0.360159 0.53872 0.170794
0.533028 0.577539 0.211368
0.692866 0.621073 0.259266
0.820447 0.670665 0.319509
0.38143 0.742535 0.308125
0.54902 0.779431 0.356451
0.694072 0.815305 0.398062
0.834867 0.844358 0.426261
0.944503 0.873335 0.456413
0 0 0
0 0 0
0.0322881 0.00962844 0.0164187
0.158587 0.0226596 0.0513466
0.30486 0.0309453 0.0810101
0.0475776 0.0730907 0.0710765
0.134203 0.100374 0.0966506
0.274739 0.11696 0.111818
0.415396 0.140703 0.135851
0.533181 0.179263 0.174411
0.0929885 0.261952 0.139879
0.234928 0.297993 0.168566
0.40415 0.334356 0.199573
0.562524 0.377691 0.240345
0.691569 0.429618 0.295735
0.201419 0.517021 0.252827
0.380621 0.55462 0.294972
0.550835 0.594369 0.340993
0.709529 0.637675 0.39089
0.83595 0.685878 0.449744
0.40354 0.757183 0.437812
0.565087 0.793652 0.484398
0.706447 0.827802 0.523415
0.8448 0.854536 0.549477
0.952911 0.881437 0.577615
0 0 0
0 0 0
0.0684672 0.0171054 0.0547189
0.203143 0.0250706 0.116533
0.346624 0.0324407 0.171588
0.0543526 0.0854658 0.147112
0.147875 0.109728 0.194873
0.292027 0.125978 0.226368
0.432792 0.151827 0.261158
0.552804 0.192157 0.309453
0.103365 0.275746 0.268025
0.250965 0.312581 0.305623
0.420966 0.350042 0.345251
0.579553 0.393393 0.392554
0.70779 0.444633 0.450019
0.218296 0.532357 0.40856
0.398199 0.56907 0.451957
0.566857 0.609659 0.499367
0.724514 0.652506 0.548394
0.849714 0.699123 0.603113
0.421729 0.770703 0.591775
0.57847 0.806195 0.633799
0.716731 0.838437 0.669398
0.852934 0.862776 0.694133
0.959792 0.887922 0.720714
0 0 0
0.0109407 0.00575265 0.0191806
0.104494 0.0222782 0.122927
0.244404 0.0257725 0.213611
0.383612 0.0332799 0.291981
0.0597696 0.0962387 0.252796
0.160098 0.118288 0.318105
0.307042 0.135576 0.358831
0.450492 0.162585 0.403098
0.572747 0.204791 0.45948
0.113771 0.289937 0.413108
0.26656 0.327367 0.456748
0.43772 0.365576 0.502449
0.596445 0.408713 0.553918
0.723995 0.45948 0.612116
0.234424 0.54728 0.573526
0.415427 0.58378 0.616541
0.58262 0.624842 0.664271
0.739025 0.666758 0.712413
0.862547 0.711299 0.764309
0.437842 0.783841 0.753414
0.590112 0.817945 0.793088
0.725444 0.847639 0.826658
0.859754 0.869627 0.850721
0.965759 0.893385 0.877424
0 0 0
0.0335393 0.0154726 0.0737774
0.137636 0.0264134 0.196933
0.281025 0.0278935 0.300755
0.415549 0.0375219 0.387594
0.0666514 0.107271 0.343435
0.173983 0.128786 0.412955
0.323766 0.148119 0.455512
0.470008 0.176928 0.506996
0.59379 0.22089 0.569192
0.128145 0.306569 0.518776
0.285969 0.344656 0.567605
0.456672 0.383642 0.618235
0.614908 0.42649 0.672419
0.742168 0.477256 0.732158
0.254932 0.563989 0.692485
0.436454 0.60087 0.737179
0.600778 0.642252 0.786221
0.755322 0.682887 0.833936
0.877104 0.7252 0.884535
0.45684 0.798306 0.873106
0.603311 0.830777 0.912093
0.735836 0.858457 0.944854
0.868574 0.878538 0.968307
0.973739 0.900938 0.995148
