assets/cube/brownish.cube
TITLE "Generated by Resolve"
LUT_3D_SIZE 9
0 0 0
0 0 0
0 0 0
0 0 0
0 0 0
0.0493935 0.0113527 0.0114443
0.113802 0.0184176 0.0187686
0.18674 0.023331 0.0240787
0.260304 0.0280308 0.0291752
0 0 0
0.00770581 0.0065156 0.00511177
0.0380255 0.0239109 0.0172122
0.082002 0.0369116 0.024567
0.143359 0.0454871 0.0273594
0.213245 0.0517281 0.0284581
0.287312 0.0578164 0.0300908
0.358251 0.0654765 0.0340124
0.422263 0.0767376 0.0422675
0.0387579 0.0586404 0.0296178
0.0725719 0.075349 0.0347601
0.118105 0.0891432 0.037644
0.179232 0.099443 0.0380102
0.254307 0.106813 0.0371862
0.328695 0.115953 0.0401923
0.397757 0.128283 0.0485847
0.458366 0.144549 0.0618601
0.513344 0.165011 0.0784772
0.0623484 0.144015 0.040238
0.111452 0.159411 0.0428626
0.171618 0.173632 0.047013
0.243275 0.18587 0.0525521
0.322881 0.198291 0.0595712
0.398169 0.214115 0.0700999
0.470665 0.232731 0.083238
0.537224 0.255146 0.100298
0.596139 0.2813 0.121508
0.0801709 0.246769 0.0503243
0.144686 0.264332 0.0605783
0.217166 0.281727 0.0701915
0.299428 0.299077 0.0801404
0.385718 0.316915 0.0909895
0.466545 0.33756 0.105699
0.54374 0.35993 0.123461
0.613123 0.385077 0.145525
0.673457 0.412528 0.172305
0.11931 0.367285 0.0814832
0.196719 0.388205 0.0955825
0.2813 0.408377 0.110338
0.370352 0.428031 0.125765
0.458549 0.448173 0.142367
0.540917 0.469276 0.161196
0.618402 0.491279 0.182223
0.687099 0.515587 0.20798
0.747097 0.542626 0.239307
0.181643 0.499626 0.134188
0.270497 0.519524 0.15201
0.360159 0.53872 0.170794
0.447456 0.557794 0.190616
0.533028 0.577539 0.211368
0.615274 0.598764 0.23415
0.692866 0.621073 0.259266
0.761456 0.645182 0.287633
0.820447 0.670665 0.319509
0.268498 0.625528 0.209247
0.362997 0.643168 0.23032
0.45156 0.662547 0.254444
0.533547 0.683253 0.280095
0.615396 0.703304 0.303456
0.694453 0.723095 0.325902
0.768551 0.742519 0.347616
0.833494 0.762509 0.370626
0.887922 0.782696 0.394659
0.38143 0.742535 0.308125
0.471702 0.75993 0.331304
0.54902 0.779431 0.356451
0.619989 0.79884 0.380087
0.694072 0.815305 0.398062
0.766461 0.830381 0.412924
0.834867 0.844358 0.426261
0.894621 0.858549 0.440299
0.944503 0.873335 0.456413
0 0 0
0 0 0
0 0 0
0 0 0
0.0151675 0.00505074 0.00657664
0.0699474 0.014786 0.0216068
0.136385 0.0206607 0.0332036
0.209995 0.0249332 0.0433356
0.282994 0.0294804 0.0532235
0 0 0
0.0165103 0.0136873 0.01355
0.0487526 0.0299382 0.0295109
0.095079 0.0417792 0.0409705
0.15874 0.0493019 0.048188
0.229862 0.0550546 0.0538338
0.303761 0.0609903 0.0598764
0.3738 0.0689708 0.0680247
0.435676 0.0809644 0.0801709
0.0432288 0.0660258 0.0479896
0.0788434 0.0817426 0.057557
0.126375 0.0949416 0.0648508
0.188983 0.104616 0.0692149
0.264958 0.111849 0.0723583
0.338842 0.121553 0.0792248
0.4065 0.134356 0.090486
0.468055 0.151308 0.105882
0.523415 0.172274 0.124819
0.0658732 0.15108 0.0728923
0.117082 0.166033 0.0794385
0.178683 0.179934 0.0867933
0.251301 0.192721 0.0953231
0.331426 0.205615 0.104494
0.40676 0.221744 0.116915
0.480247 0.241001 0.132815
0.547234 0.263706 0.152514
0.60618 0.290013 0.176043
0.0865797 0.254368 0.0934768
0.1523 0.272236 0.105592
0.226062 0.28986 0.117754
0.308644 0.307332 0.130114
0.394842 0.325551 0.143862
0.475853 0.346426 0.160861
0.553384 0.368978 0.180972
0.622599 0.394034 0.205005
0.68246 0.420996 0.233478
0.127535 0.376364 0.132189
0.206546 0.397101 0.148898
0.291844 0.417197 0.166049
0.38024 0.436667 0.183673
0.467704 0.456825 0.202304
0.54992 0.477974 0.222858
0.627054 0.499763 0.245319
0.695567 0.523949 0.272114
0.755535 0.551003 0.304356
0.191623 0.508568 0.192538
0.28127 0.528008 0.211872
0.370336 0.546624 0.232227
0.456764 0.565881 0.25362
0.542046 0.586053 0.276112
0.624033 0.607324 0.299748
0.701244 0.629419 0.325292
0.769406 0.653101 0.353582
0.828092 0.678187 0.385122
0.27953 0.633494 0.272618
0.374044 0.650904 0.294514
0.461601 0.670375 0.319661
0.54255 0.691279 0.345907
0.623743 0.711284 0.36968
0.702235 0.730663 0.391806
0.775601 0.749584 0.41297
0.83978 0.768719 0.434943
0.89395 0.788495 0.458488
0.392554 0.749981 0.373617
0.48127 0.767163 0.396292
0.55726 0.786587 0.421363
0.627024 0.805707 0.444251
0.700328 0.821591 0.46154
0.772107 0.836042 0.476173
0.839841 0.84947 0.488991
0.899062 0.863096 0.502434
0.948699 0.877394 0.517845
0 0 0
0 0 0
0 0 0
0 0 0
0.0322881 0.00962844 0.0164187
0.0902266 0.0178531 0.0353552
0.158587 0.0226596 0.0513466
0.232532 0.0264286 0.0662394
0.30486 0.0309453 0.0810101
0.00204471 0.0021973 0.00254826
0.0251316 0.0205081 0.0255436
0.059205 0.0356146 0.0458839
0.107881 0.0463569 0.0617533
0.173465 0.0529641 0.0732891
0.24596 0.0583352 0.0834821
0.319371 0.0641642 0.0936599
0.388327 0.0725872 0.106065
0.448218 0.0855726 0.122103
0.0475776 0.0730907 0.0710765
0.0847791 0.0878614 0.0850385
0.134203 0.100374 0.0966506
0.198322 0.109636 0.105028
0.274739 0.11696 0.111818
0.347738 0.127047 0.121935
0.415396 0.140703 0.135851
0.477623 0.158068 0.153368
0.533181 0.179263 0.174411
0.0695506 0.157839 0.110079
0.12253 0.17258 0.120089
0.185748 0.18645 0.130709
0.259327 0.199557 0.141497
0.339773 0.212985 0.152529
0.415732 0.229572 0.167346
0.489555 0.248981 0.18526
0.556786 0.272007 0.207248
0.615991 0.298589 0.232868
0.0929885 0.261952 0.139879
0.159594 0.279866 0.153918
0.234928 0.297993 0.168566
0.31809 0.315785 0.183413
0.40415 0.334356 0.199573
0.485283 0.355352 0.218875
0.562524 0.377691 0.240345
0.631647 0.40264 0.265919
0.691569 0.429618 0.295735
0.135592 0.385046 0.18613
0.216114 0.405631 0.204807
0.302144 0.425605 0.224018
0.390265 0.445426 0.243824
0.476951 0.465583 0.264057
0.558465 0.486275 0.28542
0.635355 0.50808 0.308843
0.704265 0.53257 0.336904
0.764218 0.559609 0.369772
0.201419 0.517021 0.252827
0.291768 0.536004 0.273335
0.380621 0.55462 0.294972
0.466331 0.574197 0.317922
0.550835 0.594369 0.340993
0.632502 0.615595 0.365347
0.709529 0.637675 0.39089
0.777554 0.661204 0.419135
0.83595 0.685878 0.449744
0.290639 0.641108 0.336492
0.385275 0.658778 0.359243
0.471839 0.678462 0.384863
0.551553 0.699397 0.411292
0.631815 0.71902 0.434485
0.709773 0.73814 0.45623
0.782574 0.756542 0.476753
0.846174 0.775021 0.497841
0.899977 0.794171 0.520623
0.40354 0.757183 0.437812
0.490898 0.774487 0.460365
0.565087 0.793652 0.484398
0.633783 0.812238 0.506615
0.706447 0.827802 0.523415
0.777493 0.841718 0.537163
0.8448 0.854536 0.549477
0.903639 0.867536 0.562676
0.952911 0.881437 0.577615
0 0 0
0 0 0
0 0 0
0.005066 0.00239567 0.00421149
0.0500801 0.0136721 0.0313573
0.110796 0.0203708 0.0558328
0.18056 0.0241855 0.0775006
0.254566 0.0274662 0.0982223
0.326421 0.0320897 0.118837
0.00898756 0.00991836 0.0147402
0.0335546 0.0269932 0.0432593
0.0694438 0.0408942 0.069398
0.120592 0.05066 0.0910658
0.187701 0.0561685 0.107561
0.260929 0.0611276 0.122896
0.334157 0.0669718 0.137819
0.40174 0.0759442 0.154437
0.458762 0.0899062 0.173983
0.0513161 0.0795758 0.102556
0.090425 0.0934615 0.121782
0.141436 0.105364 0.138308
0.206836 0.114336 0.150835
0.283833 0.121752 0.161334
0.356008 0.132555 0.174716
0.424216 0.146624 0.190951
0.487083 0.164401 0.210803
0.543191 0.186053 0.234195
0.0728618 0.164141 0.157305
0.127855 0.178653 0.170916
0.192676 0.192569 0.18407
0.267033 0.206073 0.196857
0.347768 0.219684 0.210163
0.424491 0.237003 0.22768
0.498802 0.256779 0.247913
0.566232 0.28011 0.271839
0.625574 0.306798 0.299428
0.0988785 0.26923 0.196231
0.166918 0.287327 0.212543
0.243336 0.30544 0.229252
0.326848 0.323568 0.246403
0.412757 0.342443 0.264881
0.494057 0.363531 0.285924
0.571481 0.386099 0.309316
0.640513 0.41088 0.336141
0.69987 0.43743 0.366217
0.143282 0.393561 0.250721
0.22533 0.413931 0.271153
0.31194 0.433799 0.292027
0.399374 0.453407 0.3131
0.485298 0.473533 0.334554
0.56669 0.494224 0.356863
0.643626 0.516182 0.381216
0.712306 0.54052 0.409491
0.772259 0.567544 0.442008
0.210742 0.525154 0.323247
0.301595 0.543694 0.344396
0.389929 0.561959 0.3664
0.475074 0.581903 0.390051
0.559335 0.602441 0.414069
0.640818 0.623667 0.438392
0.717464 0.645548 0.463813
0.785107 0.668544 0.491142
0.843214 0.692912 0.520867
0.301091 0.648646 0.409369
0.395499 0.666087 0.431891
0.481071 0.685893 0.457191
0.559609 0.706905 0.48307
0.639551 0.72636 0.50602
0.716609 0.74493 0.526986
0.788861 0.762676 0.546593
0.852064 0.780789 0.566979
0.905333 0.79939 0.588602
0.413474 0.764218 0.509087
0.499825 0.781353 0.530556
0.572503 0.800381 0.553628
0.640208 0.818418 0.574716
0.712032 0.833524 0.590692
0.782544 0.846815 0.604196
0.849241 0.859052 0.616114
0.907622 0.87158 0.62858
0.95671 0.885069 0.643015
0 0 0
0 0 0
0 0 0
0.0197757 0.00790417 0.0200504
0.0684672 0.0171054 0.0547189
0.131579 0.0222324 0.0868391
0.203143 0.0250706 0.116533
0.276158 0.0277867 0.144183
0.346624 0.0324407 0.171588
0.01561 0.0173953 0.0338293
0.041886 0.0332494 0.0704814
0.0792554 0.0456397 0.10396
0.132357 0.0541695 0.132876
0.201251 0.058732 0.15581
0.27509 0.0632486 0.177279
0.347814 0.0691691 0.197711
0.413764 0.0788434 0.218662
0.468299 0.0940108 0.241306
0.0543526 0.0854658 0.147112
0.0952621 0.0984512 0.172702
0.147875 0.109728 0.194873
0.214527 0.118379 0.212009
0.292027 0.125978 0.226368
0.363806 0.137423 0.242374
0.432792 0.151827 0.261158
0.495949 0.169772 0.283345
0.552804 0.192157 0.309453
0.0756085 0.169741 0.219944
0.132677 0.18407 0.236774
0.198596 0.19826 0.252125
0.274113 0.211994 0.267231
0.355367 0.226062 0.283024
0.432563 0.243488 0.302846
0.50724 0.2636 0.325505
0.57499 0.287114 0.351537
0.634379 0.314 0.380346
0.103365 0.275746 0.268025
0.173236 0.294255 0.286793
0.250965 0.312581 0.305623
0.335164 0.330907 0.324804
0.420966 0.350042 0.345251
0.502434 0.371069 0.368048
0.579553 0.393393 0.392554
0.648554 0.418006 0.419989
0.70779 0.444633 0.450019
0.149645 0.401129 0.330922
0.233082 0.421286 0.352865
0.320348 0.441047 0.374685
0.407645 0.460914 0.397024
0.492775 0.480827 0.418875
0.573968 0.501228 0.441703
0.651102 0.523339 0.466606
0.720027 0.548028 0.494957
0.779904 0.575067 0.526543
0.218296 0.532357 0.40856
0.309987 0.550408 0.42974
0.398199 0.56907 0.451957
0.483253 0.589227 0.475776
0.566857 0.609659 0.499367
0.648142 0.630793 0.523552
0.724514 0.652506 0.548394
0.792081 0.675349 0.57496
0.849714 0.699123 0.603113
0.309941 0.65539 0.495628
0.404654 0.673091 0.517418
0.489433 0.692988 0.542016
0.567041 0.713771 0.566613
0.646189 0.732967 0.588647
0.72282 0.751141 0.608927
0.794354 0.768246 0.627756
0.857206 0.785763 0.647334
0.910002 0.803769 0.667948
0.421729 0.770703 0.591775
0.507042 0.787579 0.612085
0.57847 0.806195 0.633799
0.645487 0.823972 0.653941
0.716731 0.838437 0.669398
0.786496 0.851026 0.682322
0.852934 0.862776 0.694133
0.910948 0.8748 0.706554
0.959792 0.887922 0.720714
0 0 0
0 0 0
0.000671397 0.000579843 0.000762951
0.034699 0.0126802 0.043183
0.0866407 0.0199741 0.0859998
0.151934 0.0235142 0.126207
0.224262 0.025452 0.163561
0.296803 0.0278019 0.198199
0.365698 0.0326543 0.2318
0.0216526 0.0243687 0.060502
0.049546 0.038819 0.105608
0.0885023 0.049897 0.146578
0.143481 0.0573129 0.182315
0.214099 0.0610056 0.211444
0.288396 0.0652171 0.23856
0.360464 0.0714122 0.263569
0.424659 0.0819715 0.287984
0.47776 0.098146 0.312612
0.0570382 0.0909285 0.199268
0.0997635 0.10312 0.230533
0.153933 0.113893 0.257343
0.221866 0.122393 0.27805
0.29955 0.130449 0.294865
0.371756 0.142336 0.313283
0.441672 0.157 0.334768
0.505409 0.175387 0.359335
0.562524 0.198032 0.386999
0.078706 0.175143 0.287419
0.13753 0.189578 0.30576
0.204715 0.203983 0.323018
0.28101 0.217807 0.339818
0.363394 0.232486 0.358343
0.441169 0.250309 0.380514
0.516381 0.270665 0.405112
0.584375 0.294408 0.432425
0.643534 0.321294 0.461906
0.108309 0.282567 0.34313
0.179446 0.301076 0.363302
0.258396 0.3196 0.383581
0.343008 0.338201 0.404211
0.429023 0.357473 0.426398
0.510552 0.378607 0.450385
0.587991 0.401007 0.476036
0.656443 0.425238 0.503441
0.715602 0.451698 0.533364
0.156344 0.408988 0.413382
0.241154 0.428992 0.435782
0.328588 0.448585 0.458015
0.41561 0.468254 0.480446
0.500542 0.488151 0.502983
0.581704 0.50869 0.526253
0.658991 0.530922 0.551492
0.727611 0.555413 0.579538
0.787533 0.582315 0.61059
0.2262 0.539803 0.494285
0.31809 0.557427 0.514839
0.406546 0.576074 0.536797
0.490974 0.596551 0.560555
0.574716 0.617227 0.584497
0.655619 0.638285 0.608362
0.731548 0.659419 0.632532
0.798749 0.681849 0.658442
0.856229 0.705318 0.685817
0.318883 0.662638 0.581277
0.413275 0.680034 0.602258
0.497505 0.699901 0.625879
0.574273 0.720699 0.650278
0.652873 0.739452 0.671687
0.728618 0.756909 0.691264
0.799817 0.773648 0.709789
0.862028 0.790387 0.72874
0.914305 0.80766 0.748486
0.43003 0.777279 0.674907
0.514138 0.793881 0.694286
0.584329 0.812024 0.715297
0.650599 0.829282 0.734646
0.720989 0.842939 0.749508
0.790326 0.855024 0.76228
0.856367 0.866239 0.773983
0.914107 0.877836 0.786389
0.962722 0.890593 0.800504
0 0 0
0 0 0
0.0109407 0.00575265 0.0191806
0.0493935 0.0167239 0.0726177
0.104494 0.0222782 0.122927
0.171496 0.0245365 0.169787
0.244404 0.0257725 0.213611
0.316365 0.0280003 0.253819
0.383612 0.0332799 0.291981
0.0271305 0.0307774 0.0930037
0.0566873 0.0438849 0.145418
0.097322 0.0538796 0.192645
0.154131 0.0603799 0.233906
0.226368 0.0634165 0.267674
0.301045 0.0675517 0.298863
0.372351 0.0742504 0.327047
0.434669 0.0859541 0.353155
0.487724 0.102754 0.379553
0.0597696 0.0962387 0.252796
0.104341 0.107805 0.288212
0.160098 0.118288 0.318105
0.229206 0.126879 0.340963
0.307042 0.135576 0.358831
0.380072 0.147768 0.379568
0.450492 0.162585 0.403098
0.515267 0.181628 0.430014
0.572747 0.204791 0.45948
0.0825818 0.18088 0.350896
0.143008 0.195514 0.370382
0.211276 0.209949 0.389075
0.288731 0.224369 0.40795
0.371389 0.239292 0.428428
0.449866 0.25745 0.452613
0.525444 0.278065 0.479118
0.593576 0.301991 0.50779
0.65301 0.329091 0.538491
0.113771 0.289937 0.413108
0.186358 0.308705 0.434913
0.26656 0.327367 0.456748
0.351843 0.34609 0.47892
0.43772 0.365576 0.502449
0.519142 0.386419 0.527459
0.596445 0.408713 0.553918
0.665003 0.432959 0.58201
0.723995 0.45948 0.612116
0.16347 0.417044 0.489616
0.24947 0.436835 0.512688
0.337514 0.456397 0.535744
0.424094 0.476173 0.558953
0.508247 0.495659 0.581506
0.589593 0.516304 0.605585
0.666804 0.538674 0.631144
0.735744 0.563348 0.659586
0.795331 0.58999 0.69015
0.234424 0.54728 0.573526
0.326802 0.564752 0.59411
0.415427 0.58378 0.616541
0.499489 0.604395 0.64065
0.58262 0.624842 0.664271
0.663294 0.645685 0.688197
0.739025 0.666758 0.712413
0.805829 0.688701 0.737819
0.862547 0.711299 0.764309
0.328374 0.669871 0.661112
0.422522 0.68751 0.6822
0.505806 0.707332 0.705592
0.58175 0.72784 0.729519
0.659525 0.746181 0.750591
0.734722 0.762997 0.769696
0.805432 0.779034 0.788022
0.866911 0.795071 0.806271
0.918822 0.811826 0.825895
0.437842 0.783841 0.753414
0.520714 0.800061 0.772381
0.590112 0.817945 0.793088
0.655543 0.834333 0.811795
0.725444 0.847639 0.826658
0.794263 0.859129 0.839261
0.859754 0.869627 0.850721
0.917372 0.880949 0.86331
0.965759 0.893385 0.877424
0 0 0
0 0 0
0.0224155 0.0109102 0.0449836
0.0634012 0.0202487 0.10486
0.121599 0.0243687 0.160906
0.18996 0.0256657 0.212131
0.26334 0.0265354 0.260044
0.334661 0.0289006 0.3037
0.400259 0.0348516 0.344427
0.032166 0.0366522 0.127916
0.063508 0.048661 0.185443
0.105913 0.0578012 0.236805
0.164569 0.0636301 0.281407
0.238285 0.0663157 0.317952
0.313054 0.0706951 0.351324
0.383444 0.078172 0.380774
0.444343 0.0910353 0.407309
0.497902 0.108339 0.435462
0.0629129 0.10164 0.301656
0.109377 0.112825 0.339361
0.166735 0.123232 0.370672
0.236866 0.132189 0.393805
0.315145 0.141451 0.412589
0.388785 0.153765 0.435142
0.46006 0.169284 0.460929
0.525216 0.188586 0.489448
0.583139 0.212192 0.520439
0.0876783 0.187243 0.40383
0.149401 0.202152 0.424598
0.218708 0.216907 0.444923
0.297215 0.231708 0.465782
0.380484 0.247105 0.488121
0.459312 0.265644 0.514046
0.535149 0.286534 0.54197
0.603479 0.310597 0.571893
0.662409 0.337591 0.602975
0.120348 0.297734 0.471794
0.194629 0.316869 0.495293
0.275547 0.335714 0.518349
0.361059 0.354498 0.541894
0.446784 0.374136 0.566613
0.528328 0.395224 0.59292
0.6056 0.417334 0.620127
0.673579 0.441108 0.648173
0.732677 0.467796 0.678813
0.172183 0.42591 0.553994
0.259266 0.445502 0.577829
0.347097 0.464744 0.601129
0.433082 0.484428 0.624994
0.517037 0.504082 0.64831
0.598413 0.524941 0.672969
0.675608 0.547265 0.698878
0.744213 0.57171 0.727199
0.803769 0.59826 0.757916
0.244022 0.555535 0.640131
0.336919 0.572717 0.660883
0.425101 0.591897 0.683589
0.508537 0.61268 0.708247
0.59147 0.633341 0.732174
0.671595 0.653971 0.75613
0.746914 0.674556 0.780194
0.813306 0.696071 0.805264
0.869566 0.717968 0.831342
0.338888 0.677684 0.728496
0.432502 0.695277 0.749538
0.514778 0.714977 0.772931
0.589578 0.735271 0.796826
0.666621 0.753048 0.817533
0.741222 0.769528 0.836591
0.811032 0.78471 0.854185
0.872358 0.80032 0.87245
0.923674 0.816495 0.891661
0.447028 0.790951 0.820356
0.52845 0.806775 0.839094
0.596536 0.82417 0.85951
0.660975 0.840085 0.87805
0.730388 0.852766 0.892546
0.798718 0.863645 0.904906
0.863951 0.873854 0.916381
0.921202 0.884596 0.928862
0.96936 0.896757 0.943023
0 0 0
0.00474556 0.00323491 0.0114137
0.0335393 0.0154726 0.0737774
0.0768749 0.0234073 0.137667
0.137636 0.0264134 0.196933
0.20737 0.0271153 0.250675
0.281025 0.0278935 0.300755
0.351675 0.0306554 0.345968
0.415549 0.0375219 0.387594
0.0369726 0.0421607 0.162448
0.0701762 0.0533303 0.223026
0.114443 0.0618296 0.276432
0.174838 0.0672465 0.322576
0.249744 0.0698863 0.360204
0.324529 0.0747234 0.394278
0.393927 0.083238 0.423468
0.454246 0.0970321 0.450309
0.508202 0.114534 0.479789
0.0666514 0.107271 0.343435
0.115007 0.118273 0.381781
0.173983 0.128786 0.412955
0.244785 0.138415 0.43534
0.323766 0.148119 0.455512
0.39791 0.160952 0.479576
0.470008 0.176928 0.506996
0.535561 0.196811 0.536965
0.59379 0.22089 0.569192
0.0938277 0.194247 0.445624
0.156527 0.209216 0.467506
0.227451 0.224506 0.489494
0.306294 0.239612 0.511376
0.389853 0.255711 0.535729
0.468925 0.274601 0.562982
0.545022 0.295644 0.591928
0.613291 0.319875 0.62269
0.672465 0.347127 0.654597
0.128145 0.306569 0.518776
0.204074 0.325582 0.543267
0.285969 0.344656 0.567605
0.371374 0.363867 0.592462
0.456672 0.383642 0.618235
0.537896 0.404501 0.644999
0.614908 0.42649 0.672419
0.682857 0.450401 0.700893
0.742168 0.477256 0.732158
0.182132 0.435111 0.604868
0.270329 0.454414 0.629252
0.358251 0.473838 0.653269
0.443122 0.493584 0.677516
0.526604 0.513115 0.701244
0.607736 0.534157 0.726345
0.684886 0.556558 0.75288
0.753567 0.581033 0.781476
0.81294 0.607233 0.8121
0.254932 0.563989 0.692485
0.348531 0.581384 0.71371
0.436454 0.60087 0.737179
0.518425 0.621683 0.761913
0.600778 0.642252 0.786221
0.680415 0.662638 0.810162
0.755322 0.682887 0.833936
0.821164 0.703685 0.858686
0.877104 0.7252 0.884535
0.351064 0.68632 0.782025
0.443931 0.703822 0.803113
0.524651 0.723491 0.82678
0.598245 0.743496 0.850614
0.674388 0.760739 0.871031
0.748272 0.776532 0.889555
0.817609 0.791119 0.90695
0.878325 0.806134 0.924758
0.929183 0.821714 0.943648
0.45684 0.798306 0.873106
0.536873 0.814008 0.892012
0.603311 0.830777 0.912093
0.667277 0.846311 0.930541
0.735836 0.858457 0.944854
0.803708 0.868772 0.956893
0.868574 0.878538 0.968307
0.925628 0.888914 0.980636
0.973739 0.900938 0.995148
