assets/cube/contrasty_afternoon.cube
TITLE "Generated by Resolve"
LUT_3D_SIZE 9
0 0 0
0 0 0
0.0255589 0 0
0.167514 0 0
0.30547 0 0
0.439979 0 0
0.570886 0 0
0.698558 0 0
0.802472 0 0
0 0 0
0 0 0
0.0466468 0 0
0.188602 0 0
0.326558 0 0
0.460746 0 0
0.591959 0 0
0.719631 0 0
0.823529 0 0
0 0.0719768 0
0 0.0675822 0
0.0673838 0.0681773 0
0.209339 0.0706645 0
0.34728 0.0742351 0
0.481483 0.0784314 0
0.612696 0.0838178 0
0.740368 0.0901503 0
0.844175 0.10277 0
0 0.214511 0
0 0.21001 0
0.0881056 0.210712 0
0.23006 0.213199 0
0.368017 0.21677 0
0.50222 0.220966 0
0.633417 0.226352 0
0.76109 0.232685 0
0.864698 0.24509 0
0 0.357046 0
0 0.352346 0
0.108843 0.353246 0
0.250797 0.355734 0
0.388586 0.359152 0
0.522942 0.3635 0
0.654154 0.368887 0
0.781781 0.375174 0
0.88542 0.387625 0
0 0.499504 0
0 0.494881 0
0.12958 0.495781 0
0.271534 0.498268 0
0.409171 0.501549 0
0.543679 0.506035 0
0.674876 0.511421 0
0.802335 0.51754 0
0.906157 0.530159 0
0 0.641886 0
0.00242618 0.637415 0
0.150317 0.638315 0
0.292256 0.640803 0
0.429892 0.644083 0
0.564401 0.648569 0
0.695613 0.653956 0
0.822995 0.659998 0
0.926879 0.672694 0
0 0.78436 0
0.0231632 0.77995 0
0.171038 0.78085 0
0.312688 0.783047 0
0.450629 0.786618 0
0.585138 0.791104 0
0.716335 0.79649 0
0.843717 0.802533 0
0.947616 0.815229 0
0 0.926726 0
0.0442969 0.922332 0
0.192157 0.923232 0
0.333776 0.925429 0
0.471717 0.929 0
0.606226 0.933501 0
0.737377 0.938842 0.000350958
0.86479 0.94493 0.00639353
0.968688 0.957626 0.0196231
0 0 0
0 0 0
0.0269169 0 0
0.168887 0 0
0.306844 0 0
0.441108 0 0
0.572244 0 0
0.699931 0 0
0.803693 0 0
0 0 0
0 0 0
0.0480201 0 0
0.189975 0 0
0.327916 0 0
0.462119 0 0
0.593317 0 0
0.721004 0 0
0.824598 0 0.00645457
0 0.0733349 0
0 0.0686503 0
0.0687572 0.0695354 0
0.210712 0.0720378 0
0.348653 0.0756085 0
0.482856 0.0798047 0.00263981
0.614054 0.0851911 0.00796521
0.741726 0.0915236 0.0142824
0.845335 0.103929 0.0271916
0 0.215869 0.0174868
0 0.211185 0.0126802
0.0894789 0.21207 0.0134585
0.231449 0.214572 0.0158236
0.36907 0.217838 0.018967
0.503578 0.222339 0.0233616
0.634775 0.227726 0.028687
0.762463 0.234058 0.0350042
0.866056 0.246464 0.0479133
0 0.358404 0.0382239
0 0.353719 0.0334173
0.110216 0.354604 0.0341955
0.252171 0.357107 0.0365606
0.389807 0.360372 0.039704
0.524315 0.364874 0.0440986
0.655512 0.37026 0.049424
0.783062 0.376471 0.0556191
0.886793 0.388998 0.0686503
0 0.500801 0.0588083
0 0.496254 0.0541543
0.130953 0.497139 0.0549172
0.272877 0.499611 0.0572518
0.410529 0.502907 0.0604257
0.545037 0.507408 0.0648356
0.676249 0.512795 0.070161
0.803616 0.518822 0.0761425
0.907515 0.531533 0.0893721
0 0.643183 0.0793774
0.00381476 0.638788 0.074876
0.15169 0.639673 0.0756542
0.293431 0.641978 0.077821
0.431266 0.645441 0.0811627
0.565774 0.649943 0.0855726
0.696895 0.655238 0.0908064
0.824353 0.661357 0.0968795
0.928252 0.674067 0.110109
0 0.785718 0.100099
0.0245518 0.781323 0.095613
0.172412 0.782208 0.0963912
0.314046 0.784405 0.098436
0.452003 0.787976 0.101884
0.586511 0.792477 0.106294
0.717449 0.79762 0.111345
0.845075 0.803891 0.117617
0.948974 0.816602 0.130846
0 0.928084 0.121187
0.0456855 0.92369 0.116701
0.19353 0.92459 0.117494
0.335149 0.926787 0.119539
0.473091 0.930358 0.123003
0.607584 0.934859 0.127413
0.738476 0.939956 0.132418
0.866148 0.946288 0.13872
0.970047 0.958999 0.151965
0 0 0.0876478
0 0 0.0830854
0.0282597 0 0.0836042
0.17023 0 0.0859693
0.308171 0 0.0894179
0.44239 0 0.0935073
0.573587 0 0.0988327
0.701274 0 0.10515
0.804959 0 0.118151
0 0 0.108721
0 0 0.104005
0.0493629 0 0.104692
0.191318 0 0.107073
0.329152 0 0.110414
0.463462 0 0.114611
0.594659 0 0.119936
0.722332 0 0.126253
0.825925 0 0.139147
0 0.0746624 0.129458
0 0.0699779 0.124651
0.0700999 0.0708782 0.125429
0.212055 0.0733654 0.12781
0.349706 0.0766613 0.130968
0.484199 0.0811475 0.135348
0.615396 0.0865339 0.140673
0.742901 0.0926986 0.146807
0.846662 0.105257 0.159899
0 0.217029 0.149996
0 0.212512 0.145388
0.090837 0.213413 0.146166
0.232792 0.2159 0.148531
0.370413 0.219181 0.151675
0.504921 0.223682 0.156069
0.636118 0.229068 0.161395
0.7635 0.235096 0.167391
0.867399 0.247807 0.180621
0 0.359442 0.170611
0 0.355047 0.166125
0.111574 0.355947 0.166903
0.253513 0.358434 0.169268
0.39115 0.361715 0.172396
0.525658 0.366217 0.176806
0.656855 0.371603 0.182132
0.784222 0.37763 0.188128
0.888121 0.390326 0.201358
0 0.501976 0.191333
0 0.497581 0.186847
0.132296 0.498482 0.187625
0.27393 0.500679 0.18967
0.411872 0.50425 0.193133
0.54638 0.508751 0.197543
0.677577 0.514138 0.202853
0.804959 0.520165 0.20885
0.908858 0.532876 0.22208
0 0.644511 0.21207
0.00517281 0.640116 0.207584
0.153033 0.641016 0.208362
0.294667 0.643214 0.210407
0.432609 0.646784 0.21387
0.567117 0.651286 0.218265
0.698146 0.656504 0.223423
0.825681 0.662699 0.229587
0.92958 0.67541 0.242817
0 0.787045 0.232807
0.0258946 0.78265 0.228321
0.173693 0.783475 0.229023
0.315404 0.785748 0.231144
0.45333 0.789319 0.234592
0.587839 0.79382 0.239002
0.718746 0.798901 0.244007
0.846418 0.805234 0.250324
0.950317 0.817945 0.263554
0 0.929412 0.25388
0.0470436 0.925032 0.249409
0.194629 0.925704 0.249943
0.336492 0.92813 0.252247
0.474434 0.931701 0.255711
0.608804 0.93608 0.259983
0.739818 0.941299 0.265126
0.867491 0.947631 0.271427
0.971389 0.960327 0.284672
0 0 0.22031
0 0 0.215503
0.0296178 0 0.216281
0.171572 0 0.218647
0.309499 0 0.22208
0.443732 0 0.226169
0.574929 0 0.23151
0.702602 0 0.237827
0.80621 0 0.250721
0 0 0.241382
0 0 0.236591
0.050721 0 0.237369
0.19266 0 0.239734
0.330297 0 0.242878
0.464805 0 0.247288
0.596002 0 0.252613
0.723598 0 0.258839
0.827268 0 0.271824
0 0.0759136 0.262028
0 0.0713207 0.257328
0.071458 0.072221 0.258106
0.213397 0.0747082 0.260471
0.351034 0.0779889 0.263615
0.485542 0.0824903 0.268025
0.616739 0.0878767 0.273335
0.744167 0.0939651 0.279408
0.848005 0.1066 0.292561
0 0.218296 0.282582
0 0.213855 0.27805
0.0921798 0.214755 0.278828
0.233982 0.217105 0.281056
0.371756 0.220523 0.284337
0.506264 0.225025 0.288746
0.637461 0.230411 0.294072
0.764843 0.236439 0.300069
0.868727 0.249134 0.313298
0 0.360784 0.303273
0 0.35639 0.298787
0.112917 0.35729 0.299565
0.254551 0.359487 0.301625
0.392493 0.363058 0.305074
0.527001 0.367559 0.309483
0.657984 0.372732 0.31458
0.785565 0.378973 0.320806
0.889464 0.391669 0.33402
0 0.503319 0.32401
0 0.498924 0.319524
0.133654 0.499825 0.320302
0.275288 0.502022 0.322347
0.413214 0.505592 0.325811
0.547723 0.510094 0.330205
0.678614 0.515175 0.33521
0.806302 0.521508 0.341527
0.910201 0.534218 0.354757
0 0.645853 0.344732
0.0065156 0.641459 0.340246
0.154376 0.642359 0.341024
0.29601 0.644556 0.343084
0.433951 0.648127 0.346532
0.56846 0.652628 0.350942
0.699351 0.65771 0.355947
0.827024 0.664042 0.362264
0.930922 0.676753 0.375494
0 0.788388 0.365469
0.0272526 0.783993 0.360983
0.174792 0.784588 0.36144
0.316747 0.787091 0.363821
0.454688 0.790661 0.367269
0.589151 0.795132 0.371649
0.720073 0.800244 0.376669
0.847761 0.806577 0.383001
0.951659 0.819287 0.396231
0 0.930739 0.386542
0.0484016 0.926375 0.382086
0.195895 0.92697 0.382544
0.33785 0.929473 0.384924
0.475776 0.933043 0.388373
0.610071 0.937346 0.392569
0.741161 0.942641 0.397787
0.868833 0.948974 0.404105
0.972641 0.961593 0.417243
0 0 0.353017
0 0 0.348211
0.0309606 0 0.348989
0.172915 0 0.351354
0.310552 0 0.354482
0.44506 0 0.358892
0.576272 0 0.364218
0.703655 0 0.370214
0.807538 0 0.383429
0 0 0.373785
0 0 0.369299
0.0520638 0 0.370077
0.194003 0 0.372442
0.33164 0 0.375586
0.466133 0 0.379995
0.597345 0 0.385321
0.724712 0 0.391318
0.828611 0 0.404532
0 0.0770428 0.394522
0 0.0726482 0.390036
0.0728008 0.0735485 0.390814
0.214679 0.0759899 0.393118
0.352377 0.0793164 0.396323
0.486885 0.0838178 0.400732
0.618067 0.0892042 0.406058
0.745449 0.0952468 0.412055
0.849332 0.107942 0.425269
0 0.219577 0.415244
0 0.215183 0.410758
0.0935378 0.216083 0.411536
0.235157 0.21828 0.413596
0.373098 0.221851 0.417044
0.507607 0.226352 0.421454
0.638682 0.231632 0.426657
0.766171 0.237781 0.432776
0.870069 0.250477 0.446006
0 0.362112 0.435981
0 0.357717 0.431495
0.114244 0.358602 0.432258
0.255894 0.360815 0.434318
0.393835 0.364385 0.437781
0.528344 0.368887 0.442191
0.659251 0.373999 0.447211
0.786908 0.380316 0.453513
0.890791 0.393011 0.466743
0 0.504646 0.456703
0 0.500252 0.452216
0.134798 0.500969 0.452811
0.276616 0.503349 0.455055
0.414557 0.50692 0.458518
0.549065 0.511421 0.462928
0.679957 0.516518 0.467918
0.80763 0.52285 0.474235
0.911528 0.535546 0.487465
0 0.647181 0.47744
0.00787366 0.642786 0.472953
0.155413 0.643397 0.473426
0.297353 0.645884 0.475792
0.435294 0.649454 0.479255
0.569558 0.653727 0.483391
0.700694 0.659052 0.488655
0.828367 0.665385 0.494972
0.932265 0.67808 0.508202
0 0.789715 0.498161
0.0286107 0.785321 0.49369
0.176135 0.785931 0.494148
0.31809 0.788418 0.496529
0.456016 0.791989 0.499977
0.590219 0.796201 0.504067
0.721416 0.801587 0.509392
0.849088 0.807919 0.515709
0.952987 0.820615 0.528939
0 0.932067 0.519249
0.0497292 0.927687 0.514763
0.197253 0.928313 0.515251
0.339193 0.930816 0.517632
0.477119 0.934386 0.521096
0.611307 0.938582 0.52517
0.742504 0.943969 0.530495
0.870161 0.950317 0.536828
0.973754 0.962707 0.549722
0 0 0.485634
0 0 0.481056
0.0322881 0 0.481819
0.174151 0 0.484077
0.311894 0 0.487327
0.446387 0 0.491737
0.5776 0 0.497063
0.704967 0 0.503044
0.808865 0 0.516274
0 0 0.506615
0 0 0.502144
0.0534066 0 0.502922
0.195071 0 0.505013
0.332967 0 0.508431
0.467475 0 0.51284
0.598672 0 0.518166
0.72604 0 0.524163
0.829938 0 0.537392
0 0.0783703 0.527352
0 0.0739757 0.522881
0.0741436 0.074876 0.523659
0.215763 0.0770733 0.525704
0.353704 0.0806439 0.529168
0.488197 0.0851453 0.533578
0.619104 0.0902419 0.538567
0.746777 0.0965744 0.5449
0.85066 0.10927 0.558114
0 0.220905 0.548074
0 0.21651 0.543603
0.0948653 0.217411 0.544381
0.236484 0.219608 0.546441
0.374426 0.223178 0.549889
0.508934 0.22768 0.554299
0.639826 0.232776 0.559304
0.767498 0.239109 0.565621
0.871397 0.251804 0.578851
0 0.363424 0.568811
0 0.359045 0.56434
0.115511 0.359854 0.565026
0.257221 0.362142 0.567163
0.395163 0.365713 0.570626
0.529656 0.370214 0.575036
0.660563 0.375311 0.580041
0.788235 0.381643 0.586358
0.892119 0.394339 0.599588
0 0.505959 0.589548
0 0.501579 0.585061
0.136004 0.50219 0.585534
0.277958 0.504677 0.5879
0.415885 0.508247 0.591363
0.55024 0.512612 0.595605
0.681285 0.517845 0.600763
0.808957 0.524178 0.607095
0.91281 0.536843 0.620264
0 0.648493 0.610269
0.00915541 0.644053 0.605737
0.156741 0.644724 0.606271
0.29868 0.647211 0.608637
0.436622 0.650782 0.6121
0.570825 0.654994 0.616175
0.702022 0.66038 0.6215
0.829694 0.666712 0.627817
0.933379 0.67921 0.640833
0 0.791028 0.631006
0.0296941 0.786435 0.626291
0.177478 0.787259 0.626993
0.319417 0.789746 0.629358
0.457359 0.793317 0.632822
0.591546 0.797528 0.636912
0.722744 0.802915 0.642237
0.850416 0.809247 0.648554
0.954009 0.821637 0.661448
0 0.933394 0.652094
0.0507515 0.92874 0.647318
0.198581 0.929641 0.648096
0.34052 0.932128 0.650462
0.478157 0.935439 0.653635
0.612634 0.93991 0.658015
0.743832 0.945296 0.66334
0.871489 0.951644 0.669673
0.975082 0.964034 0.682567
0 0 0.618601
0 0 0.614099
0.0336156 0 0.614878
0.175387 0 0.61706
0.313207 0 0.620386
0.4477 0 0.624781
0.578836 0 0.630045
0.706279 0 0.636103
0.810178 0 0.649332
0 0 0.639673
0 0 0.635187
0.0547189 0 0.635981
0.196338 0 0.638025
0.334279 0 0.641489
0.468788 0 0.645884
0.599741 0 0.650965
0.727352 0 0.657206
0.83125 0 0.670436
0 0.0796674 0.660395
0 0.075288 0.655924
0.0753033 0.076051 0.656565
0.217075 0.0783856 0.658763
0.355016 0.0819562 0.662226
0.489509 0.0864576 0.666621
0.620417 0.0915541 0.671626
0.748074 0.0978866 0.677943
0.851972 0.110582 0.691173
0 0.222202 0.681132
0 0.217823 0.676646
0.0958572 0.218433 0.677119
0.237812 0.22092 0.679484
0.375738 0.224491 0.682948
0.510246 0.228992 0.687358
0.641138 0.234089 0.692363
0.768811 0.240421 0.69868
0.872709 0.253117 0.71191
0 0.364736 0.701854
0 0.360357 0.697383
0.116594 0.360967 0.697856
0.258534 0.363455 0.700221
0.396475 0.367025 0.703685
0.530678 0.371221 0.707759
0.661875 0.376623 0.713085
0.789548 0.382956 0.719417
0.893431 0.395651 0.732631
0 0.507271 0.722591
0 0.502892 0.71812
0.137331 0.503502 0.718578
0.279271 0.505989 0.720958
0.417212 0.50956 0.724407
0.5514 0.513756 0.728496
0.682597 0.519158 0.733822
0.810269 0.52549 0.740139
0.914046 0.538079 0.753246
0 0.649805 0.743313
0.0103914 0.645304 0.73872
0.158068 0.646036 0.739315
0.300008 0.648524 0.74168
0.437919 0.652079 0.745129
0.572137 0.656291 0.749233
0.703334 0.661692 0.754559
0.831006 0.668025 0.760876
0.9346 0.680415 0.77377
0 0.79234 0.76405
0.03093 0.787671 0.759258
0.17879 0.788571 0.760052
0.320729 0.791058 0.762417
0.458473 0.794446 0.765682
0.592859 0.798825 0.769955
0.724056 0.804227 0.77528
0.851652 0.810483 0.781521
0.955322 0.82295 0.794507
0 0.934615 0.785031
0.0520638 0.930037 0.780362
0.199908 0.930953 0.781155
0.341833 0.93344 0.78352
0.479454 0.936721 0.786664
0.613947 0.941222 0.791074
0.745129 0.946609 0.796399
0.872572 0.952712 0.802457
0.976394 0.965347 0.815625
0 0 0.751949
0 0 0.747463
0.0349126 0 0.748226
0.176547 0 0.750286
0.314488 0 0.753735
0.448997 0 0.758144
0.579889 0 0.763149
0.707561 0 0.769467
0.81146 0 0.782696
0 0 0.773022
0 0 0.768551
0.0559548 0 0.769284
0.197635 0 0.771374
0.335576 0 0.774838
0.470069 0 0.779248
0.600961 0 0.784253
0.728634 0 0.79057
0.832532 0 0.8038
0 0.0809491 0.793759
0 0.0765698 0.789273
0.076524 0.0772717 0.789837
0.218372 0.0796674 0.792111
0.356313 0.0832532 0.795575
0.4907 0.0876478 0.799878
0.621698 0.0928359 0.80499
0.749371 0.0991684 0.811307
0.853269 0.111879 0.824537
0 0.223484 0.814481
0 0.219104 0.81001
0.0971542 0.219715 0.810468
0.239094 0.222202 0.812848
0.377035 0.225788 0.816312
0.511269 0.230015 0.820417
0.64242 0.23537 0.825711
0.770092 0.241703 0.832029
0.873838 0.254246 0.84509
0 0.366018 0.835218
0 0.361471 0.830564
0.117891 0.362249 0.831205
0.259831 0.364736 0.833585
0.397772 0.368322 0.837034
0.53196 0.372519 0.841123
0.663157 0.377905 0.846448
0.790829 0.384237 0.852766
0.894423 0.396643 0.865675
0 0.508553 0.85594
0 0.503883 0.851164
0.138628 0.504784 0.851942
0.280568 0.507271 0.854307
0.418494 0.510857 0.857771
0.552682 0.515053 0.861845
0.683879 0.520439 0.86717
0.811551 0.526772 0.873487
0.91516 0.539178 0.886397
0 0.651087 0.876677
0.0115053 0.646418 0.871885
0.15935 0.647318 0.872679
0.301289 0.649805 0.875044
0.438926 0.653086 0.878187
0.573419 0.657588 0.882582
0.704616 0.662974 0.887907
0.832288 0.669306 0.894224
0.935882 0.681712 0.907134
0 0.793622 0.897398
0.0322271 0.788952 0.892622
0.180087 0.789853 0.8934
0.322026 0.79234 0.895766
0.459648 0.795621 0.898909
0.594156 0.800122 0.903319
0.725353 0.805508 0.908644
0.852872 0.811704 0.914794
0.956619 0.824247 0.927871
0 0.935821 0.918318
0.0533608 0.931334 0.91371
0.20119 0.932235 0.914504
0.343069 0.934676 0.916823
0.480735 0.938018 0.920027
0.615228 0.942504 0.924422
0.746426 0.947906 0.929747
0.873793 0.953933 0.93576
0.977691 0.966644 0.948974
0 0 0.888716
0 0 0.884215
0.0356298 0 0.884718
0.177554 0 0.887037
0.315496 0 0.890501
0.450019 0 0.894896
0.580911 0 0.899901
0.708598 0 0.906218
0.812497 0 0.919448
0 0 0.909789
0 0 0.905318
0.0566873 0 0.905776
0.198642 0 0.908141
0.336583 0 0.911589
0.471077 0 0.915999
0.601984 0 0.921004
0.729656 0 0.927321
0.833555 0 0.940551
0 0.0819867 0.930526
0 0.0776074 0.92604
0.0774243 0.0782025 0.926497
0.219379 0.0806897 0.928878
0.357321 0.0842603 0.932326
0.491524 0.0884718 0.936416
0.622721 0.0938582 0.941741
0.750393 0.100191 0.948058
0.854231 0.112825 0.961212
0 0.224521 0.951247
0 0.220066 0.946685
0.0981613 0.220737 0.947234
0.240116 0.223239 0.949599
0.378042 0.22681 0.953063
0.512245 0.231006 0.957137
0.643442 0.236393 0.962478
0.771115 0.242725 0.96878
0.874784 0.255192 0.981765
0 0.367056 0.971984
0 0.362432 0.967254
0.118898 0.363272 0.967971
0.260838 0.365759 0.970336
0.398642 0.369207 0.973648
0.532982 0.373541 0.977874
0.664179 0.378927 0.9832
0.791852 0.38526 0.989517
0.895445 0.397665 1
0 0.50959 0.992706
0 0.504921 0.987915
0.13962 0.505806 0.988693
0.281575 0.508293 0.991073
0.419196 0.511574 0.994202
0.553704 0.516075 0.998611
0.684901 0.521462 1
0.81239 0.527596 1
0.916182 0.5402 1
0 0.651926 1
0.0124971 0.64744 1
0.160357 0.648341 1
0.302312 0.650828 1
0.439933 0.654108 1
0.574441 0.65861 1
0.705638 0.663996 1
0.833005 0.670024 1
0.936904 0.682734 1
0 0.794369 1
0.0332189 0.789975 1
0.181079 0.790875 1
0.323033 0.793362 1
0.46067 0.796643 1
0.595163 0.801144 1
0.726375 0.806531 1
0.853742 0.812558 1
0.957641 0.825269 1
0 0.936736 1
0.0543526 0.932357 1
0.202197 0.933257 1
0.343816 0.935454 1
0.481758 0.93904 1
0.616251 0.943526 1
0.747417 0.948898 1
0.874815 0.954955 1
0.978119 0.967056 1
