assets/cube/contrasty_afternoon.cube
TITLE "Generated by Resolve"
LUT_3D_SIZE 33
0 0 0
0 0 0
0 0 0
0 0 0
0 0 0
0 0 0
0 0 0
0 0 0
0.0255589 0 0
0.0616922 0 0
0.0972 0 0
0.132433 0 0
0.167514 0 0
0.20235 0 0
0.236912 0 0
0.271412 0 0
0.30547 0 0
0.3393 0 0
0.37293 0 0
0.406348 0 0
0.439979 0 0
0.473091 0 0
0.505898 0 0
0.538491 0 0
0.570886 0 0
0.603189 0 0
0.63534 0 0
0.667109 0 0
0.698558 0 0
0.728374 0 0
0.754559 0 0
0.778973 0 0
0.802472 0 0
0 0 0
0 0 0
0 0 0
0 0 0
0 0 0
0 0 0
0 0 0
0 0 0
0.0313573 0 0
0.0671855 0 0
0.102693 0 0
0.137926 0 0
0.173007 0 0
0.208148 0 0
0.242634 0 0
0.276905 0 0
0.310948 0 0
0.344793 0 0
0.37847 0 0
0.412146 0 0
0.445457 0 0
0.478569 0 0
0.511376 0 0
0.543969 0 0
0.576471 0 0
0.608835 0 0
0.640818 0 0
0.672572 0 0
0.704036 0 0
0.733837 0 0
0.760174 0 0
0.784558 0 0
0.807935 0 0
0 0 0
0 0 0
0 0 0
0 0 0
0 0 0
0 0 0
0 0 0
0.000320439 0 0
0.0364843 0 0
0.0723125 0 0
0.10782 0 0
0.143053 0 0
0.178439 0 0
0.213275 0 0
0.247761 0 0
0.282032 0 0
0.316075 0 0
0.349935 0 0
0.383856 0 0
0.417273 0 0
0.450584 0 0
0.483696 0 0
0.516503 0 0
0.549401 0 0
0.581796 0 0
0.613962 0 0
0.645945 0 0
0.677699 0 0
0.709239 0 0
0.739269 0 0
0.765454 0 0
0.789685 0 0
0.813062 0 0
0 0 0
0 0 0
0 0 0
0 0 0
0 0 0
0 0 0
0 0 0
0.00544747 0 0
0.0416114 0 0
0.0774395 0 0
0.113207 0 0
0.148486 0 0
0.183566 0 0
0.218402 0 0
0.252888 0 0
0.28716 0 0
0.321523 0 0
0.355352 0 0
0.388983 0 0
0.4224 0 0
0.455711 0 0
0.488823 0 0
0.521935 0 0
0.554528 0 0
0.586923 0 0
0.619104 0 0
0.651072 0 0
0.682887 0 0
0.714595 0 0
0.744396 0 0
0.770581 0 0
0.794812 0 0
0.818189 0 0
0 0 0
0 0 0
0 0 0
0 0 0
0 0 0
0 0 0
0 0 0
0.0104829 0 0
0.0466468 0 0
0.0827039 0 0
0.118288 0 0
0.153521 0 0
0.188602 0 0
0.223438 0 0
0.257923 0 0
0.29247 0 0
0.326558 0 0
0.360388 0 0
0.394018 0 0
0.427436 0 0
0.460746 0 0
0.494163 0 0
0.52697 0 0
0.559564 0 0
0.591959 0 0
0.62414 0 0
0.656413 0 0
0.688167 0 0
0.719631 0 0
0.749432 0 0
0.775616 0 0
0.799878 0 0
0.823529 0 0
0 0 0
0 0 0
0 0 0
0 0 0
0 0 0
0 0 0
0 0 0
0.0155032 0 0
0.0520027 0 0
0.0878157 0 0
0.123339 0 0
0.158556 0 0
0.193637 0 0
0.228672 0 0
0.263279 0 0
0.297536 0 0
0.331594 0 0
0.365423 0 0
0.399054 0 0
0.432731 0 0
0.466102 0 0
0.499214 0 0
0.532021 0 0
0.564614 0 0
0.596994 0 0
0.62948 0 0
0.661448 0 0
0.693217 0 0
0.724681 0 0
0.754482 0 0
0.780667 0 0
0.805203 0 0
0.82858 0 0
0 0.000640879 0
0 0 0
0 0 0
0 0 0
0 0 0
0 0 0
0 0 0
0.0209659 0 0
0.0571298 0 0
0.0929427 0 0
0.128466 0 0
0.163684 0 0
0.198947 0 0
0.233921 0.000274662 0
0.268406 0.00106813 0
0.302663 0.00192264 0
0.336721 0.00283818 0
0.37055 0.00381476 0
0.40441 0.005066 0
0.437919 0.00622568 0
0.471229 0.00733959 0
0.504341 0.00849927 0
0.537148 0.00975052 0
0.569741 0.0110628 0
0.602426 0.012726 0
0.634607 0.0141451 0
0.66659 0.01561 0
0.698344 0.0171511 0
0.729809 0.0187533 0
0.759884 0.021088 0
0.786099 0.0241398 0
0.81033 0.0276799 0
0.833707 0.0314488 0
0 0.0364233 0
0 0.0339971 0
0 0.0326696 0
0 0.0320439 0
0 0.0317388 0
0 0.0317388 0
0 0.0320439 0
0.0260929 0.0322881 0
0.0622568 0.0326238 0
0.0980697 0.0330663 0
0.133593 0.0335851 0
0.169131 0.0344701 0
0.204211 0.035111 0
0.239048 0.0358282 0
0.273533 0.0366217 0
0.30779 0.0374762 0
0.341985 0.038529 0
0.375982 0.0396582 0
0.409613 0.0406958 0
0.443046 0.0417792 0
0.476356 0.0428779 0
0.509468 0.0440528 0
0.542458 0.0455024 0
0.575174 0.0469062 0
0.607553 0.0482795 0
0.639735 0.0496834 0
0.671717 0.0511635 0
0.703471 0.0526894 0
0.73518 0.054551 0
0.765042 0.0566567 0
0.791226 0.0596933 0
0.815457 0.0632334 0
0.838834 0.0670024 0
0 0.0719768 0
0 0.0695354 0
0 0.0682231 0
0 0.0675975 0
0 0.0675822 0
0 0.0674907 0
0 0.0675975 0
0.03122 0.0678264 0
0.0673838 0.0681773 0
0.103258 0.0686656 0
0.139025 0.0694285 0
0.174258 0.0700236 0
0.209339 0.0706645 0
0.244175 0.0713664 0
0.27866 0.0721599 0
0.313039 0.0731365 0
0.34728 0.0742351 0
0.381125 0.0752117 0
0.41474 0.0762341 0
0.448173 0.0773175 0
0.481483 0.0784314 0
0.514763 0.0797742 0
0.547707 0.0811627 0
0.580301 0.0824598 0
0.612696 0.0838178 0
0.644862 0.0852369 0
0.676844 0.086717 0
0.708904 0.0885481 0
0.740368 0.0901503 0
0.770169 0.0922103 0
0.796353 0.0952316 0
0.820584 0.0987716 0
0.844175 0.10277 0
0 0.10753 0
0 0.105089 0
0 0.103761 0
0 0.103441 0
0 0.10312 0
0 0.103044 0
0 0.103151 0
0.036347 0.10338 0
0.0725414 0.103761 0
0.108644 0.104463 0
0.144152 0.104982 0
0.179385 0.105577 0
0.214466 0.106218 0
0.249302 0.10692 0
0.284092 0.108019 0
0.318364 0.108873 0
0.352407 0.109789 0
0.386252 0.110765 0
0.419883 0.111788 0
0.453376 0.112963 0
0.486915 0.11429 0
0.520027 0.11545 0
0.552834 0.116701 0
0.585428 0.118013 0
0.617823 0.119371 0
0.650141 0.120928 0
0.682277 0.12256 0
0.714031 0.124102 0
0.745495 0.125704 0
0.775296 0.127764 0
0.80148 0.130785 0
0.82591 0.134524 0
0.849393 0.138399 0
0 0.143084 0
0 0.140887 0
0 0.139605 0
0 0.138994 0
0 0.138674 0
0 0.138598 0
0.00489815 0.138689 0
0.0417945 0.139223 0
0.0779583 0.139574 0
0.113771 0.140002 0
0.149279 0.140536 0
0.184512 0.141131 0
0.219593 0.141772 0
0.254734 0.142763 0
0.289219 0.143557 0
0.323491 0.144427 0
0.357534 0.145342 0
0.391379 0.146304 0
0.425055 0.147387 0
0.458732 0.14873 0
0.492042 0.149828 0
0.525154 0.151003 0
0.557961 0.152255 0
0.590555 0.153552 0
0.623056 0.155032 0
0.655436 0.156649 0
0.687404 0.158114 0
0.719173 0.15964 0
0.750622 0.161257 0
0.780423 0.163302 0
0.806912 0.166644 0
0.831144 0.170184 0
0.85452 0.173953 0
0 0.178836 0
0 0.176471 0
0 0.175158 0
0 0.174533 0
0 0.174228 0
0 0.174136 0
0.0103304 0.174517 0
0.0469215 0.174777 0
0.0830854 0.175128 0
0.118898 0.175555 0
0.154406 0.176074 0
0.189639 0.176669 0
0.22504 0.177615 0
0.259861 0.178317 0
0.294347 0.17911 0
0.328618 0.179965 0
0.362676 0.18088 0
0.396811 0.182162 0
0.430442 0.183185 0
0.463859 0.184268 0
0.497169 0.185382 0
0.530282 0.186557 0
0.563119 0.187823 0
0.595987 0.18941 0
0.628382 0.190768 0
0.660563 0.192187 0
0.692531 0.193668 0
0.7243 0.195193 0
0.755825 0.196887 0
0.785855 0.199161 0
0.812039 0.202182 0
0.836271 0.205722 0
0.859648 0.209506 0
0 0.214511 0
0 0.21207 0
0 0.210758 0
0 0.210132 0
0 0.21001 0
0 0.210025 0
0.0153658 0.210132 0
0.0519417 0.210361 0
0.0881056 0.210712 0
0.123934 0.211154 0
0.159701 0.211917 0
0.19498 0.212558 0
0.23006 0.213199 0
0.264897 0.213901 0
0.299382 0.214694 0
0.333654 0.215564 0
0.368017 0.21677 0
0.401846 0.217746 0
0.435477 0.218769 0
0.468894 0.219867 0
0.50222 0.220966 0
0.535332 0.222141 0
0.568429 0.223697 0
0.601022 0.224994 0
0.633417 0.226352 0
0.665599 0.227771 0
0.697566 0.229252 0
0.729397 0.230838 0
0.76109 0.232685 0
0.79089 0.234745 0
0.817075 0.237766 0
0.841306 0.241306 0
0.864698 0.24509 0
0 0.250095 0
0 0.247669 0
0 0.246342 0
0 0.245884 0
0 0.245701 0
0 0.245609 0
0.0204013 0.245716 0
0.0569772 0.24596 0
0.0931411 0.246296 0
0.129198 0.246952 0
0.164797 0.247547 0
0.200015 0.248142 0
0.235111 0.248783 0
0.269932 0.249485 0
0.304417 0.250278 0
0.33901 0.251438 0
0.373053 0.252354 0
0.406882 0.25333 0
0.440513 0.254353 0
0.473945 0.255451 0
0.50753 0.256825 0
0.540673 0.25803 0
0.57348 0.259281 0
0.606073 0.260578 0
0.638468 0.261936 0
0.670649 0.263355 0
0.702922 0.265141 0
0.734676 0.266667 0
0.76614 0.268269 0
0.795941 0.270329 0
0.822126 0.27335 0
0.846387 0.276921 0
0.870039 0.28098 0
0 0.285649 0
0 0.283223 0
0 0.282185 0
0 0.281559 0
0 0.281254 0
0 0.281163 0
0.0255283 0.28127 0
0.0622568 0.281651 0
0.0985885 0.282139 0
0.134417 0.282582 0
0.169924 0.283101 0
0.205158 0.283696 0
0.240238 0.284337 0
0.275273 0.285237 0
0.309865 0.286137 0
0.344137 0.286992 0
0.37818 0.287907 0
0.412009 0.288884 0
0.44564 0.289906 0
0.479316 0.291249 0
0.512688 0.292409 0
0.5458 0.293568 0
0.578607 0.29482 0
0.6112 0.296132 0
0.643595 0.29749 0
0.676081 0.299214 0
0.708049 0.300679 0
0.739803 0.30222 0
0.771267 0.303822 0
0.801068 0.305882 0
0.827253 0.308904 0
0.851789 0.312749 0
0.875166 0.316518 0
0 0.321263 0
0 0.319051 0
0 0.317739 0
0 0.317113 0
0 0.316808 0
0 0.316716 0
0.0307774 0.31693 0
0.0675517 0.317357 0
0.103716 0.317693 0
0.139528 0.318135 0
0.175051 0.318654 0
0.210285 0.319249 0
0.245533 0.320058 0
0.280507 0.320897 0
0.314992 0.321691 0
0.349264 0.322545 0
0.383307 0.323461 0
0.417151 0.324422 0
0.451072 0.325765 0
0.484504 0.326848 0
0.517815 0.327947 0
0.550927 0.329122 0
0.583734 0.330373 0
0.616556 0.331899 0
0.649027 0.333349 0
0.681208 0.334768 0
0.713176 0.336233 0
0.74493 0.337758 0
0.776394 0.339376 0
0.80647 0.341711 0
0.832685 0.344762 0
0.856916 0.348302 0
0.880293 0.352071 0
0 0.357046 0
0 0.354604 0
0 0.353277 0
0 0.352667 0
0 0.352346 0
0 0.35256 0
0.0361028 0.352667 0
0.0726787 0.352895 0
0.108843 0.353246 0
0.144656 0.353674 0
0.18027 0.354284 0
0.215717 0.355093 0
0.250797 0.355734 0
0.285634 0.356435 0
0.320119 0.357229 0
0.354391 0.358099 0
0.388586 0.359152 0
0.422583 0.360281 0
0.456214 0.361303 0
0.489632 0.362387 0
0.522942 0.3635 0
0.556054 0.364675 0
0.589059 0.366125 0
0.621759 0.367529 0
0.654154 0.368887 0
0.686336 0.370306 0
0.718303 0.371786 0
0.750072 0.373312 0
0.781781 0.375174 0
0.811627 0.377279 0
0.837812 0.380301 0
0.862043 0.383841 0
0.88542 0.387625 0
0 0.392599 0
0 0.390158 0
0 0.38883 0
0 0.38822 0
0 0.38819 0
0.00419623 0.388113 0
0.0412299 0.38822 0
0.0778058 0.388449 0
0.11397 0.3888 0
0.149859 0.389288 0
0.185626 0.390051 0
0.220844 0.390646 0
0.255924 0.391287 0
0.290761 0.391989 0
0.325246 0.392782 0
0.35964 0.393759 0
0.393881 0.394858 0
0.42771 0.395834 0
0.461341 0.396857 0
0.494759 0.39794 0
0.528069 0.399054 0
0.561486 0.400519 0
0.594293 0.40177 0
0.626886 0.403082 0
0.659281 0.40444 0
0.691463 0.405859 0
0.723598 0.407492 0
0.755489 0.409171 0
0.786954 0.410773 0
0.816754 0.412833 0
0.842939 0.415854 0
0.86717 0.419394 0
0.890776 0.423392 0
0 0.428138 0
0 0.425711 0
0 0.424384 0
0 0.424048 0
0 0.423743 0
0.009308 0.423667 0
0.0463569 0.423758 0
0.0829328 0.424002 0
0.119417 0.424643 0
0.15523 0.425071 0
0.190753 0.425605 0
0.225971 0.4262 0
0.261051 0.426825 0
0.295918 0.427573 0
0.330678 0.428626 0
0.36495 0.429496 0
0.399008 0.430411 0
0.432837 0.431373 0
0.466468 0.43241 0
0.499977 0.433585 0
0.533501 0.434897 0
0.566613 0.436072 0
0.59942 0.437324 0
0.632013 0.438621 0
0.664408 0.439994 0
0.696727 0.44155 0
0.728862 0.443183 0
0.760632 0.444709 0
0.792081 0.446326 0
0.821881 0.448371 0
0.848066 0.451408 0
0.872496 0.455146 0
0.895979 0.459022 0
0 0.463691 0
0 0.461509 0
0 0.460227 0
0 0.459602 0
0 0.459297 0
0.014435 0.459205 0
0.0514839 0.459312 0
0.0883803 0.459846 0
0.124544 0.460197 0
0.160357 0.460624 0
0.19588 0.461143 0
0.231098 0.461753 0
0.266194 0.462394 0
0.30132 0.463386 0
0.335805 0.464179 0
0.370077 0.465034 0
0.404135 0.46595 0
0.437964 0.466926 0
0.471656 0.468025 0
0.505318 0.469337 0
0.538643 0.470451 0
0.57174 0.471626 0
0.604547 0.472877 0
0.63714 0.474174 0
0.669841 0.475837 0
0.702022 0.477256 0
0.733989 0.478737 0
0.765759 0.480262 0
0.797223 0.48188 0
0.827131 0.484047 0
0.853498 0.487251 0
0.877729 0.490791 0
0.901106 0.494575 0
0 0.499504 0
0 0.497139 0
0 0.495811 0
0 0.495201 0
0 0.494881 0
0.0194553 0.494804 0
0.0568399 0.495201 0
0.0934005 0.49543 0
0.12958 0.495781 0
0.165393 0.496208 0
0.2009 0.496742 0
0.236439 0.497612 0
0.271534 0.498268 0
0.306355 0.49897 0
0.340856 0.499779 0
0.375113 0.500633 0
0.409171 0.501549 0
0.443305 0.502815 0
0.476936 0.503838 0
0.510353 0.504936 0
0.543679 0.506035 0
0.576791 0.50721 0
0.609628 0.508492 0
0.642481 0.510063 0
0.674876 0.511421 0
0.707057 0.51284 0
0.739025 0.514321 0
0.770794 0.515846 0
0.802335 0.51754 0
0.832349 0.519814 0
0.858534 0.522835 0
0.88278 0.526375 0
0.906157 0.530159 0
0 0.535164 0
0 0.532738 0
0 0.531411 0
0 0.530785 0
0 0.530678 0
0.0248264 0.530678 0
0.0618753 0.530785 0
0.098436 0.531029 0
0.134615 0.531365 0
0.170428 0.531807 0
0.20621 0.532586 0
0.241489 0.533227 0
0.27657 0.533852 0
0.311391 0.534554 0
0.345892 0.535363 0
0.380148 0.536217 0
0.414511 0.537423 0
0.448341 0.538399 0
0.481971 0.539422 0
0.515404 0.54052 0
0.548714 0.541619 0
0.581842 0.542794 0
0.614939 0.54435 0
0.647532 0.545647 0
0.679927 0.547005 0
0.712108 0.548424 0
0.744076 0.549905 0
0.776135 0.551736 0
0.807599 0.553353 0
0.8374 0.555398 0
0.863584 0.558419 0
0.887816 0.561959 0
0.911254 0.565805 0
0 0.570718 0
0 0.568292 0
0 0.566964 0
0 0.566506 0
0 0.566323 0
0.0299535 0.566232 0
0.0669871 0.566339 0
0.103563 0.566567 0
0.139742 0.566918 0
0.175875 0.567651 0
0.211383 0.56817 0
0.246616 0.568765 0
0.281697 0.569406 0
0.316518 0.570108 0
0.351247 0.57113 0
0.385595 0.572061 0
0.419638 0.572976 0
0.453483 0.573953 0
0.487098 0.574975 0
0.520531 0.576059 0
0.554131 0.577462 0
0.587259 0.578637 0
0.620066 0.579889 0
0.652659 0.581201 0
0.685054 0.582559 0
0.717235 0.583978 0
0.749508 0.585748 0
0.781262 0.587289 0
0.812726 0.588891 0
0.842527 0.590951 0
0.868711 0.593973 0
0.892973 0.597543 0
0.916625 0.601602 0
0 0.606271 0
0 0.603937 0
0 0.602792 0
0 0.602182 0
0 0.601877 0
0.0350652 0.601785 0
0.0721141 0.601892 0
0.108858 0.602274 0
0.14519 0.602762 0
0.181003 0.603204 0
0.21651 0.603723 0
0.251743 0.604318 0
0.286824 0.604959 0
0.321859 0.605859 0
0.356451 0.60676 0
0.390723 0.607614 0
0.424765 0.60853 0
0.45861 0.609491 0
0.492241 0.610529 0
0.525917 0.611872 0
0.559274 0.613016 0
0.592386 0.614191 0
0.625193 0.615442 0
0.657786 0.616754 0
0.690181 0.618112 0
0.722667 0.619837 0
0.754635 0.621302 0
0.786404 0.622827 0
0.817853 0.624445 0
0.847654 0.62649 0
0.874144 0.629831 0
0.898375 0.633371 0
0.921752 0.63714 0
0 0.641886 0
0 0.639673 0
0 0.638346 0
0 0.637736 0
0.00242618 0.637415 0
0.0401923 0.637339 0
0.0773785 0.637552 0
0.114137 0.637964 0
0.150317 0.638315 0
0.18613 0.638743 0
0.221637 0.639277 0
0.25687 0.639872 0
0.292256 0.640803 0
0.327092 0.641505 0
0.361578 0.642313 0
0.39585 0.643168 0
0.429892 0.644083 0
0.463905 0.645212 0
0.497673 0.646372 0
0.53109 0.647471 0
0.564401 0.648569 0
0.597513 0.649744 0
0.63032 0.650996 0
0.663142 0.652522 0
0.695613 0.653956 0
0.727794 0.655375 0
0.759762 0.656855 0
0.791531 0.658381 0
0.822995 0.659998 0
0.853071 0.662333 0
0.879271 0.66537 0
0.903502 0.668925 0
0.926879 0.672694 0
0 0.677653 0
0 0.675227 0
0 0.673899 0
0 0.673289 0
0.00759899 0.673014 0
0.045655 0.673182 0
0.0827039 0.673274 0
0.119265 0.673518 0
0.155444 0.673869 0
0.191257 0.674296 0
0.226871 0.674907 0
0.262318 0.675715 0
0.297383 0.676356 0
0.332219 0.677058 0
0.366705 0.677852 0
0.400977 0.678706 0
0.435172 0.679774 0
0.469169 0.680903 0
0.5028 0.681926 0
0.536217 0.683009 0
0.569543 0.684123 0
0.60264 0.685298 0
0.63566 0.686748 0
0.668345 0.688151 0
0.70074 0.689509 0
0.732921 0.690929 0
0.764889 0.692393 0
0.796658 0.693935 0
0.828412 0.695842 0
0.858213 0.697902 0
0.884398 0.700923 0
0.908644 0.704463 0
0.932021 0.708247 0
0 0.713207 0
0 0.710781 0
0 0.709453 0
0 0.708843 0
0.0130159 0.708812 0
0.050782 0.708721 0
0.0878309 0.708827 0
0.124392 0.709072 0
0.160555 0.709407 0
0.19646 0.709911 0
0.232212 0.710674 0
0.267445 0.711269 0
0.302525 0.711894 0
0.337346 0.712612 0
0.371847 0.713405 0
0.406409 0.714565 0
0.440467 0.71548 0
0.474296 0.716442 0
0.507927 0.717479 0
0.541344 0.718563 0
0.574792 0.719783 0
0.608072 0.721141 0
0.640879 0.722393 0
0.673472 0.72369 0
0.705867 0.725063 0
0.738048 0.726482 0
0.770199 0.72813 0
0.80209 0.729778 0
0.833539 0.731395 0
0.86334 0.73344 0
0.889525 0.736477 0
0.913771 0.740017 0
0.937362 0.744015 0
0 0.74876 0
0 0.746334 0
0 0.745281 0
0 0.744671 0
0.018143 0.744366 0
0.0559091 0.744274 0
0.0929427 0.744381 0
0.129519 0.744625 0
0.166018 0.745266 0
