assets/cube/contrast_highlights.cube
TITLE "Generated by Resolve"
LUT_3D_SIZE 9
0 0 0
0 0 0
0 0 0
0 0 0
0 0 0
0 0 0
0.0949569 0.0162966 0.0162966
0.230564 0.0286107 0.0286107
0.388312 0.0338598 0.0338598
0 0 0
0 0 0
0.012726 0.00663767 0.000701915
0.0925612 0.0374456 0.00975052
0.196857 0.0594949 0.012665
0.31281 0.0770581 0.0160372
0.426139 0.0942092 0.0248417
0.554376 0.106966 0.0284581
0.696406 0.115679 0.0277867
0.00549325 0.0833448 0.00549325
0.0559854 0.122713 0
0.148974 0.148974 0
0.264378 0.167254 0
0.387289 0.181781 0
0.504341 0.196414 0
0.605676 0.214069 0.00277714
0.69485 0.234516 0.0347448
0.801785 0.251057 0.0509346
0 0.274495 0
0.0589761 0.300481 0
0.18761 0.314611 0
0.324117 0.324117 0
0.452949 0.332952 0
0.566171 0.345159 0
0.662425 0.361486 0.0393988
0.747646 0.381033 0.0853437
0.853758 0.397223 0.101427
0 0.444816 0
0.0856184 0.459754 0
0.222019 0.468879 0
0.356649 0.476905 0
0.485267 0.485267 0.00358587
0.602808 0.495674 0.0427253
0.706188 0.509255 0.0908064
0.799512 0.525887 0.136614
0.905211 0.541695 0.152361
0.0462654 0.580026 0.0462654
0.152651 0.598703 0.0372168
0.275624 0.611582 0.0355077
0.400824 0.622293 0.0472572
0.524086 0.631266 0.0709087
0.635431 0.635431 0.101015
0.730877 0.63621 0.136248
0.817151 0.635508 0.153994
0.921477 0.649927 0.168322
0.134234 0.706661 0.134234
0.233356 0.726955 0.130205
0.334417 0.736004 0.117754
0.435355 0.736812 0.112718
0.534783 0.731853 0.116075
0.628992 0.72369 0.128939
0.715511 0.715511 0.142718
0.799832 0.709346 0.136507
0.903777 0.723369 0.150439
0.14081 0.803891 0.14081
0.254108 0.818296 0.155108
0.349523 0.812039 0.148806
0.437781 0.804944 0.141649
0.524407 0.798215 0.13489
0.611093 0.792798 0.129412
0.699184 0.789685 0.126238
0.789899 0.789899 0.126375
0.894286 0.804349 0.140688
0.192813 0.946197 0.192813
0.305211 0.959701 0.206149
0.39852 0.951278 0.19765
0.485847 0.943206 0.189532
0.572061 0.936019 0.182254
0.658717 0.930526 0.176684
0.747143 0.927687 0.173739
0.838483 0.928481 0.174395
0.942901 0.942901 0.188556
0 0 0
0 0 0
0 0 0
0 0 0
0 0 0
0.0218814 0.00196841 0.00605783
0.135668 0.020264 0.0402075
0.270802 0.0307927 0.0666209
0.428992 0.0341955 0.0860914
0 0 0
0 0 0
0.0331273 0.0180819 0.0180819
0.119646 0.0441749 0.0441749
0.231052 0.0621958 0.0621958
0.353155 0.076585 0.076585
0.471656 0.0914015 0.0914015
0.576715 0.109468 0.109468
0.715862 0.117998 0.117998
0.000839246 0.0984207 0.0489662
0.0543221 0.134585 0.0543221
0.156451 0.156451 0.051133
0.282246 0.170428 0.0511788
0.413748 0.18175 0.0567178
0.537697 0.194217 0.0698253
0.644511 0.21059 0.0919509
0.720638 0.23447 0.12755
0.806912 0.256001 0.154559
0 0.286427 0.0629129
0.045594 0.31078 0.045594
0.181216 0.322515 0.030518
0.328649 0.328649 0.033463
0.467567 0.335149 0.0556191
0.58967 0.345586 0.0861982
0.693812 0.36054 0.12311
0.779812 0.380148 0.165576
0.85861 0.402029 0.205127
0 0.45391 0.0802014
0.0710613 0.469627 0.0710613
0.210147 0.478584 0.0654765
0.352483 0.485145 0.0724346
0.49131 0.49131 0.0920272
0.619058 0.499504 0.122499
0.731807 0.511162 0.161532
0.827955 0.526909 0.207507
0.909972 0.546426 0.256046
0.0302129 0.591562 0.145617
0.134218 0.611139 0.134218
0.258579 0.624186 0.126177
0.389471 0.633997 0.129625
0.52166 0.64126 0.144472
0.643366 0.643366 0.166064
0.749142 0.642069 0.192859
0.836942 0.639658 0.224216
0.926467 0.654902 0.272297
0.121431 0.71812 0.224582
0.211215 0.742092 0.211215
0.313069 0.751659 0.193149
0.418296 0.752102 0.180499
0.525124 0.745892 0.175265
0.628763 0.735866 0.179461
0.724834 0.724834 0.193713
0.810254 0.715267 0.217838
0.908812 0.728389 0.254459
0.145434 0.80856 0.244434
0.259113 0.823331 0.259113
0.336782 0.824918 0.229435
0.420584 0.820829 0.205722
0.512047 0.813291 0.192432
0.607385 0.80473 0.191806
0.702678 0.797681 0.205158
0.794797 0.794797 0.230289
0.899077 0.80914 0.244495
0.197345 0.95079 0.296407
0.309728 0.964263 0.309728
0.403159 0.955962 0.301366
0.490486 0.94789 0.293233
0.576669 0.940673 0.285939
0.663325 0.935149 0.280354
0.751705 0.93228 0.277378
0.843015 0.933013 0.277989
0.947326 0.947326 0.292088
0 0 0
0 0 0
0 0 0
0 0 0
0 0 0
0.0580758 0.00822461 0.0290074
0.177188 0.0225071 0.0767071
0.309636 0.0321355 0.116121
0.467552 0.0339666 0.149523
0 0 0
0 0 0
0.0518959 0.0278477 0.0518959
0.144289 0.049485 0.0984054
0.261463 0.0637827 0.133013
0.388495 0.075349 0.158618
0.511101 0.0882429 0.179034
0.617823 0.105592 0.197925
0.733196 0.120165 0.215488
0 0.110857 0.110857
0.0542 0.143328 0.143328
0.161364 0.161364 0.161364
0.296712 0.171344 0.171344
0.435431 0.180087 0.180087
0.565164 0.190951 0.190951
0.674205 0.207172 0.207172
0.754772 0.230869 0.230869
0.81677 0.259388 0.259388
0 0.293843 0.181079
0.0372778 0.316732 0.181491
0.1738 0.327352 0.1738
0.3308 0.3308 0.17435
0.479744 0.335164 0.187472
0.61001 0.344182 0.207462
0.721248 0.358114 0.232914
0.813901 0.376898 0.263371
0.888365 0.400458 0.298634
0 0.458473 0.211978
0.0624552 0.475364 0.20705
0.199222 0.485191 0.199222
0.346273 0.491081 0.198337
0.495109 0.495109 0.208911
0.633204 0.501106 0.230381
0.755001 0.510994 0.259754
0.858732 0.524926 0.294789
0.944884 0.543709 0.335485
0.0228428 0.598688 0.262867
0.121599 0.619532 0.253986
0.243503 0.633494 0.243503
0.376944 0.643198 0.240024
0.515694 0.647868 0.244862
0.646006 0.646006 0.255818
0.760784 0.641077 0.272358
0.857053 0.63566 0.293416
0.952102 0.649424 0.336385
0.10753 0.725658 0.324163
0.192584 0.751049 0.31249
0.290501 0.760159 0.290501
0.39585 0.759518 0.270466
0.507408 0.751537 0.256001
0.61941 0.739162 0.250629
0.725643 0.725643 0.255818
0.821546 0.713909 0.271275
0.923674 0.724971 0.315099
0.143206 0.806348 0.343908
0.234348 0.829816 0.341695
0.307332 0.833097 0.307332
0.391699 0.829282 0.278019
0.487511 0.82153 0.257221
0.590738 0.812192 0.248371
0.696406 0.804059 0.253697
0.799908 0.799908 0.273915
0.906462 0.81059 0.317266
0.194491 0.947951 0.3953
0.306981 0.961532 0.408759
0.395727 0.954864 0.395727
0.465599 0.95436 0.363592
0.548531 0.95021 0.340047
0.641443 0.944411 0.328099
0.740429 0.9393 0.33019
0.841413 0.937346 0.347753
0.948211 0.948211 0.388479
0 0 0
0 0 0
0 0 0
0 0 0
0 0 0
0.0937667 0.0129854 0.0626535
0.216327 0.0242618 0.123552
0.347143 0.0330053 0.173251
0.504265 0.0336461 0.218677
0 0 0
0.00738537 0.00738537 0.0197604
0.0682689 0.0368048 0.0977646
0.164385 0.0548257 0.164385
0.285496 0.0660716 0.214969
0.415885 0.0754101 0.250828
0.541299 0.0868391 0.275898
0.65037 0.10341 0.294469
0.749157 0.12285 0.311574
0 0.121492 0.179507
0.058381 0.150301 0.2365
0.165652 0.165652 0.279042
0.303944 0.173114 0.303944
0.448554 0.179706 0.315557
0.583017 0.18941 0.323079
0.692943 0.206134 0.330938
0.778881 0.229358 0.342672
0.846387 0.257389 0.359091
0 0.298253 0.298253
0.0397498 0.319249 0.319249
0.173205 0.328939 0.328939
0.331655 0.331655 0.331655
0.488365 0.334661 0.334661
0.624796 0.342962 0.342962
0.741848 0.356329 0.356329
0.840177 0.374609 0.374609
0.920226 0.397696 0.397696
0 0.459815 0.339757
0.0651408 0.477531 0.344976
0.195804 0.488457 0.343694
0.34107 0.494987 0.34107
0.497536 0.497536 0.343557
0.644907 0.501595 0.356313
0.774258 0.510201 0.375708
0.883345 0.522011 0.398779
0.975525 0.539834 0.427985
0.0274357 0.602182 0.380819
0.119844 0.624063 0.379614
0.236133 0.639277 0.373053
0.367498 0.649744 0.367498
0.508492 0.651865 0.363165
0.64622 0.64622 0.363912
0.769177 0.637797 0.370611
0.87277 0.629725 0.381582
0.975158 0.6421 0.414633
0.104616 0.728557 0.427176
0.183703 0.75523 0.421469
0.275029 0.76405 0.400397
0.376898 0.762936 0.376898
0.489784 0.753979 0.355215
0.608347 0.739742 0.341115
0.72401 0.72401 0.337881
0.829801 0.710414 0.345357
0.94078 0.719661 0.380468
0.141085 0.804242 0.437156
0.217395 0.832441 0.432242
0.285389 0.836637 0.399069
0.367514 0.833661 0.367514
0.464851 0.826413 0.341543
0.573907 0.817029 0.325673
0.688914 0.808331 0.323766
0.80354 0.80354 0.337194
0.919875 0.812222 0.372488
0.192065 0.945541 0.488304
0.30454 0.959121 0.501778
0.369924 0.960647 0.471931
0.437613 0.961044 0.437613
0.521462 0.957671 0.409476
0.618921 0.9523 0.391211
0.725872 0.947188 0.386374
0.837263 0.944991 0.397238
0.953857 0.953857 0.429892
0 0 0
0 0 0
0 0 0
0 0 0
0.0204471 0.00202945 0.0204471
0.12726 0.0171206 0.106188
0.251087 0.0262913 0.179141
0.383047 0.0334173 0.238727
0.538888 0.0331731 0.294697
0 0 0
0.0193484 0.0193484 0.0565652
0.0826276 0.0453193 0.151873
0.180072 0.0607309 0.236606
0.302495 0.06981 0.302495
0.434485 0.0774701 0.348531
0.561456 0.0878309 0.37821
0.672068 0.103868 0.396368
0.763409 0.125887 0.408988
0.00340276 0.130877 0.250736
0.0648051 0.156771 0.327413
0.17052 0.17052 0.388815
0.305226 0.177218 0.430533
0.45153 0.182254 0.45153
0.589807 0.190753 0.45893
0.70135 0.207767 0.458183
0.792935 0.230259 0.459876
0.866041 0.257649 0.465537
0 0.300832 0.408621
0.0505837 0.320165 0.447868
0.181613 0.328923 0.473121
0.332708 0.332708 0.486305
0.489387 0.335637 0.489387
0.631449 0.343145 0.488273
0.754162 0.355917 0.490318
0.857984 0.373709 0.496849
0.943542 0.396292 0.508095
0 0.459022 0.459022
0.0782483 0.477165 0.477165
0.202564 0.488624 0.488624
0.341924 0.495872 0.495872
0.49836 0.49836 0.49836
0.653254 0.501152 0.501152
0.788586 0.509087 0.509087
0.901442 0.518425 0.518425
0.998932 0.535592 0.535592
0.0427405 0.602777 0.495659
0.128756 0.625376 0.505806
0.238529 0.641459 0.509316
0.363729 0.652399 0.509041
0.500908 0.653071 0.500908
0.644297 0.644297 0.492119
0.774929 0.6327 0.489052
0.884932 0.622461 0.489387
0.993637 0.63389 0.511864
0.111925 0.72752 0.530526
0.184695 0.755215 0.534478
0.268238 0.763729 0.519615
0.363836 0.762585 0.498405
0.47396 0.753582 0.47396
0.59617 0.738415 0.452491
0.72076 0.72076 0.441093
0.83624 0.705516 0.440711
0.955383 0.713207 0.467094
0.138979 0.802152 0.528405
0.210391 0.831159 0.529961
0.272099 0.836347 0.502358
0.349752 0.834592 0.473045
0.445411 0.828656 0.445411
0.557473 0.820035 0.424353
0.680537 0.811276 0.415656
0.806043 0.806043 0.42266
0.931914 0.812833 0.450095
0.189746 0.943252 0.579416
0.302205 0.956802 0.592874
0.352636 0.962707 0.56109
0.416236 0.964401 0.528222
0.498527 0.962417 0.498527
0.598047 0.95816 0.475898
0.711238 0.953628 0.464897
0.832364 0.951537 0.469368
0.958495 0.958495 0.494148
0 0 0
0 0 0
0 0 0
0 0 0
0.0493629 0.00885023 0.0589456
0.156878 0.0214542 0.156878
0.280079 0.0293889 0.240162
0.417197 0.0334936 0.312093
0.571389 0.032639 0.377142
0 0 0.000976577
0.0303502 0.0303502 0.100694
0.0954147 0.0536812 0.210651
0.19237 0.0674449 0.309926
0.313451 0.0753796 0.388952
0.444602 0.0821546 0.444602
0.571496 0.0919203 0.479179
0.682673 0.107668 0.497536
0.776104 0.129229 0.507561
0.0103304 0.139498 0.320226
0.0730907 0.163241 0.412192
0.17615 0.17615 0.488212
0.305364 0.183047 0.543191
0.44802 0.187961 0.574914
0.584665 0.196628 0.584665
0.699718 0.212894 0.580392
0.796674 0.234348 0.575799
0.87541 0.260822 0.573297
0 0.302724 0.506661
0.066865 0.321065 0.560281
0.193652 0.330037 0.595209
0.335576 0.335576 0.617121
0.484916 0.339834 0.628031
0.62858 0.346639 0.62858
0.756497 0.358358 0.625269
0.866026 0.375265 0.623194
0.957229 0.397147 0.624445
0.00508125 0.457298 0.564248
0.0992294 0.475868 0.5953
0.217243 0.4878 0.619837
0.350423 0.495644 0.638911
0.499321 0.499321 0.651408
0.654185 0.502068 0.654185
0.794537 0.508766 0.652369
0.910857 0.515419 0.648463
1 0.531945 0.653941
0.0673991 0.60148 0.60148
0.147433 0.624521 0.624521
0.250996 0.641077 0.641077
0.368963 0.65124 0.65124
0.498482 0.650645 0.650645
0.640269 0.640269 0.640269
0.777081 0.626276 0.626276
0.892149 0.614588 0.614588
1 0.625437 0.625437
0.128832 0.723384 0.628717
0.195499 0.751781 0.644709
0.271275 0.759731 0.640009
0.359792 0.758389 0.626993
0.463828 0.749737 0.607507
0.584085 0.73492 0.584085
0.715969 0.715969 0.565133
0.840711 0.699382 0.556924
0.967086 0.705898 0.573846
0.136858 0.800031 0.618387
0.213703 0.82652 0.629206
0.268803 0.832532 0.611109
0.340734 0.832029 0.588937
0.432105 0.827787 0.565225
0.543206 0.820859 0.543206
0.671534 0.812909 0.529046
0.807523 0.807523 0.529778
0.942702 0.812497 0.549355
0.187488 0.941009 0.669322
0.299931 0.954543 0.682795
0.345022 0.961196 0.658289
0.403311 0.964294 0.630976
0.48188 0.964096 0.604013
0.580377 0.961715 0.580377
0.697124 0.958572 0.564935
0.826734 0.957031 0.563378
0.962173 0.962173 0.580499
0 0 0
0 0 0
0 0 0
0 0 0.00103761
0.0754101 0.0153353 0.10367
0.182025 0.026566 0.211475
0.305882 0.0328679 0.305882
0.449516 0.0333104 0.392752
0.60174 0.0321202 0.465339
0.00386053 0.0084535 0.0304265
0.0408026 0.0408026 0.148959
0.106874 0.0622263 0.270161
0.20209 0.0751507 0.38027
0.319799 0.082887 0.469306
0.44773 0.0896468 0.533074
0.572534 0.0994278 0.572534
0.682933 0.11519 0.591897
0.784298 0.134005 0.605005
0.0202029 0.147723 0.384115
0.0832532 0.170062 0.487541
0.182773 0.182773 0.574639
0.305592 0.190433 0.639658
0.441794 0.196277 0.680232
0.57322 0.206165 0.692409
0.689998 0.221653 0.689998
0.791012 0.242023 0.683619
0.8748 0.267414 0.676493
0.000457771 0.304662 0.588891
0.0869459 0.322744 0.653712
0.207828 0.332723 0.695033
0.3402 0.3402 0.725261
0.480568 0.346258 0.744259
0.620325 0.353491 0.751522
0.750072 0.364416 0.750072
0.864179 0.380224 0.744915
0.960815 0.401068 0.739925
0.0377966 0.455589 0.652216
0.125521 0.474784 0.695201
0.236515 0.487587 0.731426
0.362158 0.496605 0.76054
0.502052 0.502052 0.781476
0.649714 0.506142 0.791867
0.790417 0.510887 0.790417
0.90988 0.514534 0.779232
1 0.530083 0.776074
0.0996414 0.599283 0.693889
0.173739 0.622736 0.729763
0.271138 0.639735 0.759411
0.381247 0.648371 0.779721
0.502907 0.64654 0.788739
0.635904 0.635904 0.786694
0.771634 0.620829 0.771634
0.891463 0.607752 0.750164
1 0.618006 0.750042
0.146502 0.719081 0.719081
0.214969 0.745953 0.745953
0.283467 0.753185 0.753185
0.365301 0.751385 0.751385
0.463096 0.742733 0.742733
0.577615 0.72845 0.72845
0.709697 0.709697 0.709697
0.842237 0.692485 0.692485
0.974456 0.698451 0.698451
0.134722 0.797925 0.707454
0.226871 0.819257 0.724269
0.275654 0.825895 0.718257
0.34197 0.826429 0.707042
0.428153 0.823713 0.692988
0.535042 0.818875 0.677531
0.663188 0.812985 0.663188
0.808026 0.808026 0.658198
0.952056 0.811399 0.66981
0.185275 0.938827 0.758373
0.297704 0.952346 0.771847
0.347662 0.956542 0.757748
0.400336 0.960967 0.739727
0.473976 0.962585 0.720256
0.568887 0.962463 0.70106
0.685298 0.961593 0.685298
0.820691 0.961456 0.678996
0.964965 0.964965 0.688457
0 0 0
0 0 0
0 0 0
0.0156405 0.00352483 0.0306859
0.0993362 0.0216068 0.153994
0.207813 0.0305028 0.274693
0.336934 0.0333562 0.384894
0.479973 0.0329595 0.479973
0.629953 0.0316777 0.558556
0.0113832 0.0209049 0.0751049
0.0510414 0.0510414 0.198062
0.117311 0.0713054 0.326497
0.209735 0.0840925 0.443778
0.322667 0.0923781 0.539727
0.445502 0.0999008 0.609598
0.566262 0.110323 0.65333
0.676188 0.12578 0.676188
0.790524 0.139467 0.70106
0.0282902 0.156146 0.450767
0.0954452 0.177478 0.550454
0.190555 0.190555 0.645701
0.306401 0.19942 0.718151
0.434852 0.20679 0.765621
0.559365 0.218448 0.779889
0.675044 0.233692 0.782376
0.777951 0.253239 0.777951
0.865461 0.277562 0.769802
0.0229191 0.30782 0.661051
0.111727 0.325383 0.723354
0.223789 0.337072 0.773114
0.346517 0.346517 0.81149
0.477546 0.354482 0.838407
0.610666 0.362844 0.853407
0.738384 0.373754 0.857633
0.854459 0.388739 0.854459
0.955154 0.408515 0.847639
0.067277 0.45594 0.729137
0.155535 0.474586 0.775326
0.25864 0.488609 0.822171
0.375967 0.499138 0.860288
0.506508 0.506508 0.889387
0.64535 0.512337 0.907698
0.78024 0.515572 0.910872
0.899687 0.516625 0.899687
1 0.530968 0.893355
0.119829 0.601022 0.782544
0.205722 0.620951 0.818128
0.295918 0.638041 0.859342
0.397345 0.645426 0.888411
0.509987 0.643046 0.90547
0.632868 0.632868 0.910384
0.760586 0.618173 0.901884
0.881468 0.603906 0.881468
1 0.613138 0.876112
0.1467 0.71931 0.80975
0.241459 0.73875 0.833707
0.302831 0.745357 0.852964
0.378195 0.743191 0.862562
0.469856 0.73463 0.865324
0.57847 0.720897 0.862211
0.703655 0.703655 0.853391
0.836881 0.687129 0.836881
0.974548 0.692454 0.833967
0.132631 0.795834 0.795834
0.246555 0.810864 0.810864
0.29163 0.817456 0.817456
0.352697 0.818906 0.818906
0.43418 0.817472 0.817472
0.536675 0.814343 0.814343
0.660883 0.810697 0.810697
0.807645 0.807645 0.807645
0.958968 0.809995 0.809995
0.183139 0.936721 0.846784
0.295552 0.95021 0.860258
0.36022 0.949493 0.85362
0.407568 0.955077 0.847395
0.476341 0.958297 0.83917
0.566781 0.960296 0.830045
0.679652 0.962051 0.821317
0.815457 0.964553 0.815457
0.966873 0.966873 0.817716
0 0 0
0 0 0
0 0 0
0.0383307 0.0110018 0.0805066
0.12546 0.0255589 0.218723
0.23653 0.0320439 0.351827
0.366445 0.0334936 0.471275
0.508522 0.032517 0.573037
0.656062 0.0313878 0.656062
0.0173342 0.0322271 0.130632
0.0595712 0.0595712 0.267674
0.128115 0.0789349 0.395193
0.217731 0.0928664 0.507271
0.324239 0.103105 0.601099
0.441886 0.111498 0.676402
0.564858 0.119722 0.734325
0.687678 0.129305 0.776623
0.796551 0.145037 0.796551
0.0275883 0.16466 0.541878
0.103197 0.184741 0.627527
0.199664 0.199664 0.699321
0.308034 0.210101 0.777234
0.427131 0.22002 0.826139
0.544915 0.232975 0.846525
0.657252 0.248493 0.855406
0.759762 0.267659 0.85539
0.849165 0.291173 0.849165
0.0245365 0.31429 0.761517
0.133516 0.329717 0.78468
0.241413 0.343023 0.829923
0.354482 0.354482 0.876341
0.476081 0.364385 0.911177
0.601404 0.374228 0.93402
0.724498 0.385748 0.945327
0.839551 0.400473 0.947051
0.942168 0.419455 0.942168
0.0727703 0.461524 0.824506
0.18587 0.475929 0.839078
0.283009 0.491066 0.891936
0.391501 0.503288 0.93872
0.512612 0.512612 0.975753
0.642283 0.520333 1
0.770443 0.524498 1
0.887739 0.525383 1
1 0.538949 1
0.125231 0.60647 0.877821
0.238132 0.620508 0.891905
0.324849 0.637736 0.940276
0.418692 0.646082 0.979019
0.523064 0.64506 1
0.636637 0.636637 1
0.755657 0.623636 1
0.872724 0.609781 1
0.999313 0.618326 0.999313
0.151827 0.724468 0.904784
0.265385 0.739116 0.919463
0.333394 0.743114 0.941741
0.402441 0.741527 0.96257
0.487663 0.7337 0.975799
0.58909 0.721111 0.982238
0.705638 0.705638 0.981598
0.831983 0.690486 0.972549
0.971252 0.695201 0.971252
0.137697 0.800946 0.890822
0.251484 0.815824 0.905715
0.321752 0.814817 0.910628
0.377142 0.816648 0.924254
0.453117 0.815686 0.934722
0.550088 0.813138 0.943282
0.668666 0.810193 0.950805
0.808438 0.808438 0.957397
0.959777 0.810788 0.959777
0.188251 0.941894 0.941894
0.300496 0.95523 0.95523
0.388205 0.947478 0.947478
0.429877 0.953445 0.953445
0.493111 0.957122 0.957122
0.57818 0.959625 0.959625
0.685664 0.96202 0.96202
0.81622 0.965347 0.965347
0.967666 0.967666 0.967666
