assets/cube/contrast_highlights.cube
TITLE "Generated by Resolve"
LUT_3D_SIZE 5
0 0 0
0 0 0
0 0 0
0.0949569 0.0162966 0.0162966
0.388312 0.0338598 0.0338598
0.00549325 0.0833448 0.00549325
0.148974 0.148974 0
0.387289 0.181781 0
0.605676 0.214069 0.00277714
0.801785 0.251057 0.0509346
0 0.444816 0
0.222019 0.468879 0
0.485267 0.485267 0.00358587
0.706188 0.509255 0.0908064
0.905211 0.541695 0.152361
0.134234 0.706661 0.134234
0.334417 0.736004 0.117754
0.534783 0.731853 0.116075
0.715511 0.715511 0.142718
0.903777 0.723369 0.150439
0.192813 0.946197 0.192813
0.39852 0.951278 0.19765
0.572061 0.936019 0.182254
0.747143 0.927687 0.173739
0.942901 0.942901 0.188556
0 0 0
0 0 0
0 0 0
0.177188 0.0225071 0.0767071
0.467552 0.0339666 0.149523
0 0.110857 0.110857
0.161364 0.161364 0.161364
0.435431 0.180087 0.180087
0.674205 0.207172 0.207172
0.81677 0.259388 0.259388
0 0.458473 0.211978
0.199222 0.485191 0.199222
0.495109 0.495109 0.208911
0.755001 0.510994 0.259754
0.944884 0.543709 0.335485
0.10753 0.725658 0.324163
0.290501 0.760159 0.290501
0.507408 0.751537 0.256001
0.725643 0.725643 0.255818
0.923674 0.724971 0.315099
0.194491 0.947951 0.3953
0.395727 0.954864 0.395727
0.548531 0.95021 0.340047
0.740429 0.9393 0.33019
0.948211 0.948211 0.388479
0 0 0
0 0 0
0.0204471 0.00202945 0.0204471
0.251087 0.0262913 0.179141
0.538888 0.0331731 0.294697
0.00340276 0.130877 0.250736
0.17052 0.17052 0.388815
0.45153 0.182254 0.45153
0.70135 0.207767 0.458183
0.866041 0.257649 0.465537
0 0.459022 0.459022
0.202564 0.488624 0.488624
0.49836 0.49836 0.49836
0.788586 0.509087 0.509087
0.998932 0.535592 0.535592
0.111925 0.72752 0.530526
0.268238 0.763729 0.519615
0.47396 0.753582 0.47396
0.72076 0.72076 0.441093
0.955383 0.713207 0.467094
0.189746 0.943252 0.579416
0.352636 0.962707 0.56109
0.498527 0.962417 0.498527
0.711238 0.953628 0.464897
0.958495 0.958495 0.494148
0 0 0
0 0 0
0.0754101 0.0153353 0.10367
0.305882 0.0328679 0.305882
0.60174 0.0321202 0.465339
0.0202029 0.147723 0.384115
0.182773 0.182773 0.574639
0.441794 0.196277 0.680232
0.689998 0.221653 0.689998
0.8748 0.267414 0.676493
0.0377966 0.455589 0.652216
0.236515 0.487587 0.731426
0.502052 0.502052 0.781476
0.790417 0.510887 0.790417
1 0.530083 0.776074
0.146502 0.719081 0.719081
0.283467 0.753185 0.753185
0.463096 0.742733 0.742733
0.709697 0.709697 0.709697
0.974456 0.698451 0.698451
0.185275 0.938827 0.758373
0.347662 0.956542 0.757748
0.473976 0.962585 0.720256
0.685298 0.961593 0.685298
0.964965 0.964965 0.688457
0 0 0
0 0 0
0.12546 0.0255589 0.218723
0.366445 0.0334936 0.471275
0.656062 0.0313878 0.656062
0.0275883 0.16466 0.541878
0.199664 0.199664 0.699321
0.427131 0.22002 0.826139
0.657252 0.248493 0.855406
0.849165 0.291173 0.849165
0.0727703 0.461524 0.824506
0.283009 0.491066 0.891936
0.512612 0.512612 0.975753
0.770443 0.524498 1
1 0.538949 1
0.151827 0.724468 0.904784
0.333394 0.743114 0.941741
0.487663 0.7337 0.975799
0.705638 0.705638 0.981598
0.971252 0.695201 0.971252
0.188251 0.941894 0.941894
0.388205 0.947478 0.947478
0.493111 0.957122 0.957122
0.685664 0.96202 0.96202
0.967666 0.967666 0.967666
