assets/cube/contrasty_afternoon.cube
TITLE "Generated by Resolve"
LUT_3D_SIZE 5
0 0 0
0.0255589 0 0
0.30547 0 0
0.570886 0 0
0.802472 0 0
0 0.0719768 0
0.0673838 0.0681773 0
0.34728 0.0742351 0
0.612696 0.0838178 0
0.844175 0.10277 0
0 0.357046 0
0.108843 0.353246 0
0.388586 0.359152 0
0.654154 0.368887 0
0.88542 0.387625 0
0 0.641886 0
0.150317 0.638315 0
0.429892 0.644083 0
0.695613 0.653956 0
0.926879 0.672694 0
0 0.926726 0
0.192157 0.923232 0
0.471717 0.929 0
0.737377 0.938842 0.000350958
0.968688 0.957626 0.0196231
0 0 0.0876478
0.0282597 0 0.0836042
0.308171 0 0.0894179
0.573587 0 0.0988327
0.804959 0 0.118151
0 0.0746624 0.129458
0.0700999 0.0708782 0.125429
0.349706 0.0766613 0.130968
0.615396 0.0865339 0.140673
0.846662 0.105257 0.159899
0 0.359442 0.170611
0.111574 0.355947 0.166903
0.39115 0.361715 0.172396
0.656855 0.371603 0.182132
0.888121 0.390326 0.201358
0 0.644511 0.21207
0.153033 0.641016 0.208362
0.432609 0.646784 0.21387
0.698146 0.656504 0.223423
0.92958 0.67541 0.242817
0 0.929412 0.25388
0.194629 0.925704 0.249943
0.474434 0.931701 0.255711
0.739818 0.941299 0.265126
0.971389 0.960327 0.284672
0 0 0.353017
0.0309606 0 0.348989
0.310552 0 0.354482
0.576272 0 0.364218
0.807538 0 0.383429
0 0.0770428 0.394522
0.0728008 0.0735485 0.390814
0.352377 0.0793164 0.396323
0.618067 0.0892042 0.406058
0.849332 0.107942 0.425269
0 0.362112 0.435981
0.114244 0.358602 0.432258
0.393835 0.364385 0.437781
0.659251 0.373999 0.447211
0.890791 0.393011 0.466743
0 0.647181 0.47744
0.155413 0.643397 0.473426
0.435294 0.649454 0.479255
0.700694 0.659052 0.488655
0.932265 0.67808 0.508202
0 0.932067 0.519249
0.197253 0.928313 0.515251
0.477119 0.934386 0.521096
0.742504 0.943969 0.530495
0.973754 0.962707 0.549722
0 0 0.618601
0.0336156 0 0.614878
0.313207 0 0.620386
0.578836 0 0.630045
0.810178 0 0.649332
0 0.0796674 0.660395
0.0753033 0.076051 0.656565
0.355016 0.0819562 0.662226
0.620417 0.0915541 0.671626
0.851972 0.110582 0.691173
0 0.364736 0.701854
0.116594 0.360967 0.697856
0.396475 0.367025 0.703685
0.661875 0.376623 0.713085
0.893431 0.395651 0.732631
0 0.649805 0.743313
0.158068 0.646036 0.739315
0.437919 0.652079 0.745129
0.703334 0.661692 0.754559
0.9346 0.680415 0.77377
0 0.934615 0.785031
0.199908 0.930953 0.781155
0.479454 0.936721 0.786664
0.745129 0.946609 0.796399
0.976394 0.965347 0.815625
0 0 0.888716
0.0356298 0 0.884718
0.315496 0 0.890501
0.580911 0 0.899901
0.812497 0 0.919448
0 0.0819867 0.930526
0.0774243 0.0782025 0.926497
0.357321 0.0842603 0.932326
0.622721 0.0938582 0.941741
0.854231 0.112825 0.961212
0 0.367056 0.971984
0.118898 0.363272 0.967971
0.398642 0.369207 0.973648
0.664179 0.378927 0.9832
0.895445 0.397665 1
0 0.651926 1
0.160357 0.648341 1
0.439933 0.654108 1
0.705638 0.663996 1
0.936904 0.682734 1
0 0.936736 1
0.202197 0.933257 1
0.481758 0.93904 1
0.747417 0.948898 1
0.978119 0.967056 1
