assets/cube/contrast_highlights.cube
TITLE "Generated by Resolve"
LUT_3D_SIZE 33
0 0 0
0 0 0
0 0 0
0 0 0
0 0 0
0 0 0
0 0 0
0 0 0
0 0 0
0 0 0
0 0 0
0 0 0
0 0 0
0 0 0
0 0 0
0 0 0
0 0 0
0 0 0
0 0 0
0 0 0
0 0 0
0.0122683 0.000106813 0.000106813
0.0388037 0.00616464 0.00616464
0.06598 0.0115816 0.0115816
0.0949569 0.0162966 0.0162966
0.12639 0.0201877 0.0201877
0.159625 0.0234836 0.0234836
0.194232 0.0263066 0.0263066
0.230564 0.0286107 0.0286107
0.268284 0.030457 0.030457
0.30724 0.0319219 0.0319219
0.347295 0.033051 0.033051
0.388312 0.0338598 0.0338598
0 0 0
0 0 0
0 0 0
0 0 0
0 0 0
0 0 0
0 0 0
0 0 0
0 0 0
0 0 0
0 0 0
0 0 0
0 0 0
0 0 0
0 0 0
0 0 0
0 0 0
0.00125124 0 0
0.020325 0.00291447 0.00189212
0.0457771 0.0091249 0.00708019
0.0722972 0.014725 0.0116732
0.099794 0.019852 0.0158389
0.128084 0.0246433 0.0196689
0.156756 0.029221 0.0233616
0.185824 0.0335851 0.0268864
0.219425 0.0366979 0.0289616
0.254398 0.0393683 0.0306249
0.290593 0.0416419 0.0318914
0.327886 0.0435798 0.0328374
0.366171 0.0452125 0.0334936
0.405295 0.0465705 0.0339055
0.445136 0.0476844 0.0341039
0.485573 0.0486152 0.0341497
0 0 0
0 0 0
0 0 0
0 0 0
0 0 0
0 0 0
0 0 0
0 0 0
0 0 0
0 0 0
0 0 0
0 0 0
0 0 0
0 0 0
0.00428778 0 0
0.0264591 0.00622568 0.00314336
0.0503853 0.0128176 0.00747692
0.0756542 0.0187839 0.0112001
0.102159 0.0242466 0.0144808
0.129717 0.0292973 0.0174105
0.157885 0.0340734 0.0201877
0.18674 0.0385901 0.022797
0.2159 0.0429236 0.0253758
0.245121 0.0471809 0.0280156
0.274174 0.0514229 0.0307774
0.306188 0.0548257 0.0325017
0.341756 0.0572671 0.03299
0.37821 0.0594186 0.0332647
0.415427 0.0613107 0.0333257
0.4533 0.0630045 0.0332494
0.491691 0.0645151 0.0330663
0.530526 0.0658732 0.0327916
0.569665 0.0671092 0.0324712
0 0 0
0 0 0
0 0 0
0 0 0
0 0 0
0 0 0
0 0 0
0 0 0
0 0 0
0 0 0
0 0 0
0.00965896 0.00228885 0
0.0299382 0.0103151 0.00384527
0.0517586 0.0175021 0.00729381
0.0751659 0.024033 0.0101167
0.100069 0.0300145 0.0124514
0.126284 0.035523 0.014435
0.153414 0.0406653 0.0162661
0.181521 0.0454719 0.0178988
0.210269 0.0500191 0.0194705
0.239384 0.0543832 0.0211032
0.268666 0.0586252 0.022858
0.297856 0.0628367 0.0248264
0.326741 0.0670634 0.0270695
0.355093 0.0713664 0.0296635
0.383398 0.0756542 0.0323644
0.418738 0.0780804 0.032166
0.454704 0.0803235 0.0318761
0.491157 0.0823835 0.0315099
0.528023 0.0843061 0.0311131
0.565164 0.0861067 0.0307164
0.602487 0.0878309 0.0303502
0.639918 0.0894942 0.030045
0 0 0
0 0 0
0 0 0
0 0 0
0 0 0
0 0 0
0 0 0
0 0 0
0.012726 0.00663767 0.000701915
0.0299382 0.0154421 0.00402838
0.0489967 0.0234379 0.00654612
0.0699016 0.0307469 0.00840772
0.0925612 0.0374456 0.00975052
0.116716 0.0436255 0.0108186
0.142321 0.0493019 0.0115511
0.1691 0.0545663 0.0121462
0.196857 0.0594949 0.012665
0.225345 0.0641337 0.0132448
0.254307 0.068574 0.0139467
0.283543 0.0728466 0.014847
0.31281 0.0770581 0.0160372
0.341909 0.081239 0.0175784
0.370626 0.0854505 0.0195163
0.398764 0.0897536 0.0219272
0.426139 0.0942092 0.0248417
0.452583 0.0988479 0.0283055
0.484092 0.102205 0.0293584
0.519097 0.104646 0.0288853
0.554376 0.106966 0.0284581
0.589837 0.109209 0.0281071
0.625391 0.111406 0.027863
0.660945 0.113542 0.0277562
0.696406 0.115679 0.0277867
0 0 0
0 0 0
0 0 0
0 0 0
0.000366217 0.00106813 0
0.0120241 0.0120241 0.00140383
0.0255131 0.0218814 0.0037995
0.0411078 0.0309148 0.00531014
0.058793 0.0392309 0.00611887
0.0785229 0.0468757 0.00639353
0.100069 0.0538949 0.00636301
0.1234 0.0603342 0.00596628
0.148241 0.0662699 0.00540169
0.174411 0.0717632 0.00479133
0.201678 0.0768597 0.00421149
0.229801 0.0816358 0.00376898
0.258564 0.0861677 0.00354009
0.287739 0.0905013 0.00360113
0.317082 0.0946975 0.00402838
0.34641 0.0988327 0.00486763
0.375479 0.102953 0.00619516
0.40412 0.107134 0.00805676
0.432151 0.111391 0.0104829
0.459388 0.115801 0.0135195
0.485679 0.120409 0.0171969
0.510872 0.125246 0.0215457
0.537209 0.129778 0.0252689
0.570962 0.132494 0.0249638
0.604807 0.135149 0.0248112
0.638666 0.137758 0.0248112
0.672435 0.140368 0.0250095
0.70605 0.142962 0.0254368
0.739513 0.145586 0.0260471
0 0 0
0.000534066 0.00639353 0
0.00756847 0.0184176 0.0024567
0.016495 0.029572 0.00422675
0.0277714 0.0399176 0.00491341
0.0418708 0.0493477 0.00466926
0.0580911 0.0580911 0.00384527
0.0764935 0.0661326 0.00271611
0.0969711 0.073518 0.00117494
0.119341 0.0802777 0
0.14342 0.0864881 0
0.168978 0.092195 0
0.195789 0.0974594 0
0.223636 0.102358 0
0.252262 0.10695 0
0.281437 0.111315 0
0.310964 0.11548 0
0.340597 0.119539 0
0.370138 0.123537 0
0.39939 0.127535 0
0.428153 0.131579 0
0.456275 0.135729 0
0.483574 0.140032 0.00140383
0.509926 0.144518 0.00550851
0.53518 0.149233 0.0103304
0.559213 0.154223 0.0158999
0.581949 0.159503 0.0222171
0.613062 0.162799 0.0232395
0.64538 0.165774 0.023682
0.677607 0.16875 0.0243381
0.709545 0.171756 0.0252995
0.741161 0.174807 0.0265507
0.772427 0.17792 0.0281071
0.00550851 0.0377508 0.00550851
0.0118563 0.0495155 0.00587472
0.0204623 0.0605936 0.00520333
0.0316625 0.0708476 0.0037232
0.0456855 0.0802777 0.00141909
0.063035 0.0887007 0
0.0823072 0.0964981 0
0.103639 0.103639 0
0.126879 0.110155 0
0.151812 0.116106 0
0.178195 0.121553 0
0.205814 0.126558 0
0.234379 0.131212 0
0.263676 0.135546 0
0.293477 0.139666 0
0.323552 0.143618 0
0.353689 0.147448 0
0.383658 0.151247 0
0.413306 0.155032 0
0.44242 0.158892 0
0.470863 0.162844 0
0.498466 0.166949 0
0.525078 0.171252 0
0.550591 0.175784 0
0.574899 0.180575 0.00515755
0.59791 0.185641 0.0121767
0.619486 0.191043 0.0200198
0.646021 0.195331 0.0241703
0.676738 0.198642 0.0254826
0.707164 0.201999 0.0271305
0.734752 0.205982 0.0306706
0.7617 0.210101 0.034638
0.78851 0.214237 0.0386511
0.00549325 0.0833448 0.00549325
0.013901 0.0944228 0.00288396
0.024979 0.104738 0
0.0389105 0.114183 0
0.0559854 0.122713 0
0.0766766 0.130144 0
0.09897 0.137026 0
0.123125 0.143282 0
0.148974 0.148974 0
0.176272 0.154131 0
0.204791 0.158862 0
0.234241 0.16321 0
0.264378 0.167254 0
0.294987 0.171069 0
0.325811 0.174731 0
0.356634 0.178286 0
0.387289 0.181781 0
0.417548 0.185306 0
0.447242 0.188876 0
0.476234 0.192569 0
0.504341 0.196414 0
0.531456 0.200443 0
0.557504 0.2047 0
0.582254 0.209232 0
0.605676 0.214069 0.00277714
0.627726 0.219211 0.0114748
0.647639 0.224826 0.0214847
0.667933 0.230396 0.0307774
0.69485 0.234516 0.0347448
0.721675 0.238651 0.0387579
0.74844 0.242786 0.0428016
0.775128 0.246921 0.0468605
0.801785 0.251057 0.0509346
0 0.130663 0
0.00962844 0.140978 0
0.0235142 0.150469 0
0.0403754 0.159045 0
0.0604868 0.166659 0
0.0843671 0.173129 0
0.109514 0.179126 0
0.136248 0.184558 0
0.164462 0.189456 0
0.193881 0.193881 0
0.224277 0.197925 0
0.25536 0.201663 0
0.28687 0.205142 0
0.318608 0.208469 0
0.350301 0.211673 0
0.381781 0.214847 0
0.412863 0.218021 0
0.443336 0.221271 0
0.47306 0.224628 0
0.50193 0.228138 0
0.529717 0.231846 0
0.55639 0.235798 0
0.581811 0.240009 0
0.604654 0.244755 0
0.625391 0.249973 0.00735485
0.644892 0.255497 0.0192569
0.663188 0.261311 0.0315404
0.681544 0.267185 0.0431373
0.708293 0.271305 0.0471809
0.734997 0.275425 0.0512398
0.761654 0.279545 0.0552987
0.788281 0.28365 0.0593729
0.814862 0.28777 0.0634318
0 0.178866 0
0.00178531 0.188342 0
0.0185397 0.196963 0
0.0382696 0.204685 0
0.0612192 0.211414 0
0.088014 0.216968 0
0.115663 0.222141 0
0.144686 0.226795 0
0.174929 0.230976 0
0.20618 0.234745 0
0.238163 0.238163 0
0.270619 0.241321 0
0.303288 0.244297 0
0.335943 0.247166 0
0.368368 0.249973 0
0.400366 0.252781 0
0.431754 0.25565 0
0.462364 0.25864 0
0.492073 0.261784 0
0.520668 0.265141 0
0.546685 0.26894 0
0.571359 0.27306 0
0.594858 0.27747 0
0.617227 0.282155 0.00552377
0.638437 0.287129 0.0174258
0.658534 0.292393 0.0296941
0.677455 0.297963 0.042359
0.695338 0.303792 0.0552682
0.721492 0.307988 0.0598306
0.74815 0.312093 0.0638743
0.774746 0.316182 0.0679332
0.801328 0.320272 0.0719921
0.827863 0.324361 0.076051
0 0.22707 0
0 0.235691 0
0.0122683 0.243458 0
0.0346227 0.250324 0
0.0601205 0.256229 0
0.0894179 0.26096 0
0.119234 0.265385 0
0.150164 0.269352 0
0.182101 0.272892 0
0.214832 0.276066 0
0.248096 0.27895 0
0.281621 0.281621 0
0.31519 0.284153 0
0.348547 0.28661 0
0.381476 0.289052 0
0.413809 0.291539 0
0.44506 0.294163 0
0.474632 0.297017 0
0.503075 0.300114 0
0.530434 0.303471 0
0.55671 0.307088 0
0.581857 0.310994 0
0.60592 0.31516 0.00416571
0.62887 0.3196 0.0159609
0.650706 0.324331 0.0281376
0.671427 0.329335 0.0406806
0.691051 0.334615 0.0535744
0.709545 0.340185 0.0668193
0.7346 0.344564 0.0725567
0.761212 0.348638 0.0766003
0.787778 0.352712 0.0806287
0.814313 0.356786 0.0846723
0.840818 0.360845 0.088716
0 0.274495 0
0 0.282292 0
0.00660716 0.289235 0
0.0312963 0.295323 0
0.0589761 0.300481 0
0.0903334 0.304479 0
0.121904 0.308248 0
0.15436 0.31162 0
0.18761 0.314611 0
0.221454 0.317296 0
0.25565 0.319722 0
0.289952 0.321965 0
0.324117 0.324117 0
0.357671 0.326131 0
0.390341 0.328222 0
0.42211 0.33048 0
0.452949 0.332952 0
0.482795 0.335637 0
0.511635 0.338567 0
0.539437 0.341741 0
0.566171 0.345159 0
0.591852 0.348837 0.00344854
0.616464 0.352789 0.0150301
0.639994 0.357 0.0270237
0.662425 0.361486 0.0393988
0.683757 0.366247 0.0521706
0.704005 0.371283 0.0652934
0.723171 0.376608 0.0787976
0.747646 0.381033 0.0853437
0.774227 0.385077 0.0893568
0.800763 0.38912 0.0933852
0.827268 0.393179 0.0974136
0.853758 0.397223 0.101427
0 0.320516 0
0 0.327535 0
0.00315862 0.33373 0
0.0297856 0.339117 0
0.0592508 0.343603 0
0.0922103 0.34699 0
0.125154 0.35021 0
0.15874 0.353079 0
0.19292 0.355612 0
0.227588 0.357839 0
0.262654 0.359564 0
0.297337 0.361288 0
0.331472 0.363058 0
0.36495 0.36495 0
0.397681 0.366964 0
0.429618 0.369131 0
0.46067 0.371496 0
0.490822 0.37406 0
0.520012 0.376837 0
0.548211 0.379828 0
0.575387 0.383078 0.00363165
0.601556 0.386572 0.0148775
0.626673 0.390311 0.0265812
0.650736 0.394308 0.0387121
0.673732 0.398581 0.0512551
0.695659 0.403113 0.0641947
0.716503 0.407919 0.0775311
0.736278 0.413001 0.0912337
0.760662 0.417395 0.098146
0.787213 0.421424 0.102159
0.813718 0.425437 0.106157
0.840208 0.429465 0.11017
0.866667 0.433494 0.114168
0 0.364645 0
0 0.370932 0
0.00314336 0.376501 0
0.0313725 0.381262 0
0.062211 0.385168 0
0.0963912 0.388022 0
0.13077 0.390524 0
0.165927 0.392493 0
0.201068 0.394354 0
0.236072 0.396139 0
0.270848 0.397894 0
0.305257 0.399664 0
0.339208 0.401465 0
0.372595 0.403342 0
0.405341 0.405341 0
0.437339 0.407462 0
0.468559 0.409751 0
0.498924 0.412207 0
0.528389 0.414862 0
0.556924 0.417731 0.00500496
0.584497 0.420829 0.0157931
0.611078 0.42414 0.0270848
0.636652 0.42771 0.0388495
0.661219 0.431525 0.0510872
0.684733 0.435599 0.0637369
0.70721 0.439918 0.0768139
0.728634 0.444511 0.0903029
0.748989 0.449363 0.104189
0.773632 0.453651 0.110979
0.800168 0.457664 0.114961
0.826658 0.461662 0.118944
0.853117 0.465675 0.122942
0.879561 0.469673 0.126925
0 0.406516 0
0 0.412177 0
0.00761425 0.417136 0
0.0384527 0.420752 0
0.0716106 0.423575 0
0.107271 0.42562 0
0.141955 0.427802 0
0.176516 0.429892 0
0.211063 0.431891 0
0.245533 0.433814 0
0.27985 0.435691 0
0.313909 0.437537 0
0.347585 0.439414 0
0.380789 0.441337 0
0.413428 0.443336 0
0.445441 0.445441 0
0.476722 0.447669 0
0.507225 0.450065 0
0.536904 0.452644 0.00784314
0.565713 0.455406 0.0180514
0.593606 0.458366 0.028809
0.620554 0.461555 0.0401007
0.64654 0.464958 0.0518959
0.671534 0.468605 0.0641794
0.695521 0.472496 0.0769055
0.718502 0.476631 0.0900893
0.740414 0.481025 0.103746
0.761364 0.485664 0.117708
0.786603 0.48983 0.123812
0.813107 0.493812 0.127779
0.839582 0.497795 0.131746
0.866026 0.501778 0.135714
0.892439 0.50576 0.139681
0 0.444816 0
0 0.449241 0
0.0225071 0.453223 0
0.0532235 0.456764 0
0.0856184 0.459754 0
0.120424 0.462028 0
0.154314 0.464408 0
0.188159 0.466697 0
0.222019 0.468879 0
0.255909 0.47097 0
0.289693 0.472969 0
0.323308 0.474937 0
0.356649 0.476905 0
0.389593 0.478889 0
0.422065 0.480919 0
0.453986 0.48304 0
0.485267 0.485267 0.00358587
0.515846 0.487617 0.0124361
0.545663 0.490135 0.0219272
0.574655 0.492821 0.0320287
0.602808 0.495674 0.0427253
0.63006 0.498741 0.0539712
0.656382 0.502022 0.0657511
0.681773 0.505531 0.0780346
0.706188 0.509255 0.0908064
0.729625 0.513222 0.104036
0.752026 0.517433 0.117769
0.77348 0.521889 0.131838
0.799512 0.525887 0.136614
0.825956 0.529809 0.14052
0.852399 0.533761 0.144457
0.878828 0.537728 0.148409
0.905211 0.541695 0.152361
0 0.479545 0
0.0109102 0.484138 0
0.0394293 0.488334 0
0.0693065 0.492088 0
0.100801 0.495323 0
0.134691 0.497841 0
0.167758 0.50045 0
0.200809 0.502953 0
0.233967 0.505333 0
0.267201 0.507591 0
0.30042 0.509758 0
0.333547 0.511864 0
0.366461 0.513939 0
0.399084 0.516014 0
0.431327 0.518105 0.0037995
0.463081 0.520272 0.0110323
0.494285 0.522499 0.0189975
0.524849 0.524849 0.0276646
0.554726 0.527321 0.0370031
0.583856 0.529961 0.0469673
0.612192 0.532753 0.057557
0.639689 0.535714 0.0687266
0.6663 0.538888 0.0804456
0.692027 0.54226 0.0926986
0.716808 0.545861 0.10547
0.740551 0.549569 0.118624
0.76289 0.553094 0.131868
0.784405 0.55642 0.143999
0.809583 0.559045 0.146609
0.835691 0.562631 0.150179
0.862104 0.566552 0.154086
0.888487 0.570474 0.157992
0.914839 0.574395 0.161898
0.0034638 0.513603 0.0034638
0.0298466 0.518425 0.00117494
0.057496 0.522835 0
0.0864729 0.526833 0
0.117067 0.530312 0
0.149996 0.533089 0
0.182208 0.535943 0
0.214466 0.538659 0
0.246876 0.541253 0
0.279423 0.543709 0
0.312032 0.546044 0.000595102
0.344625 0.548302 0.00442512
0.377081 0.550515 0.00907912
0.409323 0.552697 0.0145266
0.44126 0.554879 0.0207523
0.472786 0.557092 0.0277409
0.503838 0.55938 0.0354772
0.534325 0.56173 0.0439307
0.564202 0.564202 0.0530861
0.593393 0.566796 0.0628977
0.621851 0.569543 0.0733349
0.649516 0.572442 0.0843824
0.676127 0.57528 0.0957809
0.701442 0.57789 0.107317
0.725475 0.580285 0.118975
0.748226 0.582528 0.13077
0.76965 0.584604 0.142718
0.79144 0.58648 0.150958
0.815427 0.5879 0.152377
0.841245 0.591196 0.155657
0.867628 0.595087 0.159533
0.89398 0.598978 0.163394
0.920302 0.602869 0.167269
0.0243381 0.547082 0.0243381
0.0498512 0.552148 0.0219425
0.0766003 0.556802 0.0197147
0.104677 0.561044 0.0177157
0.134356 0.564767 0.0158541
0.166339 0.567819 0.013962
0.197665 0.570901 0.0133974
0.229114 0.573861 0.0137484
0.260761 0.576669 0.0149081
0.292607 0.579324 0.0168917
0.324575 0.581857 0.0196689
0.356573 0.584283 0.0232395
0.388525 0.586633 0.0276341
0.420325 0.588937 0.0328069
0.451896 0.591226 0.0387732
0.483146 0.59353 0.0455177
0.513985 0.595865 0.0530098
0.54435 0.59826 0.0612497
0.574105 0.600702 0.0701457
0.602884 0.602884 0.0793622
0.630579 0.604791 0.0888228
0.65716 0.606424 0.0985275
0.682582 0.607858 0.108461
0.706844 0.609094 0.118624
0.729915 0.610193 0.129
0.751781 0.611154 0.139651
0.772488 0.612009 0.150408
0.79472 0.612726 0.154177
0.817716 0.613169 0.154604
0.843305 0.61622 0.157641
0.869657 0.620081 0.161501
0.895994 0.623957 0.165347
0.922286 0.627817 0.169192
0.0462654 0.580026 0.0462654
0.0708782 0.585321 0.0437324
0.0967422 0.590234 0.0413825
0.123903 0.59472 0.0392309
0.152651 0.598703 0.0372168
0.183673 0.602029 0.0351415
0.21413 0.605356 0.0344091
0.244739 0.60856 0.0345464
0.275624 0.611582 0.0355077
0.306737 0.61445 0.0372625
0.338033 0.617166 0.0397955
0.369421 0.619776 0.043122
0.400824 0.622293 0.0472572
0.432151 0.624735 0.0521706
0.46331 0.627146 0.0578775
0.494072 0.629404 0.0642252
0.524086 0.631266 0.0709087
0.553292 0.632761 0.0779431
0.581598 0.633921 0.0852979
0.609003 0.634791 0.0929885
0.635431 0.635431 0.101015
0.660853 0.635843 0.109361
0.685252 0.636103 0.118013
0.708598 0.63621 0.126986
0.730877 0.63621 0.136248
0.752056 0.636118 0.145846
0.772488 0.636011 0.154513
0.794949 0.635859 0.15436
0.817151 0.635508 0.153994
0.842542 0.638376 0.156847
0.868894 0.642222 0.160678
0.895201 0.646067 0.164492
0.921477 0.649927 0.168322
0.0691997 0.612451 0.0691997
0.0929274 0.61799 0.0665293
0.117891 0.623148 0.0640574
0.144152 0.627878 0.0617685
0.171969 0.632136 0.0596017
0.202029 0.635721 0.0573434
0.231586 0.639323 0.0564279
0.261372 0.642756 0.0563821
0.291447 0.646006 0.057145
0.321828 0.649088 0.0586709
0.352422 0.652003 0.0609751
0.383169 0.654795 0.0640574
0.413703 0.657191 0.0676432
0.443809 0.659098 0.0715953
0.473396 0.660533 0.0759289
0.502434 0.661555 0.0806744
0.530831 0.662211 0.0858015
0.558526 0.662531 0.0913558
0.585489 0.662577 0.0973068
0.611643 0.662379 0.10367
0.636957 0.661967 0.11043
0.661387 0.661387 0.117601
0.684916 0.660685 0.125154
0.7075 0.659892 0.13312
0.729107 0.659022 0.141497
0.749737 0.658122 0.150179
0.770993 0.657359 0.152956
0.792798 0.656565 0.152163
0.81442 0.655634 0.151217
0.839673 0.658366 0.153918
0.865995 0.662196 0.157733
0.892287 0.666026 0.161547
0.918563 0.669856 0.165347
0.0931411 0.644373 0.0931411
0.115969 0.650156 0.0903487
0.140032 0.655558 0.0877241
0.165393 0.660548 0.0852979
0.192279 0.665064 0.0829786
0.221363 0.66894 0.0805524
0.25005 0.672786 0.0794537
0.278981 0.676463 0.0792401
0.308202 0.679881 0.0797284
0.337377 0.68275 0.0806134
0.3664 0.685023 0.0818341
0.395239 0.686763 0.0834363
0.423835 0.688014 0.0854505
0.45211 0.688792 0.0878614
0.479988 0.689158 0.0907301
0.507439 0.689158 0.0940566
0.534371 0.688823 0.0978408
0.560739 0.688212 0.102098
0.586496 0.687358 0.106844
0.611566 0.686305 0.112062
0.635904 0.685084 0.117769
0.659495 0.683726 0.123949
0.682292 0.682292 0.130602
0.70425 0.680797 0.137789
0.725353 0.679286 0.145312
0.746075 0.677897 0.150652
0.767575 0.676768 0.149508
0.788937 0.675532 0.148272
0.810178 0.674205 0.146929
0.83534 0.676844 0.149554
0.861662 0.680659 0.153353
0.887938 0.684489 0.157153
0.914199 0.688304 0.160937
0.118059 0.675761 0.118059
0.140047 0.681788 0.115175
0.163165 0.687465 0.112383
0.18761 0.692729 0.109819
0.213581 0.697505 0.107347
0.241535 0.701503 0.104601
0.268742 0.705013 0.102754
0.295827 0.707942 0.10135
0.322911 0.710277 0.100328
0.349996 0.712032 0.0996872
0.377035 0.713283 0.0994278
0.403998 0.714015 0.0996109
0.430823 0.714321 0.100237
0.457435 0.714199 0.10135
0.483787 0.71371 0.102953
0.509819 0.712901 0.105058
0.535454 0.711818 0.107713
0.560647 0.710475 0.110887
0.585351 0.708949 0.114611
0.609476 0.70724 0.118883
0.633021 0.705425 0.123705
0.655909 0.703517 0.129091
0.678111 0.701564 0.135088
0.699611 0.699611 0.141497
0.720439 0.697719 0.147677
0.741741 0.69633 0.146288
0.762936 0.694896 0.144839
0.784039 0.693401 0.143343
0.805097 0.69189 0.141817
0.830213 0.694484 0.144396
0.856519 0.698299 0.14818
0.882795 0.702113 0.151965
0.909041 0.705928 0.155749
0.134234 0.706661 0.134234
0.162005 0.710338 0.137881
0.184604 0.716197 0.135348
0.208255 0.721782 0.132753
0.233356 0.726955 0.130205
0.259327 0.73022 0.126284
0.284337 0.732677 0.122957
0.309331 0.734615 0.120134
0.334417 0.736004 0.117754
0.359609 0.736889 0.115785
0.384848 0.737285 0.11429
0.410132 0.737255 0.113252
0.435355 0.736812 0.112718
0.460502 0.736019 0.112718
0.485496 0.73489 0.113252
0.510277 0.733486 0.114366
0.534783 0.731853 0.116075
0.558968 0.730007 0.118379
0.582757 0.728008 0.121279
0.606119 0.725887 0.124804
0.628992 0.72369 0.128939
0.651331 0.721431 0.133761
0.673106 0.719188 0.139101
0.694316 0.717037 0.144259
0.715511 0.715511 0.142718
0.736629 0.713954 0.141146
0.757717 0.712398 0.13959
0.778775 0.710857 0.138033
0.799832 0.709346 0.136507
0.824964 0.711955 0.139101
0.85127 0.715755 0.14287
0.877531 0.71957 0.146654
0.903777 0.723369 0.150439
0.140383 0.735561 0.140383
0.1682 0.739269 0.144076
0.196262 0.742931 0.147707
0.224674 0.746532 0.151293
0.249897 0.75169 0.149813
0.274022 0.75433 0.144869
0.297002 0.755978 0.140246
0.320104 0.757122 0.136217
0.343404 0.757778 0.132692
0.366903 0.757992 0.129625
0.390539 0.757763 0.127062
0.414313 0.757153 0.125032
0.438148 0.756191 0.123552
0.461997 0.75491 0.122637
0.485801 0.753368 0.122332
0.509514 0.751583 0.122652
0.533059 0.749599 0.123613
0.556374 0.747463 0.125231
0.579446 0.745205 0.12752
0.602182 0.742855 0.130541
0.624537 0.74049 0.134157
0.646479 0.738125 0.13846
0.667918 0.736095 0.140612
0.689097 0.734508 0.13901
0.710262 0.732937 0.137438
0.731411 0.731411 0.135897
0.75259 0.729946 0.134417
0.773785 0.728542 0.132998
0.795026 0.72723 0.13167
0.820218 0.729885 0.13431
0.846525 0.733684 0.138094
0.872786 0.737499 0.141863
0.899016 0.741299 0.145632
0.143008 0.760861 0.143008
0.17084 0.764584 0.146715
0.198947 0.768292 0.150378
0.227405 0.771939 0.154009
0.256535 0.775509 0.157549
0.283818 0.775631 0.157656
0.307454 0.775586 0.155322
0.328878 0.77615 0.150317
0.350591 0.776287 0.145846
0.37258 0.776013 0.141909
0.394827 0.775372 0.138521
0.417258 0.774411 0.135622
0.439872 0.773129 0.133394
0.462608 0.771572 0.131792
0.485405 0.769802 0.130846
0.508217 0.767819 0.130632
0.530968 0.765713 0.131044
0.553597 0.763485 0.132158
0.576074 0.761196 0.134005
0.598337 0.758862 0.136584
0.620188 0.75671 0.138567
0.641474 0.755123 0.136965
0.662745 0.753582 0.135409
0.684047 0.752087 0.133913
0.705364 0.750683 0.132509
0.726741 0.749371 0.131182
0.74818 0.74818 0.129976
0.769711 0.747112 0.128893
0.791348 0.746181 0.127947
0.816648 0.748943 0.130694
0.842939 0.752743 0.134463
0.8692 0.756542 0.138216
0.89543 0.760342 0.141985
0.142779 0.783261 0.142779
0.170626 0.786999 0.146487
0.198749 0.790722 0.150179
0.227237 0.794415 0.153841
0.256428 0.798032 0.157443
0.283101 0.797543 0.156924
0.30721 0.796262 0.155642
0.330648 0.794949 0.154314
0.353658 0.793591 0.152941
