assets/cube/cross_process_cp4.cube
TITLE "Generated by Resolve"
LUT_3D_SIZE 9
0 0 0
0.0187533 0.0187533 0.0187533
0.0379797 0.0379797 0.0379797
0.0573739 0.0573739 0.0573739
0.0777142 0.0777142 0.0777142
0.101488 0.0999924 0.0999008
0.154528 0.119036 0.118761
0.27863 0.12285 0.126024
0.492363 0.10341 0.11902
0.0643626 0.0643626 0.0643626
0.085359 0.085359 0.085359
0.109087 0.109117 0.109071
0.136919 0.136858 0.131975
0.192966 0.161425 0.141909
0.323232 0.167483 0.129442
0.533257 0.152697 0.105821
0.723964 0.141756 0.105669
0.890486 0.137057 0.120119
0.139788 0.149477 0.143175
0.150958 0.187106 0.16022
0.163836 0.226612 0.165682
0.228138 0.254612 0.1514
0.383429 0.257496 0.127184
0.574701 0.247196 0.123384
0.76025 0.238666 0.12697
0.920501 0.237339 0.136599
1 0.239841 0.145113
0.0964218 0.31046 0.164294
0.0868238 0.358862 0.155444
0.135805 0.391745 0.15259
0.285039 0.394186 0.156481
0.472847 0.38616 0.151965
0.669291 0.375723 0.141283
0.844312 0.37171 0.132662
0.984222 0.376669 0.134661
1 0.384298 0.141268
0 0.506508 0.135485
0.0456855 0.529671 0.155047
0.140688 0.547555 0.166491
0.299733 0.547936 0.159869
0.490135 0.538933 0.14728
0.684352 0.528099 0.135714
0.854139 0.523201 0.13109
0.986969 0.527276 0.135821
1 0.533471 0.14313
0 0.670756 0.133837
0.0340429 0.690837 0.15053
0.137346 0.704387 0.163912
0.3019 0.700557 0.160647
0.492058 0.688472 0.149676
0.68336 0.675319 0.138338
0.848814 0.667903 0.133501
0.976257 0.669169 0.138186
1 0.672663 0.145922
0 0.821378 0.138231
0.0402686 0.83772 0.156298
0.142901 0.848035 0.169253
0.305333 0.84094 0.16582
0.491722 0.825635 0.15523
0.677256 0.809079 0.144381
0.835691 0.798001 0.139742
0.956085 0.795392 0.143862
1 0.795361 0.150698
0 0.957839 0.145922
0.0502937 0.969833 0.164111
0.151247 0.975418 0.176959
0.308583 0.963638 0.173053
0.48809 0.944671 0.162325
0.665766 0.925078 0.150896
0.817441 0.91165 0.145327
0.933013 0.907042 0.148043
1 0.905394 0.153307
0 1 0.154742
0.0614481 1 0.171527
0.157946 1 0.182788
0.308721 1 0.177813
0.481178 1 0.166201
0.652522 1 0.153933
0.799466 1 0.147402
0.912169 1 0.149325
1 1 0.15407
0.00549325 0.00549325 0.00549325
0.0255589 0.0255589 0.0255589
0.0446784 0.0446784 0.0446784
0.0643168 0.0643168 0.0643168
0.0854505 0.0854505 0.0854505
0.113756 0.108064 0.108751
0.18349 0.123507 0.130983
0.332876 0.119615 0.147509
0.563058 0.0935073 0.157382
0.0715343 0.0715343 0.0715343
0.0932021 0.0932021 0.0932021
0.118105 0.118776 0.118441
0.147936 0.147402 0.143832
0.214527 0.168597 0.16112
0.363241 0.167727 0.164004
0.577844 0.149172 0.163195
0.751675 0.141619 0.180224
0.917144 0.13637 0.201221
0.143709 0.162387 0.154314
0.149828 0.20116 0.176822
0.162387 0.240177 0.195254
0.237217 0.262959 0.201358
0.400793 0.2607 0.200977
0.591913 0.249546 0.206882
0.777859 0.240589 0.215045
0.936355 0.239536 0.227802
1 0.242557 0.237705
0.0764782 0.328649 0.205921
0.0739147 0.372427 0.218143
0.139361 0.398215 0.236744
0.292699 0.398901 0.246342
0.480858 0.390158 0.243702
0.676799 0.380179 0.23415
0.851118 0.376043 0.227298
0.989929 0.381003 0.230838
1 0.388708 0.238254
0 0.512932 0.225742
0.0483711 0.535607 0.247623
0.14345 0.553307 0.260014
0.303792 0.553002 0.255283
0.494514 0.543374 0.243732
0.688655 0.532418 0.232654
0.858106 0.527321 0.227863
0.990448 0.531136 0.232288
1 0.53724 0.239384
0 0.675898 0.229603
0.0383154 0.695399 0.247425
0.141741 0.708629 0.260853
0.306065 0.704479 0.257313
0.495918 0.692134 0.246067
0.686778 0.678752 0.234394
0.851682 0.671138 0.22916
0.978408 0.672114 0.233204
1 0.675334 0.240146
0 0.825116 0.234821
0.0446479 0.841169 0.252628
0.147112 0.851087 0.26511
0.309041 0.843488 0.26096
0.495033 0.828031 0.249912
0.679805 0.8112 0.238285
0.837354 0.799802 0.232563
0.957137 0.797009 0.235645
1 0.796796 0.241291
0 0.960204 0.241154
0.0547646 0.971664 0.258427
0.155322 0.976776 0.270268
0.312032 0.964767 0.2654
0.490791 0.945708 0.253681
0.667689 0.926085 0.241199
0.818555 0.912444 0.234348
0.933883 0.907988 0.236301
1 0.906386 0.240681
0 1 0.246708
0.0655528 1 0.262379
0.161563 1 0.272572
0.311696 1 0.266636
0.483482 1 0.254108
0.654261 1 0.241001
0.800626 1 0.233539
0.913298 1 0.235004
1 1 0.239155
0.0124514 0.0124514 0.0124514
0.0322576 0.0322576 0.0322576
0.0515145 0.0515145 0.0515145
0.071519 0.071519 0.071519
0.093431 0.0934157 0.0934157
0.129168 0.115618 0.119631
0.219059 0.125887 0.149706
0.392569 0.113634 0.180636
0.630442 0.0832074 0.209735
0.079118 0.079118 0.079118
0.101793 0.101793 0.101793
0.126741 0.128908 0.129046
0.159106 0.157534 0.160739
0.237507 0.174105 0.190814
0.403662 0.166278 0.213458
0.612863 0.147204 0.233341
0.778546 0.141299 0.259922
0.943374 0.135821 0.286885
0.144823 0.175982 0.169574
0.14609 0.215488 0.20238
0.159609 0.252598 0.238514
0.246159 0.269581 0.266758
0.414633 0.263737 0.282979
0.608408 0.251789 0.294377
0.794339 0.242542 0.306188
0.950469 0.241779 0.320958
1 0.245716 0.332006
0.0561227 0.344839 0.262821
0.0641947 0.383612 0.295384
0.144869 0.403571 0.326345
0.299931 0.40351 0.338903
0.488457 0.394507 0.337606
0.683497 0.38468 0.328466
0.857435 0.380392 0.323308
0.994812 0.385031 0.327581
1 0.393027 0.335546
0 0.518685 0.318303
0.0507668 0.541451 0.341741
0.14641 0.558785 0.3552
0.307881 0.55787 0.351827
0.49897 0.54786 0.341024
0.692897 0.53669 0.329931
0.861936 0.53135 0.324865
0.993637 0.534768 0.328786
1 0.540841 0.335653
0 0.680659 0.326253
0.0426947 0.699748 0.344762
0.146059 0.712764 0.358022
0.309957 0.708095 0.353964
0.499748 0.695735 0.342641
0.690074 0.682063 0.330495
0.854353 0.674189 0.324697
0.980377 0.674922 0.328038
1 0.677882 0.334127
0 0.828748 0.331609
0.049012 0.84448 0.349035
0.151385 0.854063 0.361044
0.31284 0.846006 0.356176
0.498192 0.830228 0.344335
0.682124 0.813092 0.331762
0.838865 0.80145 0.325002
0.958114 0.798566 0.327108
1 0.79823 0.33164
0 0.962417 0.336278
0.0593423 0.973373 0.352605
0.159289 0.977981 0.363226
0.315358 0.965774 0.357336
0.493339 0.946639 0.344625
0.669535 0.927031 0.331151
0.819791 0.913375 0.323293
0.934752 0.908949 0.324331
1 0.907362 0.32784
0 1 0.338399
0.0695201 1 0.352865
0.164828 1 0.361807
0.314549 1 0.355138
0.485725 1 0.341772
0.655894 1 0.32781
0.801984 1 0.319738
0.914443 1 0.320562
1 1 0.324178
0.0193942 0.0193942 0.0193942
0.038819 0.038819 0.038819
0.0584726 0.0584726 0.0584726
0.0791333 0.0791333 0.0791333
0.102586 0.101869 0.102373
0.148104 0.122148 0.134356
0.260334 0.125658 0.177493
0.455268 0.105287 0.227176
0.689219 0.0742199 0.274281
0.0869001 0.0869001 0.0869001
0.110964 0.111086 0.111131
0.13492 0.139651 0.142855
0.170413 0.166979 0.185382
0.26154 0.177783 0.233188
0.442313 0.163668 0.277485
0.638392 0.147356 0.310933
0.804349 0.140841 0.34403
0.967956 0.135515 0.375677
0.142794 0.189914 0.191318
0.139773 0.229496 0.23949
0.155993 0.263569 0.296834
0.255116 0.274678 0.345357
0.428382 0.266743 0.369543
0.624125 0.253986 0.385153
0.809674 0.244648 0.399664
0.963363 0.244373 0.415625
1 0.249165 0.427161
0.036347 0.359197 0.334737
0.0598154 0.392035 0.383017
0.150271 0.408682 0.418784
0.306523 0.407904 0.433204
0.495247 0.398962 0.432609
0.689799 0.38912 0.424033
0.863264 0.38471 0.42005
0.999557 0.389441 0.424918
1 0.39733 0.432792
0 0.52462 0.412879
0.052842 0.547311 0.436667
0.149584 0.56405 0.451408
0.311727 0.562249 0.448569
0.503349 0.552224 0.438361
0.697032 0.540887 0.4271
0.865522 0.535164 0.421561
0.996887 0.538537 0.425269
1 0.544381 0.431586
0 0.685405 0.423468
0.0470436 0.704021 0.442039
0.150317 0.716747 0.455024
0.314031 0.711833 0.450675
0.503517 0.699245 0.438956
0.693339 0.685344 0.426322
0.856687 0.676951 0.419593
0.982162 0.677562 0.422263
1 0.680232 0.427329
0 0.832242 0.428168
0.053315 0.847608 0.445106
0.155627 0.85687 0.45655
0.316747 0.848524 0.451026
0.501381 0.832395 0.438285
0.684367 0.814893 0.424598
0.840223 0.80293 0.416632
0.959014 0.800031 0.417807
1 0.799619 0.421317
0 0.96437 0.430762
0.0638285 0.974914 0.446128
0.163134 0.979004 0.455451
0.318669 0.966751 0.448661
0.495811 0.94754 0.434836
0.67126 0.927886 0.420386
0.821012 0.91429 0.411643
0.935637 0.909911 0.41181
1 0.908354 0.414511
0 1 0.429419
0.0735027 1 0.442756
0.1682 1 0.450568
0.317342 1 0.44303
0.487938 1 0.428885
0.657557 1 0.41416
0.803342 1 0.405493
0.915618 1 0.405722
1 1 0.408759
0.026276 0.026276 0.026276
0.0456092 0.0456092 0.0456092
0.0655222 0.0655222 0.0655222
0.0869612 0.0869612 0.0869612
0.113329 0.110307 0.113313
0.171557 0.127352 0.155718
0.306798 0.122683 0.216983
0.516106 0.0955978 0.286885
0.733043 0.0690166 0.346807
0.0947585 0.0947585 0.0947585
0.119615 0.120897 0.121798
0.142214 0.150637 0.162036
0.181811 0.175387 0.220676
0.287007 0.179721 0.290547
0.477089 0.160891 0.353887
0.662852 0.147387 0.393393
0.828702 0.140276 0.431876
0.991241 0.135332 0.467689
0.137469 0.203784 0.221942
0.131121 0.242695 0.290532
0.152163 0.272953 0.370657
0.264317 0.278691 0.432792
0.441703 0.269581 0.459831
0.638956 0.256184 0.478691
0.823804 0.246921 0.495018
0.974853 0.247272 0.51133
1 0.25275 0.523308
0.018967 0.371313 0.41973
0.062211 0.398001 0.475181
0.155505 0.413611 0.513649
0.312581 0.412299 0.529
0.501152 0.403601 0.528328
0.695766 0.393545 0.520562
0.868528 0.388922 0.517128
1 0.393805 0.522255
1 0.401572 0.529931
0 0.530465 0.508675
0.054963 0.553017 0.532555
0.153002 0.569116 0.548363
0.315984 0.566827 0.545937
0.507637 0.556512 0.535622
0.70103 0.544961 0.524086
0.869062 0.538979 0.518151
1 0.54226 0.521492
1 0.547921 0.527245
0 0.689921 0.520851
0.0514382 0.708247 0.539254
0.154376 0.720485 0.55172
0.318029 0.71545 0.547097
0.507164 0.702602 0.534905
0.696483 0.688502 0.521721
0.85919 0.679927 0.51429
0.983856 0.680201 0.515999
1 0.682475 0.519844
0 0.835676 0.524514
0.0576638 0.850645 0.540841
0.159518 0.859251 0.551293
0.3205 0.850828 0.545205
0.504479 0.834409 0.531548
0.686412 0.816495 0.516625
0.841657 0.804501 0.507759
0.959854 0.801434 0.50779
1 0.800946 0.510277
0 0.966186 0.524636
0.0681773 0.976242 0.538872
0.167071 0.980072 0.547112
0.32195 0.967697 0.5393
0.498299 0.94844 0.524468
0.672816 0.928603 0.508812
0.822217 0.915206 0.499382
0.936507 0.910857 0.498726
1 0.909361 0.500694
0 1 0.519646
0.0773632 1 0.531945
0.171618 1 0.538796
0.320134 1 0.530388
0.49012 1 0.515465
0.65919 1 0.499992
0.804746 1 0.490806
0.916854 1 0.490486
1 1 0.492866
0.0329442 0.0329442 0.0329442
0.0525368 0.0525368 0.0525368
0.0728313 0.0728313 0.0728313
0.0949874 0.0949874 0.0949874
0.126009 0.118456 0.128069
0.199741 0.130648 0.186572
0.357626 0.117006 0.27042
0.575128 0.0855116 0.359792
0.765545 0.0669413 0.423423
0.103548 0.103548 0.103548
0.127337 0.131167 0.135409
0.148196 0.161303 0.188876
0.192889 0.182193 0.26836
0.312734 0.179934 0.363226
0.505501 0.159335 0.438025
0.686641 0.14725 0.4804
0.852537 0.139818 0.523705
1 0.135302 0.562432
0.12874 0.217639 0.264622
0.120699 0.254658 0.357015
0.148943 0.280568 0.458473
0.273777 0.282261 0.522744
0.454566 0.272282 0.553414
0.652873 0.258427 0.574563
0.836179 0.249165 0.591379
0.985 0.250568 0.607767
1 0.256458 0.620325
0.00611887 0.38085 0.514351
0.0660563 0.403311 0.56997
0.16054 0.418433 0.610483
0.318242 0.416892 0.626108
0.506554 0.40827 0.624857
0.701411 0.39794 0.617807
0.873335 0.393088 0.614374
1 0.398123 0.619516
1 0.405722 0.626886
0 0.536263 0.605341
0.0573892 0.558465 0.629419
0.156558 0.573938 0.645731
0.320348 0.571313 0.643381
0.511925 0.560784 0.632822
0.704967 0.548974 0.62092
0.872511 0.542748 0.614511
1 0.545861 0.61735
1 0.551369 0.622461
0 0.69427 0.618173
0.055787 0.712352 0.636316
0.158541 0.724239 0.648325
0.322072 0.71902 0.643336
0.51075 0.705867 0.630518
0.699367 0.691386 0.61648
0.861479 0.682689 0.608347
0.985397 0.682734 0.609049
1 0.684688 0.611734
0 0.838972 0.620569
0.0620432 0.853544 0.63621
0.16379 0.86183 0.645899
0.324163 0.852964 0.638773
0.507362 0.83621 0.624048
0.688472 0.818082 0.608057
0.843061 0.806027 0.598215
0.960723 0.802853 0.597192
1 0.802121 0.598489
0 0.96791 0.61799
0.0722972 0.977325 0.630777
0.170901 0.981003 0.638041
0.325109 0.968536 0.629191
0.500725 0.94931 0.613413
0.674556 0.929503 0.596872
0.823438 0.916136 0.586587
0.937392 0.911818 0.585138
1 0.910185 0.58616
0.00251774 1 0.609232
0.0808576 1 0.620264
0.174914 1 0.626413
0.322866 1 0.617197
0.492103 1 0.601373
0.660914 1 0.585458
0.806165 1 0.575723
0.918135 1 0.574899
1 1 0.576837
0.0396887 0.0396887 0.0396887
0.0595865 0.0595865 0.0595865
0.0805524 0.0805524 0.0805524
0.103838 0.103639 0.104463
0.140627 0.12578 0.148669
0.23183 0.131502 0.229236
0.41033 0.109041 0.338354
0.626276 0.076936 0.441764
0.79736 0.0646982 0.50515
0.112749 0.1131 0.113497
0.133852 0.141985 0.154482
0.152743 0.171374 0.226337
0.204089 0.187518 0.331548
0.337667 0.17882 0.449622
0.526864 0.159869 0.524239
0.709117 0.146914 0.571038
0.875273 0.139437 0.618738
1 0.13547 0.659495
0.116716 0.231006 0.321691
0.10927 0.265095 0.439506
0.147311 0.286381 0.55613
0.283543 0.285801 0.616205
0.46688 0.274922 0.649836
0.665873 0.260777 0.672358
0.847837 0.251911 0.689204
0.994003 0.254108 0.704845
1 0.260304 0.717968
0.00015259 0.3879 0.612467
0.0699168 0.408408 0.667185
0.164981 0.422889 0.708354
0.323308 0.421576 0.723949
0.511742 0.412863 0.722271
0.706722 0.402319 0.715465
0.878004 0.397498 0.711864
1 0.402426 0.716686
1 0.409827 0.723674
0 0.542077 0.70248
0.0601358 0.563729 0.727016
0.160174 0.578439 0.743191
0.324727 0.575677 0.740703
0.516106 0.564965 0.72987
0.708553 0.552682 0.717296
0.875898 0.546517 0.710658
1 0.549386 0.712825
1 0.554696 0.717159
0 0.698528 0.715404
0.0600748 0.716335 0.733181
0.162737 0.727947 0.744762
0.326055 0.722484 0.739239
0.514351 0.709102 0.72578
0.70219 0.69424 0.710811
0.863584 0.685313 0.701747
0.986725 0.685039 0.70132
1 0.686748 0.702861
0 0.8421 0.716213
0.066392 0.856291 0.731075
0.168078 0.864302 0.739971
0.327901 0.855055 0.731792
0.510185 0.837919 0.715862
0.69044 0.819608 0.698787
0.844358 0.807462 0.687922
0.961547 0.804227 0.685908
1 0.803372 0.686198
0 0.969451 0.710613
0.076585 0.978469 0.722179
0.174746 0.981933 0.728328
0.328161 0.96936 0.718395
0.502907 0.949996 0.701549
0.676249 0.930373 0.684321
0.824659 0.917067 0.673243
0.938247 0.912749 0.671
1 0.911238 0.671412
0.00663767 1 0.698131
0.0845808 1 0.708202
0.178149 1 0.713436
0.325551 1 0.703471
0.494255 1 0.686976
0.662654 1 0.670497
0.807614 1 0.660227
0.919295 1 0.658747
1 1 0.660471
0.0465705 0.0465705 0.0465705
0.0667277 0.0667277 0.0667277
0.0885023 0.0885023 0.0885023
0.113527 0.112535 0.117342
0.157809 0.132052 0.178454
0.267567 0.129747 0.286244
0.461845 0.0997482 0.419379
0.663661 0.0724346 0.525719
0.828092 0.0624247 0.591379
0.120867 0.123018 0.12607
0.138582 0.152956 0.181613
0.155734 0.180499 0.277195
0.21529 0.191119 0.411399
0.360861 0.177172 0.546242
0.547173 0.160342 0.614542
0.731106 0.146593 0.665644
0.896803 0.139193 0.716548
1 0.135897 0.758495
0.101869 0.243442 0.394934
0.0978256 0.273915 0.537194
0.148562 0.291051 0.658488
0.293065 0.289113 0.712932
0.478584 0.277516 0.748592
0.677714 0.263218 0.771435
0.858198 0.254963 0.787701
1 0.25774 0.802762
1 0.26424 0.815961
0.00105287 0.393408 0.70988
0.0737316 0.413321 0.76643
0.169406 0.427634 0.807828
0.327703 0.426413 0.822141
0.516777 0.417395 0.82034
0.711467 0.406409 0.813016
0.882368 0.401862 0.809201
1 0.406668 0.813718
1 0.413764 0.820127
0 0.547723 0.800305
0.0630655 0.568612 0.824903
0.164263 0.583047 0.84094
0.329046 0.579965 0.837919
0.520195 0.569024 0.826703
0.712291 0.556542 0.813703
0.879179 0.550225 0.8065
1 0.552911 0.80795
1 0.557733 0.811139
0 0.702754 0.812543
0.0640879 0.719966 0.829602
0.166888 0.731548 0.840894
0.329961 0.725811 0.83473
0.517845 0.712215 0.820554
0.705089 0.697154 0.804746
0.865644 0.687938 0.794598
0.98793 0.687282 0.792905
1 0.688594 0.793133
0 0.845136 0.81149
0.0706035 0.858778 0.82533
0.172244 0.866529 0.833341
0.331533 0.856977 0.824094
0.512779 0.839399 0.806836
0.692424 0.821118 0.788891
0.845609 0.808835 0.776959
0.96231 0.805524 0.773968
1 0.804654 0.773388
0 0.970794 0.802457
0.0808118 0.979522 0.812894
0.178531 0.982818 0.817945
0.331243 0.970184 0.807004
0.505135 0.950744 0.789166
0.677913 0.931243 0.771191
0.825864 0.917998 0.75938
0.939132 0.913695 0.756405
1 0.912322 0.756252
0.0106661 1 0.786374
0.0882582 1 0.795575
0.181369 1 0.799954
0.328176 1 0.789212
0.496406 1 0.772152
0.664424 1 0.755138
0.80911 1 0.744366
0.920623 1 0.742397
1 1 0.74377
0.0535744 0.0535744 0.0535744
0.0741588 0.0741588 0.0741588
0.0965591 0.0965591 0.0965591
0.123796 0.121172 0.13547
0.177493 0.13669 0.220493
0.30631 0.125414 0.359335
0.511574 0.0900893 0.512428
0.692866 0.0705272 0.610422
0.858366 0.0598459 0.682383
0.127565 0.133333 0.143481
0.141085 0.163531 0.219287
0.157153 0.188144 0.342733
0.226383 0.192996 0.507179
0.381216 0.176181 0.646464
0.56701 0.160647 0.708751
0.752346 0.146319 0.763317
0.917067 0.139147 0.816297
1 0.136629 0.858656
0.0850385 0.254505 0.484779
0.0878004 0.280995 0.646464
0.153811 0.295155 0.757305
0.302403 0.292302 0.812253
0.489632 0.280171 0.848936
0.688396 0.265782 0.871061
0.867277 0.258381 0.886152
1 0.261494 0.900893
1 0.268254 0.913603
0.00361639 0.398627 0.8094
0.0773938 0.418067 0.866773
0.173465 0.43241 0.907713
0.331838 0.431266 0.920485
0.521706 0.421927 0.918456
0.716243 0.410788 0.910475
0.886641 0.406195 0.906065
1 0.410834 0.910185
1 0.417716 0.916045
0 0.553155 0.898451
0.066392 0.573449 0.922759
0.168597 0.587564 0.938155
0.333394 0.584253 0.934691
0.524117 0.572915 0.922881
0.715938 0.560342 0.909438
0.882307 0.553826 0.901579
1 0.556374 0.902251
1 0.561028 0.904494
0 0.706889 0.909163
0.068452 0.723857 0.925765
0.17113 0.735119 0.936431
0.333883 0.729061 0.929488
0.520989 0.714931 0.914183
0.707805 0.699901 0.897627
0.867582 0.69044 0.886397
0.988998 0.689372 0.883375
1 0.690593 0.882582
0 0.847944 0.905852
0.0751354 0.861387 0.918914
0.176364 0.86865 0.925719
0.335012 0.858732 0.915251
0.515511 0.840986 0.896941
0.694377 0.822614 0.877974
0.846891 0.810254 0.865049
0.962921 0.806638 0.860899
1 0.805936 0.859678
0.00358587 0.971862 0.89308
0.0849775 0.980484 0.90251
0.182208 0.983642 0.906477
0.334264 0.970993 0.894636
0.507454 0.951598 0.875975
0.679606 0.932143 0.857221
0.827085 0.918959 0.844694
0.940002 0.914641 0.84097
1 0.913466 0.84036
0.0145418 1 0.873625
0.0918441 1 0.882017
0.184543 1 0.885618
0.330648 1 0.874052
0.498604 1 0.856565
0.666224 1 0.839048
0.810666 1 0.827817
0.922087 1 0.825467
1 1 0.825666
