assets/cube/cross_process_cp15.cube
TITLE "Generated by Resolve"
LUT_3D_SIZE 5
0 0.00488289 0.00502022
0.0151827 0 0
0.193103 0 0
0.621927 0 0
1 0 0
0 0.0435187 0
0.0133974 0.0529793 0
0.210101 0.0306249 0
0.659251 0 0
1 0 0
0 0.180331 0
0 0.21181 0
0.213199 0.212543 0
0.686351 0.154299 0
1 0.0267948 0
0 0.436744 0
0 0.49337 0
0.195987 0.519982 0
0.69575 0.488334 0
1 0.388067 0
0 0.82681 0
0 0.910903 0
0.154788 0.965576 0
0.683162 0.962554 0
1 0.891447 0
0 0.00184634 0.0458076
0.0133516 0 0.039826
0.192874 0 0.00030518
0.623514 0 0
1 0 0
0 0.0458228 0.0327153
0.0177462 0.0573281 0.0442206
0.216617 0.0371405 0.0240482
0.668055 0 0
1 0 0
0 0.18999 0
0.00549325 0.223896 0.0319677
0.227771 0.227115 0.0352026
0.703517 0.17145 0
1 0.0466011 0
0 0.454856 0
0 0.514153 0
0.219532 0.543526 0.0269474
0.722072 0.514672 0
1 0.417258 0
0 0.85417 0
0 0.941146 0
0.187976 0.998764 0
0.719341 0.998734 0
1 0.930678 0
0 0 0.1682
0.00572213 0 0.163607
0.186923 0 0.125765
0.619455 0 0.0269017
1 0 0
0 0.0424964 0.1608
0.016495 0.0560769 0.174395
0.217578 0.038117 0.15642
0.671336 0 0.0787823
1 0 0
0 0.194141 0.133639
0.0120851 0.230488 0.169986
0.236896 0.23624 0.175738
0.715236 0.183185 0.122683
1 0.0609903 0.000488289
0 0.467552 0.0823987
0 0.529549 0.144396
0.237675 0.561669 0.176516
0.743053 0.535653 0.1505
1 0.441123 0.0559701
0 0.876204 0.00424201
0 0.966079 0.0941176
0.215854 1 0.154696
0.750225 1 0.157671
1 0.964614 0.0926528
0 0 0.387823
0 0 0.384741
0.17406 0 0.348669
0.60853 0 0.251728
1 0 0.0838636
0 0.0323186 0.386374
0.0084535 0.0480354 0.402106
0.211795 0.0323186 0.386389
0.667887 0 0.311086
1 0 0.165957
0 0.191577 0.366827
0.0119936 0.230396 0.405646
0.239353 0.238697 0.413947
0.720333 0.188281 0.363531
1 0.0687877 0.244038
0 0.47361 0.324208
0 0.538338 0.388937
0.249256 0.573251 0.42385
0.757473 0.550072 0.400671
1 0.458442 0.309041
0 0.891661 0.255467
0 0.984466 0.348257
0.237217 1 0.41181
0.774609 1 0.417807
1 0.992081 0.355871
0 0 0.715373
0 0 0.713893
0.15349 0 0.679637
0.589944 0 0.584695
1 0 0.418967
0 0.0144808 0.720104
0 0.0323796 0.738003
0.198428 0.0189517 0.724575
0.656916 0 0.651652
1 0 0.50901
0 0.181491 0.708293
0.00440986 0.222797 0.749615
0.234348 0.233692 0.760494
0.717968 0.185916 0.712718
1 0.0691539 0.595956
0 0.472236 0.674388
0 0.539712 0.741863
0.253422 0.577417 0.779568
0.764508 0.557107 0.759258
1 0.468391 0.670558
0 0.899763 0.615106
0 0.995499 0.710842
0.25124 1 0.777386
0.791669 1 0.786419
1 1 0.727581
