assets/cube/cross_process_cp15.cube
TITLE "Generated by Resolve"
LUT_3D_SIZE 33
0 0.00488289 0.00502022
0 0.00270085 0.00283818
0 0.00128176 0.00141909
0 0.000549325 0.000701915
0 0.000427253 0.000564584
0.000381476 0.000503548 0.000640879
0.00283818 0.00015259 0.000289921
0.00767529 0 0
0.0151827 0 0
0.0255894 0 0
0.0390936 0 0
0.055848 0 0
0.0760204 0 0
0.0997024 0 0
0.127047 0 0
0.158145 0 0
0.193103 0 0
0.232013 0 0
0.274968 0 0
0.322042 0 0
0.373312 0 0
0.42887 0 0
0.488777 0 0
0.553109 0 0
0.621927 0 0
0.695293 0 0
0.773266 0 0
0.855924 0 0
0.943297 0 0
1 0 0
1 0 0
1 0 0
1 0 0
0 0.0055848 0.00396735
0 0.00354009 0.00192264
0 0.00228885 0.000671397
0 0.00173953 0.000122072
0 0.00181582 0.000198367
0.000198367 0.00209049 0.00047303
0.00288396 0.00195315 0.000335698
0.00793469 0.00125124 0
0.0156558 0 0
0.0262913 0 0
0.0400397 0 0
0.0570382 0 0
0.0774395 0 0
0.101396 0 0
0.128985 0 0
0.160357 0 0
0.195575 0 0
0.234745 0 0
0.277974 0 0
0.325322 0 0
0.376883 0 0
0.432731 0 0
0.492927 0 0
0.557549 0 0
0.626657 0 0
0.700328 0 0
0.778607 0 0
0.861555 0 0
0.949248 0 0
1 0 0
1 0 0
1 0 0
1 0 0
0 0.00721752 0.002533
0 0.00537118 0.000686656
0 0.0043183 0
0 0.0039826 0
0 0.00427253 0
0 0.00477607 9.15541e-05
0.00273136 0.00486763 0.000183108
0.00801099 0.00440986 0
0.0159915 0.00332647 0
0.0268711 0.00155642 0
0.0408789 0 0
0.0581369 0 0
0.0788128 0 0
0.103014 0 0
0.130892 0 0
0.162524 0 0
0.198032 0 0
0.237491 0 0
0.280995 0 0
0.328649 0 0
0.380499 0 0
0.436637 0 0
0.497124 0 0
0.562051 0 0
0.631479 0 0
0.705455 0 0
0.784039 0 0
0.867308 0 0
0.955322 0 0
1 0 0
1 0 0
1 0 0
1 0 0
0 0.00994888 0.000747692
0 0.00833143 0
0 0.00750744 0
0 0.00741588 0
0 0.00793469 0
0 0.00868238 0
0.00236515 0.00903334 0
0.00790417 0.00883497 0
0.016144 0.00801099 0
0.0272984 0.00650034 0
0.0415656 0.00424201 0
0.0590982 0.00122072 0
0.0800488 0 0
0.10454 0 0
0.132692 0 0
0.164614 0 0
0.200412 0 0
0.240177 0 0
0.283986 0 0
0.331914 0 0
0.384085 0 0
0.440528 0 0
0.501335 0 0
0.566567 0 0
0.636301 0 0
0.710597 0 0
0.789502 0 0
0.873106 0 0
0.96144 0 0
1 0 0
1 0 0
1 0 0
1 0 0
0 0.013901 0
0 0.0125277 0
0 0.0119478 0
0 0.0121157 0
0 0.0128939 0
0 0.013901 0
0.00177005 0.0145113 0
0.00758373 0.0145876 0
0.0160983 0.0140383 0
0.0275273 0.0128023 0
0.0420691 0.0108339 0
0.0598917 0.00810254 0
0.0811322 0.00454719 0
0.105913 0.00015259 0
0.134371 0 0
0.166598 0 0
0.202686 0 0
0.242756 0 0
0.28687 0 0
0.335119 0 0
0.387594 0 0
0.444358 0 0
0.505486 0 0
0.571038 0 0
0.641093 0 0
0.715709 0 0
0.794965 0 0
0.878889 0 0
0.967559 0 0
1 0 0
1 0 0
1 0 0
1 0 0
0 0.0191653 0
0 0.0180514 0
0 0.017731 0
0 0.0181582 0
0 0.0192264 0
0 0.0205081 0
0.000915541 0.0213931 0
0.00701915 0.0217594 0
0.0158083 0.0214847 0
0.0275273 0.0205539 0
0.0423743 0.0188754 0
0.0604868 0.016434 0
0.0820325 0.0131838 0
0.107118 0.00907912 0
0.135882 0.00411994 0
0.168414 0 0
0.204822 0 0
0.245197 0 0
0.289631 0 0
0.338201 0 0
0.390997 0 0
0.448081 0 0
0.509529 0 0
0.575418 0 0
0.645823 0 0
0.720775 0 0
0.800351 0 0
0.884611 0 0
0.973632 0 0
1 0 0
1 0 0
1 0 0
1 0 0
0 0.0258183 0
0 0.0249638 0
0 0.0249332 0
0 0.0256504 0
0 0.026978 0
0 0.0285649 0
0 0.0297398 0
0.0061799 0.030396 0
0.0152743 0.0304265 0
0.0272984 0.0297856 0
0.0424353 0.0284123 0
0.0608682 0.026276 0
0.0827192 0.0233463 0
0.108125 0.0195621 0
0.137194 0.0149081 0
0.170047 0.00935378 0
0.206775 0.00288396 0
0.247471 0 0
0.292241 0 0
0.341131 0 0
0.394263 0 0
0.451682 0 0
0.513466 0 0
0.579705 0 0
0.650431 0 0
0.725734 0 0
0.805661 0 0
0.890272 0 0
0.979629 0 0
1 0 0
1 0 0
1 0 0
1 0 0
0 0.0339208 0
0 0.0333562 0
0 0.0336156 0
0 0.0346075 0
0 0.0362402 0
0 0.038117 0
0 0.0396124 0
0.005066 0.0405585 0
0.0144808 0.0409094 0
0.0268101 0.0405737 0
0.0422675 0.0395209 0
0.0610056 0.037705 0
0.0831769 0.0350805 0
0.108904 0.0316167 0
0.138308 0.0272984 0
0.171481 0.0220645 0
0.208545 0.0159152 0
0.249577 0.00883497 0
0.294667 0.000762951 0
0.343908 0 0
0.397375 0 0
0.455131 0 0
0.517266 0 0
0.583841 0 0
0.654917 0 0
0.730556 0 0
0.810834 0 0
0.895811 0 0
0.985519 0 0
1 0 0
1 0 0
1 0 0
1 0 0
0 0.0435187 0
0 0.0432593 0
0 0.0438087 0
0 0.0451209 0
0 0.0470588 0
0 0.0492409 0
0 0.0510414 0
0.00367742 0.0523079 0
0.0133974 0.0529793 0
0.0260471 0.0529641 0
0.0418402 0.0522316 0
0.0608988 0.0507362 0
0.0834058 0.0484474 0
0.109453 0.0453193 0
0.139193 0.0413214 0
0.172702 0.0364385 0
0.210101 0.0306249 0
0.251469 0.0238651 0
0.29691 0.016144 0
0.346487 0.0074464 0
0.40029 0 0
0.458412 0 0
0.520897 0 0
0.587808 0 0
0.659251 0 0
0.735256 0 0
0.815885 0 0
0.901213 0 0
0.991287 0 0
1 0 0
1 0 0
1 0 0
1 0 0
0 0.0546883 0
0 0.0547341 0
0 0.0556039 0
0 0.0572213 0
0 0.0594797 0
0 0.0619821 0
0 0.0641031 0
0.00198367 0.0656901 0
0.0120241 0.0666819 0
0.0250095 0.0670024 0
0.0411231 0.0666056 0
0.0605325 0.0654459 0
0.08336 0.0634775 0
0.109758 0.0606851 0
0.139818 0.0570382 0
0.173678 0.052491 0
0.211414 0.0470283 0
0.253147 0.0406195 0
0.298924 0.0332494 0
0.348867 0.0248875 0
0.403021 0.0155184 0
0.461494 0.00512703 0
0.52433 0 0
0.591608 0 0
0.663401 0 0
0.739773 0 0
0.820768 0 0
0.906462 0 0
0.996902 0 0
1 0 0
1 0 0
1 0 0
1 0 0
0 0.0674754 0
0 0.0678264 0
0 0.0690166 0
0 0.0709544 0
0 0.0735485 0
0 0.0763714 0
0 0.0788128 0
0 0.0807507 0
0.0103609 0.082063 0
0.023682 0.0827192 0
0.0401312 0.0826581 0
0.0598764 0.0818494 0
0.0830396 0.0802319 0
0.109789 0.0777905 0
0.1402 0.0744793 0
0.174411 0.0702831 0
0.212497 0.0651713 0
0.254582 0.0591135 0
0.300725 0.0520943 0
0.351003 0.0440986 0
0.405539 0.0350958 0
0.464363 0.0250553 0
0.527565 0.0139925 0
0.595209 0.00184634 0
0.667369 0 0
0.744106 0 0
0.825483 0 0
0.911543 0 0
1 0 0
1 0 0
1 0 0
1 0 0
1 0 0
0 0.0819104 0
0 0.0825971 0
0 0.0841077 0
0 0.0863813 0
0 0.0892958 0
0 0.0924544 0
0 0.0952468 0
0 0.0975204 0
0.00836194 0.0991836 0
0.022034 0.100175 0
0.0388342 0.100465 0
0.0589151 0.0999924 0
0.0824445 0.0987259 0
0.109545 0.0966354 0
0.140322 0.0936904 0
0.174884 0.0898451 0
0.213336 0.0850843 0
0.255756 0.0793927 0
0.302266 0.0727398 0
0.352926 0.0651102 0
0.407813 0.0564736 0
0.467002 0.0467994 0
0.530587 0.0361028 0
0.598596 0.0243381 0
0.671138 0.01149 0
0.748241 0 0
0.829999 0 0
0.916442 0 0
1 0 0
1 0 0
1 0 0
1 0 0
1 0 0
0 0.0980392 0
0 0.0990616 0
0 0.100908 0
0 0.103517 0
0 0.106783 0
0 0.110292 0
0 0.11342 0
0 0.11603 0
0.00605783 0.118044 0
0.0200809 0.119402 0
0.037232 0.120043 0
0.0576791 0.119921 0
0.0815595 0.11902 0
0.10901 0.117281 0
0.140139 0.114687 0
0.175067 0.111208 0
0.213886 0.106828 0
0.256687 0.101503 0
0.303563 0.0952163 0
0.354589 0.087953 0
0.409842 0.0796826 0
0.469413 0.0703899 0
0.533364 0.0600595 0
0.601755 0.0486763 0
0.674678 0.0362097 0
0.752163 0.0226596 0
0.834287 0.00799573 0
0.921126 0 0
1 0 0
1 0 0
1 0 0
1 0 0
1 0 0
0 0.115908 0
0 0.117281 0
0 0.119463 0
0 0.122423 0
0 0.126024 0
0 0.129885 0
0 0.133379 0
0 0.136339 0
0.00341802 0.138705 0
0.017792 0.140414 0
0.0353094 0.141421 0
0.0561074 0.141665 0
0.080354 0.141115 0
0.108171 0.139757 0
0.139681 0.13753 0
0.174975 0.134417 0
0.21416 0.130404 0
0.257328 0.125444 0
0.304585 0.119539 0
0.355978 0.112657 0
0.411627 0.104753 0
0.471565 0.0958572 0
0.535897 0.0859083 0
0.604685 0.0748913 0
0.677974 0.0628214 0
0.755856 0.0496529 0
0.838376 0.0353704 0
0.925582 0.0199741 0
1 0.00344854 0
1 0 0
1 0 0
1 0 0
1 0 0
0 0.135561 0
0 0.13727 0
0 0.139818 0
0 0.14313 0
0 0.147082 0
0 0.151308 0
0 0.155138 0
0 0.15848 0
0.000427253 0.161212 0
0.0151675 0.163272 0
0.033051 0.164645 0
0.0542306 0.165255 0
0.0788434 0.165087 0
0.107027 0.164096 0
0.138903 0.162234 0
0.174578 0.159503 0
0.214145 0.155856 0
0.257694 0.151293 0
0.305318 0.145754 0
0.357107 0.139254 0
0.413123 0.131746 0
0.473457 0.123217 0
0.53817 0.113649 0
0.60734 0.103044 0
0.681041 0.0913558 0
0.759304 0.0785687 0
0.842206 0.0646982 0
0.929824 0.0496834 0
1 0.0335546 0
1 0.0162661 0
1 0 0
1 0 0
1 0 0
0 0.157015 0
0 0.159091 0
0 0.16199 0
0 0.165652 0
0 0.169986 0
0 0.174563 0
0 0.178759 0
0 0.182467 0
0 0.185565 0
0.0122072 0.188006 0
0.030457 0.189746 0
0.052018 0.190738 0
0.0770123 0.190936 0
0.105577 0.190311 0
0.137835 0.188846 0
0.173877 0.186496 0
0.213825 0.18323 0
0.257755 0.179034 0
0.305776 0.173892 0
0.357946 0.167773 0
0.414359 0.160662 0
0.475074 0.152529 0
0.540185 0.143359 0
0.609751 0.133135 0
0.683833 0.121828 0
0.762493 0.109453 0
0.845808 0.095964 0
0.933806 0.0813611 0
1 0.0656291 0
1 0.0487526 0
1 0.0307012 0
1 0.01149 0
1 0 0
0 0.180331 0
0 0.182757 0
0 0.186023 0
0 0.190051 0
0 0.194751 0
0 0.199695 0
0 0.204273 0
0 0.208331 0
0 0.21181 0
0.00891127 0.214633 0
0.0275273 0.216754 0
0.0494545 0.218112 0
0.0748302 0.218708 0
0.103792 0.218463 0
0.136431 0.21738 0
0.172854 0.215412 0
0.213199 0.212543 0
0.257527 0.208743 0
0.305928 0.203983 0
0.35848 0.19826 0
0.41529 0.191531 0
0.476417 0.183795 0
0.541909 0.175021 0
0.611872 0.165194 0
0.686351 0.154299 0
0.765423 0.142321 0
0.849134 0.129244 0
0.937545 0.115038 0
1 0.0997177 0
1 0.083238 0
1 0.0655985 0
1 0.0467842 0
1 0.0267948 0
0 0.205509 0
0 0.208301 0
0 0.211933 0
0 0.216342 0
0 0.221408 0
0 0.226734 0
0 0.231693 0
0 0.236133 0
0 0.239994 0
0.00523384 0.243183 0
0.0242466 0.245686 0
0.0465553 0.24744 0
0.0723278 0.248417 0
0.101656 0.248569 0
0.134691 0.247868 0
0.171511 0.246296 0
0.212238 0.243809 0
0.256962 0.240406 0
0.30576 0.236057 0
0.358724 0.230716 0
0.41593 0.224399 0
0.477455 0.21706 0
0.543359 0.208682 0
0.613718 0.199268 0
0.688609 0.188769 0
0.768078 0.177203 0
0.852201 0.164523 0
0.941024 0.150729 0
1 0.135821 0
1 0.119753 0
1 0.102525 0
1 0.084123 0
1 0.0645457 0
0 0.232593 0
0 0.235767 0
0 0.23978 0
0 0.244556 0
0 0.250004 0
0 0.255711 0
0 0.261051 0
0 0.265873 0
0 0.270115 0
0.00120546 0.273701 0
0.0205997 0.2766 0
0.0433051 0.278737 0
0.0694591 0.280095 0
0.0991989 0.280644 0
0.132616 0.280339 0
0.169848 0.279164 0
0.210971 0.277089 0
0.256092 0.274083 0
0.305287 0.270115 0
0.358648 0.265187 0
0.416251 0.259266 0
0.478187 0.252338 0
0.544488 0.244373 0
0.615259 0.235355 0
0.690562 0.225269 0
0.770443 0.214115 0
0.854978 0.201846 0
0.944213 0.188479 0
1 0.173968 0
1 0.158328 0
1 0.141512 0
1 0.123537 0
1 0.104372 0
0 0.261616 0
0 0.265171 0
0 0.269566 0
0 0.274723 0
0 0.280552 0
0 0.286641 0
0 0.292378 0
0 0.297597 0
0 0.30222 0
0 0.306203 0
0.0166018 0.309483 0
0.0396887 0.312032 0
0.0662394 0.313787 0
0.096376 0.314733 0
0.130205 0.314824 0
0.167819 0.314046 0
0.209354 0.312367 0
0.254871 0.309773 0
0.304479 0.306218 0
0.358251 0.301701 0
0.416266 0.296178 0
0.478599 0.289662 0
0.545327 0.282109 0
0.61651 0.273503 0
0.692226 0.263844 0
0.772519 0.253086 0
0.857466 0.241245 0
0.947112 0.22829 0
1 0.214206 0
1 0.198978 0
1 0.182589 0
1 0.165026 0
1 0.146288 0
0 0.292607 0
0 0.296544 0
0 0.30132 0
0 0.306874 0
0 0.3131 0
0 0.31957 0
0 0.325689 0
0 0.331304 0
0 0.336339 0
0 0.340719 0
0.0122072 0.344396 0
0.0357214 0.347341 0
0.0626688 0.349508 0
0.0932021 0.350851 0
0.127428 0.351354 0
0.165454 0.350973 0
0.207401 0.349706 0
0.25333 0.347509 0
0.303349 0.344366 0
0.357519 0.340261 0
0.415961 0.335164 0
0.478706 0.329046 0
0.545846 0.32192 0
0.617441 0.313726 0
0.693568 0.304479 0
0.774289 0.294148 0
0.859648 0.282734 0
0.949737 0.270191 0
1 0.256535 0
1 0.241718 0
1 0.225757 0
1 0.208637 0
1 0.190326 0
0 0.325597 0
0 0.329915 0
0 0.335088 0
0 0.341039 0
0 0.347646 0
0 0.354528 0
0 0.361044 0
0 0.367056 0
0 0.372488 0
0 0.377264 0
0.0074464 0.381353 0
0.0313573 0.384695 0
0.0587167 0.387259 0
0.089662 0.389013 0
0.1243 0.389929 0
0.162737 0.389975 0
0.205081 0.38912 0
0.251438 0.387335 0
0.301869 0.384604 0
0.356466 0.380911 0
0.415305 0.376226 0
0.478477 0.370535 0
0.546029 0.363821 0
0.618051 0.356054 0
0.694606 0.347234 0
0.775753 0.337331 0
0.86154 0.326329 0
0.952041 0.314214 0
1 0.300984 0
1 0.28661 0
1 0.271077 0
1 0.254383 0
1 0.2365 0
0 0.360586 0
0 0.365316 0
0 0.370886 0
0 0.377218 0
0 0.384237 0
0 0.391516 0
0 0.398444 0
0 0.404852 0
0 0.410697 0
0 0.415885 0
0.00230411 0.420371 0
0.026627 0.424125 0
0.0543984 0.427115 0
0.0857557 0.429282 0
0.120806 0.430594 0
0.159655 0.431052 0
0.202426 0.43061 0
0.24918 0.429252 0
0.300038 0.426947 0
0.355047 0.423667 0
0.414328 0.419409 0
0.477913 0.414145 0
0.545892 0.407843 0
0.618341 0.400504 0
0.695323 0.392111 0
0.776883 0.382635 0
0.863111 0.372061 0
0.95404 0.360372 0
1 0.34757 0
1 0.333639 0
1 0.318532 0
1 0.302281 0
1 0.28484 0
0 0.397635 0
0 0.402747 0
0 0.408728 0
0 0.415473 0
0 0.422889 0
0 0.430579 0
0 0.437903 0
0 0.444739 0
0 0.45098 0
0 0.45658 0
0 0.461479 0
0.0215 0.46566 0
0.0496834 0.469047 0
0.0814679 0.471641 0
0.11693 0.473381 0
0.156207 0.47425 0
0.19939 0.474235 0
0.246571 0.473289 0
0.297856 0.471412 0
0.353292 0.468559 0
0.412985 0.464729 0
0.476997 0.459876 0
0.545419 0.454017 0
0.618296 0.447105 0
0.695705 0.439139 0
0.777707 0.430091 0
0.864347 0.419959 0
0.955718 0.408713 0
1 0.396338 0
1 0.382834 0
1 0.36817 0
1 0.352346 0
1 0.335348 0
0 0.436744 0
0 0.442267 0
0 0.448646 0
0 0.455802 0
0 0.46363 0
0 0.471733 0
0 0.479469 0
0 0.486717 0
0 0.49337 0
0 0.499382 0
0 0.504707 0
0.0159915 0.5093 0
0.0446021 0.513115 0
0.0767834 0.516121 0
0.112688 0.518288 0
0.152377 0.519585 0
0.195987 0.519982 0
0.24361 0.519478 0
0.295308 0.518013 0
0.351171 0.515602 0
0.411307 0.512184 0
0.475746 0.507774 0
0.544594 0.502342 0
0.617899 0.495872 0
0.69575 0.488334 0
0.77818 0.479728 0
0.865278 0.470024 0
0.957076 0.45922 0
1 0.447288 0
1 0.434226 0
1 0.420005 0
1 0.404623 0
1 0.388067 0
0 0.477943 0
0 0.483879 0
0 0.490669 0
0 0.498238 0
0 0.506477 0
0 0.514992 0
0 0.523156 0
0 0.530816 0
0 0.537896 0
0 0.54432 0
0 0.550072 0
0.0100862 0.555077 0
0.0391089 0.559319 0
0.0717327 0.562753 0
0.108049 0.565347 0
0.14818 0.567071 0
0.192218 0.56791 0
0.240253 0.567819 0
0.292393 0.566796 0
0.348699 0.564813 0
0.409247 0.561837 0
0.474128 0.557855 0
0.54342 0.552865 0
0.617166 0.546822 0
0.695445 0.539727 0
0.778317 0.531563 0
0.865843 0.522301 0
0.958099 0.51194 0
1 0.50045 0
1 0.487831 0
1 0.474052 0
1 0.459113 0
1 0.443 0
0 0.521263 0
0 0.527611 0
0 0.534813 0
0 0.542809 0
0 0.551461 0
0 0.560403 0
0 0.568978 0
0 0.57705 0
0 0.584558 0
0 0.591424 0
0 0.597589 0
0.00376898 0.603037 0
0.0332341 0.607706 0
0.0662699 0.611566 0
0.103029 0.614588 0
0.143587 0.616739 0
0.188052 0.618006 0
0.23653 0.618357 0
0.289097 0.617761 0
0.345846 0.61622 0
0.406836 0.613687 0
0.47216 0.610147 0
0.541878 0.605585 0
0.616068 0.599985 0
0.694789 0.593332 0
0.778103 0.585611 0
0.866087 0.576791 0
0.958785 0.566873 0
1 0.55584 0
1 0.543664 0
1 0.530343 0
1 0.515846 0
1 0.500191 0
0 0.56672 0
0 0.573495 0
0 0.581109 0
0 0.589517 0
0 0.598611 0
0 0.607965 0
0 0.616968 0
0 0.625467 0
0 0.633402 0
