assets/cube/cross_process_cp6.cube
TITLE "Generated by Resolve"
LUT_3D_SIZE 9
0 0 0.00163272
0.0216068 0.01561 0.0306706
0.0476692 0.0321355 0.0601816
0.082063 0.0466163 0.0879377
0.127947 0.0592966 0.11371
0.18822 0.0709239 0.138338
0.264179 0.0828107 0.163912
0.352285 0.0954299 0.190768
0.44979 0.10721 0.214588
0.0629435 0.0615091 0.0964675
0.0893568 0.0804608 0.126711
0.124407 0.100603 0.158175
0.180636 0.119677 0.188083
0.258412 0.136385 0.212863
0.3523 0.149828 0.229694
0.453162 0.163149 0.241047
0.541985 0.175586 0.245487
0.614435 0.182742 0.240101
0.118547 0.152773 0.192615
0.153719 0.18201 0.223346
0.198734 0.209827 0.245563
0.272084 0.231022 0.256092
0.358251 0.240742 0.250858
0.444068 0.241352 0.235203
0.5187 0.23917 0.217578
0.578302 0.238209 0.204074
0.640513 0.239536 0.197421
0.145342 0.281941 0.244678
0.177005 0.304311 0.249287
0.213886 0.31603 0.241962
0.277592 0.315541 0.224872
0.356634 0.309239 0.205676
0.443702 0.30248 0.190707
0.530755 0.301442 0.185458
0.613764 0.310903 0.19028
0.703487 0.328695 0.203204
0.119631 0.368429 0.206592
0.147677 0.37705 0.202289
0.189075 0.384665 0.20148
0.267704 0.389136 0.199283
0.37229 0.396918 0.199222
0.494118 0.412238 0.206622
0.615579 0.437049 0.225498
0.722347 0.470863 0.256718
0.815534 0.500862 0.286717
0.0978866 0.452811 0.187472
0.144915 0.480949 0.204517
0.214084 0.51487 0.228183
0.327672 0.544244 0.250935
0.463172 0.570748 0.275608
0.601846 0.597436 0.302708
0.725246 0.625879 0.332387
0.824277 0.655772 0.364431
0.906645 0.677791 0.389029
0.149187 0.621485 0.248615
0.227375 0.664561 0.29099
0.31696 0.704143 0.331441
0.437736 0.731853 0.361135
0.567758 0.750835 0.383261
0.691981 0.764096 0.400488
0.794919 0.774334 0.414878
0.871824 0.784085 0.428351
0.940932 0.794568 0.442588
0.26157 0.805829 0.360159
0.334539 0.8383 0.396887
0.411032 0.861509 0.425086
0.511223 0.868879 0.437217
0.619883 0.869169 0.442008
0.727138 0.868711 0.446021
0.819913 0.871351 0.452934
0.892683 0.878508 0.464088
0.958862 0.88719 0.476539
0.331655 0.930282 0.426917
0.389731 0.947341 0.449851
0.453346 0.959136 0.466911
0.545449 0.961334 0.47396
0.64921 0.959991 0.477226
0.752194 0.958434 0.479957
0.841764 0.960204 0.48574
0.912566 0.966812 0.496056
0.977508 0.97525 0.508003
0.00547799 0.00358587 0.0112612
0.0292821 0.0215305 0.0440833
0.0556649 0.0375677 0.0754406
0.0914015 0.0517281 0.10544
0.13994 0.064332 0.134234
0.204349 0.0760815 0.162737
0.284703 0.0879225 0.192401
0.375509 0.100267 0.222934
0.474006 0.111696 0.249912
0.0691691 0.0677653 0.114916
0.0964218 0.0869917 0.148516
0.133623 0.108232 0.184894
0.192767 0.127687 0.21886
0.273045 0.143908 0.246342
0.369024 0.156893 0.265522
0.47042 0.169665 0.278859
0.553582 0.179873 0.282307
0.6215 0.185199 0.276616
0.124529 0.162646 0.224109
0.15993 0.191653 0.257603
0.205966 0.21973 0.282902
0.279255 0.239017 0.29395
0.363424 0.245701 0.287617
0.447562 0.244251 0.271778
0.52134 0.240848 0.255039
0.581399 0.239521 0.243565
0.646342 0.241581 0.240665
0.147112 0.290013 0.282094
0.177523 0.309468 0.285924
0.213809 0.31931 0.278904
0.27776 0.317723 0.26305
0.357961 0.311116 0.246204
0.4477 0.305135 0.234958
0.538109 0.305852 0.233127
0.625147 0.317998 0.242252
0.717189 0.337865 0.259236
0.118837 0.371557 0.246082
0.147585 0.379873 0.244053
0.190951 0.3888 0.247211
0.272526 0.395605 0.248585
0.38117 0.406149 0.252979
0.506828 0.424033 0.265156
0.630045 0.450431 0.287816
0.73666 0.485069 0.321386
0.829007 0.514534 0.351003
0.101198 0.461051 0.238102
0.151827 0.492439 0.260227
0.224628 0.528283 0.288426
0.340978 0.558404 0.314382
0.477516 0.585092 0.340551
0.615824 0.611414 0.367437
0.738033 0.638895 0.396201
0.835096 0.66714 0.426474
0.915511 0.687556 0.44918
0.162692 0.635889 0.31284
0.241947 0.678904 0.356039
0.33106 0.717678 0.395865
0.45037 0.743755 0.423987
0.578729 0.761181 0.444434
0.700496 0.77232 0.459159
0.800702 0.780194 0.470481
0.876768 0.789334 0.482826
0.945418 0.799573 0.496269
0.274632 0.817288 0.422812
0.345647 0.847532 0.45713
0.419699 0.868437 0.48249
0.517571 0.87396 0.492103
0.625681 0.874067 0.496223
0.732387 0.873457 0.499519
0.824521 0.875792 0.505547
0.897154 0.883009 0.516274
0.963119 0.891661 0.528191
0.340139 0.936294 0.483146
0.396796 0.9523 0.504265
0.459464 0.963516 0.520088
0.551125 0.965637 0.526513
0.654444 0.964263 0.529198
0.757061 0.962707 0.531426
0.84622 0.964355 0.536583
0.917082 0.971176 0.546715
0.981949 0.979706 0.558358
0.0129397 0.00981155 0.0242008
0.0367132 0.0271916 0.0587472
0.0637064 0.0429694 0.0923934
0.100984 0.0568856 0.124971
0.152178 0.0693675 0.156985
0.22118 0.0813153 0.190036
0.305974 0.0931258 0.224109
0.398779 0.105074 0.258091
0.497887 0.11632 0.288121
0.0755474 0.0742504 0.135653
0.10396 0.0940566 0.173388
0.142901 0.115984 0.214389
0.2047 0.135637 0.252338
0.287251 0.151308 0.282399
0.385473 0.163989 0.304006
0.485161 0.175463 0.317754
0.563195 0.183551 0.319921
0.627619 0.18735 0.31397
0.130282 0.172534 0.258427
0.166094 0.201572 0.294743
0.212924 0.229557 0.322759
0.285069 0.245991 0.332662
0.367361 0.24979 0.325093
0.450355 0.246677 0.309224
0.523781 0.242329 0.293614
0.584756 0.240803 0.284535
0.652949 0.243931 0.285863
0.148318 0.297002 0.320485
0.177615 0.313954 0.323323
0.213489 0.322118 0.316747
0.277974 0.319768 0.302464
0.359823 0.313283 0.288457
0.452491 0.308293 0.281178
0.546532 0.311116 0.282963
0.637263 0.325887 0.296544
0.731243 0.347753 0.317388
0.1178 0.373922 0.286259
0.147936 0.383017 0.287724
0.193378 0.393652 0.294774
0.278264 0.403052 0.300206
0.391226 0.416541 0.309422
0.52015 0.43653 0.325856
0.644572 0.46421 0.351568
0.750668 0.499138 0.386221
0.842222 0.528008 0.415274
0.105364 0.470268 0.291112
0.159808 0.504662 0.318349
0.236072 0.542092 0.35053
0.354498 0.572351 0.378576
0.491951 0.599451 0.405768
0.629496 0.625086 0.432013
0.75021 0.651316 0.459464
0.845182 0.677821 0.487755
0.92372 0.696681 0.508522
0.176944 0.650248 0.37789
0.256458 0.69308 0.421134
0.345006 0.730907 0.460136
0.46276 0.755276 0.486519
0.588968 0.770733 0.504738
0.708095 0.779644 0.516701
0.805982 0.78555 0.525414
0.881636 0.794522 0.537102
0.949874 0.804547 0.549783
0.287221 0.828092 0.48481
0.356176 0.856107 0.516579
0.427482 0.87454 0.538857
0.523766 0.878904 0.546685
0.631327 0.878828 0.550118
0.73753 0.878126 0.552789
0.829252 0.880339 0.55816
0.90161 0.887526 0.568322
0.967376 0.896117 0.579705
0.348196 0.941939 0.53875
0.403281 0.956832 0.557992
0.465278 0.967651 0.572824
0.55671 0.969894 0.578866
0.659632 0.968521 0.581033
0.761837 0.966903 0.582712
0.850843 0.968658 0.587549
0.921584 0.975555 0.59733
0.986435 0.984192 0.608698
0.0202792 0.0159304 0.0385138
0.0438849 0.0326085 0.0745556
0.0717327 0.0483253 0.111025
0.110964 0.0621653 0.146868
0.165377 0.0746777 0.182818
0.238499 0.0865797 0.220233
0.32723 0.0982223 0.25864
0.421836 0.109834 0.29604
0.521416 0.120897 0.328969
0.0819104 0.0807813 0.158511
0.111894 0.101595 0.20145
0.152468 0.124117 0.247166
0.216464 0.143603 0.288533
0.300969 0.158633 0.320806
0.40145 0.171084 0.3449
0.497551 0.180529 0.357259
0.571084 0.186633 0.358053
0.634211 0.189563 0.353201
0.135775 0.182376 0.295399
0.172061 0.211521 0.334493
0.219226 0.238865 0.364248
0.289677 0.251987 0.371862
0.37052 0.253376 0.363134
0.452644 0.248737 0.347387
0.526223 0.243702 0.333242
0.588693 0.242267 0.327047
0.660258 0.246555 0.332921
0.149142 0.303319 0.359716
0.17734 0.317769 0.361303
0.213062 0.32459 0.355428
0.278355 0.321736 0.343099
0.362264 0.315724 0.332464
0.458061 0.312123 0.329061
0.556023 0.317327 0.334951
0.650767 0.335119 0.353475
0.745586 0.358404 0.377325
0.117067 0.376516 0.32784
0.148836 0.386587 0.333379
0.19649 0.399344 0.344213
0.284718 0.411246 0.353841
0.402136 0.427771 0.368063
0.533867 0.449592 0.38819
0.658808 0.478065 0.415915
0.764965 0.513542 0.451408
0.855161 0.541314 0.479332
0.11075 0.480812 0.3467
0.168856 0.51754 0.378485
0.24831 0.556115 0.413901
0.36878 0.586694 0.443641
0.506279 0.613703 0.470848
0.642908 0.638514 0.496269
0.761486 0.662867 0.52166
0.854475 0.687724 0.547967
0.931151 0.705028 0.56672
0.191379 0.664561 0.44303
0.270756 0.706889 0.485878
0.358541 0.743603 0.523781
0.474769 0.766339 0.548394
0.598596 0.77966 0.56408
0.714916 0.786191 0.573068
0.811063 0.790692 0.579782
0.886381 0.799573 0.590875
0.954284 0.809461 0.602899
0.299092 0.838041 0.545708
0.365896 0.863844 0.574838
0.434363 0.879835 0.593973
0.529946 0.883803 0.600916
0.636881 0.883528 0.603586
0.742565 0.882689 0.605585
0.833936 0.884871 0.610407
0.90605 0.892012 0.62005
0.971633 0.900587 0.630945
0.355703 0.947143 0.593469
0.409644 0.961242 0.611261
0.471183 0.971878 0.625345
0.562219 0.974105 0.630838
0.664775 0.972747 0.632532
0.766629 0.97113 0.633738
0.855482 0.972992 0.638254
0.926116 0.97995 0.647715
0.990875 0.988632 0.658747
0.0274357 0.0218357 0.0541085
0.0511788 0.0380865 0.0922255
0.0797436 0.0536049 0.131411
0.121126 0.0674754 0.170977
0.179202 0.0801556 0.211643
0.256733 0.0920272 0.253895
0.348486 0.103243 0.29604
0.44387 0.114382 0.336202
0.543572 0.125322 0.371771
0.0880903 0.0872053 0.183276
0.119875 0.109255 0.232334
0.162127 0.132464 0.283085
0.228077 0.151598 0.327474
0.314717 0.166155 0.362005
0.41622 0.17789 0.387427
0.507836 0.184894 0.397147
0.577432 0.189151 0.396582
0.640131 0.191516 0.393225
0.140932 0.19205 0.334783
0.177829 0.221485 0.376715
0.224353 0.247074 0.406195
0.293233 0.257115 0.411383
0.372946 0.256397 0.401648
0.454597 0.250492 0.386313
0.528847 0.245045 0.374105
0.593362 0.243946 0.371328
0.668208 0.249607 0.381582
0.149599 0.308965 0.399664
0.176791 0.321035 0.399847
0.212604 0.326833 0.39501
0.279026 0.323781 0.385092
0.365423 0.318532 0.378485
0.46453 0.316701 0.378836
0.566491 0.324437 0.389151
0.664927 0.345266 0.412573
0.759991 0.36968 0.438743
0.116686 0.379339 0.371054
0.150271 0.390753 0.38088
0.200366 0.405982 0.395727
0.292561 0.420874 0.410178
0.41384 0.43975 0.428672
0.547829 0.463066 0.451713
0.673075 0.492271 0.480858
0.77911 0.527871 0.516472
0.867887 0.554528 0.54316
0.11725 0.492317 0.404608
0.179004 0.530999 0.440436
0.261097 0.570077 0.477958
0.383154 0.601022 0.508736
0.520333 0.627634 0.535561
0.655848 0.651453 0.559869
0.77258 0.674281 0.583474
0.863127 0.697017 0.607187
0.937942 0.712734 0.623865
0.205951 0.678889 0.508186
0.284916 0.720409 0.550271
0.371191 0.755291 0.586252
0.486015 0.776562 0.609125
0.607431 0.787762 0.622232
0.720806 0.791836 0.628107
0.816205 0.795911 0.63389
0.891035 0.804547 0.644221
0.958602 0.814267 0.655558
0.310292 0.847227 0.605539
0.37467 0.87071 0.631785
0.44097 0.884871 0.648478
0.536049 0.888624 0.654719
0.642435 0.888197 0.656703
0.747402 0.887068 0.657862
0.838575 0.889342 0.662303
0.91046 0.896468 0.671443
0.975891 0.905028 0.681895
0.362585 0.951858 0.647242
0.415885 0.965591 0.664088
0.477089 0.97615 0.677577
0.567727 0.978332 0.682521
0.669886 0.976974 0.683726
0.771389 0.975326 0.684459
0.860136 0.97734 0.688716
0.930694 0.984375 0.697887
0.99527 0.993042 0.708522
0.0342107 0.0273899 0.0707103
0.0584726 0.0435187 0.11165
0.0879225 0.0589609 0.153948
0.13138 0.0727398 0.19733
0.193698 0.085771 0.243748
0.275532 0.0975357 0.290929
0.369757 0.108248 0.3364
0.466133 0.119173 0.379431
0.564034 0.129519 0.416068
0.0948501 0.0943465 0.21181
0.127855 0.117098 0.266163
0.171557 0.140764 0.321691
0.239094 0.15935 0.368566
0.328191 0.173724 0.405692
0.428779 0.183932 0.43032
0.51632 0.188632 0.437293
0.582803 0.191318 0.435584
0.645533 0.193271 0.434104
0.146029 0.201877 0.376959
0.183368 0.231373 0.421256
0.228412 0.254215 0.44831
0.295857 0.261387 0.451118
0.374792 0.258946 0.440681
0.456413 0.252049 0.426154
0.531685 0.246342 0.416281
0.598932 0.245975 0.417639
0.676875 0.253162 0.431891
0.149386 0.313558 0.439231
0.176074 0.323842 0.439033
0.212253 0.328954 0.435676
0.280171 0.32607 0.428748
0.369314 0.321889 0.426413
0.472007 0.322164 0.430716
0.577996 0.33257 0.44567
0.679561 0.356283 0.473594
0.774273 0.38146 0.501274
0.116747 0.382498 0.416083
0.152239 0.395682 0.430152
0.205081 0.413565 0.449424
0.301457 0.43151 0.468849
0.426276 0.452445 0.49102
0.562036 0.476921 0.516182
0.687343 0.506569 0.545907
0.792889 0.541924 0.58117
0.880201 0.567437 0.606531
0.124834 0.50457 0.464607
0.190127 0.544839 0.503761
0.274723 0.584298 0.542748
0.39762 0.615381 0.573861
0.534127 0.641276 0.599893
0.667994 0.663615 0.622507
0.782849 0.684901 0.64416
0.87097 0.705516 0.665248
0.944137 0.719844 0.680003
0.220478 0.693034 0.573159
0.298833 0.733516 0.61416
0.383932 0.766903 0.648432
0.496574 0.786023 0.668772
0.615335 0.79498 0.679072
0.726375 0.797147 0.682475
0.821286 0.801068 0.687602
0.895705 0.809506 0.6972
0.962783 0.818921 0.707729
0.320928 0.855772 0.664378
0.382437 0.876646 0.687419
0.44744 0.889769 0.702495
0.542016 0.893324 0.708034
0.647883 0.892805 0.709422
0.752407 0.891615 0.709987
0.843214 0.893828 0.713893
0.91487 0.900908 0.72253
0.97995 0.909285 0.732372
0.369085 0.956298 0.700359
0.42179 0.96968 0.716304
0.482902 0.980362 0.729427
0.573175 0.982544 0.733883
0.6748 0.981033 0.734462
0.776226 0.979614 0.735027
0.86479 0.981689 0.738964
0.935286 0.988861 0.747875
0.999863 0.997635 0.758312
0.04094 0.0328832 0.0888991
0.0657359 0.0489052 0.132845
0.0964065 0.0644694 0.179034
0.142443 0.0783398 0.227207
0.208515 0.0914168 0.278904
0.29427 0.102953 0.330846
0.390646 0.113146 0.3794
0.488212 0.12398 0.425406
0.583047 0.133532 0.461784
0.10193 0.10193 0.2439
0.136065 0.125307 0.303578
0.180774 0.149081 0.363088
0.25005 0.167269 0.41239
0.341238 0.181277 0.451652
0.439261 0.189212 0.473289
0.52311 0.191714 0.477546
0.587274 0.193103 0.475029
0.650599 0.194858 0.475883
0.150942 0.211749 0.421775
0.188296 0.240665 0.466957
0.231434 0.260273 0.490333
0.297841 0.265126 0.491157
0.376226 0.261112 0.480293
0.458244 0.253498 0.467033
0.535195 0.247883 0.460121
0.605432 0.248447 0.465919
0.68632 0.257313 0.483986
0.148699 0.317327 0.478782
0.17525 0.326314 0.478935
0.212024 0.330938 0.477485
0.281849 0.328664 0.474266
0.373922 0.325902 0.476143
0.480507 0.328573 0.484871
0.590738 0.341955 0.504723
0.694545 0.368109 0.536309
0.788449 0.39379 0.564706
0.117357 0.386084 0.463233
0.154849 0.40145 0.481422
0.210651 0.422049 0.505302
0.311284 0.442969 0.529564
0.439277 0.465644 0.554696
0.575952 0.490654 0.580728
0.701671 0.520989 0.611032
0.806317 0.555703 0.645457
0.892027 0.57995 0.669276
0.133562 0.517479 0.526436
0.202152 0.558877 0.568032
0.288991 0.598642 0.607843
0.412024 0.629602 0.638804
0.547692 0.654658 0.663813
0.679683 0.675319 0.684398
0.79234 0.694743 0.703746
0.877913 0.713115 0.721996
0.94963 0.726192 0.734997
0.234821 0.706828 0.637705
0.312352 0.74609 0.677333
0.39617 0.77789 0.709712
0.506523 0.794842 0.727428
0.622446 0.801404 0.734752
0.731838 0.80235 0.736385
0.82623 0.806088 0.740826
0.900282 0.814389 0.749798
0.96701 0.823621 0.759655
0.330724 0.863462 0.721981
0.389578 0.882017 0.742077
0.453895 0.894621 0.756146
0.547875 0.897978 0.760952
0.653101 0.897215 0.761563
0.757351 0.896101 0.761746
0.847837 0.898299 0.765164
0.919219 0.905303 0.773312
0.984222 0.913741 0.782803
0.375479 0.960647 0.753033
0.427893 0.973953 0.768399
0.488655 0.984543 0.780926
0.578561 0.986725 0.784909
0.679866 0.985245 0.785107
0.781048 0.983902 0.785336
0.869459 0.986084 0.788983
0.939757 0.993194 0.797498
1 1 0.807935
0.0476692 0.0383459 0.108904
0.0729534 0.0542153 0.155871
0.104967 0.0699779 0.206455
0.154238 0.0842298 0.260761
0.224063 0.097261 0.317876
0.312978 0.108309 0.373693
0.410803 0.117952 0.424613
0.509087 0.128634 0.473182
0.600961 0.137423 0.509148
0.108934 0.109575 0.278843
0.144274 0.1337 0.344305
0.189761 0.157397 0.407172
0.260838 0.175265 0.458869
0.353201 0.188479 0.498833
0.447898 0.193759 0.516136
0.528756 0.194354 0.518013
0.591073 0.194568 0.514992
0.655528 0.196338 0.518654
0.155688 0.221607 0.469062
0.192233 0.248859 0.512551
0.233692 0.265522 0.532387
0.299229 0.268284 0.531441
0.377417 0.262989 0.520577
0.460243 0.254902 0.509117
0.539406 0.249653 0.505837
0.612863 0.25153 0.516045
0.696529 0.262104 0.537926
0.147799 0.320546 0.518761
0.174456 0.328542 0.519722
0.212146 0.333135 0.520821
0.284184 0.33164 0.521904
0.379355 0.330724 0.527916
0.489799 0.33576 0.54107
0.60415 0.352239 0.565789
0.709636 0.380621 0.60029
0.802213 0.406378 0.628519
0.118456 0.390295 0.512291
0.158114 0.408026 0.534722
0.217502 0.431876 0.563882
0.321996 0.455146 0.592035
0.452689 0.479225 0.619242
0.590295 0.504982 0.645853
0.715846 0.535302 0.675959
0.819409 0.569253 0.709316
0.903059 0.591775 0.731075
0.143435 0.530968 0.589837
0.214633 0.572686 0.632532
0.303395 0.61297 0.672923
0.426154 0.643503 0.703319
0.5608 0.667536 0.727016
0.691005 0.686656 0.745632
0.80119 0.703975 0.762325
0.884092 0.719921 0.7776
0.954376 0.731731 0.788815
0.249027 0.720333 0.701854
0.325292 0.757916 0.739559
0.40766 0.788022 0.769833
0.515663 0.802853 0.784863
0.628595 0.806928 0.789151
0.737255 0.807523 0.789929
0.831113 0.811048 0.793637
0.904784 0.819181 0.801953
0.971267 0.828336 0.811261
0.33959 0.870268 0.778302
0.396338 0.887037 0.796048
0.460258 0.899413 0.809384
0.553735 0.902602 0.813504
0.658351 0.901656 0.813428
0.762234 0.900542 0.813153
0.85243 0.902739 0.816129
0.923583 0.909697 0.823804
0.988495 0.918212 0.833005
0.381796 0.96495 0.805325
0.433951 0.97821 0.820142
0.494377 0.988739 0.832135
0.583886 0.990875 0.835615
0.684932 0.989471 0.835492
0.785901 0.98822 0.835416
0.874174 0.990494 0.838819
0.944381 0.997696 0.847059
1 1 0.857374
0.0543832 0.0437781 0.130709
0.0803235 0.059617 0.181216
0.113436 0.0754101 0.23592
0.166278 0.0902419 0.297353
0.24004 0.103197 0.360388
0.331685 0.113649 0.419471
0.431205 0.122911 0.472877
0.528359 0.133074 0.522057
0.616312 0.140978 0.555825
0.115938 0.117388 0.316945
0.152224 0.142077 0.387686
0.198291 0.165484 0.453285
0.271366 0.183307 0.507622
0.363302 0.194873 0.545617
0.454978 0.197665 0.558709
0.533394 0.196567 0.558541
0.59443 0.195804 0.555459
0.660456 0.197787 0.562402
0.16022 0.231418 0.518349
0.195254 0.256001 0.557687
0.235248 0.270008 0.574212
0.30016 0.270954 0.571893
0.3785 0.264652 0.561547
0.462547 0.256336 0.552438
0.544457 0.251774 0.553536
0.621332 0.255329 0.568032
0.707469 0.267582 0.593545
0.146777 0.323339 0.559075
0.173754 0.330663 0.561364
0.21268 0.335546 0.565682
0.287175 0.33518 0.571389
0.385733 0.336431 0.581735
0.500481 0.344274 0.599817
0.618128 0.363378 0.628428
0.724666 0.393668 0.664897
0.815763 0.41944 0.692393
0.120073 0.395254 0.563088
0.16228 0.415686 0.590249
0.225437 0.442725 0.624537
0.333608 0.468025 0.655818
0.466346 0.492973 0.68397
0.604639 0.519341 0.710719
0.729686 0.549325 0.740261
0.831983 0.582361 0.77229
0.914 0.603647 0.79237
0.15436 0.544823 0.654124
0.228397 0.587091 0.697597
0.317922 0.627329 0.737774
0.440101 0.65713 0.767193
0.572961 0.679423 0.7888
0.701518 0.697185 0.805508
0.809232 0.712413 0.819516
0.889448 0.725856 0.831785
0.959014 0.737179 0.842008
0.26276 0.733211 0.765026
0.338155 0.769512 0.801068
0.418479 0.797406 0.828641
0.523888 0.809964 0.840833
0.634531 0.812238 0.842786
0.742626 0.81265 0.842878
0.835996 0.815991 0.845914
0.909087 0.823758 0.853391
0.975494 0.833005 0.862348
0.347387 0.876127 0.833097
0.402975 0.89192 0.849348
0.466499 0.904082 0.861952
0.559503 0.907164 0.865476
0.663661 0.906157 0.864866
0.767117 0.905013 0.864103
0.857008 0.907164 0.866621
0.927886 0.914046 0.873823
0.992813 0.922713 0.882795
0.387945 0.969162 0.856992
0.439902 0.982422 0.871336
0.500069 0.992935 0.882841
0.589075 0.994919 0.885771
0.690013 0.993729 0.885451
0.790753 0.992569 0.885115
0.878904 0.994949 0.888273
0.949111 1 0.896345
1 1 0.905852
