assets/cube/cross_process_cp18.cube
TITLE "Generated by Resolve"
LUT_3D_SIZE 33
0 0.0104829 0.0707103
0 0.0118715 0.0711376
0 0.0126955 0.0710155
0.0268559 0.012665 0.0700542
0.0538949 0.0138399 0.0702983
0.0796368 0.0153811 0.0708934
0.104601 0.0171206 0.0717174
0.12903 0.0189975 0.0726787
0.153048 0.0209964 0.0737621
0.176715 0.0230869 0.0749523
0.200122 0.0252384 0.0762188
0.22327 0.0274662 0.0775616
0.24622 0.0297398 0.0789502
0.268986 0.0320745 0.080415
0.291569 0.0344549 0.0819257
0.314015 0.0368658 0.0834821
0.336309 0.0393225 0.0850843
0.35848 0.0418097 0.086717
0.380529 0.0443275 0.0883955
0.402472 0.0468605 0.0901198
0.424323 0.0494392 0.0918746
0.446052 0.0520485 0.0936446
0.467704 0.0546578 0.0954604
0.489265 0.0573129 0.0973068
0.51075 0.0599832 0.0991836
0.532158 0.0626688 0.101076
0.553491 0.0653697 0.102998
0.574746 0.068101 0.104952
0.595941 0.0708476 0.10692
0.61706 0.0736095 0.108919
0.638132 0.0763867 0.110948
0.659144 0.0791791 0.112978
0.680079 0.0819867 0.115053
0 0.0373999 0.0764324
0 0.0386206 0.0767071
0.0104982 0.0386664 0.0758221
0.0391699 0.0394141 0.075639
0.0655222 0.0407721 0.0760662
0.0908827 0.0424048 0.0767987
0.115587 0.0442054 0.0776989
0.139818 0.0461433 0.0787366
0.163668 0.048188 0.079881
0.187213 0.0502937 0.081117
0.210498 0.052491 0.0824292
0.233555 0.0547341 0.0838026
0.256413 0.0570382 0.0852522
0.279088 0.0593881 0.0867475
0.30161 0.0617838 0.0882887
0.32398 0.06421 0.0898756
0.346212 0.0666819 0.0915084
0.368338 0.0691844 0.0931868
0.390326 0.0717174 0.0948959
0.412222 0.0742657 0.0966506
0.434012 0.0768597 0.098436
0.455711 0.079469 0.100237
0.477317 0.0821088 0.102083
0.498833 0.0847639 0.10396
0.520287 0.0874342 0.105852
0.54165 0.090135 0.107774
0.562951 0.0928511 0.109728
0.584176 0.0955825 0.111711
0.605325 0.0983291 0.11371
0.626429 0.101091 0.115724
0.647471 0.103883 0.117769
0.668437 0.106676 0.119844
0.689357 0.109499 0.12192
0 0.0643015 0.0820935
0 0.0652628 0.0821393
0.0237278 0.0651713 0.0811322
0.0510414 0.0662852 0.0813153
0.0769055 0.0677806 0.0819104
0.101946 0.0694896 0.0827344
0.126436 0.0713512 0.0837262
0.150484 0.0733349 0.0848249
0.174197 0.0754101 0.0860304
0.19762 0.0775616 0.0873121
0.220783 0.0797742 0.0886702
0.243748 0.0820478 0.0901045
0.266529 0.0843671 0.0915847
0.289128 0.0867475 0.0931258
0.311574 0.0891585 0.0946975
0.333883 0.0915999 0.0963302
0.356069 0.0940871 0.0979934
0.378119 0.0965896 0.0997024
0.400061 0.0991379 0.101457
0.421912 0.101701 0.103227
0.443656 0.104295 0.105043
0.465309 0.10692 0.106889
0.486885 0.10956 0.108751
0.50837 0.11223 0.110658
0.529763 0.114916 0.112581
0.551095 0.117617 0.114534
0.572366 0.120333 0.116518
0.593561 0.123079 0.118517
0.614679 0.125841 0.120531
0.635752 0.128618 0.122591
0.656764 0.131395 0.124651
0.677714 0.134203 0.126741
0.698604 0.137026 0.128862
0 0.0911421 0.0877241
0.0065156 0.0914168 0.0870985
0.0360723 0.0919203 0.0867018
0.062623 0.0932326 0.0871138
0.0880903 0.0948348 0.0878462
0.112871 0.0966201 0.0887617
0.137148 0.0985275 0.0898146
0.161044 0.100557 0.0909743
0.184619 0.102663 0.0922408
0.207919 0.104845 0.0935836
0.230991 0.107088 0.0949874
0.25388 0.109377 0.0964523
0.27657 0.111727 0.0979782
0.299092 0.114107 0.0995499
0.321477 0.116533 0.101167
0.343725 0.11899 0.102831
0.36585 0.121492 0.10454
0.387854 0.12401 0.106279
0.409751 0.126574 0.108049
0.431556 0.129152 0.109865
0.453254 0.131746 0.111711
0.474861 0.134386 0.113573
0.496391 0.137026 0.11548
0.517845 0.139712 0.117403
0.539208 0.142397 0.119356
0.56051 0.145113 0.12134
0.581735 0.147845 0.123339
0.602899 0.150591 0.125368
0.624002 0.153353 0.127413
0.645029 0.15613 0.129488
0.66601 0.158923 0.131579
0.686931 0.16173 0.1337
0.707805 0.164553 0.135836
0 0.117876 0.0932784
0.0203098 0.117769 0.0923018
0.0479744 0.118776 0.0924239
0.0739757 0.120226 0.093019
0.0991073 0.12192 0.0938582
0.123659 0.123766 0.0948501
0.147753 0.125734 0.0959793
0.171496 0.127794 0.0972
0.194949 0.129931 0.0985122
0.218158 0.132143 0.0999008
0.241138 0.134401 0.10135
0.263935 0.136721 0.102861
0.286549 0.139071 0.104433
0.30901 0.141482 0.106035
0.331334 0.143923 0.107698
0.353521 0.146395 0.109392
0.375586 0.148898 0.111131
0.397543 0.151446 0.112902
0.419394 0.154009 0.114717
0.441154 0.156603 0.116548
0.462806 0.159213 0.118425
0.484382 0.161852 0.120317
0.505867 0.164508 0.122255
0.527276 0.167193 0.124208
0.548623 0.169894 0.126192
0.569879 0.17261 0.128191
0.591073 0.175341 0.13022
0.612207 0.178103 0.13228
0.63328 0.180865 0.134356
0.654292 0.183658 0.136446
0.675242 0.18645 0.138567
0.696132 0.189273 0.140703
0.716976 0.192096 0.142855
0.00189212 0.14435 0.0986343
0.0327916 0.144472 0.0979019
0.0595712 0.145724 0.0982986
0.0851453 0.14728 0.0990311
0.110002 0.14905 0.0999466
0.13434 0.150942 0.10103
0.158267 0.152956 0.10222
0.181888 0.155047 0.103502
0.205219 0.157214 0.10486
0.228321 0.159442 0.106294
0.251225 0.16173 0.10779
0.27393 0.164065 0.109346
0.296483 0.166445 0.110948
0.318868 0.168856 0.112596
0.341131 0.171313 0.11429
0.363272 0.1738 0.116014
0.38529 0.176333 0.117784
0.407187 0.178882 0.119585
0.428992 0.181445 0.121431
0.450706 0.184054 0.123293
0.472328 0.186679 0.1252
0.493858 0.189319 0.127123
0.515312 0.191989 0.129076
0.53669 0.194675 0.13106
0.557992 0.197391 0.133074
0.579217 0.200107 0.135103
0.600381 0.202853 0.137148
0.621485 0.205615 0.139239
0.642527 0.208392 0.141329
0.663508 0.211185 0.14345
0.684443 0.213993 0.145586
0.705303 0.216815 0.147753
0.726131 0.219638 0.149935
0.0166934 0.170428 0.103639
0.04477 0.171313 0.1037
0.0709392 0.172717 0.10428
0.0961624 0.17438 0.105119
0.120775 0.176196 0.106126
0.144915 0.178149 0.107271
0.168704 0.180194 0.108522
0.192187 0.182315 0.109865
0.215427 0.184512 0.111284
0.238437 0.18677 0.112749
0.261234 0.189075 0.11429
0.283879 0.191424 0.115877
0.306355 0.19382 0.117525
0.328695 0.196262 0.119203
0.350896 0.198718 0.120928
0.372976 0.201221 0.122698
0.394934 0.203754 0.124498
0.4168 0.206317 0.126329
0.43856 0.208896 0.128191
0.460227 0.211505 0.130098
0.481804 0.214145 0.132021
0.503304 0.2168 0.133974
0.524712 0.219471 0.135958
0.546059 0.222171 0.137972
0.56733 0.224887 0.140002
0.588525 0.227619 0.142061
0.609674 0.230365 0.144137
0.630747 0.233143 0.146242
0.651759 0.23592 0.148363
0.672709 0.238712 0.150515
0.693599 0.24152 0.152667
0.714458 0.244358 0.154864
0.735241 0.247196 0.157061
0.0293889 0.197055 0.10927
0.0563973 0.19823 0.109636
0.0821088 0.199756 0.110369
0.107042 0.201495 0.111299
0.131441 0.203372 0.112398
0.155413 0.205356 0.113603
0.179065 0.207446 0.114916
0.202441 0.209598 0.116304
0.225559 0.211826 0.117754
0.248478 0.214099 0.11928
0.271214 0.216419 0.120851
0.293782 0.218799 0.122484
0.316197 0.22121 0.124163
0.33846 0.223651 0.125872
0.360616 0.226139 0.127642
0.382635 0.228656 0.129427
0.404547 0.231189 0.131258
0.426368 0.233768 0.133135
0.448081 0.236362 0.135027
0.469718 0.238972 0.13695
0.491249 0.241611 0.138903
0.512718 0.244282 0.140887
0.534096 0.246967 0.142901
0.555398 0.249668 0.14493
0.576638 0.252384 0.14699
0.597818 0.255131 0.149081
0.618921 0.257893 0.151171
0.639963 0.260655 0.153307
0.660945 0.263447 0.155444
0.68188 0.266255 0.157626
0.702754 0.269062 0.159808
0.723568 0.271901 0.162005
0.744335 0.274739 0.164233
0.0414588 0.22385 0.115129
0.0677806 0.225208 0.115694
0.0931258 0.226841 0.116548
0.1178 0.228641 0.117571
0.142 0.230564 0.11873
0.165835 0.232593 0.120012
0.189349 0.234714 0.12137
0.212619 0.236896 0.122805
0.235645 0.239139 0.1243
0.258488 0.241443 0.125872
0.281132 0.243778 0.127489
0.303624 0.246174 0.129152
0.325978 0.2486 0.130861
0.348196 0.251057 0.132616
0.370291 0.253559 0.134401
0.392264 0.256077 0.136233
0.41413 0.258625 0.138094
0.435904 0.261204 0.139986
0.457572 0.263813 0.141909
0.479164 0.266438 0.143862
0.500664 0.269093 0.145846
0.522087 0.271763 0.14786
0.543435 0.274464 0.149889
0.564721 0.277165 0.151949
0.585916 0.279896 0.15404
0.607065 0.282643 0.156146
0.628138 0.285405 0.158267
0.649165 0.288182 0.160418
0.670115 0.290974 0.162585
0.69102 0.293782 0.164782
0.711864 0.296605 0.166995
0.732662 0.299443 0.169223
0.753414 0.302296 0.171466
0.0531472 0.250751 0.121141
0.0789807 0.252232 0.121874
0.104005 0.253941 0.12282
0.128466 0.255802 0.123919
0.152483 0.257786 0.125154
0.176181 0.259846 0.126482
0.199573 0.261997 0.127886
0.222736 0.264195 0.129366
0.24567 0.266468 0.130922
0.268437 0.268788 0.132525
0.29102 0.271153 0.134173
0.313436 0.273548 0.135882
0.335729 0.27599 0.137621
0.357885 0.278462 0.139406
0.379934 0.28098 0.141222
0.401862 0.283513 0.143084
0.423682 0.286076 0.144976
0.445411 0.28867 0.146899
0.467048 0.291279 0.148852
0.488594 0.293919 0.150835
0.510063 0.296574 0.152834
0.531441 0.29926 0.154879
0.552758 0.301961 0.156939
0.573999 0.304677 0.159014
0.595178 0.307408 0.161135
0.616297 0.310155 0.163256
0.637339 0.312932 0.165408
0.658335 0.315709 0.167575
0.679255 0.318517 0.169772
0.700145 0.321324 0.171984
0.720958 0.324147 0.174212
0.741741 0.326986 0.176471
0.762463 0.329839 0.178744
0.0645762 0.277714 0.127291
0.0899977 0.279301 0.12813
0.114763 0.281086 0.129183
0.139025 0.282994 0.130358
0.16289 0.285008 0.13164
0.18645 0.287114 0.133028
0.209751 0.289281 0.134478
0.232807 0.291508 0.136004
0.255665 0.293797 0.137591
0.27834 0.296132 0.139239
0.300847 0.298512 0.140932
0.323217 0.300938 0.142657
0.345434 0.303395 0.144442
0.367544 0.305882 0.146258
0.389532 0.3084 0.148104
0.411414 0.310948 0.149996
0.433188 0.313527 0.151919
0.454871 0.316121 0.153872
0.476478 0.318746 0.15584
0.497978 0.321386 0.157855
0.519417 0.324056 0.159884
0.540764 0.326741 0.161944
0.562051 0.329458 0.164034
0.583261 0.332174 0.16614
0.60441 0.33492 0.168276
0.625498 0.337682 0.170428
0.64651 0.340444 0.172595
0.667475 0.343236 0.174792
0.68838 0.346044 0.17702
0.709239 0.348867 0.179248
0.730037 0.35169 0.181506
0.75079 0.354543 0.18378
0.771481 0.357397 0.186069
0.0757916 0.304723 0.133547
0.100893 0.306401 0.134493
0.125414 0.308232 0.135607
0.149508 0.310201 0.136858
0.173236 0.312245 0.138201
0.196658 0.314382 0.139635
0.219852 0.316579 0.141146
0.242817 0.318837 0.142702
0.265599 0.321141 0.144335
0.288197 0.323507 0.146014
0.310643 0.325902 0.147738
0.332937 0.328328 0.149508
0.355108 0.3308 0.151324
0.377172 0.333303 0.15317
0.3991 0.335836 0.155047
0.420935 0.338384 0.15697
0.442679 0.340978 0.158907
0.464317 0.343587 0.160891
0.485878 0.346212 0.16289
0.507347 0.348867 0.164935
0.52874 0.351553 0.166995
0.550072 0.354238 0.16907
0.571313 0.356954 0.171191
0.592493 0.359686 0.173312
0.613611 0.362432 0.175479
0.634668 0.365194 0.177646
0.655665 0.367971 0.179843
0.6766 0.370764 0.182055
0.69749 0.373587 0.184298
0.718318 0.37641 0.186557
0.739086 0.379248 0.18883
0.759808 0.382086 0.191119
0.780499 0.384955 0.193439
0.0868391 0.331777 0.139895
0.111666 0.333532 0.140932
0.135973 0.335424 0.142123
0.159899 0.337423 0.143435
0.18349 0.339513 0.144839
0.206821 0.341665 0.146319
0.229908 0.343893 0.14786
0.252781 0.346166 0.149477
0.275486 0.348501 0.151141
0.298009 0.350866 0.15285
0.320394 0.353277 0.154604
0.342641 0.355734 0.156405
0.364752 0.358206 0.158251
0.386755 0.360723 0.160128
0.408652 0.363272 0.162036
0.430442 0.365835 0.163989
0.452125 0.368429 0.165957
0.473732 0.371054 0.167971
0.495247 0.373693 0.170001
0.516686 0.376349 0.172061
0.538048 0.379034 0.174151
0.559335 0.381735 0.176257
0.58056 0.384451 0.178393
0.601709 0.387198 0.180545
0.622797 0.389944 0.182727
0.643824 0.392721 0.184924
0.66479 0.395499 0.187137
0.68571 0.398306 0.18938
0.706569 0.401114 0.191638
0.727367 0.403952 0.193912
0.748119 0.40679 0.196216
0.768826 0.409644 0.19852
0.789471 0.412512 0.200855
0.097734 0.358862 0.146334
0.122316 0.360678 0.147463
0.146456 0.362615 0.148714
0.17023 0.36466 0.150088
0.193698 0.366766 0.151537
0.216907 0.368963 0.153063
0.239902 0.371206 0.15465
0.262699 0.37351 0.156298
0.285328 0.37586 0.158007
0.30779 0.378241 0.159747
0.330114 0.380667 0.161547
0.3523 0.383139 0.163378
0.374365 0.385626 0.16524
0.396307 0.388159 0.167147
0.418158 0.390707 0.1691
0.439902 0.393286 0.171069
0.461555 0.395895 0.173068
0.483116 0.39852 0.175097
0.504601 0.40116 0.177157
0.526009 0.40383 0.179248
0.547341 0.406531 0.181353
0.568597 0.409232 0.18349
0.589776 0.411963 0.185641
0.610895 0.41471 0.187823
0.631968 0.417456 0.190021
0.652964 0.420233 0.192233
0.673899 0.423026 0.194476
0.694789 0.425834 0.196735
0.715618 0.428656 0.199023
0.7364 0.431495 0.201312
0.757122 0.434333 0.203632
0.777813 0.437201 0.205966
0.798444 0.44007 0.208316
0.108507 0.385977 0.15285
0.132891 0.387839 0.154055
0.156847 0.389822 0.155383
0.180484 0.391897 0.156802
0.203845 0.394049 0.158297
0.226963 0.396262 0.159869
0.249866 0.398535 0.161501
0.272587 0.400854 0.16318
0.295125 0.40322 0.16492
0.317525 0.405615 0.166705
0.339788 0.408057 0.168536
0.361913 0.410544 0.170397
0.383932 0.413046 0.17229
0.405844 0.415579 0.174228
0.427634 0.418143 0.176196
0.449348 0.420737 0.178195
0.470954 0.423346 0.180224
0.492485 0.425986 0.182284
0.513924 0.428641 0.18436
0.535302 0.431327 0.186481
0.556588 0.434012 0.188602
0.577813 0.436728 0.190768
0.598978 0.43946 0.192935
0.620066 0.442222 0.195148
0.641093 0.444984 0.19736
0.662074 0.447761 0.199603
0.682994 0.450553 0.201877
0.703853 0.453376 0.20415
0.724651 0.456199 0.206455
0.745418 0.459037 0.208774
0.766125 0.461891 0.211109
0.786786 0.464744 0.213458
0.807401 0.467628 0.215839
0.119188 0.413108 0.159457
0.143359 0.41503 0.160739
0.167178 0.41706 0.162112
0.190692 0.419165 0.163577
0.213931 0.421347 0.165133
0.236957 0.423575 0.166735
0.25977 0.425864 0.168414
0.282414 0.428214 0.170138
0.304891 0.430594 0.171908
0.32723 0.433005 0.173724
0.349432 0.435462 0.17557
0.371511 0.437949 0.177462
0.393469 0.440467 0.1794
0.415335 0.443015 0.181353
0.437095 0.445594 0.183352
0.458747 0.448188 0.185382
0.480323 0.450813 0.187442
0.501823 0.453452 0.189517
0.523232 0.456123 0.191623
0.544564 0.458808 0.193759
0.56582 0.461509 0.195911
0.587015 0.46424 0.198093
0.608148 0.466972 0.20029
0.629206 0.469734 0.202518
0.650217 0.472496 0.204761
0.671168 0.475288 0.207019
0.692058 0.478096 0.209308
0.712886 0.480903 0.211612
0.733669 0.483742 0.213931
0.754406 0.48658 0.216266
0.775097 0.489433 0.218631
0.795727 0.492302 0.220996
0.816327 0.495186 0.223392
0.129747 0.440269 0.16614
0.153765 0.442237 0.167483
0.177432 0.444297 0.168917
0.200824 0.446433 0.170428
0.223972 0.448646 0.172015
0.246891 0.450904 0.173663
0.269642 0.453208 0.175372
0.29221 0.455558 0.177142
0.314626 0.457969 0.178943
0.336904 0.460395 0.180789
0.359045 0.462867 0.182666
0.381079 0.46537 0.184588
0.402991 0.467903 0.186557
0.424796 0.470451 0.18854
0.44651 0.473045 0.19057
0.468132 0.475639 0.192615
0.489677 0.478279 0.19469
0.511131 0.480934 0.196796
0.532509 0.483604 0.198932
0.553811 0.48629 0.201083
0.575036 0.489006 0.203265
0.596201 0.491737 0.205478
0.617304 0.494484 0.207691
0.638331 0.497246 0.209934
0.659312 0.500023 0.212207
0.680232 0.502815 0.214496
0.701106 0.505623 0.2168
0.72192 0.508446 0.21912
0.742672 0.511284 0.221454
0.763378 0.514122 0.223819
0.784054 0.516991 0.226184
0.804669 0.51986 0.22858
0.825238 0.522744 0.230991
0.14023 0.467445 0.1729
0.16408 0.469459 0.174289
0.187625 0.47155 0.175784
0.21091 0.473716 0.17734
0.233951 0.475944 0.178973
0.256794 0.478233 0.180667
0.279469 0.480552 0.182406
0.301961 0.482933 0.184192
0.324315 0.485344 0.186038
0.346532 0.487785 0.187915
0.368627 0.490272 0.189822
0.3906 0.49279 0.191775
0.412467 0.495323 0.193759
0.434241 0.497902 0.195773
0.455909 0.500496 0.197833
0.477501 0.503105 0.199908
0.499001 0.505745 0.202014
0.520409 0.5084 0.204135
0.541756 0.511086 0.206287
0.563027 0.513787 0.208469
0.584222 0.516503 0.210666
0.605356 0.519234 0.212894
0.626429 0.521996 0.215137
0.64744 0.524758 0.217411
0.668391 0.52755 0.219699
0.689281 0.530343 0.222004
0.710124 0.53315 0.224323
0.730922 0.535988 0.226673
0.751659 0.538827 0.229023
0.772351 0.54168 0.231403
0.792981 0.544533 0.233799
0.813581 0.547417 0.23621
0.834134 0.550301 0.238636
0.150637 0.494652 0.179721
0.174334 0.496696 0.18117
0.197772 0.498817 0.182712
0.220935 0.501015 0.184314
0.2439 0.503258 0.185977
0.266651 0.505562 0.187701
0.28925 0.507912 0.189487
0.311681 0.510292 0.191318
0.333974 0.512734 0.193179
0.35613 0.51519 0.195087
0.37818 0.517678 0.197024
0.400107 0.520211 0.199008
0.421927 0.522759 0.201022
0.443656 0.525338 0.203067
0.465278 0.527947 0.205142
0.486824 0.530571 0.207248
0.508293 0.533211 0.209369
0.529671 0.535882 0.211521
0.550988 0.538567 0.213703
0.572229 0.541283 0.2159
0.593393 0.543999 0.218128
0.614496 0.546746 0.220371
0.635538 0.549508 0.222644
0.656519 0.552285 0.224918
0.677455 0.555062 0.227237
0.698314 0.55787 0.229557
0.719142 0.560693 0.231907
0.73991 0.563516 0.234272
0.760616 0.566369 0.236637
0.781292 0.569223 0.239048
0.801907 0.572091 0.241459
0.822477 0.574975 0.243885
0.843015 0.577859 0.246326
0.160967 0.521859 0.186618
0.184527 0.523934 0.188113
0.207843 0.526085 0.189685
0.230915 0.528313 0.191348
0.253788 0.530587 0.193042
0.276478 0.532906 0.194812
0.299001 0.535271 0.196628
0.32137 0.537667 0.198474
0.343603 0.540108 0.200381
0.365698 0.542596 0.202319
0.387686 0.545098 0.204288
0.409567 0.547631 0.206302
0.431357 0.550195 0.208331
0.45304 0.552789 0.210407
0.474632 0.555398 0.212497
0.496132 0.558038 0.214633
0.517571 0.560693 0.216785
0.538918 0.563363 0.218952
0.560189 0.566064 0.221149
0.581399 0.56878 0.223377
0.602533 0.571511 0.22562
0.623621 0.574258 0.227893
0.644633 0.57702 0.230182
0.665583 0.579797 0.232486
0.686488 0.582589 0.234821
0.707332 0.585397 0.237156
0.72813 0.58822 0.239521
0.748867 0.591058 0.241901
0.769558 0.593912 0.244297
0.790204 0.596765 0.246723
0.810803 0.599649 0.249149
0.831373 0.602533 0.251606
0.851881 0.605432 0.254063
0.171221 0.549081 0.193561
0.194659 0.551202 0.195117
0.217868 0.553384 0.196735
0.240848 0.555611 0.198428
0.263645 0.557916 0.200168
0.286244 0.56025 0.201968
0.308705 0.562631 0.203815
0.331014 0.565057 0.205707
0.353185 0.567514 0.20763
0.37525 0.570001 0.209598
0.397177 0.572519 0.211597
0.419013 0.575067 0.213626
0.440757 0.57763 0.215702
0.462394 0.58024 0.217792
0.483955 0.582849 0.219913
0.505425 0.585504 0.222065
0.526818 0.588159 0.224231
0.548135 0.590845 0.226429
0.569375 0.593545 0.228656
0.590555 0.596277 0.2309
0.611673 0.599008 0.233173
0.632715 0.601755 0.235462
0.653696 0.604532 0.237766
0.674632 0.607324 0.240101
0.695506 0.610117 0.242435
0.716335 0.61294 0.2448
0.737102 0.615763 0.247196
0.757824 0.618601 0.249592
0.7785 0.621454 0.252003
0.799115 0.624323 0.254444
0.819699 0.627207 0.256901
0.840238 0.630091 0.259358
0.860731 0.63299 0.261845
0.181415 0.576318 0.20058
0.204746 0.57847 0.202182
0.227848 0.580667 0.203845
0.250736 0.58294 0.20557
0.273457 0.585245 0.207355
0.295995 0.58761 0.209186
0.318379 0.590005 0.211063
0.340627 0.592432 0.212985
0.362753 0.594903 0.214939
0.384756 0.597406 0.216938
0.406638 0.599939 0.218952
0.428443 0.602487 0.221012
0.450126 0.605081 0.223102
0.471733 0.607691 0.225223
0.493248 0.610315 0.227375
0.514687 0.61297 0.229541
0.536049 0.615641 0.231739
0.557321 0.618326 0.233967
0.578546 0.621042 0.23621
0.599695 0.623774 0.238468
0.620768 0.626505 0.240757
0.641794 0.629267 0.243076
0.66276 0.632044 0.245396
0.683665 0.634836 0.247745
0.704509 0.637644 0.250111
0.725307 0.640467 0.252491
0.746059 0.64329 0.254902
0.766751 0.646143 0.257313
0.787411 0.648997 0.259754
0.808011 0.651865 0.262211
0.828565 0.654749 0.264683
0.849088 0.657649 0.267155
0.869551 0.660548 0.269657
0.191546 0.603571 0.20766
0.214771 0.605737 0.209308
0.237781 0.607965 0.211017
0.260594 0.610254 0.212772
0.283223 0.612589 0.214588
0.305699 0.614969 0.216449
0.328023 0.61738 0.218357
0.35021 0.619821 0.22031
0.372274 0.622309 0.222293
0.394232 0.624826 0.224308
0.416083 0.627359 0.226368
0.437827 0.629923 0.228458
0.45948 0.632517 0.230564
0.481041 0.635142 0.232715
0.502525 0.637781 0.234882
0.523919 0.640436 0.237079
0.545251 0.643122 0.239292
0.566506 0.645808 0.241535
0.587686 0.648524 0.243809
0.608804 0.65127 0.246082
0.629862 0.654017 0.248402
0.650858 0.656779 0.250721
0.671794 0.659571 0.253071
0.692668 0.662364 0.255436
0.713497 0.665171 0.257832
0.734279 0.667994 0.260227
0.755001 0.670832 0.262654
0.775677 0.673686 0.265095
0.796307 0.676555 0.267552
0.816892 0.679423 0.270024
0.83743 0.682307 0.272496
0.857923 0.685206 0.274998
0.87837 0.688121 0.277516
0.201617 0.630838 0.214801
0.22475 0.633036 0.21648
0.247669 0.635279 0.218235
0.27039 0.637583 0.220035
0.292958 0.639933 0.221881
0.315358 0.642329 0.223774
0.337621 0.644755 0.225711
0.359762 0.647211 0.22768
0.381781 0.649714 0.229694
0.403693 0.652232 0.231754
0.425483 0.654795 0.233829
0.447196 0.657374 0.235935
0.468803 0.659968 0.238071
0.490333 0.662593 0.240238
0.511772 0.665248 0.242435
0.533135 0.667903 0.244648
0.554437 0.670588 0.246891
0.575662 0.673304 0.249149
0.596811 0.67602 0.251438
0.617899 0.678767 0.253758
0.638926 0.681529 0.256077
0.659892 0.684291 0.258427
0.680812 0.687083 0.260792
0.701671 0.689891 0.263188
0.722469 0.692699 0.265583
0.743221 0.695521 0.268009
0.763928 0.698375 0.270451
0.784573 0.701228 0.272908
0.805188 0.704097 0.27538
0.825742 0.706966 0.277867
0.846265 0.709865 0.280369
0.866743 0.712764 0.282887
0.887175 0.715679 0.28542
0.211643 0.658106 0.222004
0.234668 0.660319 0.223728
0.257511 0.662593 0.225498
0.280156 0.664927 0.227329
0.302647 0.667292 0.229221
0.325002 0.669703 0.231144
0.347204 0.672145 0.233112
0.369284 0.674617 0.235111
0.391257 0.677119 0.237156
0.413108 0.679652 0.239231
0.434867 0.682216 0.241337
0.456535 0.68481 0.243473
0.478111 0.687419 0.245624
0.499596 0.690059 0.247822
0.521004 0.692714 0.250034
0.542336 0.695384 0.252277
0.563592 0.69807 0.254536
0.584787 0.700786 0.256825
0.60592 0.703517 0.259129
0.626978 0.706264 0.261448
0.647974 0.709026 0.263798
0.668925 0.711803 0.266178
0.689799 0.714595 0.268559
0.710643 0.717403 0.27097
0.731426 0.720226 0.273381
0.752148 0.723064 0.275822
0.772824 0.725902 0.278279
0.793454 0.728771 0.280766
0.814054 0.73164 0.283253
0.834592 0.734524 0.285756
0.855085 0.737423 0.288273
0.875547 0.740322 0.290822
0.895964 0.743236 0.29337
0.221622 0.685389 0.229252
0.244556 0.687633 0.231006
0.267308 0.689921 0.232822
0.289891 0.692271 0.234699
0.312322 0.694652 0.236606
0.3346 0.697063 0.23856
0.356756 0.699519 0.240558
0.378775 0.702022 0.242588
0.400702 0.70454 0.244663
0.422507 0.707073 0.246754
0.444221 0.709651 0.24889
0.465858 0.712245 0.251041
0.487388 0.71487 0.253223
0.508843 0.71751 0.255436
0.530221 0.72018 0.257679
0.551522 0.72285 0.259937
0.572747 0.725551 0.262226
0.593912 0.728283 0.26453
0.615 0.731014 0.26685
0.636042 0.733761 0.2692
0.657008 0.736538 0.271565
0.677928 0.739315 0.27396
0.698787 0.742123 0.276356
0.7196 0.74493 0.278782
0.740353 0.747753 0.281224
0.761059 0.750591 0.283696
0.78172 0.753445 0.286168
0.802335 0.756313 0.288655
0.822904 0.759182 0.291157
0.843427 0.762081 0.29369
0.863905 0.764981 0.296223
0.884337 0.76788 0.298772
0.904738 0.770809 0.30135
0.23154 0.712673 0.236561
0.254398 0.714931 0.238361
0.277073 0.71725 0.240208
0.29958 0.719615 0.2421
0.32195 0.722011 0.244053
0.344167 0.724453 0.246036
0.366262 0.726925 0.248051
0.388251 0.729412 0.250111
0.410117 0.731945 0.252201
0.431891 0.734508 0.254337
0.453559 0.737087 0.256489
0.475151 0.739696 0.258671
0.496651 0.742321 0.260868
0.518059 0.744976 0.263111
0.539406 0.747646 0.26537
0.560678 0.750332 0.267643
0.581872 0.753048 0.269947
0.603006 0.755764 0.272282
0.624063 0.758511 0.274632
0.645075 0.761273 0.276997
0.666026 0.76405 0.279377
0.686915 0.766842 0.281788
0.707759 0.769635 0.284215
0.728542 0.772457 0.286656
0.749279 0.77528 0.289113
0.769955 0.778134 0.291585
0.7906 0.780987 0.294087
0.811185 0.783856 0.29659
0.831739 0.78674 0.299123
0.852232 0.789624 0.301656
0.872694 0.792523 0.304219
0.893111 0.795438 0.306783
0.913497 0.798367 0.309361
0.241428 0.739971 0.243915
0.264195 0.74226 0.245747
