assets/cube/cross_process_cp4.cube
TITLE "Generated by Resolve"
LUT_3D_SIZE 5
0 0 0
0.0379797 0.0379797 0.0379797
0.0777142 0.0777142 0.0777142
0.154528 0.119036 0.118761
0.492363 0.10341 0.11902
0.139788 0.149477 0.143175
0.163836 0.226612 0.165682
0.383429 0.257496 0.127184
0.76025 0.238666 0.12697
1 0.239841 0.145113
0 0.506508 0.135485
0.140688 0.547555 0.166491
0.490135 0.538933 0.14728
0.854139 0.523201 0.13109
1 0.533471 0.14313
0 0.821378 0.138231
0.142901 0.848035 0.169253
0.491722 0.825635 0.15523
0.835691 0.798001 0.139742
1 0.795361 0.150698
0 1 0.154742
0.157946 1 0.182788
0.481178 1 0.166201
0.799466 1 0.147402
1 1 0.15407
0.0124514 0.0124514 0.0124514
0.0515145 0.0515145 0.0515145
0.093431 0.0934157 0.0934157
0.219059 0.125887 0.149706
0.630442 0.0832074 0.209735
0.144823 0.175982 0.169574
0.159609 0.252598 0.238514
0.414633 0.263737 0.282979
0.794339 0.242542 0.306188
1 0.245716 0.332006
0 0.518685 0.318303
0.14641 0.558785 0.3552
0.49897 0.54786 0.341024
0.861936 0.53135 0.324865
1 0.540841 0.335653
0 0.828748 0.331609
0.151385 0.854063 0.361044
0.498192 0.830228 0.344335
0.838865 0.80145 0.325002
1 0.79823 0.33164
0 1 0.338399
0.164828 1 0.361807
0.485725 1 0.341772
0.801984 1 0.319738
1 1 0.324178
0.026276 0.026276 0.026276
0.0655222 0.0655222 0.0655222
0.113329 0.110307 0.113313
0.306798 0.122683 0.216983
0.733043 0.0690166 0.346807
0.137469 0.203784 0.221942
0.152163 0.272953 0.370657
0.441703 0.269581 0.459831
0.823804 0.246921 0.495018
1 0.25275 0.523308
0 0.530465 0.508675
0.153002 0.569116 0.548363
0.507637 0.556512 0.535622
0.869062 0.538979 0.518151
1 0.547921 0.527245
0 0.835676 0.524514
0.159518 0.859251 0.551293
0.504479 0.834409 0.531548
0.841657 0.804501 0.507759
1 0.800946 0.510277
0 1 0.519646
0.171618 1 0.538796
0.49012 1 0.515465
0.804746 1 0.490806
1 1 0.492866
0.0396887 0.0396887 0.0396887
0.0805524 0.0805524 0.0805524
0.140627 0.12578 0.148669
0.41033 0.109041 0.338354
0.79736 0.0646982 0.50515
0.116716 0.231006 0.321691
0.147311 0.286381 0.55613
0.46688 0.274922 0.649836
0.847837 0.251911 0.689204
1 0.260304 0.717968
0 0.542077 0.70248
0.160174 0.578439 0.743191
0.516106 0.564965 0.72987
0.875898 0.546517 0.710658
1 0.554696 0.717159
0 0.8421 0.716213
0.168078 0.864302 0.739971
0.510185 0.837919 0.715862
0.844358 0.807462 0.687922
1 0.803372 0.686198
0.00663767 1 0.698131
0.178149 1 0.713436
0.494255 1 0.686976
0.807614 1 0.660227
1 1 0.660471
0.0535744 0.0535744 0.0535744
0.0965591 0.0965591 0.0965591
0.177493 0.13669 0.220493
0.511574 0.0900893 0.512428
0.858366 0.0598459 0.682383
0.0850385 0.254505 0.484779
0.153811 0.295155 0.757305
0.489632 0.280171 0.848936
0.867277 0.258381 0.886152
1 0.268254 0.913603
0 0.553155 0.898451
0.168597 0.587564 0.938155
0.524117 0.572915 0.922881
0.882307 0.553826 0.901579
1 0.561028 0.904494
0 0.847944 0.905852
0.176364 0.86865 0.925719
0.515511 0.840986 0.896941
0.846891 0.810254 0.865049
1 0.805936 0.859678
0.0145418 1 0.873625
0.184543 1 0.885618
0.498604 1 0.856565
0.810666 1 0.827817
1 1 0.825666
