assets/cube/cross_process_cp14.cube
TITLE "Generated by Resolve"
LUT_3D_SIZE 33
0 0.0182193 0.0191806
0 0.0133059 0.0142519
0 0.00962844 0.0105898
0 0.00723278 0.00817884
0 0.00643931 0.00740063
0.00561532 0.00662242 0.00758373
0.0200351 0.00527962 0.00624094
0.0385595 0.00303655 0.00399786
0.0603189 0.000122072 0.00108339
0.0848707 0 0
0.111864 0 0
0.1411 0 0
0.172396 0 0
0.205615 0 0
0.240635 0 0
0.277378 0 0
0.31574 0 0
0.355657 0 0
0.39707 0 0
0.439918 0 0
0.484138 0 0
0.529717 0 0
0.576577 0 0
0.624704 0 0
0.674067 0 0
0.724605 0 0
0.776318 0 0
0.82916 0 0
0.883116 0 0
0.938155 0 0
0.994263 0 0
1 0 0
1 0 0
0 0.0247959 0.0152895
0 0.0209812 0.0114595
0 0.0181277 0.00862135
0 0.0164187 0.00691234
0 0.0162661 0.00674449
0.00552377 0.0169985 0.00749218
0.0204623 0.0161746 0.00666819
0.0394598 0.0144198 0.00489815
0.061677 0.0119478 0.00244144
0.086656 0.00889601 0
0.114061 0.00534066 0
0.143694 0.00131228 0
0.175357 0 0
0.208942 0 0
0.244312 0 0
0.281392 0 0
0.320073 0 0
0.360311 0 0
0.402029 0 0
0.445167 0 0
0.489693 0 0
0.535546 0 0
0.582696 0 0
0.631098 0 0
0.68072 0 0
0.731533 0 0
0.78349 0 0
0.836591 0 0
0.890791 0 0
0.946075 0 0
1 0 0
1 0 0
1 0 0
0 0.0349432 0.0124666
0 0.0317082 0.00923171
0 0.0294194 0.00694286
0 0.0282139 0.00573739
0 0.0285191 0.00604257
0.00526436 0.0297093 0.00723278
0.0206149 0.0292973 0.00682078
0.0400244 0.0279393 0.00546273
0.062623 0.025864 0.0033875
0.0879683 0.0231785 0.000701915
0.11574 0.0199741 0
0.145708 0.0162966 0
0.177707 0.0121767 0
0.211612 0.00767529 0
0.247303 0.00280766 0
0.284672 0 0
0.323659 0 0
0.364187 0 0
0.406195 0 0
0.449607 0 0
0.494408 0 0
0.540536 0 0
0.58793 0 0
0.636591 0 0
0.686473 0 0
0.737514 0 0
0.789731 0 0
0.843061 0 0
0.897505 0 0
0.953017 0 0
1 0 0
1 0 0
1 0 0
0 0.0474861 0.00999466
0 0.0447242 0.00723278
0 0.0428473 0.00537118
0 0.0420691 0.00457771
0 0.042771 0.00527962
0.00488289 0.0443275 0.0068513
0.0205997 0.0442969 0.00680552
0.0403601 0.0432898 0.00579843
0.0633097 0.0415503 0.0040589
0.0889754 0.0392004 0.00170901
0.117067 0.0363012 0
0.147341 0.0329442 0
0.179644 0.0291295 0
0.21384 0.024918 0
0.249821 0.0203403 0
0.28748 0.0154116 0
0.326741 0.010132 0
0.367529 0.00456245 0
0.409796 0 0
0.453483 0 0
0.498527 0 0
0.5449 0 0
0.592554 0 0
0.641443 0 0
0.691554 0 0
0.74284 0 0
0.795285 0 0
0.848844 0 0
0.903502 0 0
0.959228 0 0
1 0 0
1 0 0
1 0 0
0 0.0619974 0.00772107
0 0.059617 0.00534066
0 0.0581216 0.00384527
0 0.0576944 0.00341802
0 0.0587472 0.00447089
0.00440986 0.0606546 0.00636301
0.0204471 0.0609293 0.00665293
0.040528 0.0602426 0.00596628
0.0637827 0.0588235 0.00453193
0.0897383 0.0567636 0.00248722
0.11812 0.0541695 0
0.148684 0.0510719 0
0.181277 0.0475471 0
0.215747 0.0436103 0
0.251987 0.039292 0
0.289906 0.0346227 0
0.329427 0.0296178 0
0.370474 0.0242924 0
0.412985 0.0186618 0
0.456901 0.012726 0
0.50219 0.00653086 0
0.548806 4.57771e-05 0
0.596689 0 0
0.645808 0 0
0.696147 0 0
0.747646 0 0
0.800305 0 0
0.854078 0 0
0.908949 0 0
0.964889 0 0
1 0 0
1 0 0
1 0 0
0 0.0782177 0.00553903
0 0.076173 0.00350958
0 0.0750134 0.00234989
0 0.0749065 0.00224308
0 0.0762646 0.00360113
0.00384527 0.0784772 0.00581369
0.0201877 0.079057 0.00639353
0.0405585 0.0786603 0.0059968
0.0640879 0.0775158 0.00485237
0.0903334 0.0757305 0.00306706
0.118975 0.0734112 0.000747692
0.149813 0.0705882 0
0.182666 0.0673228 0
0.21738 0.0636454 0
0.25388 0.0595712 0
0.292042 0.0551461 0
0.331792 0.0503853 0
0.373083 0.0452888 0
0.415824 0.0398871 0
0.459983 0.0341955 0
0.505501 0.0282139 0
0.552331 0.0219577 0
0.600427 0.0154574 0
0.649775 0.00868238 0
0.700313 0.00167849 0
0.752041 0 0
0.804898 0 0
0.858885 0 0
0.913954 0 0
0.970092 0 0
1 0 0
1 0 0
1 0 0
0 0.0959487 0.00343328
0 0.0942245 0.00170901
0 0.09337 0.000854505
0 0.0935531 0.00103761
0 0.095201 0.00268559
0.00321965 0.0976883 0.00517281
0.0198367 0.0985428 0.00604257
0.0404669 0.0984207 0.00590524
0.0642557 0.0975357 0.00502022
0.0907607 0.0960098 0.00349432
0.119661 0.0939345 0.00141909
0.150744 0.091371 0
0.183841 0.0883497 0
0.218799 0.0849012 0
0.255528 0.0810712 0
0.293919 0.0768749 0
0.333913 0.072343 0
0.375418 0.0674754 0
0.418387 0.0623026 0
0.46276 0.0568246 0
0.508492 0.0510567 0
0.555535 0.0450141 0
0.603845 0.0387121 0
0.653391 0.032166 0
0.704143 0.0253452 0
0.756069 0.0183108 0
0.80914 0.011017 0
0.86331 0.00350958 0
0.918578 0 0
0.974914 0 0
1 0 0
1 0 0
1 0 0
0 0.115084 0.00137331
0 0.113649 0
0 0.113069 0
0 0.113527 0
0 0.11545 0.00173953
0.00251774 0.118196 0.00448615
0.0193942 0.11931 0.00560006
0.0402686 0.119432 0.00572213
0.0643168 0.118791 0.00508125
0.0910658 0.11751 0.0037995
0.120211 0.115679 0.00196841
0.151522 0.113329 0
0.184848 0.110536 0
0.220035 0.107332 0
0.256977 0.103731 0
0.295598 0.0997482 0
0.335805 0.0954299 0
0.377539 0.0907759 0
0.420706 0.0858167 0
0.465293 0.0805524 0
0.511238 0.0749828 0
0.55848 0.0691539 0
0.606989 0.0630503 0
0.656733 0.0567025 0
0.707683 0.0500801 0
0.759808 0.0432288 0
0.813062 0.0361486 0
0.86743 0.0288243 0
0.922896 0.0212863 0
0.979416 0.0135195 0
1 0.00555428 0
1 0 0
1 0 0
0 0.135515 0
0 0.13434 0
0 0.13402 0
0 0.134737 0
0 0.136904 0.000732433
0.00175479 0.139895 0.0037232
0.0188754 0.141253 0.00508125
0.0399939 0.141604 0.00544747
0.064271 0.141207 0.00503548
0.091249 0.140154 0.0039826
0.120623 0.138537 0.00238041
0.152148 0.136431 0.000259403
0.185687 0.133852 0
0.221103 0.130861 0
0.258274 0.127474 0
0.297093 0.123705 0
0.337514 0.119585 0
0.379446 0.115145 0
0.422827 0.110384 0
0.467613 0.105318 0
0.513741 0.0999619 0
0.561181 0.094316 0
0.609888 0.0884108 0
0.659831 0.0822461 0
0.710964 0.0758221 0
0.763272 0.0691539 0
0.816724 0.0622568 0
0.871275 0.0551156 0
0.926909 0.0477607 0
0.983612 0.040177 0
1 0.0323949 0
1 0.0243839 0
1 0.0161746 0
0 0.157153 0
0 0.156222 0
0 0.156146 0
0 0.157107 0
0 0.159503 0
0.000946059 0.162722 0.00291447
0.0182956 0.164309 0.00450141
0.0396429 0.164889 0.00508125
0.0641337 0.164706 0.00489815
0.0913252 0.163882 0.00407416
0.120912 0.162493 0.00267033
0.152667 0.160586 0.00077821
0.186419 0.158221 0
0.222034 0.155428 0
0.259403 0.152239 0
0.298436 0.148684 0
0.33904 0.144778 0
0.38117 0.14052 0
0.42475 0.135958 0
0.469734 0.13109 0
0.516045 0.125917 0
0.563684 0.12047 0
0.612573 0.114748 0
0.662699 0.108766 0
0.714031 0.102525 0
0.766506 0.0960403 0
0.820127 0.0893263 0
0.874861 0.0823682 0
0.930678 0.0751812 0
0.987564 0.0677806 0
1 0.0601511 0
1 0.0523232 0
1 0.0442817 0
0 0.179934 0
0 0.179232 0
0 0.179385 0
0 0.180575 0
0 0.1832 0
7.62951e-05 0.186633 0.00204471
0.0176394 0.188434 0.00384527
0.0392004 0.189242 0.004654
0.06392 0.189273 0.00468452
0.0913252 0.188647 0.0040589
0.121111 0.187457 0.0028687
0.153063 0.185763 0.00117494
0.187015 0.183597 0
0.222827 0.181003 0
0.260395 0.178012 0
0.299626 0.174655 0
0.340429 0.170932 0
0.382742 0.166873 0
0.426505 0.162493 0
0.471672 0.157809 0
0.518181 0.152819 0
0.566003 0.147555 0
0.615076 0.142016 0
0.665385 0.136217 0
0.716869 0.130159 0
0.769543 0.123842 0
0.823331 0.117296 0
0.878233 0.110521 0
0.934218 0.103502 0
0.991272 0.0962692 0
1 0.0888075 0
1 0.0811475 0
1 0.0732738 0
0 0.203784 0
0 0.203311 0
0 0.203693 0
0 0.205081 0
0 0.207919 0
0 0.211582 0.00112917
0.0169375 0.213581 0.00314336
0.0387121 0.214588 0.00415045
0.0636149 0.214817 0.00437934
0.0912184 0.214405 0.00396735
0.121202 0.213413 0.00297551
0.153353 0.211917 0.00146487
0.187503 0.209949 0
0.223514 0.207538 0
0.261265 0.204746 0
0.300679 0.201572 0
0.34168 0.198032 0
0.384176 0.194156 0
0.428122 0.18996 0
0.473472 0.185458 0
0.52015 0.180652 0
0.568139 0.175555 0
0.617395 0.170199 0
0.667872 0.164569 0
0.719539 0.158679 0
0.772381 0.152544 0
0.826337 0.146151 0
0.881407 0.139544 0
0.93756 0.132692 0
0.994781 0.125628 0
1 0.118334 0
1 0.110826 0
1 0.10312 0
0 0.228672 0
0 0.228412 0
0 0.228992 0
0 0.230594 0
0 0.233646 0
0 0.237507 0.000183108
0.0161746 0.239704 0.00238041
0.0381476 0.240909 0.00358587
0.0632486 0.241337 0.00401312
0.0910506 0.241108 0.00378424
0.121233 0.240314 0.00299077
0.153567 0.239002 0.00167849
0.1879 0.237217 0
0.224094 0.235004 0
0.262028 0.23238 0
0.301625 0.229389 0
0.342794 0.226032 0
0.385473 0.222339 0
0.429603 0.218311 0
0.47512 0.213977 0
0.521981 0.209354 0
0.570138 0.204425 0
0.619562 0.199237 0
0.670207 0.193774 0
0.722042 0.188052 0
0.775036 0.182086 0
0.829175 0.17586 0
0.884398 0.169406 0
0.940719 0.162722 0
0.998093 0.15581 0
1 0.148684 0
1 0.141344 0
1 0.133791 0
0 0.254551 0
0 0.25449 0
0 0.255268 0
0 0.257069 0
0 0.260319 0
0 0.264363 0
0.0153658 0.266758 0.00157168
0.0375219 0.268162 0.00296025
0.0628214 0.268772 0.00358587
0.0908064 0.268727 0.00354009
0.121157 0.268116 0.00292973
0.153689 0.266987 0.00178531
0.18819 0.265385 0.000198367
0.224567 0.263355 0
0.262684 0.260914 0
0.302449 0.258091 0
0.343801 0.254902 0
0.386648 0.251377 0
0.430945 0.247532 0
0.476631 0.243366 0
0.523659 0.238911 0
0.571984 0.23415 0
0.621576 0.229129 0
0.672389 0.223819 0
0.724392 0.218265 0
0.777539 0.212451 0
0.83183 0.206394 0
0.887221 0.200107 0
0.943694 0.193576 0
1 0.186816 0
1 0.179843 0
1 0.172656 0
1 0.165255 0
0 0.281361 0
0 0.281498 0
0 0.282475 0
0 0.284474 0
0 0.287907 0
0 0.292134 0
0.0145113 0.294728 0.000717174
0.0368505 0.2963 0.00228885
0.0623178 0.297093 0.00308232
0.090486 0.29723 0.00321965
0.121019 0.296803 0.0027924
0.153719 0.295842 0.00183108
0.188418 0.294423 0.000411994
0.224948 0.292561 0
0.263249 0.290288 0
0.303181 0.287633 0
0.344701 0.284627 0
0.387717 0.28127 0
0.432181 0.277577 0
0.478035 0.273579 0
0.525216 0.269291 0
0.573709 0.264698 0
0.623453 0.259831 0
0.674434 0.254688 0
0.726589 0.249287 0
0.779904 0.243641 0
0.834348 0.237736 0
0.889891 0.231601 0
0.946517 0.225223 0
1 0.218616 0
1 0.211795 0
1 0.204761 0
1 0.197498 0
0 0.309087 0
0 0.309422 0
0 0.310582 0
0 0.312764 0
0 0.316365 0
0 0.32079 0
0.0135958 0.323552 0
0.0361181 0.325307 0.00155642
0.0617685 0.326284 0.002533
0.0901045 0.326589 0.00283818
0.120821 0.326329 0.00257877
0.153689 0.325551 0.00180056
0.18854 0.324285 0.000534066
0.225254 0.322591 0
0.263706 0.3205 0
0.303822 0.318013 0
0.345495 0.31516 0
0.388678 0.311971 0
0.433295 0.308446 0
0.479316 0.304601 0
0.526665 0.300465 0
0.575311 0.29604 0
0.625223 0.291325 0
0.676341 0.286336 0
0.728649 0.281102 0
0.782132 0.275593 0
0.836728 0.269841 0
0.892424 0.263859 0
0.949203 0.257633 0
1 0.251179 0
1 0.244511 0
1 0.237613 0
1 0.230503 0
0 0.337697 0
0 0.338201 0
0 0.339559 0
0 0.341909 0
0 0.345693 0
0 0.350286 0
0.0126497 0.353231 0
0.0353399 0.355154 0.00077821
0.0611582 0.356298 0.00192264
0.089662 0.356786 0.00241093
0.120546 0.35668 0.00230411
0.153582 0.356069 0.00169375
0.188602 0.354986 0.000595102
0.225483 0.353445 0
0.264103 0.351507 0
0.304372 0.349187 0
0.346212 0.346502 0
0.389548 0.343465 0
0.434333 0.340093 0
0.480491 0.336416 0
0.527993 0.332433 0
0.576806 0.328145 0
0.626856 0.323598 0
0.678141 0.318761 0
0.730602 0.313664 0
0.784222 0.308324 0
0.838972 0.302724 0
0.89482 0.29688 0
0.951736 0.290806 0
1 0.284489 0
1 0.277958 0
1 0.271214 0
1 0.264256 0
0 0.367163 0
0 0.367849 0
0 0.36936 0
0 0.371893 0
0 0.37586 0
0 0.380621 0
0.0116579 0.383719 0
0.0345159 0.385824 0
0.060502 0.387121 0.0012665
0.0891737 0.387778 0.00190738
0.120211 0.387839 0.00196841
0.153414 0.387381 0.0015259
0.188602 0.38645 0.000595102
0.225635 0.385092 0
0.264408 0.383307 0
0.304829 0.38114 0
0.346822 0.378607 0
0.390326 0.375723 0
0.435248 0.372519 0
0.481575 0.368978 0
0.529229 0.365148 0
0.57818 0.361028 0
0.628397 0.356619 0
0.67982 0.351934 0
0.732433 0.34699 0
0.786191 0.341787 0
0.841093 0.336324 0
0.897078 0.330632 0
0.954147 0.324697 0
1 0.318532 0
1 0.312139 0
1 0.305531 0
1 0.298711 0
0 0.397436 0
0 0.398306 0
0 0.399985 0
0 0.402686 0
0 0.406806 0
0 0.411749 0
0.0106203 0.415015 0
0.0336309 0.417273 0
0.0597848 0.418738 0.000549325
0.0886244 0.419547 0.00135805
0.119829 0.419776 0.00158694
0.153185 0.419471 0.00128176
0.188525 0.418708 0.000518807
0.225711 0.417487 0
0.264637 0.415869 0
0.305211 0.41384 0
0.347372 0.41146 0
0.391012 0.408743 0
0.436088 0.405676 0
0.482567 0.402304 0
0.530373 0.398611 0
0.579477 0.394629 0
0.629816 0.390372 0
0.681392 0.38584 0
0.734142 0.381033 0
0.788052 0.375967 0
0.843091 0.370657 0
0.899229 0.365103 0
0.956436 0.359304 0
1 0.353292 0
1 0.347036 0
1 0.340566 0
1 0.333883 0
0 0.428534 0
0 0.429557 0
0 0.431403 0
0 0.434272 0
0 0.43856 0
0 0.443656 0
0.00955215 0.447074 0
0.0327153 0.4495 0
0.0590372 0.451118 0
0.088014 0.452079 0.000762951
0.119371 0.452461 0.00114443
0.15288 0.452323 0.000991836
0.188373 0.451698 0.000381476
0.225727 0.450645 0
0.264805 0.449165 0
0.305531 0.447303 0
0.347829 0.44506 0
0.391623 0.442481 0
0.436851 0.439567 0
0.483467 0.436332 0
0.531411 0.432792 0
0.580667 0.428962 0
0.631159 0.424842 0
0.682872 0.420447 0
0.735759 0.415778 0
0.789822 0.410864 0
0.844984 0.405692 0
0.901259 0.400275 0
0.958602 0.394629 0
1 0.388739 0
1 0.38262 0
1 0.376287 0
1 0.369741 0
0 0.460395 0
0 0.461585 0
0 0.4636 0
0 0.466621 0
0 0.471061 0
0 0.47631 0
0.00843824 0.479896 0
0.0317693 0.482475 0
0.0582284 0.484245 0
0.0873732 0.485359 0.000106813
0.118883 0.485893 0.000640879
0.152529 0.485908 0.000640879
0.188174 0.485435 0.000167849
0.225666 0.48452 0
0.264897 0.483192 0
0.305776 0.481468 0
0.348211 0.479377 0
0.392157 0.476951 0
0.437522 0.474174 0
0.484291 0.471092 0
0.532372 0.467689 0
0.581765 0.463996 0
0.632395 0.460014 0
0.684245 0.455756 0
0.737285 0.45124 0
0.79147 0.446448 0
0.846784 0.441413 0
0.903197 0.436133 0
0.960678 0.430625 0
1 0.424872 0
1 0.418891 0
1 0.412695 0
1 0.406271 0
0 0.493019 0
0 0.494362 0
0 0.496529 0
0 0.499702 0
0 0.504311 0
0 0.509712 0
0.00727855 0.513451 0
0.0307622 0.516167 0
0.0573739 0.518105 0
0.0866712 0.519371 0
0.118318 0.520043 9.15541e-05
0.152132 0.520211 0.000244144
0.187915 0.519875 0
0.225559 0.519112 0
0.264927 0.517922 0
0.305943 0.51635 0
0.348531 0.514412 0
0.392615 0.512108 0
0.438132 0.509483 0
0.485023 0.506523 0
0.533257 0.503273 0
0.582773 0.499718 0
0.633555 0.495872 0
0.685542 0.491753 0
0.73872 0.487373 0
0.793042 0.482719 0
0.848478 0.477821 0
0.905028 0.472679 0
0.962646 0.467292 0
1 0.461662 0
1 0.455817 0
1 0.449744 0
1 0.443458 0
0 0.52639 0
0 0.527886 0
0 0.530205 0
0 0.533532 0
0 0.538293 0
0 0.543847 0
0.00610361 0.547723 0
0.0297246 0.550591 0
0.0564889 0.552666 0
0.0859236 0.554086 0
0.117723 0.55491 0
0.151675 0.555215 0
0.18761 0.555032 0
0.225391 0.554391 0
0.264897 0.553353 0
0.30605 0.551919 0
0.348775 0.550118 0
0.392996 0.547967 0
0.438651 0.545464 0
0.485695 0.542657 0
0.534051 0.539528 0
0.583719 0.53611 0
0.634623 0.532403 0
0.686748 0.52842 0
0.740047 0.524163 0
0.794507 0.519646 0
0.85008 0.514885 0
0.906752 0.509865 0
0.964508 0.504616 0
1 0.499123 0
1 0.4934 0
1 0.487465 0
1 0.4813 0
0 0.560479 0
0 0.562127 0
0 0.564599 0
0 0.568078 0
0 0.572976 0
0 0.578668 0
0.00488289 0.582712 0
0.0286564 0.585718 0
0.0555581 0.587945 0
0.0851301 0.589487 0
0.117082 0.590463 0
0.151171 0.590906 0
0.187243 0.59086 0
0.225162 0.590372 0
0.264805 0.589471 0
0.306111 0.588174 0
0.348959 0.586496 0
0.393317 0.584482 0
0.439109 0.582116 0
0.486275 0.579446 0
0.534783 0.576455 0
0.584573 0.573159 0
0.635615 0.569589 0
0.687877 0.565744 0
0.741299 0.561624 0
0.795895 0.557229 0
0.851606 0.55259 0
0.9084 0.547707 0
0.966278 0.54258 0
1 0.537224 0
1 0.531624 0
1 0.525811 0
1 0.519783 0
0 0.59527 0
0 0.59707 0
0 0.599695 0
0 0.603311 0
0 0.608347 0
0 0.614191 0
0.00363165 0.618372 0
0.0275425 0.62153 0
0.0545815 0.62388 0
0.0843061 0.625574 0
0.116381 0.626688 0
0.150622 0.627268 0
0.186816 0.627359 0
0.224872 0.627008 0
0.264668 0.626245 0
0.306096 0.625071 0
0.349096 0.623545 0
0.393576 0.621653 0
0.439506 0.61944 0
0.486809 0.616892 0
0.535439 0.614023 0
0.585367 0.610864 0
0.63653 0.607431 0
0.688914 0.603708 0
0.742473 0.59971 0
0.797192 0.595453 0
0.853025 0.590936 0
0.909957 0.586191 0
0.967956 0.581186 0
1 0.575952 0
1 0.570489 0
1 0.564797 0
1 0.558877 0
0 0.630762 0
0 0.6327 0
0 0.635462 0
0 0.639231 0
0 0.644419 0
0 0.650401 0
0.00233463 0.654704 0
0.0263981 0.658 0
0.0535744 0.660502 0
0.0834363 0.662333 0
0.115648 0.663569 0
0.150011 0.664286 0
0.186358 0.664515 0
0.224552 0.664302 0
0.264469 0.663661 0
0.306035 0.662638 0
0.349157 0.661234 0
0.393774 0.65948 0
0.439826 0.657389 0
0.487266 0.654963 0
0.536019 0.652247 0
0.586069 0.64921 0
0.637369 0.645899 0
0.689891 0.642298 0
0.743572 0.638437 0
0.798413 0.634302 0
0.854383 0.629923 0
0.911437 0.625284 0
0.969558 0.620401 0
1 0.61529 0
1 0.609949 0
1 0.604379 0
1 0.598596 0
0 0.666926 0
0 0.669017 0
0 0.671916 0
0 0.675822 0
0 0.681132 0
0 0.687266 0
0.00102235 0.691707 0
0.0252079 0.69514 0
0.0525216 0.69778 0
0.0825208 0.699733 0
0.11487 0.701122 0
0.149371 0.701961 0
0.18584 0.702327 0
0.22417 0.702235 0
0.26421 0.701732 0
0.305913 0.700832 0
0.349172 0.699565 0
0.393912 0.697932 0
0.440101 0.695964 0
0.487648 0.693675 0
0.536538 0.691081 0
0.586725 0.688182 0
0.638148 0.684993 0
0.690791 0.681514 0
0.744595 0.677775 0
0.799558 0.673762 0
0.85565 0.669505 0
0.912825 0.665003 0
0.971069 0.660243 0
1 0.655253 0
1 0.650034 0
1 0.644587 0
1 0.638911 0
0 0.703761 0
0 0.705974 0
0 0.709026 0
0 0.713054 0
0 0.718517 0
0 0.724773 0
0 0.729366 0
0.0239872 0.732921 0
0.0514382 0.735683 0
