assets/cube/cross_process_cp15.cube
TITLE "Generated by Resolve"
LUT_3D_SIZE 9
0 0.00488289 0.00502022
0 0.000427253 0.000564584
0.0151827 0 0
0.0760204 0 0
0.193103 0 0
0.373312 0 0
0.621927 0 0
0.943297 0 0
1 0 0
0 0.013901 0
0 0.0128939 0
0.0160983 0.0140383 0
0.0811322 0.00454719 0
0.202686 0 0
0.387594 0 0
0.641093 0 0
0.967559 0 0
1 0 0
0 0.0435187 0
0 0.0470588 0
0.0133974 0.0529793 0
0.0834058 0.0484474 0
0.210101 0.0306249 0
0.40029 0 0
0.659251 0 0
0.991287 0 0
1 0 0
0 0.0980392 0
0 0.106783 0
0.00605783 0.118044 0
0.0815595 0.11902 0
0.213886 0.106828 0
0.409842 0.0796826 0
0.674678 0.0362097 0
1 0 0
1 0 0
0 0.180331 0
0 0.194751 0
0 0.21181 0
0.0748302 0.218708 0
0.213199 0.212543 0
0.41529 0.191531 0
0.686351 0.154299 0
1 0.0997177 0
1 0.0267948 0
0 0.292607 0
0 0.3131 0
0 0.336339 0
0.0626688 0.349508 0
0.207401 0.349706 0
0.415961 0.335164 0
0.693568 0.304479 0
1 0.256535 0
1 0.190326 0
0 0.436744 0
0 0.46363 0
0 0.49337 0
0.0446021 0.513115 0
0.195987 0.519982 0
0.411307 0.512184 0
0.69575 0.488334 0
1 0.447288 0
1 0.388067 0
0 0.614328 0
0 0.647913 0
0 0.684428 0
0.0202487 0.71104 0
0.178576 0.724834 0
0.400885 0.724056 0
0.692409 0.707271 0
1 0.673365 0
1 0.621363 0
0 0.82681 0
0 0.867353 0
0 0.910903 0
0 0.944595 0
0.154788 0.965576 0
0.384329 0.97203 0
0.683162 0.962554 0
1 0.936034 0
1 0.891447 0
0 0.00401312 0.0165713
0 0 0.0123751
0.0148928 0 0.00996414
0.0760967 0 0
0.193606 0 0
0.374258 0 0
0.623331 0 0
0.94519 0 0
1 0 0
0 0.0141451 0.0112612
0 0.01355 0.0106661
0.0171969 0.0151369 0.0122683
0.0827039 0.00611887 0.00325017
0.204761 0 0
0.390173 0 0
0.644205 0 0
0.971206 0 0
1 0 0
0 0.0452735 0.000762951
0 0.0493172 0.00480659
0.0161746 0.0557412 0.0112306
0.0867018 0.0517586 0.00723278
0.213947 0.0344701 0
0.404715 0.00213626 0
0.66424 0 0
0.996872 0 0
1 0 0
0 0.101549 0
0 0.110842 0
0.0106813 0.122667 0.00575265
0.0867628 0.124224 0.00729381
0.219684 0.112612 0
0.416236 0.0860761 0
0.681682 0.0432136 0
1 0 0
1 0 0
0 0.185748 0
0 0.200763 0
3.0518e-05 0.218433 0
0.0820783 0.22594 0.00260929
0.221057 0.220401 0
0.423789 0.200031 0
0.695506 0.163455 0
1 0.109514 0
1 0.0372625 0
0 0.300069 0
0 0.321187 0
0 0.345083 0
0.0720531 0.358892 0
0.217441 0.359762 0
0.426673 0.345876 0
0.704967 0.315877 0
1 0.268605 0
1 0.203098 0
0 0.446372 0
0 0.47393 0
0 0.504341 0
0.0562448 0.524758 0
0.208331 0.532326 0
0.424323 0.525216 0
0.709484 0.502068 0
1 0.461738 0
1 0.40322 0
0 0.62623 0
0 0.660502 0
0 0.697719 0
0.0342412 0.725017 0
0.193271 0.739544 0
0.416312 0.739467 0
0.708553 0.72343 0
1 0.690257 0
1 0.638987 0
0 0.841062 0
0 0.882307 0
0 0.926589 0
0.00569161 0.961013 0
0.171939 0.982727 0
0.402228 0.989929 0
0.701808 0.981201 0
1 0.955428 0
1 0.91162 0
0 0.00184634 0.0458076
0 0 0.041886
0.0133516 0 0.039826
0.0749523 0 0.0269017
0.192874 0 0.00030518
0.373983 0 0
0.623514 0 0
0.945876 0 0
1 0 0
0 0.0131533 0.0416724
0 0.0129854 0.0415198
0.0170901 0.0150301 0.0435645
0.0830854 0.00650034 0.0350195
0.205631 0 0.0130465
0.391562 0 0
0.646128 0 0
0.973678 0 0
1 0 0
0 0.0458228 0.0327153
0 0.05037 0.0372625
0.0177462 0.0573281 0.0442206
0.0888228 0.0538643 0.0407721
0.216617 0.0371405 0.0240482
0.40795 0.00537118 0
0.668055 0 0
1 0 0
1 0 0
0 0.103853 0.0183413
0 0.11371 0.0281987
0.0141299 0.126116 0.0406043
0.0907912 0.128252 0.0427405
0.224308 0.11725 0.0317235
0.421469 0.09131 0.00579843
0.687541 0.049073 0
1 0 0
1 0 0
0 0.18999 0
0 0.2056 0.0136873
0.00549325 0.223896 0.0319677
0.0881514 0.232013 0.0401007
0.227771 0.227115 0.0352026
0.431144 0.207385 0.0154726
0.703517 0.17145 0
1 0.118181 0
1 0.0466011 0
0 0.306386 0
0 0.32813 0
0 0.352667 0.0177768
0.0803082 0.367132 0.0322423
0.226352 0.368658 0.0337682
0.436255 0.355459 0.0205692
0.715221 0.326131 0
1 0.279561 0
1 0.21474 0
0 0.454856 0
0 0.48307 0
0 0.514153 0
0.066743 0.535271 0.0186923
0.219532 0.543526 0.0269474
0.436225 0.537118 0.0205386
0.722072 0.514672 0
1 0.475044 0
1 0.417258 0
0 0.636988 0
0 0.671962 0
0 0.709865 0
0.0471046 0.737881 0
0.206851 0.753124 0.0142824
0.43061 0.75378 0.0149233
0.723583 0.73846 0
1 0.70602 0
1 0.655497 0
0 0.85417 0
0 0.896147 0
0 0.941146 0
0.0209964 0.976318 0
0.187976 0.998764 0
0.419013 1 0.00332647
0.719341 0.998734 0
1 0.973724 0
1 0.930678 0
0 0 0.0956588
0 0 0.0920424
0.0103456 0 0.0903487
0.0723583 0 0.077821
0.190707 0 0.0516518
0.372259 0 0.0101015
0.622278 0 0
0.945144 0 0
1 0 0
0 0.0106966 0.0927596
0 0.0109865 0.0930343
0.0155489 0.013489 0.095552
0.0820172 0.00543221 0.0874952
0.205081 0 0.0660258
0.391531 0 0.0293736
0.646632 0 0
0.974731 0 0
1 0 0
0 0.0449531 0.0853742
0 0.0500038 0.0904402
0.0179141 0.057496 0.0979171
0.0895247 0.0545815 0.0950027
0.217884 0.038407 0.0788281
0.409781 0.00720226 0.0476387
0.670481 0 3.0518e-05
1 0 0
1 0 0
0 0.104768 0.0727855
0 0.115175 0.0831922
0.0161746 0.128161 0.0961776
0.093431 0.130877 0.0988937
0.227543 0.120485 0.0884871
0.42533 0.0951553 0.0631723
0.692012 0.0535439 0.021561
1 0 0
1 0 0
0 0.192844 0.0544442
0 0.209064 0.0706645
0.00956741 0.227955 0.0895705
0.0928511 0.236713 0.0983139
0.233097 0.232456 0.0940566
0.437125 0.213367 0.0749676
0.71014 0.178088 0.0396887
1 0.125475 0
1 0.0545663 0
0 0.311315 0.0299535
0 0.3337 0.0523384
0 0.358877 0.0775158
0.0871748 0.373999 0.0926375
0.23389 0.376196 0.0948348
0.444465 0.363668 0.0823072
0.724117 0.335027 0.053666
1 0.289143 0.0077821
1 0.225025 0
0 0.461967 0
0 0.490852 0.0278172
0 0.522622 0.0595712
0.0758984 0.544411 0.0813611
0.229358 0.553353 0.0903182
0.446769 0.547662 0.0846113
0.733333 0.525917 0.0628824
1 0.487007 0.0239719
1 0.429953 0
0 0.646387 0
0 0.682048 0
0 0.720668 0.0353552
0.0586099 0.749386 0.0640726
0.219074 0.765347 0.0800336
0.443565 0.76672 0.0814069
0.73727 0.752132 0.0668193
1 0.720439 0.0351263
1 0.670665 0
0 0.86595 0
0 0.908644 0
0 0.95436 0.00451667
0.0349432 0.990265 0.0404212
0.20267 1 0.0636149
0.434455 1 0.0722972
0.735531 1 0.0650797
1 0.990677 0.0408331
1 0.948394 0
0 0 0.1682
0 0 0.164935
0.00572213 0 0.163607
0.0681315 0 0.151492
0.186923 0 0.125765
0.368948 0 0.0846876
0.619455 0 0.0269017
0.942824 0 0
1 0 0
0 0.00663767 0.166583
0 0.00737011 0.167315
0.0124056 0.0103609 0.170306
0.0793774 0.0027924 0.162737
0.202945 0 0.141787
0.389914 0 0.105653
0.645563 0 0.0530098
0.974227 0 0
1 0 0
0 0.0424964 0.1608
0 0.0480659 0.166384
0.016495 0.0560769 0.174395
0.0886702 0.0537118 0.17203
0.217578 0.038117 0.15642
0.410056 0.00747692 0.125795
0.671336 0 0.0787823
1 0 0.0142367
1 0 0
0 0.104112 0.150011
0 0.115084 0.160998
0.0166629 0.128649 0.174548
0.0944991 0.13196 0.177859
0.229221 0.122164 0.168063
0.427619 0.0974594 0.143359
0.694926 0.0564584 0.102358
1 0 0.0439612
1 0 0
0 0.194141 0.133639
0 0.210971 0.150454
0.0120851 0.230488 0.169986
0.0959945 0.239872 0.17937
0.236896 0.23624 0.175738
0.441566 0.217807 0.157305
0.715236 0.183185 0.122683
1 0.131243 0.0707408
1 0.0609903 0.000488289
0 0.314687 0.111223
0 0.337728 0.134249
0.0021973 0.363561 0.160082
0.0925154 0.379339 0.175875
0.239887 0.382208 0.178729
0.451148 0.370352 0.166888
0.731487 0.342397 0.138918
1 0.2972 0.0937362
1 0.233783 0.0303197
0 0.467552 0.0823987
0 0.497108 0.111955
0 0.529549 0.144396
0.0835126 0.552026 0.166873
0.237675 0.561669 0.176516
0.455787 0.55668 0.171527
0.743053 0.535653 0.1505
1 0.497459 0.112306
1 0.441123 0.0559701
0 0.654261 0.0468299
0 0.690623 0.0831922
0 0.729946 0.122515
0.0686046 0.75938 0.151965
0.229786 0.776059 0.168627
0.454994 0.778164 0.170733
0.749447 0.764309 0.156878
1 0.733364 0.125933
1 0.684337 0.0769055
0 0.876204 0.00424201
0 0.919615 0.0476692
0 0.966079 0.0941176
0.0473945 1 0.130755
0.215854 1 0.154696
0.448386 1 0.164126
0.750225 1 0.157671
1 1 0.134173
1 0.964614 0.0926528
0 0 0.265126
0 0 0.262196
0 0 0.261265
0.0621805 0 0.249577
0.181415 0 0.224308
0.363912 0 0.183688
0.614908 0 0.12639
0.938781 0 0.0513008
1 0 0
0 0.000839246 0.26482
0 0.00202945 0.266011
0.00753796 0.00549325 0.269474
0.0750134 0 0.262409
0.1991 0 0.241978
0.386603 0 0.206394
0.642802 0 0.154284
0.972015 0 0.0845502
1 0 0
0 0.0383154 0.26067
0 0.0444038 0.266773
0.0133822 0.0529641 0.275319
0.0861067 0.0511482 0.273503
0.215579 0.0361181 0.258473
0.408637 0.00607309 0.228428
0.670512 0 0.181994
1 0 0.118059
1 0 0.0356451
0 0.101747 0.251698
0 0.113298 0.263249
0.0154574 0.127443 0.277394
0.093904 0.13135 0.2813
0.229221 0.122164 0.272114
0.428244 0.0980697 0.24802
0.696178 0.0577096 0.20766
1 0 0.149889
1 0 0.0737469
0 0.193759 0.237293
0 0.211185 0.254734
0.0129397 0.231327 0.274876
0.0974746 0.241352 0.284886
0.239017 0.238361 0.281895
0.444327 0.220569 0.264118
0.718669 0.186618 0.230152
1 0.135332 0.178882
1 0.0657816 0.109316
0 0.316411 0.216983
0 0.340078 0.24065
0.00520333 0.366567 0.26714
0.0961776 0.383017 0.283589
0.244236 0.386557 0.287129
0.456168 0.375387 0.275944
0.737209 0.348119 0.248676
1 0.303609 0.204181
1 0.240909 0.141466
0 0.471473 0.190356
0 0.501701 0.220584
0 0.534829 0.253712
0.0894789 0.557992 0.27689
0.244343 0.568338 0.287236
0.463157 0.56405 0.282933
0.751141 0.54374 0.262623
1 0.506264 0.225162
1 0.45066 0.169543
0 0.660471 0.157092
0 0.697536 0.194156
0 0.737575 0.234195
0.0769513 0.767727 0.264347
0.238865 0.785122 0.281743
0.464805 0.787961 0.284581
0.759991 0.774853 0.271473
1 0.74464 0.24126
1 0.696361 0.192981
0 0.88481 0.116899
0 0.928954 0.161044
0 0.976135 0.208225
0.0581979 1 0.245609
0.227405 1 0.270283
0.460685 1 0.280476
0.763287 1 0.274769
1 1 0.252049
1 0.979217 0.211292
0 0 0.387823
0 0 0.385275
0 0 0.384741
0.0543679 0 0.37348
0.17406 0 0.348669
0.357031 0 0.308522
0.60853 0 0.251728
0.932921 0 0.177157
1 0 0.0838636
0 0 0.388891
0 0 0.390539
0.000854505 0 0.394491
0.0688182 0 0.387945
0.193423 0 0.368017
0.381476 0 0.332967
0.638224 0 0.281422
0.968017 0 0.212253
1 0 0.124498
0 0.0323186 0.386374
0 0.038941 0.393011
0.0084535 0.0480354 0.402106
0.0817273 0.0467842 0.400854
0.211795 0.0323186 0.386389
0.405432 0.00285344 0.356924
0.667887 0 0.311086
1 0 0.247761
1 0 0.165957
0 0.0975814 0.379248
0 0.109712 0.391379
0.0124666 0.124453 0.406104
0.0915084 0.128954 0.41062
0.227436 0.120378 0.402029
0.42707 0.09691 0.378561
0.695644 0.0571756 0.338827
1 4.57771e-05 0.281712
1 0 0.20621
0 0.191577 0.366827
0 0.209628 0.384878
0.0119936 0.230396 0.405646
0.0971847 0.241047 0.416297
0.239353 0.238697 0.413947
0.445335 0.221576 0.396826
0.720333 0.188281 0.363531
1 0.137667 0.312917
1 0.0687877 0.244038
0 0.316335 0.348623
0 0.340658 0.372946
0.00643931 0.367803 0.400092
0.098085 0.384924 0.417197
0.246815 0.389136 0.421408
0.459434 0.378637 0.410925
0.741161 0.352071 0.384344
1 0.308263 0.340551
1 0.246265 0.278538
0 0.47361 0.324208
0 0.504524 0.355123
0 0.538338 0.388937
0.0936904 0.562203 0.412802
0.249256 0.573251 0.42385
0.468772 0.569665 0.420264
0.757473 0.550072 0.400671
1 0.513313 0.363912
1 0.458442 0.309041
0 0.664942 0.293263
0 0.702708 0.331029
0 0.74345 0.371786
0.0835431 0.774319 0.402655
0.246189 0.792447 0.420783
0.472847 0.796017 0.424338
0.76878 0.783642 0.411963
1 0.754177 0.382498
1 0.706645 0.334981
0 0.891661 0.255467
0 0.936538 0.300343
0 0.984466 0.348257
0.0672618 1 0.386374
0.237217 1 0.41181
0.47126 1 0.422751
0.774609 1 0.417807
1 1 0.395834
1 0.992081 0.355871
0 0 0.537545
0 0 0.535363
0 0 0.535256
0.0446174 0 0.524422
0.164782 0 0.500069
0.348241 0 0.460426
0.600244 0 0.404135
0.925155 0 0.330083
1 0 0.237339
0 0 0.540002
0 0 0.542138
0 0 0.546578
0.0607156 0 0.540536
0.185855 0 0.521141
0.374441 0 0.486641
0.631754 0 0.435645
0.962112 0 0.367041
1 0 0.279881
0 0.0243992 0.539162
0 0.0315557 0.546319
0.00163272 0.0411994 0.555962
0.0754711 0.0405127 0.555276
0.206088 0.026627 0.54139
0.40032 0 0.512505
0.663386 0 0.467277
0.999619 0 0.404562
1 0 0.323384
0 0.0915236 0.533883
0 0.104234 0.546593
0.00756847 0.119554 0.561913
0.0872206 0.124666 0.567025
0.223774 0.116701 0.55906
0.424033 0.0938582 0.536217
0.693233 0.0547646 0.497124
1 0 0.440635
1 0 0.365805
0 0.187518 0.523461
0 0.20618 0.542123
0.00918593 0.227573 0.563531
0.0950027 0.238865 0.574807
0.237827 0.237171 0.573129
0.444465 0.220706 0.556649
0.720134 0.188067 0.52401
1 0.13814 0.474083
1 0.0699474 0.40589
0 0.314397 0.507378
0 0.339376 0.532357
0.00581369 0.367178 0.560159
0.0981308 0.384955 0.577935
0.247532 0.389853 0.582834
0.460838 0.380041 0.573022
0.743252 0.354162 0.547143
1 0.311055 0.504036
1 0.24976 0.442741
0 0.473899 0.485191
0 0.505486 0.516793
0 0.539986 0.551293
0.0960403 0.564553 0.575845
0.252308 0.576303 0.587594
0.472541 0.573434 0.584726
0.761959 0.554559 0.56585
1 0.518532 0.529824
1 0.464378 0.475685
0 0.667536 0.456565
0 0.70602 0.495048
0 0.747478 0.536507
0.0882887 0.77908 0.568093
0.251652 0.797925 0.586954
0.479057 0.802228 0.591257
0.775723 0.790585 0.579614
1 0.761883 0.550896
1 0.715099 0.504128
0 0.896681 0.421164
0 0.942275 0.466773
0 0.990936 0.515435
0.0744793 1 0.554299
0.245182 1 0.580468
0.479988 1 0.592172
0.7841 1 0.587991
1 1 0.566796
1 1 0.527596
0 0 0.715373
0 0 0.713573
0 0 0.713893
0.0328527 0 0.703517
0.15349 0 0.679637
0.337438 0 0.640482
0.589944 0 0.584695
0.915389 0 0.511177
1 0 0.418967
0 0 0.719265
0 0 0.721874
0 0 0.726818
0.0506142 0 0.721294
0.176287 0 0.702434
0.365423 0 0.668467
0.623285 0 0.618036
0.954223 0 0.550011
1 0 0.463432
0 0.0144808 0.720104
0 0.0221866 0.72781
0 0.0323796 0.738003
0.067216 0.0322576 0.737881
0.198428 0.0189517 0.724575
0.39324 0 0.696284
0.656916 0 0.651652
0.993759 0 0.589548
1 0 0.50901
0 0.0834821 0.716701
0 0.0967727 0.729992
0.000717174 0.112703 0.745907
0.0809644 0.118425 0.751629
0.218128 0.11107 0.744289
0.419028 0.0888533 0.722072
0.688869 0.0504005 0.683604
1 0 0.627771
1 0 0.553597
0 0.181491 0.708293
0 0.200778 0.727581
0.00440986 0.222797 0.749615
0.0908675 0.23473 0.761532
0.234348 0.233692 0.760494
0.441642 0.217884 0.744686
0.717968 0.185916 0.712718
1 0.13666 0.663462
1 0.0691539 0.595956
0 0.310491 0.694331
0 0.336126 0.719966
0.00323491 0.364599 0.74844
0.0962234 0.383047 0.766888
0.246311 0.388617 0.772457
0.460288 0.379507 0.763348
0.743404 0.354314 0.738155
1 0.311925 0.695766
1 0.251331 0.635172
0 0.472236 0.674388
0 0.504509 0.706676
0 0.539712 0.741863
0.0964523 0.564965 0.767117
0.253422 0.577417 0.779568
0.474372 0.575265 0.777417
0.764508 0.557107 0.759258
1 0.521813 0.723964
1 0.468391 0.670558
0 0.668208 0.648096
0 0.707393 0.687282
0 0.749569 0.729458
0.0910964 0.781888 0.761776
0.255207 0.801465 0.781353
0.483345 0.806516 0.786389
0.780758 0.795621 0.775494
1 0.767651 0.747539
1 0.72163 0.701518
0 0.899763 0.615106
0 0.94609 0.661448
0 0.995499 0.710842
0.0797742 1 0.750454
0.25124 1 0.777386
0.486793 1 0.789837
0.791669 1 0.786419
1 1 0.766003
1 1 0.727581
