assets/cube/cross_process_cp18.cube
TITLE "Generated by Resolve"
LUT_3D_SIZE 5
0 0.0104829 0.0707103
0.153048 0.0209964 0.0737621
0.336309 0.0393225 0.0850843
0.51075 0.0599832 0.0991836
0.680079 0.0819867 0.115053
0.0414588 0.22385 0.115129
0.235645 0.239139 0.1243
0.41413 0.258625 0.138094
0.585916 0.279896 0.15404
0.753414 0.302296 0.171466
0.129747 0.440269 0.16614
0.314626 0.457969 0.178943
0.489677 0.478279 0.19469
0.659312 0.500023 0.212207
0.825238 0.522744 0.230991
0.211643 0.658106 0.222004
0.391257 0.677119 0.237156
0.563592 0.69807 0.254536
0.731426 0.720226 0.273381
0.895964 0.743236 0.29337
0.290211 0.876554 0.281483
0.466102 0.896498 0.298451
0.636225 0.917967 0.31722
0.802457 0.940475 0.337255
0.965774 0.963745 0.358297
0 0.0224613 0.183658
0.166659 0.0330205 0.189868
0.34902 0.0513313 0.204059
0.522911 0.0718853 0.220798
0.691829 0.0937667 0.239109
0.055848 0.23508 0.236896
0.248173 0.250645 0.248859
0.426001 0.270085 0.265003
0.597345 0.291264 0.283146
0.764477 0.313558 0.302647
0.142412 0.45124 0.295567
0.326329 0.468986 0.310567
0.500862 0.489265 0.328344
0.67013 0.510933 0.347738
0.835737 0.533562 0.368338
0.223362 0.668711 0.35787
0.402289 0.687739 0.374899
0.574212 0.708644 0.394049
0.741695 0.730724 0.414572
0.905974 0.753643 0.436164
0.301213 0.886809 0.422995
0.47657 0.906737 0.441627
0.646326 0.928161 0.461967
0.812268 0.950591 0.483513
0.975326 0.9738 0.50602
0 0.0330358 0.314061
0.178927 0.0437934 0.322515
0.360494 0.0621195 0.338735
0.533898 0.0826429 0.357336
0.702449 0.104448 0.377447
0.0688334 0.245243 0.373419
0.259556 0.261067 0.387503
0.436805 0.280507 0.405417
0.607752 0.30164 0.425208
0.774563 0.323857 0.446311
0.154009 0.461234 0.437812
0.337057 0.479072 0.454536
0.511116 0.499321 0.473884
0.680034 0.520943 0.494789
0.845365 0.543511 0.516838
0.234134 0.678447 0.505135
0.412451 0.69749 0.523705
0.583978 0.718364 0.544274
0.751156 0.740398 0.566171
0.915175 0.763272 0.589105
0.31136 0.896254 0.574823
0.486244 0.916197 0.594842
0.655665 0.937591 0.616495
0.821332 0.959976 0.639307
0.984146 0.983124 0.663035
0 0.0425574 0.456886
0.190204 0.0536355 0.467262
0.371008 0.0720226 0.4851
0.543984 0.0925154 0.505196
0.7122 0.114275 0.526726
0.0807355 0.254582 0.521202
0.270069 0.270649 0.53698
0.446769 0.290105 0.556359
0.617334 0.311208 0.577523
0.783871 0.333394 0.599939
0.164736 0.470466 0.590219
0.34699 0.488396 0.608392
0.520607 0.508644 0.629068
0.689204 0.530221 0.65124
0.854261 0.552743 0.67451
0.24416 0.687449 0.661723
0.421897 0.706554 0.68159
0.593042 0.727413 0.703395
0.759945 0.749416 0.726482
0.92372 0.772244 0.750546
0.320821 0.905058 0.735286
0.495247 0.925002 0.756512
0.664332 0.94638 0.779293
0.82974 0.968734 0.80322
0.992355 0.991836 0.828016
0 0.0511635 0.609567
0.200656 0.0627298 0.621759
0.380774 0.0811933 0.640955
0.553323 0.101686 0.662318
0.721233 0.123415 0.685069
0.0917678 0.263264 0.678203
0.27985 0.279545 0.69546
0.456031 0.299031 0.716075
0.626245 0.320119 0.73843
0.792508 0.34226 0.76199
0.174746 0.479042 0.751171
0.356237 0.497063 0.770611
0.529442 0.517327 0.792432
0.697734 0.538888 0.815717
0.862547 0.561379 0.840055
0.253513 0.695857 0.826307
0.430701 0.715007 0.847318
0.601495 0.735866 0.870192
0.768124 0.757839 0.894316
0.93167 0.780636 0.919387
0.329671 0.913268 0.903258
0.503655 0.933242 0.925536
0.672435 0.954604 0.94934
0.837598 0.976928 0.974243
1 1 1
