assets/cube/cross_process_cp14.cube
TITLE "Generated by Resolve"
LUT_3D_SIZE 9
0 0.0182193 0.0191806
0 0.00643931 0.00740063
0.0603189 0.000122072 0.00108339
0.172396 0 0
0.31574 0 0
0.484138 0 0
0.674067 0 0
0.883116 0 0
1 0 0
0 0.0619974 0.00772107
0 0.0587472 0.00447089
0.0637827 0.0588235 0.00453193
0.181277 0.0475471 0
0.329427 0.0296178 0
0.50219 0.00653086 0
0.696147 0 0
0.908949 0 0
1 0 0
0 0.135515 0
0 0.136904 0.000732433
0.064271 0.141207 0.00503548
0.185687 0.133852 0
0.337514 0.119585 0
0.513741 0.0999619 0
0.710964 0.0758221 0
0.926909 0.0477607 0
1 0.0161746 0
0 0.228672 0
0 0.233646 0
0.0632486 0.241337 0.00401312
0.1879 0.237217 0
0.342794 0.226032 0
0.521981 0.209354 0
0.722042 0.188052 0
0.940719 0.162722 0
1 0.133791 0
0 0.337697 0
0 0.345693 0
0.0611582 0.356298 0.00192264
0.188602 0.354986 0.000595102
0.346212 0.346502 0
0.527993 0.332433 0
0.730602 0.313664 0
0.951736 0.290806 0
1 0.264256 0
0 0.460395 0
0 0.471061 0
0.0582284 0.484245 0
0.188174 0.485435 0.000167849
0.348211 0.479377 0
0.532372 0.467689 0
0.737285 0.45124 0
0.960678 0.430625 0
1 0.406271 0
0 0.59527 0
0 0.608347 0
0.0545815 0.62388 0
0.186816 0.627359 0
0.349096 0.623545 0
0.535439 0.614023 0
0.742473 0.59971 0
0.967956 0.581186 0
1 0.558877 0
0 0.741253 0
0 0.756542 0
0.0503243 0.774243 0
0.18468 0.779828 0
0.34902 0.778088 0
0.537392 0.770596 0
0.746441 0.758282 0
0.973861 0.741711 0
1 0.721325 0
0 0.897459 0
0 0.914809 0
0.0455177 0.934524 0
0.181842 0.942092 0
0.348135 0.94229 0
0.538415 0.936721 0
0.749325 0.926268 0
0.978607 0.911543 0
1 0.892973 0
0 0.0158389 0.0628214
0 0.00564584 0.0526284
0.0603952 0.000198367 0.0471809
0.173144 0 0.0311742
0.317067 0 0.00900282
0.485969 0 0
0.676356 0 0
0.885817 0 0
1 0 0
0 0.0629587 0.0547189
0 0.0602579 0.0520027
0.0657816 0.0608072 0.0525673
0.183719 0.0499886 0.0417334
0.33228 0.0324712 0.0242161
0.505425 0.00975052 0.00151064
0.699733 0 0
0.912871 0 0
1 0 0
0 0.138109 0.0479744
0 0.139895 0.0497444
0.067628 0.144564 0.0544289
0.18941 0.13756 0.047425
0.341558 0.123629 0.0334936
0.518105 0.104326 0.0141756
0.715633 0.0804913 0
0.931868 0.0527199 0
1 0.0214084 0
0 0.232502 0.0412146
0 0.237812 0.0465095
0.0677195 0.245808 0.0545205
0.192676 0.241993 0.0506905
0.34786 0.231083 0.0397955
0.527306 0.214694 0.0233921
0.727642 0.193668 0.00236515
0.946578 0.168597 0
1 0.139895 0
0 0.34258 0.034226
0 0.350866 0.0425116
0.0666056 0.36173 0.0533913
0.194308 0.360678 0.0523232
0.352163 0.352453 0.0440986
0.534203 0.338628 0.0302892
0.737041 0.320119 0.0117647
0.958419 0.29749 0
1 0.271168 0
0 0.466194 0.0269627
0 0.477104 0.0378729
0.0645304 0.490547 0.0513161
0.19472 0.491966 0.0527352
0.354986 0.486152 0.0469215
0.539376 0.474678 0.0354467
0.744503 0.458457 0.0192264
0.968109 0.438056 0
1 0.413916 0
0 0.601892 0.019379
0 0.615198 0.0327001
0.0616617 0.630961 0.0484474
0.194125 0.634653 0.0521401
0.356603 0.631052 0.0485389
0.54316 0.621759 0.0392462
0.750408 0.607645 0.0251316
0.976089 0.589319 0.00680552
1 0.567224 0
0 0.748623 0.0115053
0 0.764126 0.0270085
0.0581216 0.78204 0.0449226
0.192691 0.787839 0.0507057
0.357229 0.786297 0.0491646
0.5458 0.779004 0.041886
0.755032 0.766873 0.0297551
0.982666 0.7505 0.0133822
1 0.730297 0
0 0.905547 0.00331121
0 0.923095 0.0208743
0.0539864 0.943008 0.0407874
0.190524 0.950759 0.0485389
0.356985 0.951156 0.0489357
0.547463 0.945769 0.0435492
0.758556 0.9355 0.0332799
0.988022 0.920958 0.0187381
1 0.902571 0.000350958
0 0.012726 0.12604
0 0.00370794 0.117021
0.0592508 0 0.112352
0.172641 0 0.0969863
0.317098 0 0.0753643
0.486488 0 0.0488899
0.677317 0 0.0183566
0.887205 0 0
1 0 0
0 0.0626535 0.120729
0 0.0604715 0.118547
0.0664683 0.0615091 0.11957
0.184833 0.0511025 0.109178
0.333791 0.0339818 0.0920577
0.507317 0.0116426 0.0697185
0.701961 0 0.0430152
0.91545 0 0.0124819
1 0 0
0 0.139376 0.115557
0 0.141543 0.117723
0.0696574 0.146578 0.122759
0.19176 0.139925 0.116121
0.344244 0.126329 0.10251
0.521111 0.107317 0.0835126
0.718929 0.0837873 0.0599832
0.935454 0.0563058 0.0324865
1 0.0252842 0.00146487
0 0.234989 0.110018
0 0.240604 0.115633
0.0708324 0.24892 0.123949
0.196078 0.245396 0.120424
0.351537 0.234775 0.109804
0.531273 0.218647 0.0936751
0.731868 0.197894 0.0729229
0.951064 0.173083 0.0481117
1 0.14464 0.0196689
0 0.34609 0.104067
0 0.35465 0.112627
0.0706645 0.365805 0.123766
0.198627 0.364996 0.122972
0.356741 0.357031 0.115007
0.539025 0.343465 0.101427
0.742107 0.325185 0.0831617
0.963714 0.302785 0.0607614
1 0.276692 0.0346685
0 0.470603 0.0977035
0 0.481773 0.108873
0.0694438 0.49546 0.122545
0.199863 0.497124 0.124208
0.360357 0.491539 0.118624
0.544976 0.480293 0.107378
0.750332 0.464286 0.091371
0.974151 0.444099 0.0711986
1 0.420172 0.0472725
0 0.607126 0.0909438
0 0.620676 0.104479
0.0673533 0.636652 0.12047
0.200031 0.640574 0.124376
0.362722 0.637186 0.120989
0.549493 0.628092 0.111894
0.756954 0.614176 0.0979934
0.982834 0.596063 0.0798657
1 0.574151 0.057969
0 0.75462 0.0838178
0 0.770336 0.0995346
0.0645304 0.788449 0.117647
0.199298 0.794446 0.123644
0.36405 0.793103 0.122301
0.552819 0.786023 0.115221
0.762234 0.774075 0.103273
0.990051 0.757885 0.0870985
1 0.737881 0.0670787
0 0.91223 0.0763256
0 0.929976 0.0940719
0.0610666 0.950088 0.114183
0.197787 0.958038 0.122133
0.364446 0.958618 0.122713
0.555108 0.953414 0.11751
0.766384 0.943328 0.107439
0.996033 0.928969 0.0930648
1 0.91075 0.0748608
0 0.00901808 0.203616
0 0.000976577 0.195575
0.0572518 0 0.191638
0.171237 0 0.176867
0.316228 0 0.155764
0.486091 0 0.129778
0.677348 0 0.0996719
0.887617 0 0.0659495
1 0 0.0289769
0 0.0614633 0.200809
0 0.0597848 0.19913
0.0662242 0.061265 0.20061
0.185016 0.0512856 0.190631
0.334356 0.0345464 0.173892
0.508247 0.0125734 0.151919
0.703243 0 0.125566
0.917052 0 0.0953689
1 0 0.061738
0 0.139696 0.197162
0 0.142245 0.19971
0.0707103 0.147631 0.205097
0.193164 0.141329 0.198795
0.345968 0.128038 0.185504
0.523125 0.109346 0.166812
0.721263 0.0861067 0.143572
0.938064 0.0589151 0.116381
1 0.0281529 0.0856184
0 0.2365 0.192813
0 0.242435 0.198749
0.0729686 0.251057 0.20737
0.198505 0.247822 0.204135
0.354253 0.237491 0.19379
0.534249 0.221622 0.177935
0.735119 0.201129 0.157443
0.954559 0.176577 0.132876
1 0.148379 0.104692
0 0.348623 0.187869
0 0.357458 0.196719
0.0737316 0.368872 0.208133
0.201968 0.368338 0.207584
0.360327 0.360616 0.199863
0.542855 0.34728 0.186542
0.746181 0.329244 0.168505
0.968017 0.307088 0.146334
1 0.281209 0.12047
0 0.474037 0.182406
0 0.485451 0.19382
0.0733501 0.499367 0.207752
0.204013 0.501274 0.209644
0.364752 0.495918 0.204288
0.549584 0.484901 0.193271
0.755154 0.469108 0.177478
0.979202 0.449149 0.157519
1 0.425422 0.133806
0 0.611368 0.176455
0 0.625132 0.190219
0.0720378 0.641337 0.206439
0.204929 0.645472 0.210559
0.367849 0.642298 0.207385
0.554818 0.633417 0.198505
0.762478 0.619715 0.184802
0.988571 0.601785 0.166888
1 0.580087 0.145174
0 0.759594 0.170077
0 0.775525 0.186007
0.0699321 0.793851 0.204334
0.204898 0.800046 0.210529
0.369848 0.798901 0.209384
0.558816 0.79202 0.202502
0.768429 0.78027 0.190753
0.996429 0.764263 0.174746
1 0.744442 0.154925
0 0.917906 0.163287
0 0.935851 0.181231
0.0671397 0.956146 0.201526
0.204044 0.964294 0.209674
0.370901 0.965057 0.210437
0.561746 0.960052 0.205432
0.773205 0.950149 0.195529
1 0.935958 0.181338
1 0.917922 0.163302
0 0.00480659 0.293095
0 0 0.285908
0.0545663 0 0.282658
0.169131 0 0.268452
0.314626 0 0.247868
0.484947 0 0.222324
0.676616 0 0.19263
0.887282 0 0.159304
1 0 0.122698
0 0.0595407 0.292592
0 0.0583505 0.291402
0.0652323 0.0602731 0.293324
0.184421 0.0506905 0.283757
0.334142 0.0343328 0.267384
0.508385 0.012726 0.245777
0.703731 0 0.21976
0.917861 0 0.189883
1 0 0.156558
0 0.139254 0.29041
0 0.142168 0.293339
0.070985 0.147921 0.299077
0.193774 0.141939 0.293095
0.346883 0.128969 0.28014
0.524361 0.110582 0.261738
0.722774 0.0876326 0.238804
0.939864 0.0607156 0.211887
1 0.0302281 0.181399
0 0.237232 0.287236
0 0.243473 0.293492
0.0743114 0.252399 0.302403
0.200122 0.249439 0.299458
0.356146 0.239384 0.289403
0.536416 0.223804 0.273808
0.737545 0.203555 0.253559
0.957244 0.179248 0.229252
1 0.151293 0.201312
0 0.350347 0.283299
0 0.359457 0.292409
0.0760052 0.37113 0.304097
0.204486 0.370855 0.303807
0.363088 0.363378 0.296345
0.545876 0.350301 0.283253
0.749432 0.332494 0.265446
0.971496 0.310552 0.243519
1 0.284916 0.217868
0 0.476646 0.278721
0 0.488304 0.290379
0.0764477 0.502464 0.30454
0.207355 0.504601 0.306676
0.368307 0.499474 0.301549
0.553368 0.488685 0.290761
0.759167 0.473106 0.275181
0.983413 0.453361 0.255421
1 0.429847 0.231922
0 0.614786 0.273579
0 0.628779 0.287572
0.0758984 0.645197 0.30399
0.209018 0.649546 0.308339
0.372137 0.646586 0.305379
0.559319 0.637903 0.296696
0.767178 0.624414 0.283207
0.993469 0.606683 0.265476
1 0.585168 0.243961
0 0.763745 0.267933
0 0.779889 0.284077
0.0745098 0.798413 0.302602
0.209674 0.804822 0.308995
0.374807 0.803876 0.308064
0.563973 0.797177 0.301366
0.773785 0.785626 0.289799
1 0.769818 0.273991
1 0.750179 0.254353
0 0.922744 0.26183
0 0.940887 0.279973
0.0723735 0.961379 0.300465
0.209476 0.969726 0.308797
0.376516 0.970672 0.309758
0.567529 0.965835 0.304921
0.779171 0.956115 0.295201
1 0.942107 0.281193
1 0.924254 0.263325
0 0.000122072 0.39295
0 0 0.386557
0.0513008 0 0.383932
0.166415 0 0.370275
0.312398 0 0.350179
0.483162 0 0.325078
0.675227 0 0.295796
0.88629 0 0.262837
1 0 0.226596
0 0.0570077 0.394598
0 0.0562905 0.393881
0.0635996 0.0586404 0.396231
0.183185 0.0494545 0.387045
0.333288 0.0334783 0.371069
0.507881 0.0122072 0.349798
0.703548 0 0.324117
0.917998 0 0.29456
1 0 0.26154
0 0.138155 0.393851
0 0.141436 0.397131
0.0706035 0.147524 0.40322
0.193713 0.141863 0.397574
0.347143 0.129213 0.384924
0.52491 0.111131 0.366827
0.723613 0.0884718 0.344167
0.940978 0.0618296 0.317525
1 0.0316167 0.287312
0 0.237278 0.391821
0 0.243839 0.398383
0.0749676 0.25304 0.407599
0.201068 0.250385 0.404929
0.357366 0.240604 0.395148
0.537896 0.225269 0.379812
0.739269 0.205295 0.359838
0.959228 0.181231 0.335775
1 0.153521 0.308064
0 0.351385 0.388876
0 0.360769 0.39826
0.0775616 0.372702 0.410193
0.206302 0.372686 0.410178
0.365164 0.365454 0.402945
0.54818 0.352605 0.390097
0.751965 0.335042 0.372534
0.974273 0.313329 0.35082
1 0.287907 0.325399
0 0.478553 0.385168
0 0.490471 0.397086
0.0788434 0.50486 0.411475
0.209979 0.507225 0.41384
0.37116 0.502327 0.408942
0.556451 0.491753 0.398367
0.762448 0.476402 0.383017
0.986908 0.456855 0.36347
1 0.433555 0.340169
0 0.617487 0.380819
0 0.631708 0.395041
0.079057 0.648356 0.411688
0.212375 0.652918 0.416251
0.375708 0.650172 0.413489
0.563104 0.641688 0.40502
0.77116 0.628397 0.39173
0.99765 0.61088 0.374197
1 0.589548 0.35288
0 0.767193 0.375906
0 0.783536 0.392264
0.0783703 0.802274 0.410986
0.213733 0.808881 0.417594
0.379065 0.808133 0.416846
0.568429 0.801633 0.410346
0.778424 0.790265 0.398978
1 0.774639 0.383352
1 0.755184 0.363897
0 0.926879 0.370489
0 0.94522 0.38883
0.0768902 0.965896 0.409522
0.214176 0.974426 0.418036
0.381399 0.97557 0.419181
0.57261 0.970916 0.414527
0.784436 0.961379 0.40499
1 0.94754 0.391165
1 0.929854 0.37348
0 0 0.502129
0 0 0.496468
0.0475319 0 0.494438
0.163165 0 0.4813
0.309621 0 0.461662
0.480812 0 0.437003
0.673289 0 0.408118
0.884703 0 0.37554
1 0 0.339635
0 0.0539406 0.505806
0 0.053666 0.505531
0.0614023 0.0564279 0.508293
0.181384 0.0476539 0.499519
0.331838 0.0320287 0.483894
0.506783 0.0111086 0.462974
0.70277 0 0.437613
0.91754 0 0.408362
1 0 0.375647
0 0.136477 0.506447
0 0.140108 0.510094
0.0696117 0.146548 0.516518
0.193042 0.141207 0.511193
0.346792 0.128862 0.498833
0.524849 0.11107 0.481041
0.723842 0.0887007 0.458671
0.941482 0.0623331 0.432303
1 0.0323796 0.40235
0 0.236744 0.505562
0 0.243595 0.512413
0.0750134 0.253101 0.52192
0.201389 0.250706 0.519524
0.357961 0.241199 0.510018
0.538766 0.226139 0.494957
0.740383 0.206409 0.475227
0.960586 0.182589 0.451408
1 0.155123 0.423941
0 0.351812 0.503578
0 0.361456 0.513222
0.0785229 0.373663 0.525429
0.207507 0.373892 0.525643
0.366613 0.366903 0.518669
0.549874 0.354299 0.506065
0.753887 0.336965 0.488716
0.97641 0.31548 0.467247
1 0.290272 0.442039
0 0.47985 0.50074
0 0.492012 0.512886
0.0806134 0.506645 0.52752
0.211978 0.509239 0.530114
0.373388 0.504555 0.525444
0.558892 0.494194 0.515084
0.765118 0.479057 0.499947
0.989776 0.459724 0.480613
1 0.436637 0.457511
0 0.619577 0.497185
0 0.634012 0.51162
0.0815747 0.650874 0.528481
0.215122 0.65565 0.533257
0.378653 0.653117 0.530709
0.566247 0.644846 0.522438
0.774517 0.631754 0.509346
1 0.61442 0.492027
1 0.593286 0.470893
0 0.770001 0.493004
0 0.786557 0.50956
0.08159 0.805493 0.528496
0.217151 0.812299 0.535286
0.382681 0.811749 0.534737
0.572229 0.805432 0.528435
0.782422 0.794263 0.51725
1 0.77882 0.501808
1 0.759548 0.482536
0 0.930373 0.488258
0 0.948913 0.506798
0.080766 0.969787 0.527672
0.21825 0.9785 0.536385
0.385657 0.979812 0.537713
0.57705 0.975341 0.533242
0.789044 0.965988 0.523873
1 0.952331 0.510216
1 0.934813 0.492714
0 0 0.619837
0 0 0.614847
0.0433051 0 0.613397
0.159442 0 0.600763
0.30634 0 0.581582
0.477958 0 0.557336
0.670817 0 0.528832
0.882612 0 0.49662
1 0 0.461067
0 0.0503853 0.625437
0 0.0505531 0.625605
0.0586862 0.053727 0.628779
0.179049 0.0453193 0.620371
0.32987 0.0300603 0.605097
0.50515 0.00947585 0.584512
0.701473 0 0.559472
0.916533 0 0.530541
1 0 0.498116
0 0.134279 0.627436
0 0.138262 0.631434
0.068101 0.145022 0.638193
0.191852 0.140017 0.633173
0.345892 0.127977 0.621134
0.524254 0.11046 0.603616
0.723522 0.0883803 0.581537
0.941421 0.0622721 0.555428
1 0.0325933 0.52575
0 0.23566 0.627649
0 0.242802 0.634806
0.0745098 0.252598 0.644602
0.201175 0.250492 0.642481
0.358007 0.241245 0.633249
0.539055 0.226444 0.618433
0.740948 0.206958 0.598962
0.961379 0.183398 0.575387
1 0.156161 0.548165
0 0.35169 0.626627
0 0.361593 0.636545
0.0789197 0.37406 0.648997
0.208164 0.374533 0.649485
0.367498 0.367788 0.642741
0.550988 0.355428 0.630365
0.755245 0.338308 0.61326
0.977996 0.317052 0.592004
1 0.292073 0.567025
0 0.480583 0.624659
0 0.492988 0.637049
0.0818341 0.507851 0.651911
0.213413 0.510674 0.654734
0.375036 0.506218 0.650278
0.560769 0.496071 0.640146
0.767193 0.481147 0.625208
0.992081 0.462028 0.606088
1 0.439139 0.5832
0 0.621088 0.621881
0 0.635752 0.636545
0.0835279 0.652842 0.65362
0.217288 0.657816 0.658595
0.381033 0.655482 0.65626
0.568826 0.64741 0.648203
0.777295 0.634516 0.635309
1 0.617395 0.618173
1 0.59646 0.597238
0 0.772244 0.618418
0 0.789014 0.635187
0.0842298 0.808148 0.654322
0.220005 0.815152 0.661326
0.385733 0.814786 0.66096
0.575463 0.808667 0.654841
0.78584 0.797681 0.643854
1 0.782422 0.628595
1 0.763333 0.609506
0 0.933288 0.614359
0 0.95201 0.633082
0.084062 0.973083 0.654154
0.221729 0.981979 0.66305
0.389319 0.98349 0.664561
0.580896 0.979202 0.660273
0.793072 0.970016 0.651087
1 0.956527 0.637598
1 0.939193 0.620264
0 0 0.745464
0 0 0.7411
0.0386664 0 0.740185
0.155276 0 0.728038
0.302617 0 0.7093
0.474647 0 0.685466
0.667887 0 0.657343
0.880034 0 0.625483
1 0 0.590265
0 0.0463874 0.75288
0 0.0469825 0.753475
0.0555123 0.0505531 0.757046
0.176242 0.0425269 0.749004
0.327413 0.0276036 0.734096
0.503029 0.00735485 0.713848
0.699672 0 0.689113
0.915038 0 0.660487
1 0 0.628351
0 0.131609 0.756207
0 0.135943 0.76054
0.0661021 0.143023 0.76762
0.190158 0.138323 0.762921
0.344503 0.126589 0.751171
0.52314 0.109361 0.733959
0.722698 0.0875563 0.712154
0.940871 0.0617227 0.68632
1 0.0322881 0.656886
0 0.234073 0.757519
0 0.24152 0.764965
0.073518 0.251591 0.775036
0.200443 0.24976 0.773205
0.357549 0.240787 0.764218
0.538857 0.22623 0.749676
0.740993 0.207004 0.730449
0.961669 0.183688 0.707118
1 0.15668 0.680125
0 0.351049 0.757443
0 0.361227 0.76762
0.0788128 0.373938 0.780331
0.208286 0.37467 0.781048
0.36788 0.36817 0.774548
0.551598 0.356023 0.762417
0.756085 0.339147 0.745525
0.979049 0.318105 0.724498
1 0.293355 0.699733
0 0.480812 0.756313
0 0.493446 0.768948
0.0825208 0.508537 0.784039
0.214328 0.511589 0.787091
0.376181 0.507347 0.782849
0.562112 0.497429 0.772931
0.768765 0.482719 0.758221
0.993851 0.463798 0.7393
1 0.441108 0.716609
0 0.622095 0.754314
0 0.636973 0.769192
0.0849622 0.654261 0.78648
0.218921 0.659464 0.791684
0.382879 0.657328 0.789548
0.570871 0.64947 0.781689
0.779538 0.636759 0.768994
1 0.619821 0.752056
1 0.599084 0.731304
0 0.773968 0.751583
0 0.790921 0.768536
0.0863508 0.810269 0.787884
0.222324 0.817456 0.795071
0.388235 0.817304 0.794919
0.578164 0.811368 0.788983
0.788724 0.800565 0.77818
1 0.785489 0.763104
1 0.766583 0.744198
0 0.935683 0.74818
0 0.954589 0.767102
0.0868391 0.975845 0.788357
0.224689 0.984924 0.797436
0.392462 0.986618 0.79913
0.584207 0.982513 0.795026
0.796567 0.97351 0.786007
1 0.960204 0.772717
1 0.943038 0.75555
