assets/cube/cross_process_cp16.cube
TITLE "Generated by Resolve"
LUT_3D_SIZE 9
0 0 0
0 0 0
0 0 0
0 0 0
0 0 0
0.0330968 0 0
0.0988632 0.00329595 0.0267338
0.185641 0.0178836 0.0529335
0.290532 0.027451 0.0753033
0 0 0
0 0 0
0.013962 0.00273136 0.00894179
0.0653086 0.0275731 0.0377966
0.130602 0.0486152 0.0632486
0.211856 0.0652934 0.0847334
0.310765 0.0771954 0.101762
0.42826 0.0840467 0.113954
0.564141 0.0859388 0.121248
0.0147097 0.0569467 0.0488136
0.0567178 0.0849622 0.0734722
0.112627 0.109285 0.0940566
0.184268 0.129381 0.110063
0.272999 0.1449 0.121202
0.379141 0.155718 0.12752
0.5019 0.162066 0.129335
0.638926 0.164538 0.127459
0.787182 0.163943 0.122835
0.0350347 0.188357 0.118242
0.0942092 0.212757 0.128344
0.17055 0.232532 0.133715
0.264057 0.247654 0.134783
0.373373 0.258396 0.132464
0.496193 0.265385 0.127687
0.62948 0.269413 0.121492
0.770092 0.27129 0.114839
0.914992 0.27187 0.108522
0.00419623 0.339773 0.140307
0.0877089 0.358236 0.137606
0.187442 0.372091 0.132753
0.300725 0.382025 0.126757
0.424521 0.388876 0.120516
0.555795 0.393454 0.114778
0.691676 0.396536 0.110185
0.829633 0.39884 0.10721
0.967514 0.400961 0.106203
0 0.49868 0.13228
0.06804 0.509667 0.126482
0.188205 0.517479 0.121355
0.315847 0.522942 0.117479
0.448173 0.526848 0.115297
0.582803 0.529854 0.115129
0.717662 0.53257 0.11725
0.851057 0.535332 0.121492
0.979294 0.534371 0.122133
0 0.650752 0.125109
0.0639658 0.655634 0.123705
0.197147 0.658991 0.124376
0.332464 0.661479 0.127337
0.466819 0.662806 0.131029
0.59443 0.658839 0.129091
0.715755 0.649805 0.12163
0.832029 0.636591 0.109575
0.947234 0.623148 0.097322
0 0.789227 0.136873
0.083238 0.789014 0.139696
0.210376 0.782559 0.135637
0.331319 0.771466 0.12639
0.447318 0.756603 0.112917
0.559609 0.738903 0.0962234
0.669337 0.719265 0.0773785
0.777554 0.698634 0.057435
0.890822 0.683833 0.0442206
0 0.884337 0.121202
0.0629435 0.87602 0.115816
0.175143 0.857221 0.0982071
0.285039 0.836881 0.0788281
0.393744 0.815885 0.0587472
0.502312 0.795209 0.0390478
0.611688 0.775799 0.0208438
0.722774 0.758663 0.00529488
0.84181 0.750393 0.000228885
0 0 0
0 0 0
0 0 0
0 0 0
0.00463874 0 0
0.0476081 0 0.0133211
0.121416 0.00970474 0.0453193
0.211734 0.0229496 0.0742809
0.320546 0.0310521 0.0996262
0 0 0
0 0 0
0.026154 0.0123598 0.0260319
0.0797436 0.0362707 0.0575265
0.147738 0.0562142 0.085832
0.232074 0.0716869 0.110384
0.334279 0.0822614 0.130678
0.455024 0.0878157 0.146304
0.593713 0.0885023 0.157168
0.0203555 0.0681315 0.0697337
0.0642405 0.0953078 0.0973526
0.122454 0.118624 0.12108
0.196765 0.137591 0.140429
0.288289 0.151919 0.155077
0.397086 0.161593 0.164965
0.521981 0.166934 0.170428
0.660304 0.168658 0.172152
0.809003 0.167575 0.170977
0.0361639 0.199786 0.150103
0.0979324 0.223056 0.163745
0.177035 0.241657 0.172717
0.273136 0.255619 0.177432
0.384619 0.265385 0.178622
0.508934 0.27158 0.177203
0.643015 0.275059 0.17409
0.783734 0.276631 0.170184
0.92813 0.277119 0.166262
0.00294499 0.350668 0.184451
0.0896315 0.367834 0.185183
0.19205 0.380575 0.183566
0.307378 0.389609 0.180514
0.432532 0.395789 0.176867
0.564508 0.399924 0.173373
0.700526 0.402777 0.170642
0.838163 0.405035 0.169162
0.975311 0.407263 0.169329
0 0.507897 0.187137
0.0713817 0.517876 0.18378
0.193408 0.524926 0.180728
0.32224 0.52987 0.178561
0.455192 0.53344 0.177737
0.589944 0.536309 0.178607
0.724544 0.539025 0.181445
0.856825 0.541039 0.184863
0.983368 0.538537 0.183612
0 0.658106 0.186755
0.070161 0.662425 0.186572
0.204242 0.665431 0.188128
0.339971 0.667735 0.191684
0.472526 0.667506 0.193469
0.597971 0.661646 0.189227
0.717556 0.651041 0.179828
0.832471 0.636576 0.166232
0.947738 0.623362 0.154055
0 0.794049 0.199847
0.0888228 0.792798 0.201251
0.213825 0.784604 0.195026
0.333043 0.772076 0.183978
0.44773 0.7561 0.169085
0.559091 0.737606 0.1514
0.668238 0.717494 0.13193
0.776242 0.696742 0.111742
0.890639 0.683207 0.0997787
0 0.884779 0.178775
0.0633249 0.87509 0.171572
0.17467 0.855634 0.153109
0.284108 0.834943 0.133242
0.392721 0.813947 0.113054
0.501549 0.793591 0.0936294
0.611521 0.774853 0.0760662
0.723491 0.758724 0.0615244
0.84387 0.752041 0.0585641
0 0 0
0 0 0
0 0 0
0 0 0
0.0150607 0 0
0.0673686 0 0.0314488
0.144305 0.0157778 0.0661936
0.238224 0.0276493 0.0981308
0.350958 0.0342718 0.12665
0 0 0
0 0 0.00979629
0.0382849 0.0218051 0.0452888
0.0941787 0.0447395 0.0796368
0.16492 0.0635538 0.111025
0.252384 0.07776 0.138842
0.357855 0.0870222 0.162539
0.481682 0.0912947 0.181704
0.622934 0.0908675 0.196139
0.0256809 0.0791638 0.0931258
0.0715038 0.105455 0.123919
0.132113 0.127718 0.150988
0.20911 0.145541 0.1738
0.303395 0.158694 0.192004
0.41471 0.167254 0.205478
0.541466 0.171679 0.214481
0.68098 0.172702 0.219593
0.829953 0.171237 0.221592
0.0370031 0.211002 0.184985
0.101457 0.233112 0.202213
0.183337 0.250523 0.214755
0.282017 0.263371 0.222934
0.39556 0.27219 0.227436
0.521248 0.277668 0.229053
0.656016 0.280659 0.228702
0.79675 0.281987 0.227207
0.940612 0.282429 0.225345
0.0018616 0.361242 0.231373
0.0916915 0.377142 0.235309
0.196719 0.388815 0.236606
0.313985 0.397009 0.236164
0.440406 0.402579 0.234775
0.573007 0.406348 0.233188
0.709102 0.409018 0.232013
0.846342 0.411261 0.231754
0.982742 0.413626 0.232837
0 0.516808 0.243763
0.0750286 0.525841 0.242512
0.198795 0.532204 0.241215
0.32871 0.536675 0.240452
0.462211 0.539971 0.240711
0.59704 0.542748 0.242359
0.731334 0.54551 0.245686
0.861845 0.545983 0.247242
0.986969 0.542229 0.244404
0 0.665278 0.249104
0.0766613 0.669093 0.249882
0.211566 0.671778 0.252094
0.347326 0.673808 0.255665
0.477485 0.671504 0.254963
0.600931 0.663874 0.248554
0.718868 0.651789 0.237369
0.832547 0.636194 0.222385
0.948058 0.623362 0.210468
0 0.798367 0.262074
0.0936904 0.795926 0.261921
0.216693 0.786099 0.253651
0.33431 0.772244 0.24097
0.447807 0.755291 0.224826
0.558358 0.73611 0.206271
0.667063 0.715648 0.186313
0.77496 0.694881 0.166018
0.890532 0.682689 0.155352
0 0.884962 0.235966
0.0634012 0.873884 0.226963
0.174029 0.853895 0.207752
0.283131 0.832975 0.187533
0.391775 0.812085 0.167376
0.500984 0.792172 0.148333
0.611658 0.774212 0.131548
0.724651 0.759213 0.11812
0.846204 0.75404 0.117632
0 0 0
0 0 0
0 0 0
0 0 0
0.0254978 0 0.0137484
0.0873579 0.00613413 0.0517586
0.167498 0.0215152 0.0894942
0.265064 0.0319829 0.124605
0.381704 0.0371099 0.156512
0 0 0
0.00529488 0.00540169 0.0272221
0.0503243 0.0310369 0.0668345
0.108598 0.0529488 0.10425
0.182162 0.0705882 0.138918
0.272725 0.0835279 0.170169
0.381399 0.0914931 0.197421
0.508171 0.0945296 0.220172
0.651728 0.0930495 0.238148
0.0306706 0.0900435 0.119112
0.0785229 0.115389 0.153262
0.141558 0.136568 0.183825
0.221271 0.153231 0.210224
0.318257 0.165209 0.231998
0.431998 0.172702 0.248997
0.560479 0.176272 0.261357
0.700954 0.176699 0.269596
0.850004 0.174914 0.274479
0.037583 0.221988 0.22295
0.104799 0.242908 0.243732
0.189487 0.259144 0.259724
0.290684 0.270909 0.271183
0.40618 0.278843 0.278706
0.53315 0.283665 0.28307
0.668498 0.286244 0.28513
0.809186 0.287373 0.285725
0.952438 0.287816 0.285603
0.000976577 0.371481 0.280949
0.0939193 0.386175 0.287785
0.201465 0.396826 0.291676
0.320562 0.404257 0.293492
0.448142 0.409277 0.294041
0.581292 0.412711 0.294041
0.717403 0.415259 0.294133
0.854231 0.417533 0.29485
0.989853 0.42005 0.29659
0 0.525429 0.30193
0.0789807 0.533608 0.302464
0.204379 0.53933 0.302617
0.335302 0.543389 0.302998
0.469245 0.546471 0.304082
0.604089 0.549187 0.306279
0.737942 0.551827 0.30959
0.866194 0.55021 0.308675
0.990158 0.545449 0.30454
0 0.672251 0.312001
0.0834974 0.675624 0.313481
0.21912 0.67805 0.316152
0.353902 0.679118 0.318654
0.481773 0.674846 0.315572
0.603311 0.665537 0.307149
0.719753 0.65211 0.294331
0.832303 0.635477 0.278096
0.948211 0.623194 0.266575
0 0.802167 0.323583
0.0978714 0.798428 0.321752
0.218997 0.787091 0.311604
0.335149 0.772045 0.297429
0.447593 0.754192 0.280186
0.557458 0.734447 0.260884
0.665843 0.713756 0.240574
0.773754 0.693095 0.220295
0.890547 0.682261 0.210956
0 0.884932 0.29279
0.0632029 0.872465 0.281987
0.173251 0.852018 0.262196
0.282139 0.831006 0.241764
0.390951 0.81033 0.221744
0.500664 0.790967 0.20322
0.612161 0.773907 0.187289
0.726284 0.760159 0.175113
0.848814 0.756436 0.177478
0 0 0
0 0 0
0 0 0
0 0 9.15541e-05
0.0399634 0 0.031632
0.107576 0.0128176 0.074403
0.190997 0.0269017 0.115328
0.292226 0.035935 0.153841
0.412741 0.0395514 0.189288
0 0 0.0109865
0.015259 0.0153201 0.0480964
0.0622721 0.0400397 0.0907759
0.123003 0.0608988 0.131502
0.199405 0.077348 0.169635
0.29308 0.0890059 0.204486
0.404868 0.0956741 0.23537
0.534386 0.0975204 0.261692
0.680003 0.0950942 0.283146
0.0353246 0.100755 0.147799
0.0852674 0.125109 0.185489
0.150805 0.14519 0.219699
0.233219 0.160678 0.249714
0.332876 0.171511 0.275044
0.44889 0.177981 0.295415
0.578927 0.180774 0.310903
0.720165 0.180682 0.322026
0.869169 0.178653 0.329473
0.0379644 0.232715 0.263981
0.108019 0.252445 0.288258
0.195529 0.267506 0.30753
0.299153 0.278248 0.322011
0.41651 0.285344 0.332265
0.544656 0.289586 0.33904
0.680491 0.291798 0.343191
0.821042 0.29279 0.345541
0.963638 0.293278 0.346853
0.000320439 0.381415 0.332982
0.0963149 0.394934 0.342412
0.206287 0.404639 0.348592
0.327123 0.411353 0.352346
0.455772 0.4159 0.354498
0.589395 0.419059 0.355795
0.72546 0.421515 0.356878
0.861814 0.423865 0.358282
0.996643 0.426581 0.360464
0 0.533776 0.361501
0.0832532 0.541161 0.363485
0.210163 0.546319 0.364797
0.341985 0.550027 0.366033
0.47631 0.552926 0.367712
0.611109 0.555627 0.370245
0.743816 0.557397 0.372503
0.869886 0.55375 0.369223
0.992935 0.548257 0.36405
0 0.679072 0.375296
0.0906386 0.682048 0.377264
0.226856 0.684276 0.380148
0.359716 0.683711 0.380667
0.485405 0.677546 0.375341
0.605173 0.666682 0.365057
0.720241 0.652018 0.350744
0.831785 0.63447 0.33341
0.948211 0.622889 0.322438
0 0.805508 0.384405
0.101411 0.800381 0.380789
0.220783 0.787625 0.368917
0.335622 0.771481 0.353399
0.44712 0.75285 0.33518
0.55642 0.732662 0.315297
0.664607 0.711864 0.294759
0.772656 0.691417 0.274632
0.890684 0.682002 0.26659
0 0.884703 0.349294
0.0627909 0.870832 0.336736
0.172381 0.85008 0.316487
0.281209 0.829053 0.295949
0.390295 0.808713 0.276204
0.500633 0.790036 0.258305
0.613077 0.773999 0.243366
0.72842 0.761624 0.232609
0.851713 0.759274 0.23798
0 0 0
0 0 0
0 0 0
0.00746166 0 0.0149538
0.0575265 0.00177005 0.0535286
0.128023 0.0191958 0.0994888
0.214786 0.0319371 0.143832
0.319707 0.0395056 0.185946
0.443992 0.0416266 0.225071
0 0 0.025864
0.0250706 0.0250401 0.0712749
0.0741436 0.0488289 0.117266
0.137377 0.0685893 0.161501
0.216663 0.0838026 0.203281
0.31342 0.0941634 0.24184
0.428199 0.0995804 0.276387
0.560281 0.100313 0.306249
0.707652 0.0970169 0.331014
0.0396582 0.111269 0.179309
0.0917678 0.1346 0.220706
0.159854 0.153552 0.258625
0.244984 0.167865 0.292287
0.347219 0.177584 0.321065
0.465278 0.183124 0.34461
0.596796 0.185183 0.362997
0.738628 0.184665 0.376684
0.887465 0.182452 0.386358
0.0381628 0.243183 0.308064
0.111116 0.261723 0.335714
0.201434 0.275624 0.358038
0.307439 0.285389 0.375265
0.426551 0.291722 0.38793
0.555764 0.29543 0.396796
0.691997 0.297353 0.402701
0.832349 0.298268 0.406485
0.974273 0.298848 0.408942
0 0.391028 0.387335
0.098909 0.403433 0.399023
0.2112 0.412238 0.407126
0.333669 0.418311 0.412497
0.463294 0.422446 0.415946
0.597299 0.425391 0.41825
0.733272 0.427802 0.420066
0.869139 0.430243 0.421942
1 0.433173 0.424369
0 0.541878 0.422248
0.0878462 0.548531 0.425406
0.216144 0.553185 0.427588
0.348775 0.556588 0.429435
0.483406 0.559365 0.431479
0.618112 0.562066 0.43415
0.748959 0.562219 0.434455
0.872969 0.556649 0.428931
0.995331 0.550637 0.42298
0 0.685725 0.43888
0.0980697 0.68838 0.441093
0.234348 0.690227 0.443671
0.364782 0.687602 0.441749
0.488426 0.679667 0.434333
0.606561 0.667369 0.422324
0.720378 0.651576 0.406683
0.831037 0.633234 0.388373
0.948104 0.622461 0.378058
0 0.808392 0.444572
0.104341 0.801785 0.439109
0.22211 0.787732 0.425666
0.335744 0.770611 0.408942
0.446433 0.751324 0.389899
0.555306 0.7308 0.369543
0.663417 0.710002 0.348913
0.77171 0.689891 0.329046
0.89099 0.681895 0.322286
0 0.884306 0.405493
0.0621958 0.869062 0.391226
0.171481 0.848096 0.370657
0.280354 0.827192 0.350149
0.389853 0.807309 0.330785
0.500923 0.789425 0.313649
0.61442 0.774533 0.299809
0.731121 0.763607 0.290883
0.854917 0.762585 0.299123
0 0 0
0 0 0
0 0 0.00128176
0.0178988 0 0.0298161
0.0752422 0.0090486 0.0777752
0.148699 0.0252384 0.127153
0.238849 0.0366064 0.175128
0.347448 0.04271 0.220996
0.47541 0.0433509 0.26392
0 0.00814832 0.0464179
0.034699 0.0345769 0.09691
0.085893 0.0573739 0.14641
0.15169 0.0759899 0.194354
0.23389 0.0899672 0.239933
0.333684 0.0990463 0.282277
0.451331 0.103227 0.320485
0.585763 0.102922 0.35378
0.734432 0.0989395 0.381613
0.0436408 0.121584 0.213764
0.0980087 0.143877 0.258976
0.168673 0.161669 0.300649
0.256519 0.174807 0.337896
0.361257 0.183444 0.370001
0.481285 0.188113 0.396475
0.614038 0.189548 0.417456
0.756329 0.188663 0.433387
0.904875 0.186343 0.444953
0.0382086 0.253407 0.355154
0.114122 0.270726 0.385992
0.207248 0.283528 0.411093
0.315541 0.292363 0.430762
0.436301 0.297993 0.445518
0.566476 0.301244 0.456123
0.703029 0.302922 0.463462
0.843137 0.303792 0.468391
0.984329 0.304494 0.471687
0 0.400336 0.443793
0.101701 0.411688 0.45742
0.21622 0.419684 0.467124
0.340215 0.425162 0.473793
0.470726 0.428931 0.478248
0.605051 0.431708 0.481285
0.740871 0.434119 0.483574
0.876204 0.436683 0.48571
1 0.439857 0.488167
0 0.549752 0.484016
0.0927443 0.555734 0.48806
0.222324 0.559945 0.490867
0.355673 0.563088 0.49308
0.490547 0.565789 0.495277
0.624857 0.568292 0.497597
0.753399 0.566323 0.49546
0.875486 0.558953 0.487877
0.997375 0.552636 0.481361
0 0.692256 0.502602
0.105821 0.694621 0.504875
0.241047 0.69543 0.506203
0.369146 0.690822 0.501961
0.490898 0.681254 0.492607
0.607507 0.667597 0.479026
0.720195 0.650813 0.462196
0.830091 0.6318 0.443061
0.947906 0.621927 0.433478
0 0.810864 0.504143
0.106706 0.802701 0.496773
0.223011 0.787457 0.481895
0.335576 0.769467 0.464103
0.445594 0.74963 0.444358
0.554147 0.728893 0.423682
0.662287 0.708217 0.403082
0.770947 0.688579 0.383581
0.891493 0.682002 0.378073
0 0.883772 0.461448
0.0614786 0.86717 0.445533
0.170565 0.846113 0.42475
0.279637 0.825437 0.40441
0.38967 0.806134 0.38555
0.501595 0.789151 0.369253
0.616266 0.775525 0.356619
0.734417 0.766155 0.349966
0.858442 0.7664 0.360769
0 0 0
0 0 0
0 0 0.016144
0.031754 0 0.0508736
0.0930953 0.016022 0.104509
0.169574 0.0309453 0.157519
0.263157 0.0409094 0.209323
0.375387 0.0455482 0.259098
0.506889 0.0447395 0.305867
0.00378424 0.0183413 0.071107
0.0441596 0.0439002 0.125109
0.0975509 0.0656748 0.178347
0.165957 0.0831159 0.230167
0.251057 0.0958419 0.279667
0.353841 0.103639 0.325826
0.47422 0.106661 0.367636
0.610773 0.105379 0.404181
0.76054 0.100786 0.434852
0.0472877 0.131701 0.251209
0.10399 0.152895 0.300328
0.177295 0.169543 0.345769
0.267826 0.181537 0.386496
0.37499 0.189136 0.421714
0.496818 0.192996 0.450843
0.630671 0.193866 0.474113
0.773281 0.192691 0.491936
0.921431 0.190341 0.505074
0.0381628 0.263355 0.405173
0.117159 0.279469 0.43888
0.212985 0.291218 0.466529
0.323476 0.299184 0.488304
0.445792 0.304173 0.504814
0.576852 0.307012 0.516854
0.713634 0.308507 0.525307
0.853437 0.309392 0.531075
0.993881 0.310262 0.534966
4.57771e-05 0.409369 0.502174
0.104723 0.419715 0.517403
0.221347 0.426947 0.528405
0.346761 0.431907 0.536049
0.478065 0.43537 0.541238
0.612665 0.438025 0.544747
0.748287 0.440467 0.54728
0.88304 0.443198 0.549462
1 0.446571 0.551766
0 0.557412 0.546624
0.0979477 0.562783 0.551278
0.228702 0.566613 0.554452
0.362676 0.569558 0.556832
0.497719 0.572213 0.558984
0.630854 0.573724 0.560052
0.757183 0.569757 0.555611
0.87747 0.560693 0.54609
0.9991 0.554284 0.539239
0 0.698665 0.566354
0.113802 0.700801 0.568521
0.246952 0.699886 0.567773
0.372869 0.693431 0.561379
0.492821 0.682322 0.55021
0.608057 0.66746 0.53521
0.719738 0.64976 0.517327
0.828992 0.630182 0.49749
0.947646 0.621332 0.488731
0 0.812955 0.563134
0.108553 0.803159 0.553826
0.223514 0.786847 0.537652
0.335149 0.768093 0.518929
0.444617 0.747814 0.498634
0.553002 0.726986 0.477745
0.661295 0.706538 0.457298
0.770428 0.68748 0.4383
0.892195 0.682322 0.433982
0 0.883116 0.517159
0.0606699 0.865202 0.499687
0.169711 0.84416 0.478828
0.279088 0.82385 0.458747
0.389776 0.805219 0.440513
0.502693 0.789288 0.425177
0.618662 0.77702 0.413916
0.738354 0.769299 0.409827
0.862287 0.770779 0.422812
0 0 0
0 0 0.00248722
0 0 0.0310063
0.0471199 0.00448615 0.0765698
0.111101 0.0226902 0.133852
0.190661 0.0363165 0.190723
0.287678 0.0448615 0.246525
0.403479 0.0480201 0.300298
0.538369 0.0458228 0.350942
0.0112459 0.0283665 0.0982681
0.0534218 0.0530098 0.156008
0.109071 0.0737163 0.213184
0.180133 0.0899672 0.269032
0.268147 0.101411 0.32253
0.373846 0.107973 0.372488
0.496773 0.109865 0.417762
0.635218 0.107729 0.457359
0.785824 0.102632 0.490532
0.0506142 0.141604 0.291768
0.109728 0.161685 0.344839
0.185718 0.177157 0.393973
0.278889 0.188022 0.43801
0.388327 0.194675 0.476005
0.511879 0.197772 0.507546
0.646693 0.198169 0.532753
0.789502 0.19678 0.552148
0.937179 0.194446 0.566522
0.0380713 0.27303 0.458015
0.120119 0.287984 0.494347
0.218647 0.298695 0.524163
0.331273 0.305852 0.547723
0.455039 0.310262 0.565637
0.586862 0.312764 0.578775
0.723827 0.314137 0.588052
0.863264 0.315053 0.594385
1 0.316136 0.598611
0.000579843 0.418112 0.562295
0.107988 0.427527 0.57879
0.226596 0.434089 0.590753
0.353338 0.438575 0.5991
0.485359 0.441779 0.604746
0.620127 0.444358 0.608484
0.755505 0.44686 0.611063
0.889662 0.44979 0.613092
1 0.45301 0.614862
0 0.564874 0.609934
0.103456 0.569711 0.614939
0.235279 0.57319 0.61825
0.369802 0.575998 0.620584
0.504936 0.578637 0.622522
0.636088 0.578424 0.621561
0.760357 0.572564 0.614969
0.878965 0.561929 0.603662
1 0.555611 0.596643
0 0.704967 0.63003
0.121416 0.706645 0.631571
0.25211 0.70367 0.628443
0.375967 0.69546 0.620035
0.49427 0.682918 0.607217
0.60824 0.666957 0.590936
0.719051 0.648478 0.572122
0.827771 0.628458 0.551736
0.947341 0.620706 0.543832
0 0.814664 0.621576
0.109926 0.803204 0.610315
0.223697 0.785916 0.592996
0.334524 0.766522 0.57348
0.443565 0.745937 0.552758
0.551888 0.725124 0.531792
0.660456 0.705043 0.511589
0.770184 0.686687 0.493202
0.893141 0.682902 0.490028
0 0.882353 0.572671
0.0598459 0.863218 0.553735
0.168948 0.842298 0.532906
0.278767 0.822446 0.513222
0.390234 0.804639 0.495705
0.504234 0.789853 0.481437
0.621729 0.779034 0.471824
0.743008 0.773114 0.470375
0.866575 0.775921 0.485222
