assets/cube/cross_process_cp4.cube
TITLE "Generated by Resolve"
LUT_3D_SIZE 33
0 0 0
0.00360113 0.00360113 0.00360113
0.00860609 0.00860609 0.00860609
0.0137789 0.0137789 0.0137789
0.0187533 0.0187533 0.0187533
0.0236515 0.0236515 0.0236515
0.0284733 0.0284733 0.0284733
0.0332341 0.0332341 0.0332341
0.0379797 0.0379797 0.0379797
0.0429084 0.0429084 0.0429084
0.0476997 0.0476997 0.0476997
0.0525063 0.0525063 0.0525063
0.0573739 0.0573739 0.0573739
0.0622263 0.0622263 0.0622263
0.067216 0.067216 0.067216
0.0724498 0.0724498 0.0724498
0.0777142 0.0777142 0.0777142
0.0830854 0.0830854 0.0830854
0.0885023 0.0885023 0.0885023
0.0942245 0.0940719 0.0940719
0.101488 0.0999924 0.0999008
0.110521 0.105623 0.105409
0.122011 0.110826 0.110506
0.136416 0.115328 0.114961
0.154528 0.119036 0.118761
0.177539 0.121904 0.121935
0.206165 0.123644 0.1243
0.239719 0.12398 0.125658
0.27863 0.12285 0.126024
0.323278 0.120211 0.12546
0.373739 0.116075 0.12401
0.430869 0.110384 0.121798
0.492363 0.10341 0.11902
0.0154574 0.0154574 0.0154574
0.0204013 0.0204013 0.0204013
0.025452 0.025452 0.025452
0.0302434 0.0302434 0.0302434
0.0349889 0.0349889 0.0349889
0.0397345 0.0397345 0.0397345
0.04448 0.04448 0.04448
0.0494698 0.0494698 0.0494698
0.0543069 0.0543069 0.0543069
0.059144 0.059144 0.059144
0.0640116 0.0640116 0.0640116
0.068986 0.068986 0.068986
0.0741283 0.0741283 0.0741283
0.0796216 0.0796216 0.0796216
0.0849775 0.0849775 0.0849775
0.0904097 0.0904097 0.0904097
0.0961318 0.0961318 0.0961166
0.102678 0.102113 0.101961
0.110674 0.108186 0.107683
0.120714 0.114092 0.113024
0.132937 0.119295 0.117525
0.148516 0.123888 0.121294
0.168429 0.127687 0.124208
0.193317 0.130449 0.126116
0.223575 0.13196 0.126925
0.259266 0.132174 0.126635
0.299519 0.130983 0.125277
0.345068 0.128435 0.123003
0.395605 0.12459 0.11989
0.450416 0.11957 0.116197
0.509697 0.113512 0.112123
0.571374 0.106828 0.108064
0.633402 0.0998856 0.104402
0.0319677 0.0319677 0.0319677
0.0367437 0.0367437 0.0367437
0.0414893 0.0414893 0.0414893
0.0462501 0.0462501 0.0462501
0.0510567 0.0510567 0.0510567
0.0559091 0.0559091 0.0559091
0.0609293 0.0609293 0.0609293
0.0658427 0.0658427 0.0658427
0.0708782 0.0708782 0.0708782
0.0760967 0.0760967 0.0760967
0.0814221 0.0814221 0.0814221
0.0867933 0.0867933 0.0867933
0.0925002 0.0925002 0.0925002
0.0983597 0.0983597 0.0983597
0.104692 0.10454 0.104417
0.111833 0.110872 0.110307
0.120073 0.117021 0.115694
0.130098 0.122911 0.120455
0.143236 0.128649 0.124666
0.159655 0.133593 0.127779
0.180392 0.137606 0.129702
0.20589 0.140444 0.130327
0.236606 0.141924 0.129656
0.274037 0.142077 0.127749
0.316045 0.140734 0.124788
0.362783 0.138109 0.121065
0.413794 0.13431 0.116884
0.468223 0.129564 0.112551
0.526024 0.12401 0.108324
0.58616 0.118013 0.104692
0.644358 0.112184 0.102068
0.699702 0.107042 0.100969
0.749249 0.10341 0.102052
0.0480507 0.0480507 0.0480507
0.0528572 0.0528572 0.0528572
0.0576944 0.0576944 0.0576944
0.0625315 0.0625315 0.0625315
0.0674754 0.0674754 0.0674754
0.0727855 0.0727855 0.0727855
0.0780346 0.0780346 0.0780346
0.0834058 0.0834058 0.0834058
0.0888075 0.0888075 0.0888075
0.0944076 0.0944076 0.0944076
0.100587 0.100587 0.100587
0.10695 0.106966 0.106874
0.113558 0.113481 0.112947
0.120668 0.119982 0.118593
0.128923 0.126452 0.123751
0.139086 0.132845 0.128283
0.152377 0.139132 0.132128
0.168704 0.144427 0.134585
0.189151 0.148714 0.135714
0.214466 0.151797 0.135424
0.245365 0.153506 0.1337
0.282094 0.15375 0.130663
0.325643 0.15256 0.126482
0.373251 0.149874 0.121477
0.424949 0.14609 0.116152
0.479576 0.141543 0.110964
0.535698 0.136538 0.106371
0.591867 0.131502 0.102831
0.646845 0.12694 0.100938
0.696239 0.123507 0.101106
0.73904 0.121813 0.103853
0.780743 0.120424 0.107256
0.823072 0.118868 0.110735
0.0643626 0.0643626 0.0643626
0.069337 0.069337 0.069337
0.0744793 0.0744793 0.0744793
0.0799115 0.0799115 0.0799115
0.085359 0.085359 0.085359
0.0908217 0.0908217 0.0908217
0.0965591 0.0965591 0.0965591
0.102693 0.102693 0.102693
0.109087 0.109117 0.109071
0.115572 0.115923 0.115465
0.122011 0.122759 0.121401
0.128939 0.129717 0.12694
0.136919 0.136858 0.131975
0.146548 0.143877 0.136233
0.158419 0.150439 0.139391
0.173831 0.156512 0.141421
0.192966 0.161425 0.141909
0.216999 0.165148 0.140917
0.246586 0.167468 0.138415
0.281971 0.168261 0.134508
0.323232 0.167483 0.129442
0.371283 0.165331 0.123507
0.422889 0.161822 0.117189
0.477623 0.157443 0.11107
0.533257 0.152697 0.105821
0.58732 0.148257 0.102205
0.639063 0.144747 0.100984
0.683497 0.142763 0.102449
0.723964 0.141756 0.105669
0.764645 0.140703 0.109056
0.805692 0.139559 0.112596
0.84744 0.138293 0.116182
0.890486 0.137057 0.120119
0.0817731 0.0817731 0.0817731
0.087129 0.087129 0.087129
0.0927443 0.0927443 0.0927443
0.0987411 0.0987411 0.0987411
0.104997 0.104997 0.104997
0.111452 0.111498 0.111467
0.117662 0.118166 0.117754
0.123674 0.125109 0.123842
0.129961 0.132753 0.129946
0.136355 0.140429 0.135378
0.143435 0.148226 0.140139
0.151644 0.155795 0.143954
0.161807 0.163027 0.14667
0.175006 0.169863 0.148211
0.191928 0.175769 0.148287
0.213321 0.180438 0.146807
0.240085 0.183703 0.143801
0.27274 0.185458 0.139391
0.311635 0.185611 0.13373
0.357214 0.184314 0.127214
0.407218 0.181506 0.120287
0.460441 0.177646 0.113619
0.515068 0.173327 0.107927
0.568704 0.169162 0.104036
0.618112 0.166003 0.102846
0.661662 0.16463 0.105058
0.702754 0.163531 0.107836
0.743481 0.162554 0.110948
0.784146 0.161624 0.114321
0.824826 0.160723 0.117861
0.865599 0.159808 0.121477
0.907546 0.158968 0.125368
0.948882 0.157946 0.128923
0.100832 0.100832 0.100832
0.107362 0.107362 0.107362
0.113802 0.113848 0.113817
0.119966 0.120577 0.120134
0.125826 0.127687 0.126314
0.131472 0.135302 0.132357
0.136965 0.143465 0.13817
0.142351 0.151965 0.143496
0.147845 0.160342 0.14789
0.154223 0.168658 0.151324
0.162158 0.176761 0.153658
0.172442 0.18439 0.154788
0.186145 0.191455 0.154589
0.204089 0.197421 0.15288
0.226947 0.201984 0.149691
0.255695 0.205081 0.145083
0.290684 0.206546 0.139223
0.331716 0.206317 0.132448
0.378851 0.2047 0.125322
0.42974 0.20177 0.118441
0.482673 0.198077 0.112596
0.535027 0.194369 0.108721
0.583459 0.19147 0.10779
0.628122 0.189471 0.109056
0.672724 0.1879 0.111162
0.71519 0.186557 0.113558
0.756619 0.185519 0.116411
0.797284 0.18468 0.11957
0.837537 0.183963 0.122896
0.878279 0.18352 0.126635
0.918303 0.182986 0.130159
0.958389 0.182406 0.133516
0.998322 0.181918 0.136599
0.122332 0.123064 0.122591
0.128054 0.130312 0.128801
0.133394 0.138109 0.134844
0.138262 0.146395 0.140566
0.142596 0.154986 0.1458
0.146578 0.163928 0.150515
0.150439 0.173251 0.154665
0.154482 0.182483 0.157916
0.159564 0.191577 0.160098
0.166644 0.200259 0.160952
0.176516 0.208347 0.16051
0.190295 0.215915 0.158801
0.20856 0.222019 0.155596
0.232319 0.226703 0.151049
0.262058 0.22974 0.145342
0.29807 0.231083 0.138735
0.340398 0.230854 0.131731
0.387808 0.229191 0.124987
0.437873 0.226398 0.119265
0.48835 0.223239 0.115572
0.536309 0.220508 0.114839
0.582956 0.218067 0.115389
0.629709 0.215885 0.116472
0.675593 0.21384 0.117815
0.71989 0.21207 0.119509
0.762371 0.210819 0.121782
0.803494 0.209964 0.124483
0.84361 0.20943 0.127459
0.88365 0.209232 0.130816
0.922713 0.209079 0.133989
0.961318 0.209003 0.137041
0.999908 0.208972 0.13991
1 0.209186 0.142061
0.139788 0.149477 0.143175
0.143404 0.158251 0.148226
0.14638 0.167376 0.152712
0.148836 0.176898 0.156695
0.150958 0.187106 0.16022
0.152895 0.197116 0.162921
0.155138 0.207156 0.164874
0.158373 0.217075 0.165911
0.163836 0.226612 0.165682
0.172808 0.235431 0.163973
0.186114 0.243412 0.160967
0.204242 0.249775 0.156725
0.228138 0.254612 0.1514
0.25832 0.257786 0.145251
0.294652 0.25919 0.138735
0.336843 0.259007 0.132433
0.383429 0.257496 0.127184
0.431586 0.255039 0.123827
0.479088 0.252506 0.123247
0.526741 0.249897 0.123278
0.574701 0.247196 0.123384
0.622766 0.244694 0.123873
0.670024 0.24239 0.12462
0.715969 0.240284 0.125566
0.76025 0.238666 0.12697
0.802304 0.237659 0.128908
0.842649 0.23714 0.131212
0.882338 0.237217 0.134035
0.920501 0.237339 0.136599
0.957977 0.23769 0.139116
0.994919 0.238209 0.141482
1 0.238788 0.143557
1 0.239841 0.145113
0.147845 0.180819 0.159167
0.148577 0.191043 0.162173
0.148791 0.201556 0.164508
0.148684 0.212741 0.166491
0.148638 0.223667 0.167773
0.148989 0.234668 0.168429
0.150362 0.245518 0.168383
0.153765 0.255894 0.167422
0.160861 0.265431 0.165133
0.173175 0.273976 0.161425
0.191012 0.28069 0.156664
0.214755 0.285756 0.151217
0.244816 0.289006 0.145434
0.28098 0.290425 0.139834
0.322805 0.290486 0.135393
0.367773 0.289006 0.132662
0.414054 0.286854 0.132311
0.461585 0.284321 0.132052
0.510033 0.281544 0.131701
0.559014 0.278767 0.131441
0.608301 0.276127 0.131395
0.65655 0.273487 0.131273
0.703655 0.271168 0.131411
0.749355 0.26923 0.131823
0.793057 0.267887 0.132662
0.834485 0.267353 0.134142
0.87396 0.267414 0.135958
0.911574 0.267796 0.137728
0.948089 0.268482 0.139483
0.983734 0.269444 0.1411
1 0.270619 0.142504
1 0.272084 0.143725
1 0.27364 0.144594
0.143511 0.217563 0.168612
0.141268 0.229557 0.169207
0.138964 0.241474 0.169299
0.13695 0.253361 0.169131
0.135546 0.265171 0.168536
0.135332 0.276707 0.167498
0.137087 0.287831 0.165957
0.142031 0.298589 0.16376
0.152438 0.307454 0.160372
0.169589 0.314412 0.155856
0.19324 0.319524 0.150988
0.223148 0.322774 0.14641
0.259144 0.324132 0.142748
0.300435 0.324102 0.141115
0.344305 0.322637 0.141192
0.390295 0.320592 0.141054
0.437949 0.31812 0.140581
0.486763 0.315358 0.139864
0.536278 0.312505 0.139055
0.58616 0.309804 0.138384
0.635279 0.306996 0.137453
0.683467 0.304494 0.13666
0.730205 0.302388 0.136095
0.775235 0.300771 0.135744
0.818112 0.299916 0.135866
0.858274 0.299916 0.136507
0.895872 0.300374 0.137209
0.931731 0.30135 0.138003
0.966339 0.302693 0.138689
1 0.30428 0.139376
1 0.306249 0.140505
1 0.307897 0.141421
1 0.30956 0.142473
0.125582 0.2607 0.170672
0.121233 0.27332 0.168902
0.117571 0.286015 0.167086
0.114855 0.298512 0.165393
0.113573 0.310674 0.163607
0.114427 0.32224 0.16173
0.118273 0.333333 0.159792
0.126787 0.342748 0.157549
0.142245 0.350179 0.154635
0.165759 0.355276 0.151339
0.196124 0.358206 0.148821
0.232273 0.359182 0.148013
0.273274 0.358968 0.149111
0.316487 0.357748 0.149401
0.361822 0.355978 0.149187
0.409033 0.353719 0.14847
0.457633 0.35108 0.147341
0.507576 0.348501 0.146242
0.557366 0.345602 0.14461
0.606897 0.342794 0.14287
0.655787 0.340169 0.141085
0.703426 0.337926 0.139361
0.74934 0.336187 0.13785
0.793637 0.335241 0.136736
0.834943 0.334783 0.135683
0.873182 0.33518 0.135042
0.909239 0.336141 0.134951
0.943771 0.337484 0.135332
0.977417 0.339132 0.136141
1 0.341085 0.137377
1 0.342931 0.138613
1 0.344747 0.139925
1 0.346563 0.141344
0.0964218 0.31046 0.164294
0.0905623 0.321706 0.162234
0.0873884 0.334569 0.159487
0.0859846 0.346899 0.157229
0.0868238 0.358862 0.155444
0.0909438 0.36968 0.154131
0.0993362 0.379034 0.153292
0.113466 0.386633 0.152834
0.135805 0.391745 0.15259
0.166888 0.394125 0.153231
0.203754 0.395026 0.155154
0.243076 0.394995 0.156207
0.285039 0.394186 0.156481
0.329335 0.392767 0.1561
0.375555 0.390845 0.155138
0.423423 0.388495 0.153628
0.472847 0.38616 0.151965
0.522438 0.383398 0.149584
0.572045 0.380636 0.14696
0.621118 0.378042 0.144167
0.669291 0.375723 0.141283
0.715953 0.373846 0.13843
0.761044 0.372824 0.136049
0.803891 0.371954 0.133974
0.844312 0.37171 0.132662
0.881895 0.372198 0.132219
0.917296 0.373236 0.132464
0.951186 0.374746 0.133303
0.984222 0.376669 0.134661
1 0.3785 0.136065
1 0.380423 0.137682
1 0.382361 0.139422
1 0.384298 0.141268
0.0607919 0.363165 0.152529
0.0541238 0.372808 0.15172
0.0539559 0.384909 0.149371
0.0563516 0.396384 0.148119
0.062211 0.406638 0.147982
0.0722972 0.41529 0.14902
0.0875868 0.422263 0.1514
0.109575 0.42707 0.155154
0.138399 0.429847 0.158541
0.172946 0.431388 0.160723
0.210727 0.431876 0.161807
0.250935 0.431617 0.162081
0.293675 0.430701 0.161563
0.338552 0.429236 0.160296
0.385107 0.427314 0.158373
0.433433 0.425345 0.156115
0.482277 0.422858 0.153017
0.531487 0.420279 0.149493
0.580468 0.417807 0.145663
0.62884 0.415503 0.141848
0.676768 0.413642 0.138613
0.723064 0.411841 0.135637
0.767544 0.410468 0.133257
0.810056 0.409598 0.131518
0.850034 0.409369 0.130571
0.887037 0.409888 0.13051
0.922087 0.411261 0.131426
0.955169 0.412757 0.132616
0.987167 0.414496 0.134173
1 0.416419 0.136034
1 0.418387 0.138003
1 0.420294 0.13994
1 0.422446 0.142123
0.0263218 0.415869 0.139895
0.0211185 0.424308 0.140734
0.0252689 0.434379 0.141268
0.0348363 0.443168 0.142962
0.0486763 0.450446 0.146624
0.0670024 0.456153 0.152056
0.0877699 0.461143 0.157244
0.112001 0.465431 0.161685
0.141756 0.468254 0.164614
0.176837 0.469444 0.165759
0.215137 0.46978 0.165896
0.255787 0.469505 0.165209
0.298741 0.468605 0.163638
0.343877 0.467414 0.16144
0.390372 0.465751 0.158419
0.43798 0.463676 0.15465
0.486549 0.461311 0.150668
0.535637 0.458762 0.14667
0.58468 0.456184 0.142824
0.633448 0.454002 0.139513
0.681102 0.451804 0.1364
0.727214 0.449912 0.133745
0.771374 0.448478 0.131716
0.813458 0.447547 0.130343
0.852934 0.447318 0.129809
0.889677 0.448157 0.130495
0.923781 0.449256 0.131563
0.956268 0.450706 0.133028
0.987793 0.452384 0.134722
1 0.4542 0.136599
1 0.456092 0.138567
1 0.458198 0.140749
1 0.459937 0.142596
0.00329595 0.464652 0.132464
0.00137331 0.471687 0.136065
0.0119326 0.47808 0.14081
0.0294957 0.483986 0.146471
0.0475776 0.489769 0.15201
0.066804 0.495277 0.157183
0.0880903 0.500389 0.161852
0.112688 0.504707 0.16556
0.142611 0.507347 0.167407
0.177935 0.508553 0.167529
0.216373 0.508934 0.166552
0.256977 0.508751 0.164691
0.299962 0.508171 0.162127
0.345068 0.50692 0.159106
0.391684 0.505028 0.155688
0.439734 0.502724 0.152041
0.488716 0.50016 0.148318
0.538064 0.497429 0.144625
0.587549 0.495003 0.14139
0.635996 0.492409 0.138186
0.683406 0.490028 0.135378
0.729259 0.48806 0.133135
0.773068 0.48658 0.131533
0.814939 0.485832 0.130785
0.854063 0.485588 0.130556
0.890135 0.486015 0.131029
0.924025 0.487022 0.132097
0.956344 0.488396 0.133562
0.98764 0.489952 0.135225
1 0.49189 0.137285
1 0.49366 0.139208
1 0.495354 0.14107
1 0.497002 0.142916
0 0.506508 0.135485
0 0.512215 0.140124
0.00936904 0.517998 0.14519
0.0273442 0.523873 0.150225
0.0456855 0.529671 0.155047
0.0652934 0.535546 0.159686
0.0864881 0.540581 0.163302
0.110872 0.544793 0.165774
0.140688 0.547555 0.166491
0.176074 0.548806 0.165652
0.214878 0.549203 0.164187
0.256199 0.549035 0.162356
0.299733 0.547936 0.159869
0.345312 0.546273 0.157015
0.392447 0.544137 0.153887
0.440833 0.541604 0.150546
0.490135 0.538933 0.14728
0.539727 0.536187 0.144091
0.588876 0.533303 0.140978
0.637171 0.530587 0.138201
0.684352 0.528099 0.135714
0.7299 0.525994 0.133639
0.773678 0.52459 0.132296
0.815274 0.523629 0.131411
0.854139 0.523201 0.13109
0.889982 0.523507 0.131502
0.923598 0.52433 0.132494
0.955657 0.525567 0.133898
0.986969 0.527276 0.135821
1 0.528878 0.137652
1 0.530465 0.139498
1 0.53196 0.141299
1 0.533471 0.14313
0 0.547219 0.138262
0 0.552773 0.142458
0.00567636 0.558556 0.146685
0.0237125 0.564492 0.150835
0.0421912 0.570733 0.154925
0.0613718 0.576394 0.158236
0.0825971 0.581445 0.16112
0.107317 0.585519 0.163272
0.137835 0.587991 0.16405
0.174105 0.588952 0.163546
0.213825 0.589181 0.162509
0.255604 0.588479 0.160815
0.299657 0.587076 0.158618
0.345632 0.585122 0.156069
0.393042 0.582742 0.153307
0.441749 0.580118 0.150484
0.491157 0.57731 0.147662
0.540505 0.574212 0.144579
0.589471 0.57116 0.141573
0.637629 0.568322 0.138811
0.684672 0.565744 0.136309
0.730358 0.563821 0.134508
0.773709 0.562066 0.132906
0.814939 0.560815 0.131838
0.853574 0.560265 0.131487
0.889204 0.560464 0.131914
0.922728 0.561334 0.133059
0.954589 0.562509 0.134539
0.985321 0.56379 0.136141
1 0.565209 0.137942
1 0.56669 0.139834
1 0.568048 0.141634
1 0.569558 0.143648
0 0.588403 0.138216
0 0.594003 0.141421
0.000366217 0.599847 0.144732
0.0188449 0.606073 0.148592
0.037583 0.611749 0.152285
0.0575265 0.617075 0.155871
0.0795453 0.621805 0.159106
0.105028 0.625544 0.161608
0.136538 0.628 0.163012
0.173419 0.628519 0.162768
0.213458 0.628153 0.161852
0.255711 0.627161 0.16051
0.300145 0.625498 0.158724
0.346365 0.623331 0.156558
0.39408 0.620996 0.154253
0.442588 0.618067 0.151385
0.491722 0.614954 0.148348
0.540948 0.611749 0.145251
0.589761 0.60856 0.142214
0.637781 0.605631 0.139452
0.68481 0.603098 0.137118
0.730007 0.600748 0.135012
0.773144 0.598886 0.13341
0.814115 0.597482 0.132311
0.85243 0.596735 0.131899
0.887892 0.596887 0.132433
0.921141 0.597635 0.133608
0.95259 0.59855 0.134981
0.982971 0.599649 0.136584
1 0.60087 0.138338
1 0.602167 0.14023
1 0.603601 0.142306
1 0.604883 0.144274
0 0.629923 0.135485
0 0.635523 0.138964
0 0.641016 0.142687
0.0153048 0.646525 0.146685
0.0348516 0.651865 0.150774
0.0555276 0.656809 0.154742
0.0782025 0.661158 0.158328
0.104616 0.664866 0.161501
0.136446 0.666667 0.163012
0.173831 0.66688 0.163165
0.214191 0.666224 0.162524
0.25655 0.664973 0.161318
0.300969 0.663157 0.159579
0.347387 0.661143 0.157656
0.394736 0.658396 0.155047
0.443091 0.655314 0.152117
0.492012 0.652003 0.149004
0.54107 0.64863 0.145876
0.589776 0.645396 0.142901
0.637751 0.642481 0.140291
0.684306 0.639536 0.137697
0.729198 0.637003 0.135531
0.772061 0.634974 0.133928
0.812787 0.633463 0.132876
0.851087 0.632853 0.132799
0.886061 0.63267 0.133181
0.918776 0.633036 0.134142
0.949889 0.633814 0.135576
0.979965 0.634791 0.137255
1 0.635966 0.139178
1 0.637217 0.141253
1 0.638254 0.14313
1 0.639277 0.145068
0 0.670756 0.133837
0 0.675731 0.13756
0 0.680766 0.141634
0.0138094 0.685863 0.146029
0.0340429 0.690837 0.15053
0.0553902 0.695445 0.15491
0.0789502 0.699763 0.159213
0.105394 0.702831 0.16231
0.137346 0.704387 0.163912
0.174731 0.704448 0.164065
0.215045 0.70367 0.163409
0.257618 0.702556 0.162463
0.3019 0.700557 0.160647
0.34786 0.698039 0.158343
0.395087 0.695155 0.155734
0.443305 0.691936 0.152804
0.492058 0.688472 0.149676
0.541146 0.685176 0.146777
0.589532 0.681682 0.143709
0.637034 0.678386 0.140887
0.68336 0.675319 0.138338
0.727962 0.672602 0.136187
0.770489 0.67039 0.134585
0.811093 0.668925 0.133806
0.848814 0.667903 0.133501
0.883482 0.667582 0.133959
0.915831 0.667765 0.134966
0.946517 0.668315 0.136385
0.976257 0.669169 0.138186
1 0.670268 0.140307
1 0.671183 0.14226
1 0.671962 0.144106
1 0.672663 0.145922
0 0.710063 0.133532
0 0.714565 0.137636
0 0.719234 0.142168
0.0145266 0.72398 0.146914
0.0352941 0.728832 0.151812
0.0568551 0.733303 0.156359
0.0800946 0.737163 0.160342
0.106523 0.740108 0.163424
0.138415 0.741482 0.164965
0.175692 0.741329 0.165026
0.216144 0.740627 0.164569
0.258381 0.739116 0.163363
0.302556 0.73695 0.161532
0.348348 0.734249 0.159197
0.395361 0.731136 0.156512
0.443366 0.727718 0.153567
0.492226 0.724392 0.15079
0.54081 0.720668 0.147631
0.588907 0.716976 0.144549
0.636072 0.713436 0.141695
0.682078 0.710201 0.139178
0.72639 0.707362 0.137133
0.768841 0.705226 0.135882
0.808804 0.703304 0.134859
0.846098 0.702037 0.134554
0.880385 0.701549 0.135088
0.912383 0.701595 0.136202
0.942901 0.702174 0.137957
0.972061 0.702647 0.13959
1 0.703243 0.141375
1 0.703929 0.143328
1 0.704524 0.145235
1 0.705043 0.147097
0 0.747936 0.134844
0 0.752132 0.139101
0 0.756588 0.143648
0.0162356 0.761379 0.148562
0.0369116 0.766003 0.153353
0.0583047 0.770169 0.157733
0.0814527 0.773816 0.161608
0.107836 0.776577 0.164645
0.139696 0.777798 0.166201
0.177188 0.777752 0.166552
0.217243 0.776562 0.165774
0.259251 0.774777 0.164462
0.303288 0.772427 0.162615
0.348959 0.769574 0.160342
0.395987 0.766491 0.1579
0.443809 0.762905 0.155001
0.492073 0.75906 0.151904
0.540398 0.755169 0.148806
0.588235 0.751339 0.14583
0.635081 0.747631 0.143038
0.680934 0.744396 0.140826
0.724849 0.741344 0.138811
0.766674 0.738796 0.137362
0.806271 0.736706 0.136446
0.843107 0.73521 0.136141
0.876875 0.734386 0.136584
0.908614 0.734371 0.137911
0.938491 0.734493 0.139406
0.967239 0.734783 0.141085
0.995163 0.735103 0.142824
1 0.735439 0.14461
1 0.735759 0.14641
1 0.736263 0.14847
0 0.785016 0.136522
0 0.78912 0.140826
0 0.793576 0.14551
0.0179904 0.797955 0.150164
0.0385138 0.802274 0.154803
0.0599069 0.806287 0.159182
0.0830243 0.809735 0.163027
0.109438 0.812375 0.166125
0.141329 0.813489 0.167773
0.178454 0.812985 0.167834
0.218418 0.811612 0.167102
0.260288 0.809628 0.165789
0.304082 0.807004 0.163912
0.349722 0.804105 0.161822
0.396445 0.800732 0.15935
0.443961 0.796918 0.156466
0.491936 0.792859 0.153399
0.539879 0.788724 0.150317
0.58735 0.784665 0.147387
0.634104 0.781033 0.144991
0.679347 0.777401 0.142611
0.722759 0.774044 0.140551
0.764035 0.771176 0.13901
0.803143 0.768826 0.138079
0.839567 0.767132 0.13785
0.873152 0.766354 0.138613
0.904128 0.765774 0.139544
0.933471 0.76556 0.140871
0.961791 0.765591 0.142473
0.989364 0.765743 0.144213
1 0.766125 0.146273
1 0.766186 0.147921
1 0.766217 0.149569
0 0.821378 0.138231
0 0.825452 0.142672
0 0.829511 0.147143
0.0198215 0.833661 0.151751
0.0402686 0.83772 0.156298
0.0616159 0.841489 0.160647
0.0848554 0.844862 0.16463
0.111269 0.847318 0.167788
0.142901 0.848035 0.169253
0.179843 0.847242 0.169268
0.219669 0.845655 0.168551
0.261418 0.843488 0.16733
0.305333 0.84094 0.16582
0.3505 0.837583 0.163546
0.396811 0.833875 0.160967
0.444038 0.829862 0.158175
0.491722 0.825635 0.15523
0.539437 0.821408 0.152361
0.586511 0.817136 0.149508
0.632486 0.81297 0.146761
0.677256 0.809079 0.144381
0.720241 0.805554 0.142412
0.761028 0.802441 0.140871
0.799741 0.799954 0.140032
0.835691 0.798001 0.139742
0.868605 0.796765 0.140169
0.899229 0.796033 0.141131
0.928191 0.795621 0.142397
0.956085 0.795392 0.143862
0.983459 0.795514 0.145754
1 0.795544 0.147494
1 0.795483 0.149126
1 0.795361 0.150698
0 0.857099 0.140185
0 0.860685 0.144335
0.00154116 0.86453 0.148791
0.0218814 0.868482 0.153429
0.042359 0.872343 0.158022
0.0638895 0.876051 0.16257
0.0869154 0.879011 0.166384
0.113115 0.881071 0.169406
0.144701 0.881605 0.170947
0.181521 0.880568 0.171008
0.221225 0.878767 0.170367
0.262943 0.876509 0.16936
0.306355 0.873487 0.167651
0.351278 0.869947 0.165469
0.397208 0.86595 0.162905
0.443961 0.861585 0.160021
0.491295 0.857191 0.157168
0.538582 0.852735 0.15436
0.585122 0.848173 0.151446
0.630564 0.843732 0.148669
0.674723 0.839506 0.146136
0.717174 0.835721 0.144091
0.757687 0.832578 0.142763
0.79588 0.829847 0.141817
0.831312 0.827634 0.14139
0.863767 0.826139 0.14168
0.894011 0.825208 0.14255
0.922667 0.824674 0.143801
0.950484 0.824537 0.14551
0.97734 0.824277 0.14699
1 0.824094 0.148547
1 0.823896 0.150088
1 0.823682 0.151583
0 0.891737 0.142031
0 0.895048 0.146151
0.00383001 0.898589 0.150546
0.024155 0.902281 0.155184
0.0449073 0.906111 0.160082
0.0661936 0.909361 0.164431
0.0891585 0.912032 0.168246
0.115236 0.913771 0.171237
0.1467 0.914031 0.172793
0.183474 0.91284 0.173022
0.223117 0.910903 0.17258
0.264271 0.908125 0.171313
0.307256 0.904753 0.169497
0.351797 0.900923 0.167315
0.397391 0.896727 0.164828
0.443992 0.892363 0.162264
0.490654 0.887541 0.159197
0.537209 0.882643 0.1561
0.583246 0.877867 0.153155
0.628244 0.873274 0.150423
0.672053 0.868986 0.148013
0.714107 0.865095 0.146044
0.753948 0.861585 0.144411
0.791669 0.858625 0.143328
0.826749 0.856321 0.142901
0.858854 0.854704 0.143145
0.888869 0.853712 0.144015
0.917266 0.853086 0.145235
0.94461 0.852628 0.146578
0.971237 0.852293 0.148028
0.997406 0.852003 0.149508
1 0.851667 0.150896
1 0.851484 0.152468
0 0.925292 0.143923
0 0.928389 0.148119
0.00682078 0.931914 0.15285
0.0270848 0.935271 0.157458
0.0474861 0.938537 0.162036
0.0687572 0.941512 0.16643
0.0917067 0.943923 0.170321
0.117662 0.945357 0.173312
0.149157 0.945464 0.175067
