assets/cube/cross_process_cp18.cube
TITLE "Generated by Resolve"
LUT_3D_SIZE 9
0 0.0104829 0.0707103
0.0538949 0.0138399 0.0702983
0.153048 0.0209964 0.0737621
0.24622 0.0297398 0.0789502
0.336309 0.0393225 0.0850843
0.424323 0.0494392 0.0918746
0.51075 0.0599832 0.0991836
0.595941 0.0708476 0.10692
0.680079 0.0819867 0.115053
0 0.117876 0.0932784
0.0991073 0.12192 0.0938582
0.194949 0.129931 0.0985122
0.286549 0.139071 0.104433
0.375586 0.148898 0.111131
0.462806 0.159213 0.118425
0.548623 0.169894 0.126192
0.63328 0.180865 0.134356
0.716976 0.192096 0.142855
0.0414588 0.22385 0.115129
0.142 0.230564 0.11873
0.235645 0.239139 0.1243
0.325978 0.2486 0.130861
0.41413 0.258625 0.138094
0.500664 0.269093 0.145846
0.585916 0.279896 0.15404
0.670115 0.290974 0.162585
0.753414 0.302296 0.171466
0.0868391 0.331777 0.139895
0.18349 0.339513 0.144839
0.275486 0.348501 0.151141
0.364752 0.358206 0.158251
0.452125 0.368429 0.165957
0.538048 0.379034 0.174151
0.622797 0.389944 0.182727
0.706569 0.401114 0.191638
0.789471 0.412512 0.200855
0.129747 0.440269 0.16614
0.223972 0.448646 0.172015
0.314626 0.457969 0.178943
0.402991 0.467903 0.186557
0.489677 0.478279 0.19469
0.575036 0.489006 0.203265
0.659312 0.500023 0.212207
0.742672 0.511284 0.221454
0.825238 0.522744 0.230991
0.171221 0.549081 0.193561
0.263645 0.557916 0.200168
0.353185 0.567514 0.20763
0.440757 0.57763 0.215702
0.526818 0.588159 0.224231
0.611673 0.599008 0.233173
0.695506 0.610117 0.242435
0.7785 0.621454 0.252003
0.860731 0.63299 0.261845
0.211643 0.658106 0.222004
0.302647 0.667292 0.229221
0.391257 0.677119 0.237156
0.478111 0.687419 0.245624
0.563592 0.69807 0.254536
0.647974 0.709026 0.263798
0.731426 0.720226 0.273381
0.814054 0.73164 0.283253
0.895964 0.743236 0.29337
0.25127 0.767269 0.251331
0.3411 0.776745 0.259083
0.42887 0.786786 0.267445
0.515084 0.797238 0.276295
0.600061 0.808011 0.285542
0.684001 0.819059 0.295125
0.767056 0.83035 0.304997
0.849363 0.841825 0.315145
0.930968 0.853498 0.325521
0.290211 0.876554 0.281483
0.379065 0.88629 0.289693
0.466102 0.896498 0.298451
0.551736 0.907088 0.307652
0.636225 0.917967 0.31722
0.719753 0.929122 0.327092
0.802457 0.940475 0.337255
0.884443 0.952026 0.347662
0.965774 0.963745 0.358297
0 0.0166934 0.124483
0.0614939 0.0199741 0.12488
0.160052 0.0272068 0.129305
0.252964 0.0359503 0.135317
0.342855 0.0455024 0.142214
0.430701 0.0556039 0.149752
0.517006 0.0661021 0.157778
0.602075 0.076936 0.166201
0.686122 0.0880446 0.17499
0 0.123674 0.149477
0.106172 0.127947 0.151064
0.201648 0.135988 0.156527
0.293019 0.145129 0.163165
0.381888 0.154925 0.170565
0.468971 0.165209 0.178515
0.554665 0.17586 0.186923
0.639216 0.186816 0.195712
0.72282 0.198001 0.204822
0.0488594 0.229633 0.173831
0.148714 0.236469 0.178256
0.242069 0.245045 0.184527
0.332219 0.25449 0.191745
0.420218 0.264515 0.199603
0.50663 0.274952 0.20795
0.591775 0.285725 0.216724
0.675883 0.296773 0.225849
0.759091 0.308064 0.235279
0.0936751 0.337499 0.200793
0.189914 0.345281 0.206439
0.281682 0.354269 0.213367
0.370794 0.363973 0.221073
0.45803 0.374182 0.229358
0.543847 0.384756 0.238087
0.628489 0.395651 0.247211
0.712154 0.40679 0.256641
0.794995 0.418158 0.266377
0.136233 0.445899 0.229023
0.230152 0.454292 0.235508
0.320623 0.463615 0.243
0.408835 0.473533 0.251164
0.495399 0.483894 0.259831
0.580667 0.494606 0.26891
0.664851 0.505608 0.278355
0.748119 0.516838 0.28809
0.83061 0.528267 0.2981
0.177432 0.554604 0.258244
0.269612 0.563455 0.2654
0.358999 0.573037 0.273381
0.446433 0.583154 0.281956
0.532387 0.593668 0.29099
0.617136 0.604486 0.300404
0.700893 0.615579 0.31014
0.78381 0.626902 0.320165
0.865965 0.638407 0.330434
0.217624 0.663523 0.288334
0.308446 0.672724 0.296056
0.396902 0.682551 0.304479
0.483635 0.692836 0.313436
0.569024 0.703471 0.322789
0.653315 0.714412 0.332509
0.736675 0.725582 0.342535
0.819226 0.73698 0.352834
0.901076 0.748547 0.363363
0.257053 0.772595 0.319203
0.346716 0.782086 0.327428
0.434363 0.792111 0.336248
0.52047 0.802548 0.345541
0.605341 0.813306 0.35523
0.689204 0.824338 0.36524
0.772183 0.835599 0.375525
0.854414 0.847074 0.386069
0.935958 0.858701 0.396857
0.295827 0.881788 0.350805
0.384527 0.891524 0.359472
0.471443 0.901717 0.368658
0.556985 0.912291 0.378271
0.641382 0.923171 0.388251
0.724834 0.934295 0.398535
0.807462 0.945632 0.409079
0.889372 0.957168 0.419867
0.970642 0.968872 0.430884
0 0.0224613 0.183658
0.0686351 0.0257115 0.18471
0.166659 0.0330205 0.189868
0.259312 0.0417792 0.196536
0.34902 0.0513313 0.204059
0.436728 0.0614023 0.212192
0.522911 0.0718853 0.220798
0.607874 0.0826886 0.229786
0.691829 0.0937667 0.239109
0.00494392 0.128985 0.210361
0.112856 0.133608 0.21294
0.207965 0.141695 0.219059
0.299138 0.150835 0.226291
0.387854 0.160632 0.234257
0.4748 0.170886 0.242771
0.560388 0.181521 0.251713
0.644846 0.192447 0.261006
0.728359 0.203616 0.270619
0.055848 0.23508 0.236896
0.155077 0.242039 0.242023
0.248173 0.250645 0.248859
0.33814 0.26009 0.256626
0.426001 0.270085 0.265003
0.512306 0.280507 0.273884
0.597345 0.291264 0.283146
0.681346 0.302296 0.292744
0.764477 0.313558 0.302647
0.10016 0.342916 0.26569
0.196033 0.350744 0.271916
0.287572 0.359762 0.279377
0.376532 0.369451 0.287602
0.463645 0.379644 0.296361
0.549355 0.390204 0.305577
0.633906 0.401083 0.31516
0.717494 0.412207 0.325048
0.800259 0.423545 0.335225
0.142412 0.45124 0.295567
0.236057 0.459663 0.302586
0.326329 0.468986 0.310567
0.41442 0.478904 0.319203
0.500862 0.489265 0.328344
0.586023 0.499947 0.337865
0.67013 0.510933 0.347738
0.753323 0.522133 0.3579
0.835737 0.533562 0.368338
0.183368 0.559869 0.326329
0.275319 0.568734 0.333974
0.364553 0.578332 0.342428
0.451865 0.588434 0.351446
0.537713 0.598932 0.360906
0.62237 0.609735 0.370733
0.70605 0.620813 0.38088
0.788876 0.632105 0.391318
0.87097 0.643595 0.401999
0.223362 0.668711 0.35787
0.313985 0.677913 0.366049
0.402289 0.687739 0.374899
0.488914 0.698009 0.384268
0.574212 0.708644 0.394049
0.658412 0.719554 0.404166
0.741695 0.730724 0.414572
0.824186 0.742092 0.425254
0.905974 0.753643 0.436164
0.262592 0.777691 0.390097
0.352102 0.787182 0.398749
0.439628 0.797208 0.40798
0.525628 0.80763 0.41767
0.610407 0.818387 0.427741
0.694194 0.829404 0.438132
0.777096 0.84065 0.448798
0.859251 0.852094 0.459709
0.940749 0.863722 0.470848
0.301213 0.886809 0.422995
0.389761 0.896529 0.432044
0.47657 0.906737 0.441627
0.562005 0.917296 0.451621
0.646326 0.928161 0.461967
0.729702 0.939269 0.472602
0.812268 0.950591 0.483513
0.894118 0.962112 0.494652
0.975326 0.9738 0.50602
0 0.0278935 0.247089
0.0753948 0.0311437 0.248692
0.172946 0.0385443 0.254475
0.265339 0.0473182 0.261707
0.354894 0.0568551 0.269764
0.442466 0.0669261 0.278386
0.528527 0.0773938 0.28748
0.613397 0.0881819 0.296956
0.697261 0.0992294 0.306752
0.013901 0.133715 0.274891
0.119203 0.138994 0.278645
0.213993 0.147112 0.285313
0.304952 0.156268 0.293065
0.39353 0.166049 0.301518
0.480369 0.176303 0.310506
0.56585 0.186908 0.319905
0.650217 0.197818 0.329656
0.733654 0.208972 0.339712
0.0624857 0.240284 0.303578
0.161151 0.247333 0.309316
0.253986 0.25597 0.31667
0.343786 0.265415 0.32491
0.431525 0.27541 0.333745
0.517708 0.285817 0.343069
0.602655 0.296559 0.352758
0.68658 0.307576 0.362799
0.769635 0.318822 0.373114
0.106371 0.348074 0.333959
0.201877 0.355978 0.340703
0.293202 0.364996 0.348638
0.38201 0.374685 0.357305
0.469017 0.384863 0.366506
0.55462 0.395422 0.376135
0.639078 0.406271 0.386114
0.722591 0.41738 0.396414
0.80528 0.428702 0.406989
0.148333 0.456352 0.365286
0.241688 0.464805 0.372778
0.331807 0.474144 0.381201
0.419745 0.484047 0.390249
0.506096 0.494392 0.399786
0.591165 0.505074 0.40972
0.675181 0.51603 0.419989
0.758297 0.52723 0.430533
0.84065 0.538628 0.441337
0.189044 0.564904 0.397406
0.280797 0.573785 0.405493
0.369863 0.583383 0.414343
0.457069 0.593484 0.423758
0.542809 0.603967 0.433616
0.62739 0.614771 0.443824
0.710979 0.625834 0.454353
0.793744 0.63711 0.465141
0.875776 0.648585 0.476173
0.228855 0.673671 0.430228
0.319295 0.682887 0.438819
0.407477 0.692714 0.448066
0.493996 0.702983 0.457801
0.579187 0.713603 0.467948
0.66331 0.724498 0.478431
0.746517 0.735653 0.489204
0.828946 0.747005 0.500221
0.910658 0.758556 0.511482
0.267918 0.782589 0.463691
0.357275 0.792081 0.472709
0.444678 0.802106 0.482322
0.530571 0.812528 0.492378
0.615274 0.823255 0.502785
0.69897 0.834272 0.513527
0.781811 0.845502 0.524529
0.863905 0.856931 0.535775
0.945342 0.868544 0.54725
0.306386 0.89163 0.497734
0.394797 0.90135 0.507164
0.481498 0.911543 0.517098
0.566842 0.922103 0.527428
0.651087 0.932952 0.538109
0.734386 0.94406 0.549096
0.816876 0.955367 0.560327
0.898665 0.966873 0.571786
0.979828 0.978546 0.583459
0 0.0330358 0.314061
0.0818341 0.0363165 0.316182
0.178927 0.0437934 0.322515
0.271107 0.0525826 0.330236
0.360494 0.0621195 0.338735
0.447929 0.0721904 0.347814
0.533898 0.0826429 0.357336
0.618677 0.0934157 0.367239
0.702449 0.104448 0.377447
0.0214847 0.138476 0.343038
0.125277 0.144121 0.347631
0.21976 0.152285 0.354788
0.310536 0.161456 0.362997
0.398962 0.171237 0.371878
0.485679 0.181476 0.381277
0.571069 0.192081 0.391089
0.655344 0.202976 0.401236
0.738705 0.214099 0.411688
0.0688334 0.245243 0.373419
0.166964 0.252415 0.37969
0.259556 0.261067 0.387503
0.349187 0.270512 0.396155
0.436805 0.280507 0.405417
0.522881 0.290913 0.415122
0.607752 0.30164 0.425208
0.691585 0.312627 0.43563
0.774563 0.323857 0.446311
0.112306 0.353017 0.405188
0.207477 0.360967 0.412406
0.298619 0.370001 0.420752
0.387274 0.379705 0.429816
0.474159 0.389883 0.439414
0.55967 0.400427 0.449424
0.644053 0.411261 0.45977
0.727489 0.422354 0.470436
0.810101 0.433661 0.481361
0.154009 0.461234 0.437812
0.24712 0.469734 0.445716
0.337057 0.479072 0.454536
0.424872 0.488991 0.463981
0.511116 0.499321 0.473884
0.596094 0.509987 0.484184
0.680034 0.520943 0.494789
0.763088 0.532128 0.505684
0.845365 0.543511 0.516838
0.194522 0.569741 0.471153
0.286061 0.578637 0.479637
0.37499 0.588235 0.488869
0.462058 0.598337 0.498634
0.547707 0.60882 0.508843
0.632197 0.619608 0.519402
0.715724 0.630655 0.530266
0.798413 0.641917 0.54139
0.880385 0.653376 0.552758
0.234134 0.678447 0.505135
0.324407 0.687663 0.514092
0.412451 0.69749 0.523705
0.498863 0.707759 0.533791
0.583978 0.718364 0.544274
0.668025 0.729274 0.555077
0.751156 0.740398 0.566171
0.833509 0.751751 0.577523
0.915175 0.763272 0.589105
0.273045 0.787289 0.539696
0.362249 0.796796 0.549081
0.449531 0.806821 0.55903
0.535332 0.817227 0.569421
0.619959 0.827955 0.580163
0.703578 0.838956 0.591211
0.786358 0.850187 0.602533
0.868391 0.861601 0.614084
0.949767 0.873198 0.625864
0.31136 0.896254 0.574823
0.399649 0.906004 0.584588
0.486244 0.916197 0.594842
0.571496 0.926741 0.605493
0.655665 0.937591 0.616495
0.738888 0.948684 0.627771
0.821332 0.959976 0.639307
0.903059 0.971466 0.651072
0.984146 0.983124 0.663035
0 0.0379187 0.384115
0.0879988 0.0412757 0.386725
0.18468 0.0488136 0.393561
0.276631 0.0576333 0.401709
0.36585 0.0671702 0.41062
0.453178 0.0772259 0.420096
0.53904 0.0876783 0.430014
0.623728 0.098436 0.440284
0.707424 0.109468 0.450858
0.0284581 0.143114 0.414221
0.131106 0.149035 0.419486
0.225284 0.157244 0.427085
0.315877 0.166415 0.435706
0.404181 0.176211 0.444984
0.490791 0.18645 0.454765
0.576074 0.19704 0.464942
0.660273 0.207919 0.475456
0.743557 0.219043 0.486259
0.0749065 0.250004 0.446052
0.172549 0.257267 0.452796
0.264912 0.265949 0.461021
0.354391 0.27541 0.470069
0.441886 0.285405 0.479698
0.527855 0.295796 0.489769
0.612634 0.306508 0.500206
0.696406 0.317494 0.510964
0.779309 0.32871 0.521996
0.118029 0.357763 0.479057
0.212863 0.365774 0.486702
0.303807 0.374823 0.49543
0.39234 0.384527 0.504875
0.479118 0.39469 0.514809
0.564523 0.405234 0.52517
0.648829 0.416068 0.535866
0.732189 0.427146 0.546853
0.81474 0.438437 0.558114
0.159472 0.465934 0.512856
0.252338 0.474464 0.521157
0.342107 0.483818 0.530343
0.429816 0.493736 0.540124
0.515953 0.504067 0.550378
0.600839 0.514733 0.560998
0.684703 0.525658 0.571939
0.767681 0.536843 0.583154
0.849897 0.548211 0.594629
0.199786 0.57438 0.547311
0.291127 0.583307 0.556161
0.379904 0.59292 0.565728
0.466865 0.603021 0.575845
0.552422 0.613489 0.586374
0.636835 0.624277 0.597253
0.720287 0.635309 0.608423
0.802915 0.646571 0.619867
0.884825 0.658015 0.631525
0.239231 0.683024 0.582361
0.329335 0.692271 0.591669
0.417258 0.702098 0.601602
0.503563 0.712367 0.612009
0.588586 0.722972 0.622812
0.672557 0.733867 0.633921
0.755627 0.744991 0.645319
0.837919 0.756329 0.656962
0.919524 0.767834 0.668833
0.277989 0.791821 0.61796
0.367056 0.801328 0.627665
0.454215 0.811353 0.637919
0.539925 0.821775 0.648615
0.62446 0.832502 0.659663
0.708019 0.843488 0.671016
0.790722 0.854688 0.682628
0.872694 0.866102 0.694469
0.954025 0.877684 0.706523
0.316182 0.90074 0.654063
0.404334 0.910475 0.664134
0.490822 0.920668 0.674693
0.575998 0.931212 0.685649
0.660075 0.942061 0.696941
0.743236 0.95314 0.708507
0.825605 0.964431 0.720317
0.907286 0.975906 0.732357
0.988327 0.987549 0.74461
0 0.0425574 0.456886
0.0939193 0.0460212 0.459983
0.190204 0.0536355 0.467262
0.281941 0.0624704 0.475807
0.371008 0.0720226 0.4851
0.458213 0.0820783 0.494942
0.543984 0.0925154 0.505196
0.62858 0.103273 0.515816
0.7122 0.114275 0.526726
0.0350195 0.147616 0.488075
0.136721 0.153765 0.493935
0.23061 0.162005 0.501945
0.321019 0.171191 0.510933
0.409186 0.180987 0.520577
0.495689 0.191226 0.530694
0.580896 0.201801 0.541207
0.665019 0.21268 0.552056
0.748226 0.223789 0.563195
0.0807355 0.254582 0.521202
0.17792 0.261936 0.528389
0.270069 0.270649 0.53698
0.359396 0.280125 0.54638
0.446769 0.290105 0.556359
0.532647 0.300496 0.566766
0.617334 0.311208 0.577523
0.70103 0.322179 0.588602
0.783871 0.333394 0.599939
0.123537 0.362325 0.555352
0.218051 0.370382 0.563378
0.308827 0.379461 0.572473
0.397208 0.389166 0.582238
0.483879 0.399344 0.592508
0.569207 0.409873 0.603189
0.653422 0.420691 0.614191
0.736721 0.431754 0.625498
0.819196 0.443046 0.637049
0.164736 0.470466 0.590219
0.257359 0.479026 0.598886
0.34699 0.488396 0.608392
0.434562 0.498314 0.618509
0.520607 0.508644 0.629068
0.605417 0.519295 0.639994
0.689204 0.530221 0.65124
0.772107 0.54139 0.66276
0.854261 0.552743 0.67451
0.204868 0.578866 0.625696
0.29601 0.587808 0.634882
0.384649 0.597436 0.64477
0.471519 0.607523 0.655192
0.556985 0.618006 0.666026
0.641306 0.628779 0.677195
0.724697 0.639796 0.68867
0.807248 0.651041 0.700389
0.889097 0.662486 0.712337
0.24416 0.687449 0.661723
0.334096 0.696712 0.671351
0.421897 0.706554 0.68159
0.508095 0.716808 0.692302
0.593042 0.727413 0.703395
0.676936 0.738293 0.714794
0.759945 0.749416 0.726482
0.842161 0.760739 0.738399
0.92372 0.772244 0.750546
0.282765 0.796201 0.698268
0.371679 0.805722 0.708278
0.458747 0.815747 0.718837
0.544366 0.826154 0.729824
0.628824 0.836881 0.741146
0.712306 0.847852 0.752773
0.794949 0.859068 0.76466
0.87686 0.870451 0.776776
0.958129 0.882033 0.789105
0.320821 0.905058 0.735286
0.408865 0.914809 0.745663
0.495247 0.925002 0.756512
0.580331 0.935546 0.767742
0.664332 0.94638 0.779293
0.747433 0.957443 0.791135
0.82974 0.968734 0.80322
0.91136 0.980194 0.815518
0.992355 0.991836 0.828016
0 0.0469673 0.532113
0.0996262 0.0505837 0.535698
0.195514 0.0582589 0.543389
0.287053 0.0671244 0.5523
0.375982 0.0766918 0.561944
0.463066 0.0867475 0.572106
0.548745 0.0971847 0.582696
0.633249 0.107927 0.593622
0.716808 0.118929 0.604852
0.0412299 0.151965 0.56437
0.142123 0.158297 0.570748
0.235752 0.166598 0.579126
0.325994 0.175799 0.588464
0.414023 0.185595 0.598428
0.50042 0.195819 0.608881
0.585534 0.206409 0.619699
0.669581 0.217258 0.630854
0.752712 0.228367 0.642298
0.0863508 0.259007 0.598642
0.183124 0.266438 0.606241
0.275044 0.275181 0.615183
0.364218 0.284657 0.624918
0.451484 0.294652 0.635203
0.53727 0.305043 0.645914
0.621866 0.31574 0.656977
0.705486 0.326711 0.66836
0.788266 0.337896 0.679988
0.128847 0.366735 0.633829
0.223072 0.374838 0.642237
0.313649 0.383932 0.651652
0.401923 0.393637 0.661738
0.488487 0.403815 0.672312
0.573709 0.414343 0.683284
0.657862 0.425162 0.694591
0.741085 0.436225 0.706172
0.823499 0.447501 0.718013
0.169833 0.47483 0.669703
0.262226 0.483421 0.678706
0.35169 0.492805 0.688533
0.439155 0.502724 0.69894
0.525093 0.513054 0.709804
0.609827 0.523705 0.721019
0.693538 0.53463 0.73254
0.776379 0.545785 0.744335
0.858488 0.557137 0.756359
0.209766 0.583185 0.706127
0.300725 0.592157 0.715633
0.389242 0.601785 0.725826
0.47599 0.611887 0.736538
0.561364 0.622354 0.747662
0.645624 0.633127 0.759106
0.728939 0.644144 0.77084
0.811444 0.655375 0.782834
0.893233 0.666804 0.795056
0.248905 0.691737 0.743084
0.338689 0.700999 0.753017
0.426368 0.710842 0.763546
0.512474 0.721111 0.774533
0.597345 0.731716 0.785885
0.681163 0.74258 0.797559
0.764096 0.753704 0.809506
0.846265 0.765011 0.821698
0.927764 0.776501 0.834089
0.287388 0.800427 0.780514
0.376165 0.809949 0.790814
0.463111 0.819989 0.801648
0.548653 0.830396 0.812909
0.633021 0.841108 0.824491
0.716442 0.852094 0.836378
0.799023 0.863279 0.848524
0.880888 0.874678 0.860899
0.962097 0.886229 0.873472
0.325322 0.909224 0.818402
0.41323 0.91899 0.829038
0.499519 0.929183 0.840146
0.584512 0.939727 0.851652
0.668452 0.950561 0.863462
0.751492 0.961624 0.875563
0.833738 0.9729 0.887892
0.915297 0.98436 0.900435
0.996246 0.995987 0.913191
0 0.0511635 0.609567
0.105104 0.0549783 0.613672
0.200656 0.0627298 0.621759
0.291981 0.0716259 0.630991
0.380774 0.0811933 0.640955
0.46775 0.091249 0.651423
0.553323 0.101686 0.662318
0.637766 0.112413 0.673548
0.721233 0.123415 0.685069
0.0471656 0.156176 0.642863
0.147341 0.162676 0.649729
0.240696 0.171008 0.658457
0.33077 0.18024 0.668116
0.418677 0.190036 0.678386
0.504982 0.200275 0.689128
0.590005 0.210834 0.700252
0.673976 0.221698 0.711696
0.757061 0.232792 0.7234
0.0917678 0.263264 0.678203
0.188128 0.270771 0.686183
0.27985 0.279545 0.69546
0.368887 0.289036 0.705501
0.456031 0.299031 0.716075
0.541726 0.309422 0.727077
0.626245 0.320119 0.73843
0.709804 0.331075 0.750088
0.792508 0.34226 0.76199
0.133974 0.370977 0.714382
0.227909 0.379126 0.72311
0.318334 0.388251 0.732845
0.406455 0.397971 0.743221
0.492927 0.408133 0.754086
0.578073 0.418662 0.765332
0.662135 0.42948 0.776913
0.745296 0.440528 0.788769
0.827649 0.451804 0.80087
0.174746 0.479042 0.751171
0.266926 0.487663 0.760479
0.356237 0.497063 0.770611
0.443595 0.506996 0.781308
0.529442 0.517327 0.792432
0.614084 0.527977 0.803922
0.697734 0.538888 0.815717
0.780514 0.550027 0.827771
0.862547 0.561379 0.840055
0.214527 0.587366 0.788495
0.305303 0.596353 0.798291
0.393683 0.605997 0.808774
0.480323 0.616098 0.81976
0.565621 0.626566 0.831128
0.649805 0.637339 0.842847
0.733043 0.648341 0.854841
0.815488 0.659571 0.867094
0.897215 0.670985 0.879561
0.253513 0.695857 0.826307
0.34313 0.70515 0.836515
0.430701 0.715007 0.847318
0.516716 0.725277 0.858564
0.601495 0.735866 0.870192
0.685237 0.746746 0.882109
0.768124 0.757839 0.894316
0.850233 0.769146 0.906737
0.93167 0.780636 0.919387
0.291859 0.804501 0.864561
0.380499 0.814054 0.875135
0.467353 0.824094 0.886244
0.552789 0.834501 0.897749
0.637095 0.845212 0.90959
0.720439 0.856184 0.921721
0.80296 0.867369 0.934112
0.884764 0.878752 0.946715
0.965927 0.890303 0.959533
0.329671 0.913268 0.903258
0.417472 0.923033 0.914168
0.503655 0.933242 0.925536
0.588571 0.943786 0.93727
0.672435 0.954604 0.94934
0.755413 0.965667 0.961669
0.837598 0.976928 0.974243
0.919112 0.988388 0.987015
1 1 1
