assets/cube/cross_process_cp16.cube
TITLE "Generated by Resolve"
LUT_3D_SIZE 5
0 0 0
0 0 0
0 0 0
0.0988632 0.00329595 0.0267338
0.290532 0.027451 0.0753033
0.0147097 0.0569467 0.0488136
0.112627 0.109285 0.0940566
0.272999 0.1449 0.121202
0.5019 0.162066 0.129335
0.787182 0.163943 0.122835
0.00419623 0.339773 0.140307
0.187442 0.372091 0.132753
0.424521 0.388876 0.120516
0.691676 0.396536 0.110185
0.967514 0.400961 0.106203
0 0.650752 0.125109
0.197147 0.658991 0.124376
0.466819 0.662806 0.131029
0.715755 0.649805 0.12163
0.947234 0.623148 0.097322
0 0.884337 0.121202
0.175143 0.857221 0.0982071
0.393744 0.815885 0.0587472
0.611688 0.775799 0.0208438
0.84181 0.750393 0.000228885
0 0 0
0 0 0
0.0150607 0 0
0.144305 0.0157778 0.0661936
0.350958 0.0342718 0.12665
0.0256809 0.0791638 0.0931258
0.132113 0.127718 0.150988
0.303395 0.158694 0.192004
0.541466 0.171679 0.214481
0.829953 0.171237 0.221592
0.0018616 0.361242 0.231373
0.196719 0.388815 0.236606
0.440406 0.402579 0.234775
0.709102 0.409018 0.232013
0.982742 0.413626 0.232837
0 0.665278 0.249104
0.211566 0.671778 0.252094
0.477485 0.671504 0.254963
0.718868 0.651789 0.237369
0.948058 0.623362 0.210468
0 0.884962 0.235966
0.174029 0.853895 0.207752
0.391775 0.812085 0.167376
0.611658 0.774212 0.131548
0.846204 0.75404 0.117632
0 0 0
0 0 0
0.0399634 0 0.031632
0.190997 0.0269017 0.115328
0.412741 0.0395514 0.189288
0.0353246 0.100755 0.147799
0.150805 0.14519 0.219699
0.332876 0.171511 0.275044
0.578927 0.180774 0.310903
0.869169 0.178653 0.329473
0.000320439 0.381415 0.332982
0.206287 0.404639 0.348592
0.455772 0.4159 0.354498
0.72546 0.421515 0.356878
0.996643 0.426581 0.360464
0 0.679072 0.375296
0.226856 0.684276 0.380148
0.485405 0.677546 0.375341
0.720241 0.652018 0.350744
0.948211 0.622889 0.322438
0 0.884703 0.349294
0.172381 0.85008 0.316487
0.390295 0.808713 0.276204
0.613077 0.773999 0.243366
0.851713 0.759274 0.23798
0 0 0
0 0 0.00128176
0.0752422 0.0090486 0.0777752
0.238849 0.0366064 0.175128
0.47541 0.0433509 0.26392
0.0436408 0.121584 0.213764
0.168673 0.161669 0.300649
0.361257 0.183444 0.370001
0.614038 0.189548 0.417456
0.904875 0.186343 0.444953
0 0.400336 0.443793
0.21622 0.419684 0.467124
0.470726 0.428931 0.478248
0.740871 0.434119 0.483574
1 0.439857 0.488167
0 0.692256 0.502602
0.241047 0.69543 0.506203
0.490898 0.681254 0.492607
0.720195 0.650813 0.462196
0.947906 0.621927 0.433478
0 0.883772 0.461448
0.170565 0.846113 0.42475
0.38967 0.806134 0.38555
0.616266 0.775525 0.356619
0.858442 0.7664 0.360769
0 0 0
0 0 0.0310063
0.111101 0.0226902 0.133852
0.287678 0.0448615 0.246525
0.538369 0.0458228 0.350942
0.0506142 0.141604 0.291768
0.185718 0.177157 0.393973
0.388327 0.194675 0.476005
0.646693 0.198169 0.532753
0.937179 0.194446 0.566522
0.000579843 0.418112 0.562295
0.226596 0.434089 0.590753
0.485359 0.441779 0.604746
0.755505 0.44686 0.611063
1 0.45301 0.614862
0 0.704967 0.63003
0.25211 0.70367 0.628443
0.49427 0.682918 0.607217
0.719051 0.648478 0.572122
0.947341 0.620706 0.543832
0 0.882353 0.572671
0.168948 0.842298 0.532906
0.390234 0.804639 0.495705
0.621729 0.779034 0.471824
0.866575 0.775921 0.485222
