assets/cube/cross_process_cp16.cube
TITLE "Generated by Resolve"
LUT_3D_SIZE 33
0 0 0
0 0 0
0 0 0
0 0 0
0 0 0
0 0 0
0 0 0
0 0 0
0 0 0
0 0 0
0 0 0
0 0 0
0 0 0
0 0 0
0 0 0
0 0 0
0 0 0
0.00392157 0 0
0.0136568 0 0
0.0233768 0 0
0.0330968 0 0
0.0444038 0 0.00492866
0.0616159 0 0.0123903
0.0797589 0 0.0196536
0.0988632 0.00329595 0.0267338
0.118959 0.00738537 0.0336156
0.140108 0.0111849 0.0402838
0.162325 0.0146792 0.0467231
0.185641 0.0178836 0.0529335
0.210086 0.0207523 0.0589151
0.235706 0.0233158 0.0646372
0.262516 0.0255589 0.0700999
0.290532 0.027451 0.0753033
0 0 0
0 0 0
0 0 0
0 0 0
0 0 0
0 0 0
0 0 0
0 0 0
0 0 0
0 0 0
0 0 0
0 0 0
0 0 0
0 0 0
0 0 0
0.00865187 0 0
0.0183719 0 0
0.0280919 0 0.000411994
0.0411078 0 0.00779736
0.0571603 0 0.0152285
0.0741131 0.00418097 0.0224613
0.0919966 0.00889601 0.0294957
0.110857 0.0133669 0.0363317
0.130709 0.0175479 0.0429541
0.151614 0.0214389 0.0493477
0.173571 0.0250401 0.0555123
0.196643 0.028336 0.0614328
0.220829 0.0313268 0.0671092
0.246189 0.0339971 0.0725261
0.272725 0.036347 0.0776684
0.30045 0.0383612 0.0825513
0.329412 0.0400397 0.087129
0.359625 0.0413825 0.0914321
0 0 0
0 0 0
0 0 0
0 0 0
0 0 0
0 0 0
0 0 0
0 0 0
0 0 0
0 0 0
0 0 0
0 0 0
0.00364691 0 0
0.0133822 0 0
0.0231022 0 0.00314336
0.0369116 0 0.0106813
0.0517739 0.00436408 0.0180667
0.0675059 0.00972 0.0252689
0.0841382 0.0148165 0.0322728
0.101717 0.0196536 0.0390631
0.120272 0.0242313 0.0456397
0.139818 0.0285344 0.0519875
0.160403 0.0325475 0.0580911
0.182055 0.036286 0.0639658
0.204807 0.039704 0.0695811
0.228672 0.0428168 0.0749371
0.253697 0.0456245 0.0800336
0.279881 0.0481117 0.0848402
0.307271 0.0502632 0.0893721
0.335866 0.0520943 0.0936141
0.365667 0.0535744 0.0975509
0.396704 0.0547341 0.101198
0.428962 0.0555734 0.10454
0 0 0
0 0 0
0 0 0
0 0 0
0 0 0
0 0 0
0 0 0
0 0 0
0 0 0
0 0 0
0.0083772 0 0
0.0188907 0 0.00602731
0.0317388 0.00387579 0.0135653
0.0453956 0.00982681 0.0209201
0.0598917 0.0155489 0.0280766
0.0752575 0.0210422 0.0350347
0.0915236 0.026276 0.0417792
0.108736 0.0312505 0.0483101
0.126909 0.0359655 0.054612
0.14609 0.0404059 0.0606699
0.166293 0.0445716 0.0664988
0.187564 0.0484321 0.0720531
0.209934 0.0520027 0.0773632
0.233417 0.0552682 0.0823835
0.25803 0.0582284 0.0871443
0.283803 0.0608682 0.0915999
0.310765 0.0631876 0.0957809
0.338903 0.0651865 0.0996567
0.368231 0.0668498 0.103243
0.398764 0.0682078 0.106508
0.430503 0.0692302 0.109468
0.463416 0.0699168 0.112123
0.497536 0.0702983 0.114473
0 0 0
0 0 0
0 0 0
0 0 0
0 0 0
0 0 0
0 0 0
0.0033875 0 0.00146487
0.013962 0.00273136 0.00894179
0.0256046 0.00926223 0.0164492
0.0380255 0.0155947 0.0237583
0.0512551 0.0216983 0.0308843
0.0653086 0.0275731 0.0377966
0.0802472 0.0332036 0.0444953
0.0960861 0.0386053 0.0509804
0.112856 0.0437324 0.0572366
0.130602 0.0486152 0.0632486
0.14934 0.0532082 0.0690166
0.169116 0.0575265 0.0745251
0.189944 0.0615549 0.0797589
0.211856 0.0652934 0.0847334
0.234882 0.0687419 0.0894331
0.259022 0.07187 0.0938277
0.284306 0.0746929 0.0979477
0.310765 0.0771954 0.101762
0.338369 0.0793927 0.105272
0.367163 0.0812543 0.108476
0.397131 0.0828107 0.111376
0.42826 0.0840467 0.113954
0.460533 0.0849775 0.116243
0.493965 0.0856031 0.118212
0.528511 0.0859083 0.11989
0.564141 0.0859388 0.121248
0 0 0
0 0 0
0 0 0
0 0 0
0 0.000946059 0.00421149
0.00808728 0.0080415 0.0118563
0.0184939 0.0149538 0.0193179
0.0296483 0.0216526 0.0265965
0.0415656 0.0281529 0.0336767
0.0543069 0.0344244 0.0405585
0.0678721 0.0404669 0.0472114
0.0823072 0.0462806 0.0536507
0.0976577 0.0518502 0.0598459
0.113939 0.0571603 0.0658122
0.131197 0.062211 0.071519
0.149432 0.0669871 0.0769818
0.168704 0.0714885 0.0821698
0.189014 0.0757153 0.087068
0.210407 0.0796368 0.0917067
0.232898 0.0832685 0.0960403
0.256504 0.0865949 0.100099
0.281239 0.0896162 0.103838
0.307118 0.0923323 0.107286
0.334142 0.0947433 0.11043
0.36231 0.0968338 0.113252
0.391623 0.0986191 0.115785
0.42208 0.100084 0.117998
0.453666 0.101259 0.119905
0.486351 0.102144 0.121523
0.520119 0.102724 0.12282
0.55494 0.103014 0.123842
0.590768 0.103044 0.12459
0.627573 0.102815 0.125048
0 0 0
0 0.0061799 0.00715648
0.00122072 0.0136568 0.0147707
0.0103761 0.0209354 0.0222019
0.0202335 0.0280308 0.0294347
0.0308232 0.0349126 0.0364691
0.0422065 0.0415961 0.0433051
0.0543832 0.0480659 0.0499275
0.0673991 0.0543069 0.0563058
0.0813001 0.0603037 0.0624552
0.0960861 0.0660716 0.0683757
0.111803 0.0715801 0.0740368
0.128496 0.0768292 0.0794232
0.146166 0.0818036 0.0845502
0.164874 0.0865034 0.0894026
0.184619 0.0909285 0.0939803
0.205432 0.0950637 0.0982528
0.227329 0.098909 0.102235
0.250324 0.102449 0.105928
0.274434 0.105699 0.1093
0.299687 0.108644 0.112383
0.326055 0.111269 0.115145
0.353552 0.113603 0.117601
0.382162 0.115633 0.119753
0.411887 0.117372 0.121599
0.44271 0.118807 0.12314
0.474601 0.119951 0.124392
0.507546 0.120821 0.125353
0.541497 0.121401 0.12604
0.576425 0.121736 0.126452
0.612268 0.121813 0.126619
0.649012 0.12166 0.126528
0.68658 0.121279 0.126207
0.00123598 0.0272221 0.0250706
0.00976577 0.034699 0.0322728
0.019028 0.0420081 0.0392615
0.0290074 0.0491035 0.0460517
0.039765 0.0560006 0.0526284
0.0513313 0.0626688 0.0589609
0.0637369 0.0691234 0.0650645
0.0770123 0.0753338 0.0709239
0.0911879 0.0813153 0.076524
0.106294 0.0870375 0.0818647
0.122362 0.0925002 0.0869459
0.139406 0.0977035 0.0917372
0.157488 0.102632 0.0962387
0.176593 0.107271 0.10045
0.196765 0.111635 0.104372
0.218006 0.115709 0.107988
0.240345 0.119493 0.111315
0.263783 0.122972 0.114321
0.288334 0.126146 0.117021
0.314 0.12903 0.119402
0.34078 0.131624 0.121492
0.368643 0.133913 0.123278
0.397589 0.135912 0.124758
0.427619 0.137621 0.125948
0.458671 0.13904 0.126864
0.490761 0.1402 0.127489
0.523812 0.141085 0.127855
0.557809 0.141726 0.127977
0.592706 0.142123 0.12784
0.628443 0.14229 0.127489
0.66482 0.142275 0.12697
0.702022 0.142046 0.126223
0.739895 0.141634 0.125307
0.0147097 0.0569467 0.0488136
0.0240177 0.0642557 0.0553292
0.0341039 0.0713817 0.0616159
0.0449989 0.078294 0.0676738
0.0567178 0.0849622 0.0734722
0.0693065 0.0914168 0.0790265
0.0828107 0.0976272 0.0843061
0.0972305 0.103593 0.0893263
0.112627 0.109285 0.0940566
0.129 0.114733 0.098497
0.14638 0.11989 0.102647
0.164797 0.124788 0.106508
0.184268 0.129381 0.110063
0.204822 0.1337 0.113313
0.226444 0.137728 0.116243
0.24918 0.141466 0.118883
0.272999 0.1449 0.121202
0.297902 0.148043 0.123232
0.323919 0.150896 0.124956
0.351003 0.15346 0.126375
0.379141 0.155718 0.12752
0.408331 0.157717 0.128374
0.438544 0.159426 0.128954
0.469749 0.160876 0.129259
0.5019 0.162066 0.129335
0.534951 0.163012 0.129168
0.568887 0.163714 0.128771
0.603479 0.164248 0.128222
0.638926 0.164538 0.127459
0.675074 0.164645 0.126513
0.711864 0.164569 0.125429
0.749264 0.164324 0.124193
0.787182 0.163943 0.122835
0.0250248 0.0878157 0.0702678
0.0351873 0.0949721 0.0760204
0.0461738 0.1019 0.0815137
0.0580301 0.108598 0.0867475
0.0708019 0.115068 0.0916915
0.0844892 0.121279 0.0963607
0.0991379 0.12723 0.10074
0.114778 0.132921 0.104829
0.131441 0.138338 0.108629
0.149126 0.143481 0.112108
0.167865 0.148348 0.115297
0.187655 0.152926 0.118166
0.208545 0.157214 0.120745
0.230518 0.161212 0.123003
0.253559 0.164904 0.124956
0.277699 0.168322 0.126619
0.302922 0.171435 0.127993
0.329198 0.174273 0.129061
0.356527 0.176822 0.12987
0.384894 0.179095 0.130388
0.414237 0.181094 0.130663
0.444556 0.182834 0.130694
0.475807 0.184314 0.13048
0.507942 0.185565 0.130053
0.54078 0.186618 0.129488
0.574487 0.187427 0.128695
0.608942 0.188037 0.127733
0.644083 0.188449 0.126635
0.679835 0.188708 0.125383
0.716167 0.1888 0.124025
0.753033 0.188739 0.12256
0.790356 0.188556 0.121019
0.828092 0.188251 0.119402
0.0319524 0.119982 0.0891737
0.0430152 0.12694 0.0940566
0.0549935 0.133669 0.0986648
0.0679179 0.140139 0.102983
0.0817884 0.146365 0.107012
0.0966506 0.152331 0.110735
0.112535 0.158007 0.114168
0.129442 0.163424 0.117281
0.147417 0.168551 0.120089
0.166445 0.173404 0.122591
0.186557 0.177951 0.124788
0.207752 0.182208 0.126696
0.230015 0.186191 0.128283
0.253361 0.189868 0.129595
0.27779 0.193256 0.130617
0.303258 0.196368 0.131365
0.329763 0.199191 0.131838
0.35729 0.20174 0.132067
0.385794 0.204028 0.132052
0.415244 0.206043 0.131807
0.445533 0.207828 0.131395
0.476738 0.209384 0.130755
0.508751 0.210697 0.129946
0.541527 0.21181 0.128969
0.575036 0.212711 0.127855
0.609201 0.213428 0.126604
0.643992 0.213993 0.125231
0.679347 0.214374 0.123781
0.715206 0.214618 0.12224
0.751537 0.21474 0.120623
0.788281 0.21474 0.118975
0.825376 0.214633 0.117281
0.862776 0.21445 0.115572
0.0352941 0.153475 0.105226
0.0473793 0.160235 0.109178
0.060441 0.166735 0.11284
0.0745098 0.172976 0.116197
0.0895857 0.178927 0.119249
0.105699 0.184619 0.121996
0.122881 0.190021 0.124437
0.141131 0.195132 0.126574
0.160449 0.199954 0.128405
0.18085 0.204486 0.129946
0.202335 0.208728 0.131197
0.224903 0.21268 0.132158
0.248524 0.216342 0.13286
0.273213 0.219715 0.133288
0.298909 0.222812 0.133471
0.325628 0.225635 0.13341
0.353307 0.228183 0.133135
0.381872 0.230488 0.132692
0.411368 0.232547 0.132036
0.441703 0.234363 0.131197
0.472847 0.23595 0.130205
0.504753 0.237339 0.129076
0.537377 0.238514 0.127825
0.570657 0.239521 0.126452
0.604547 0.240345 0.125002
0.638987 0.241016 0.123461
0.673945 0.241535 0.121874
0.709361 0.241932 0.120226
0.745174 0.242206 0.118547
0.781353 0.242374 0.116854
0.817838 0.242451 0.11516
0.854597 0.242451 0.113466
0.891569 0.24239 0.111803
0.0350347 0.188357 0.118242
0.0482643 0.194873 0.121218
0.0625315 0.201114 0.123903
0.0778363 0.20708 0.126284
0.0942092 0.212757 0.128344
0.111666 0.218143 0.130129
0.130205 0.223239 0.131609
0.149844 0.228031 0.132799
0.17055 0.232532 0.133715
0.192355 0.236744 0.134356
0.215213 0.240665 0.134737
0.239124 0.244297 0.134874
0.264057 0.247654 0.134783
0.289982 0.250721 0.134478
0.316869 0.253544 0.134005
0.344671 0.256092 0.133318
0.373373 0.258396 0.132464
0.40293 0.260471 0.131456
0.43328 0.262318 0.130312
0.464378 0.263951 0.129061
0.496193 0.265385 0.127687
0.528649 0.266636 0.126238
0.561715 0.26772 0.124712
0.595346 0.268635 0.123125
0.62948 0.269413 0.121492
0.664057 0.270039 0.119844
0.699062 0.270558 0.118181
0.734417 0.27097 0.116503
0.770092 0.27129 0.114839
0.806027 0.271534 0.113207
0.842176 0.271702 0.111589
0.878523 0.271809 0.110033
0.914992 0.27187 0.108522
0.0313268 0.224582 0.128115
0.0458228 0.230823 0.130114
0.0614176 0.236759 0.131838
0.0780957 0.24242 0.133257
0.0958724 0.247776 0.134386
0.114763 0.252827 0.135256
0.134722 0.257588 0.135851
0.155779 0.262043 0.136187
0.17792 0.266209 0.136278
0.201099 0.270085 0.136141
0.22533 0.273671 0.135851
0.250538 0.276982 0.135317
0.276707 0.280018 0.134615
0.303807 0.282811 0.13373
0.331777 0.285344 0.132723
0.360601 0.287648 0.131563
0.390234 0.289723 0.130297
0.4206 0.291585 0.128939
0.451682 0.293248 0.127489
0.483421 0.294728 0.125963
0.515755 0.296025 0.124392
0.548638 0.297169 0.122789
0.58204 0.298146 0.121157
0.6159 0.299001 0.119509
0.650172 0.299733 0.117861
0.68481 0.300359 0.116228
0.719753 0.300893 0.114626
0.754971 0.301335 0.113054
0.790417 0.301701 0.111528
0.826062 0.302007 0.110063
0.86183 0.302266 0.108659
0.897719 0.302495 0.107332
0.933684 0.302678 0.106081
0.0245212 0.262043 0.134905
0.0404517 0.267948 0.135988
0.0575113 0.273548 0.136797
0.0756695 0.278843 0.137331
0.0949416 0.283833 0.137636
0.115328 0.288533 0.137682
0.136782 0.292927 0.137514
0.159335 0.297002 0.137194
0.182895 0.300816 0.136629
0.207462 0.304341 0.135897
0.232975 0.307591 0.135012
0.259434 0.310582 0.133989
0.286778 0.313329 0.13283
0.314961 0.315831 0.131563
0.343938 0.318105 0.13019
0.373678 0.320165 0.128756
0.404105 0.322026 0.127245
0.435203 0.323705 0.125689
0.466896 0.325185 0.124086
0.499153 0.326513 0.122484
0.531914 0.327703 0.120851
0.565133 0.32874 0.119234
0.598764 0.329656 0.117632
0.632761 0.330465 0.11606
0.667094 0.331167 0.114534
0.701686 0.331777 0.113039
0.736522 0.332326 0.11162
0.771557 0.332799 0.110262
0.806745 0.333227 0.108965
0.842039 0.333608 0.107774
0.877409 0.333959 0.106661
0.912825 0.334295 0.105653
0.948241 0.3346 0.104753
0.015198 0.300526 0.138827
0.0327001 0.30605 0.139071
0.0513466 0.311269 0.139086
0.0711528 0.316152 0.138918
0.0920272 0.320729 0.138537
0.11397 0.325017 0.137957
0.13695 0.329015 0.137209
0.160937 0.332738 0.136309
0.185901 0.336172 0.135256
0.211795 0.339345 0.134096
0.238575 0.34226 0.13283
0.266209 0.344945 0.131456
0.294636 0.347387 0.130022
0.323812 0.34963 0.128527
0.353704 0.351644 0.126986
0.384237 0.353475 0.125414
0.415396 0.355138 0.123827
0.447105 0.356634 0.122225
0.479316 0.357961 0.120638
0.512001 0.359167 0.119066
0.545098 0.360235 0.117525
0.578561 0.361181 0.11603
0.61236 0.362036 0.11458
0.646433 0.362814 0.113191
0.680751 0.363485 0.111864
0.715267 0.364111 0.110628
0.749935 0.364675 0.109468
0.784741 0.365194 0.108415
0.819623 0.365667 0.107454
0.854551 0.366125 0.1066
0.889509 0.366567 0.105852
0.924437 0.366995 0.105241
0.959319 0.367437 0.104738
0.00419623 0.339773 0.140307
0.0234226 0.344854 0.139895
0.0437781 0.349615 0.139284
0.0652171 0.35407 0.138521
0.0877089 0.358236 0.137606
0.111208 0.362097 0.136553
0.135698 0.365698 0.135378
0.16112 0.369024 0.134112
0.187442 0.372091 0.132753
0.214603 0.374914 0.131319
0.242573 0.377493 0.129839
0.27129 0.379873 0.128313
0.300725 0.382025 0.126757
0.3308 0.384009 0.125185
0.361501 0.385794 0.123613
0.392752 0.387411 0.122042
0.424521 0.388876 0.120516
0.456764 0.390204 0.119005
0.489403 0.391394 0.11754
0.522438 0.392477 0.116136
0.555795 0.393454 0.114778
0.589441 0.394324 0.113512
0.623316 0.395132 0.112306
0.65742 0.395865 0.111192
0.691676 0.396536 0.110185
0.726055 0.397162 0.10927
0.76054 0.397742 0.108476
0.795071 0.398306 0.107774
0.829633 0.39884 0.10721
0.864195 0.399359 0.106752
0.898711 0.399893 0.106447
0.93315 0.400427 0.106264
0.967514 0.400961 0.106203
0 0.379477 0.139834
0.0132906 0.384085 0.138903
0.0353704 0.388373 0.13785
0.0584878 0.39237 0.136675
0.0825971 0.396094 0.135393
0.107652 0.399527 0.134051
0.133593 0.402716 0.132631
0.160388 0.405661 0.131151
0.187991 0.408362 0.129641
0.216342 0.410834 0.128115
0.245411 0.413108 0.126558
0.275135 0.415183 0.125017
0.30547 0.417075 0.123476
0.33637 0.418784 0.121981
0.367773 0.420356 0.1205
0.399649 0.421775 0.119081
0.431952 0.423072 0.117708
0.464622 0.424247 0.116396
0.497627 0.425315 0.11516
0.530922 0.426276 0.114015
0.564477 0.427176 0.112947
0.59823 0.427985 0.111986
0.632151 0.428748 0.111116
0.666209 0.42945 0.110353
0.700359 0.430121 0.109712
0.734585 0.430747 0.109194
0.768841 0.431357 0.108797
0.803098 0.431952 0.108537
0.837308 0.432547 0.1084
0.871473 0.433143 0.108415
0.905562 0.433753 0.108553
0.939529 0.434379 0.108843
0.973358 0.435035 0.109285
0 0.419364 0.137972
0.00303655 0.423468 0.136706
0.0268559 0.427268 0.135363
0.0516213 0.430808 0.133944
0.0773022 0.434073 0.132494
0.103822 0.437095 0.130999
0.131151 0.439872 0.129488
0.159243 0.442435 0.127962
0.188037 0.444785 0.126436
0.217487 0.446937 0.124941
0.247562 0.448905 0.123461
0.278187 0.45069 0.122026
0.309316 0.452323 0.120623
0.340932 0.453819 0.119295
0.372961 0.455177 0.118029
0.405371 0.456428 0.116838
0.438117 0.457557 0.115724
0.471138 0.458595 0.114717
0.504433 0.459541 0.113787
0.537926 0.460426 0.112978
0.571603 0.461234 0.112276
0.605402 0.461997 0.111681
0.639323 0.462715 0.111208
0.673304 0.463416 0.110872
0.707317 0.464073 0.110658
0.741344 0.464714 0.110567
0.775341 0.465354 0.110628
0.809293 0.465995 0.110826
0.843153 0.466651 0.111177
0.876921 0.467323 0.111681
0.910567 0.468009 0.112322
0.944045 0.468727 0.113115
0.977356 0.46949 0.114076
0 0.459174 0.135286
0 0.46276 0.133837
0.0188144 0.466087 0.132372
0.0451514 0.469154 0.130877
0.0722972 0.471992 0.129366
0.100206 0.474601 0.127886
0.128832 0.476997 0.126406
0.158099 0.479194 0.124956
0.187991 0.481209 0.123552
0.218433 0.48304 0.12221
0.249393 0.484733 0.120912
0.280812 0.486259 0.119692
0.312657 0.487663 0.118532
0.344884 0.488945 0.117479
0.377447 0.49012 0.116503
0.4103 0.491203 0.115633
0.443397 0.492195 0.114855
0.476722 0.493111 0.114199
0.510216 0.493965 0.113664
0.543847 0.494759 0.113237
0.577585 0.495506 0.112947
0.611399 0.496223 0.112795
0.645243 0.496925 0.112764
0.679103 0.497597 0.112871
0.712947 0.498268 0.11313
0.746746 0.498924 0.113527
0.780468 0.499611 0.114076
0.814099 0.500298 0.114778
0.847608 0.500999 0.115633
0.880964 0.501732 0.11664
0.914153 0.50251 0.117784
0.947234 0.503258 0.118959
0.979934 0.503731 0.119829
0 0.49868 0.13228
0 0.501762 0.1308
0.0116884 0.504631 0.129335
0.0395209 0.507256 0.127901
0.06804 0.509667 0.126482
0.0972152 0.511894 0.125124
0.127001 0.513924 0.123796
0.157351 0.515785 0.122545
0.188205 0.517479 0.121355
0.219532 0.519036 0.120256
0.25127 0.520455 0.119234
0.283391 0.521752 0.118303
0.315847 0.522942 0.117479
0.348592 0.524041 0.116762
0.381582 0.525048 0.116152
0.414786 0.525979 0.115663
0.448173 0.526848 0.115297
0.481712 0.527657 0.115053
0.515343 0.52842 0.114946
0.54905 0.529152 0.114977
0.582803 0.529854 0.115129
0.616571 0.530541 0.11545
0.650324 0.531212 0.115892
0.684031 0.531884 0.116503
0.717662 0.53257 0.11725
0.751217 0.533257 0.118151
0.784634 0.533959 0.119219
0.817945 0.534707 0.120394
0.851057 0.535332 0.121492
0.883711 0.535592 0.122164
0.915908 0.535454 0.122438
0.947677 0.534936 0.122316
0.979294 0.534371 0.122133
0 0.537697 0.129396
0 0.540322 0.128023
0.00590524 0.542733 0.126696
0.0350652 0.544945 0.125414
0.0648356 0.546975 0.124208
0.0951705 0.548821 0.123064
0.125994 0.550515 0.121996
0.15729 0.552071 0.121019
0.189014 0.553491 0.120134
0.221088 0.554772 0.119356
0.253513 0.555962 0.118685
0.286213 0.557046 0.118135
0.319173 0.558053 0.117693
0.352346 0.558984 0.117372
0.385687 0.559838 0.117174
0.419181 0.560647 0.117128
0.452766 0.56141 0.117205
0.486442 0.562127 0.117418
0.52015 0.562829 0.117784
0.553887 0.5635 0.118288
0.587594 0.564157 0.118929
0.621271 0.564828 0.119738
0.654887 0.565484 0.120699
0.688396 0.566171 0.121813
0.721828 0.566857 0.123003
0.75494 0.56733 0.123949
0.787564 0.567391 0.124483
0.819745 0.567071 0.124605
0.851484 0.5664 0.124346
0.882811 0.565362 0.123705
0.913756 0.564004 0.122698
0.944305 0.56231 0.121355
0.975235 0.56109 0.120516
0 0.57612 0.127047
0 0.578302 0.125872
0.00170901 0.580285 0.124773
0.0320897 0.582116 0.123751
0.062974 0.58378 0.12282
0.094316 0.585306 0.121996
0.12607 0.586694 0.121263
0.15819 0.587961 0.120638
0.190631 0.58912 0.120119
0.223362 0.590188 0.119738
0.256352 0.591165 0.119463
0.28954 0.592065 0.119326
0.322911 0.592889 0.119326
0.35642 0.593683 0.119448
0.390036 0.594415 0.119722
0.423728 0.595102 0.120134
0.45745 0.595773 0.120684
0.491203 0.596429 0.121401
0.524941 0.59707 0.122255
0.558633 0.597696 0.123278
0.592264 0.598337 0.124422
0.625772 0.598962 0.125582
0.658854 0.599237 0.12636
0.691463 0.599115 0.126741
0.723613 0.598627 0.126726
0.755337 0.597787 0.126329
0.786648 0.596597 0.125551
0.817563 0.595071 0.124422
0.848112 0.59324 0.122942
0.878294 0.591089 0.121141
0.908141 0.588663 0.11902
0.937667 0.585962 0.116609
0.968215 0.584436 0.115496
0 0.613825 0.125536
0 0.615595 0.124651
0 0.617212 0.123857
0.0307774 0.618677 0.123171
0.0626383 0.62002 0.122591
0.0948501 0.621241 0.122133
0.127398 0.622354 0.121798
0.16022 0.623377 0.121584
0.193286 0.624308 0.121492
0.226566 0.625162 0.121538
0.260014 0.625956 0.121721
0.293599 0.626703 0.122042
0.327276 0.62739 0.122499
0.361044 0.628046 0.12311
0.394842 0.628672 0.123873
0.428656 0.629282 0.124788
0.46247 0.629892 0.125856
0.496223 0.630488 0.127031
0.529763 0.630961 0.128084
0.562814 0.631052 0.128725
0.595407 0.630762 0.128954
0.627527 0.630106 0.128801
0.659236 0.629099 0.128252
0.690517 0.627756 0.127352
0.721416 0.626078 0.126085
0.751934 0.624094 0.124483
0.782101 0.62182 0.122576
0.811933 0.619257 0.120348
0.841443 0.616434 0.11783
0.870665 0.613352 0.115038
0.899596 0.61004 0.111971
0.928267 0.6065 0.108675
0.958724 0.604944 0.107576
0 0.650752 0.125109
0 0.652155 0.12459
0 0.653422 0.124178
0.031281 0.654582 0.123873
0.0639658 0.655634 0.123705
0.0969406 0.656596 0.123674
0.130159 0.657465 0.123766
0.163561 0.658259 0.12401
0.197147 0.658991 0.124376
0.230854 0.659678 0.124895
0.264652 0.660319 0.125551
0.298543 0.660914 0.126375
0.332464 0.661479 0.127337
0.3664 0.662043 0.12845
0.400275 0.662593 0.129625
0.433783 0.662898 0.130541
0.466819 0.662806 0.131029
0.499382 0.662333 0.131106
0.531487 0.661509 0.130816
0.563165 0.660349 0.130129
0.59443 0.658839 0.129091
0.625299 0.657023 0.127718
0.655802 0.654902 0.125994
0.685939 0.652491 0.123964
0.715755 0.649805 0.12163
0.745251 0.64686 0.119005
0.774456 0.643671 0.116121
0.803372 0.640238 0.112963
0.832029 0.636591 0.109575
0.860456 0.632746 0.105974
0.88864 0.628717 0.102144
0.916625 0.624506 0.0981308
0.947234 0.623148 0.097322
0 0.686839 0.125978
0 0.687922 0.125872
0.000518807 0.688884 0.125872
0.0336919 0.689769 0.126024
0.0670939 0.690562 0.126314
0.100679 0.691279 0.126741
0.134447 0.691951 0.127306
0.168322 0.692561 0.128023
0.202304 0.693126 0.128893
0.236362 0.693645 0.1299
0.270436 0.694163 0.13106
0.304372 0.694621 0.132189
0.337865 0.694743 0.132937
0.370871 0.694469 0.133272
0.403403 0.693828 0.133211
0.435477 0.692851 0.132784
0.467124 0.691524 0.13196
0.49836 0.689876 0.1308
0.529213 0.687907 0.12929
0.559686 0.685649 0.127459
0.589822 0.683116 0.125307
0.619608 0.680293 0.122881
0.649088 0.677241 0.12015
0.678264 0.67393 0.117159
0.707179 0.670405 0.113924
0.735821 0.666667 0.11046
0.764233 0.66273 0.106767
0.792416 0.65861 0.102876
0.820401 0.654307 0.0988022
0.848188 0.649866 0.0945449
0.875822 0.645289 0.0901503
0.903288 0.640589 0.0856184
0.934218 0.639612 0.0852827
0 0.722087 0.128298
0 0.722866 0.128634
0.00424201 0.723568 0.129107
0.0380713 0.724208 0.129732
0.0720531 0.724788 0.130495
0.106157 0.725307 0.131426
0.140352 0.72578 0.132494
0.174563 0.726253 0.133654
0.20853 0.726574 0.134676
0.241978 0.726497 0.135271
0.274952 0.726055 0.13547
0.307454 0.725261 0.135271
0.339498 0.724102 0.134691
0.37113 0.722622 0.133745
0.402335 0.720836 0.132464
0.433158 0.71873 0.130831
0.463615 0.716335 0.128878
0.493721 0.713664 0.126619
0.523491 0.710735 0.124086
0.552941 0.707561 0.121263
0.582116 0.704158 0.118181
0.611002 0.700526 0.114855
0.639643 0.696681 0.111299
0.66804 0.692653 0.10753
0.696208 0.688457 0.103578
0.724193 0.684092 0.0994278
0.75198 0.679576 0.0951247
0.779599 0.674937 0.0906691
0.80708 0.670161 0.0860914
0.834409 0.665293 0.0813916
0.861631 0.660349 0.0766003
0.888747 0.655314 0.0717327
0.920134 0.654856 0.0720226
0 0.756451 0.132174
0 0.756985 0.132998
0.0101015 0.757458 0.133974
0.0444648 0.757885 0.135088
0.0787823 0.758297 0.136248
0.112718 0.758434 0.137118
0.146136 0.75819 0.13756
0.17908 0.75758 0.137606
0.211536 0.756603 0.13727
