assets/cube/cross_process_cp6.cube
TITLE "Generated by Resolve"
LUT_3D_SIZE 5
0 0 0.00163272
0.0476692 0.0321355 0.0601816
0.127947 0.0592966 0.11371
0.264179 0.0828107 0.163912
0.44979 0.10721 0.214588
0.118547 0.152773 0.192615
0.198734 0.209827 0.245563
0.358251 0.240742 0.250858
0.5187 0.23917 0.217578
0.640513 0.239536 0.197421
0.119631 0.368429 0.206592
0.189075 0.384665 0.20148
0.37229 0.396918 0.199222
0.615579 0.437049 0.225498
0.815534 0.500862 0.286717
0.149187 0.621485 0.248615
0.31696 0.704143 0.331441
0.567758 0.750835 0.383261
0.794919 0.774334 0.414878
0.940932 0.794568 0.442588
0.331655 0.930282 0.426917
0.453346 0.959136 0.466911
0.64921 0.959991 0.477226
0.841764 0.960204 0.48574
0.977508 0.97525 0.508003
0.0129397 0.00981155 0.0242008
0.0637064 0.0429694 0.0923934
0.152178 0.0693675 0.156985
0.305974 0.0931258 0.224109
0.497887 0.11632 0.288121
0.130282 0.172534 0.258427
0.212924 0.229557 0.322759
0.367361 0.24979 0.325093
0.523781 0.242329 0.293614
0.652949 0.243931 0.285863
0.1178 0.373922 0.286259
0.193378 0.393652 0.294774
0.391226 0.416541 0.309422
0.644572 0.46421 0.351568
0.842222 0.528008 0.415274
0.176944 0.650248 0.37789
0.345006 0.730907 0.460136
0.588968 0.770733 0.504738
0.805982 0.78555 0.525414
0.949874 0.804547 0.549783
0.348196 0.941939 0.53875
0.465278 0.967651 0.572824
0.659632 0.968521 0.581033
0.850843 0.968658 0.587549
0.986435 0.984192 0.608698
0.0274357 0.0218357 0.0541085
0.0797436 0.0536049 0.131411
0.179202 0.0801556 0.211643
0.348486 0.103243 0.29604
0.543572 0.125322 0.371771
0.140932 0.19205 0.334783
0.224353 0.247074 0.406195
0.372946 0.256397 0.401648
0.528847 0.245045 0.374105
0.668208 0.249607 0.381582
0.116686 0.379339 0.371054
0.200366 0.405982 0.395727
0.41384 0.43975 0.428672
0.673075 0.492271 0.480858
0.867887 0.554528 0.54316
0.205951 0.678889 0.508186
0.371191 0.755291 0.586252
0.607431 0.787762 0.622232
0.816205 0.795911 0.63389
0.958602 0.814267 0.655558
0.362585 0.951858 0.647242
0.477089 0.97615 0.677577
0.669886 0.976974 0.683726
0.860136 0.97734 0.688716
0.99527 0.993042 0.708522
0.04094 0.0328832 0.0888991
0.0964065 0.0644694 0.179034
0.208515 0.0914168 0.278904
0.390646 0.113146 0.3794
0.583047 0.133532 0.461784
0.150942 0.211749 0.421775
0.231434 0.260273 0.490333
0.376226 0.261112 0.480293
0.535195 0.247883 0.460121
0.68632 0.257313 0.483986
0.117357 0.386084 0.463233
0.210651 0.422049 0.505302
0.439277 0.465644 0.554696
0.701671 0.520989 0.611032
0.892027 0.57995 0.669276
0.234821 0.706828 0.637705
0.39617 0.77789 0.709712
0.622446 0.801404 0.734752
0.82623 0.806088 0.740826
0.96701 0.823621 0.759655
0.375479 0.960647 0.753033
0.488655 0.984543 0.780926
0.679866 0.985245 0.785107
0.869459 0.986084 0.788983
1 1 0.807935
0.0543832 0.0437781 0.130709
0.113436 0.0754101 0.23592
0.24004 0.103197 0.360388
0.431205 0.122911 0.472877
0.616312 0.140978 0.555825
0.16022 0.231418 0.518349
0.235248 0.270008 0.574212
0.3785 0.264652 0.561547
0.544457 0.251774 0.553536
0.707469 0.267582 0.593545
0.120073 0.395254 0.563088
0.225437 0.442725 0.624537
0.466346 0.492973 0.68397
0.729686 0.549325 0.740261
0.914 0.603647 0.79237
0.26276 0.733211 0.765026
0.418479 0.797406 0.828641
0.634531 0.812238 0.842786
0.835996 0.815991 0.845914
0.975494 0.833005 0.862348
0.387945 0.969162 0.856992
0.500069 0.992935 0.882841
0.690013 0.993729 0.885451
0.878904 0.994949 0.888273
1 1 0.905852
