assets/cube/cross_process_cp6.cube
TITLE "Generated by Resolve"
LUT_3D_SIZE 33
0 0 0.00163272
0.00361639 0.00187686 0.00735485
0.00939956 0.00643931 0.0150301
0.0155642 0.0111543 0.0230259
0.0216068 0.01561 0.0306706
0.0277562 0.0199588 0.0382086
0.0340734 0.024155 0.0456855
0.0406348 0.0282139 0.0529946
0.0476692 0.0321355 0.0601816
0.0555276 0.0360418 0.0674907
0.0637675 0.0396887 0.0744335
0.0726024 0.0432288 0.0812543
0.082063 0.0466163 0.0879377
0.092195 0.0498665 0.0944076
0.103136 0.0530404 0.100832
0.115175 0.0562448 0.107393
0.127947 0.0592966 0.11371
0.141558 0.0622416 0.119875
0.155886 0.0650645 0.125841
0.171176 0.0678569 0.131807
0.18822 0.0709239 0.138338
0.206104 0.07393 0.144793
0.224857 0.076936 0.151247
0.244175 0.0798505 0.157549
0.264179 0.0828107 0.163912
0.285252 0.0859388 0.170642
0.307317 0.0892042 0.177615
0.32958 0.0923476 0.184298
0.352285 0.0954299 0.190768
0.37554 0.098436 0.197024
0.39942 0.101381 0.203067
0.424399 0.104356 0.209033
0.44979 0.10721 0.214588
0.016083 0.013138 0.02533
0.0218357 0.0176699 0.0328832
0.0278325 0.0222629 0.0406195
0.0336767 0.026566 0.0479896
0.0396124 0.0307927 0.0552682
0.0457618 0.0349584 0.0625315
0.0521859 0.0390784 0.0697642
0.0592813 0.0432746 0.0772717
0.0668193 0.0471656 0.0843977
0.0751049 0.0508888 0.0913558
0.0840772 0.0544442 0.0981918
0.0938125 0.0579232 0.105013
0.104509 0.0613718 0.111894
0.116472 0.0648966 0.119112
0.128985 0.0681163 0.125856
0.142428 0.0711833 0.132494
0.157046 0.0742962 0.139025
0.173053 0.0775158 0.145708
0.190478 0.0808118 0.152544
0.209171 0.0841077 0.159411
0.22829 0.0871443 0.165743
0.248432 0.0901961 0.172076
0.269657 0.0933242 0.1785
0.291752 0.0964675 0.184939
0.314473 0.0996719 0.191363
0.337545 0.102907 0.197803
0.36051 0.106065 0.203952
0.383871 0.109209 0.209964
0.40763 0.112337 0.215793
0.431754 0.115404 0.221347
0.456626 0.118517 0.22678
0.481834 0.12163 0.231861
0.507362 0.12459 0.236545
0.03299 0.0290379 0.0500801
0.0387121 0.0333715 0.0573587
0.0444953 0.0376593 0.0645609
0.0504311 0.0419318 0.0717784
0.0565652 0.0462043 0.0790265
0.0629435 0.0504463 0.0862898
0.0698558 0.0547646 0.0937362
0.0771344 0.0588693 0.100893
0.0853132 0.0628672 0.108034
0.0945907 0.0667887 0.11519
0.104799 0.0706188 0.122286
0.115801 0.0742809 0.129229
0.128115 0.0780346 0.1364
0.141482 0.081651 0.143465
0.156298 0.085359 0.150744
0.172442 0.0890059 0.157992
0.189639 0.0924544 0.164965
0.20798 0.0957809 0.171756
0.228016 0.0992752 0.178759
0.24892 0.102602 0.185412
0.270817 0.105852 0.191836
0.29337 0.10901 0.19791
0.316411 0.112093 0.203677
0.340505 0.115389 0.209461
0.364279 0.118532 0.21471
0.387991 0.121752 0.219745
0.411673 0.125048 0.224491
0.43534 0.12842 0.228946
0.45951 0.131868 0.233188
0.484321 0.135439 0.237217
0.508888 0.138872 0.240726
0.533776 0.142245 0.24387
0.558251 0.145403 0.246326
0.0484321 0.0449073 0.0735637
0.0543221 0.0492561 0.0807965
0.0603342 0.0536049 0.0880293
0.066453 0.057969 0.0951858
0.0728161 0.0623636 0.102419
0.0798352 0.0670329 0.110109
0.0871901 0.0715648 0.117632
0.0952316 0.0760357 0.125109
0.10425 0.080293 0.132372
0.114611 0.0844739 0.13959
0.126558 0.0889143 0.147311
0.139681 0.0932937 0.154971
0.153964 0.0975204 0.162432
0.16936 0.101534 0.169574
0.186038 0.10544 0.176516
0.204211 0.1093 0.183368
0.224262 0.113344 0.190372
0.245045 0.116976 0.196658
0.266743 0.120394 0.202502
0.289311 0.123705 0.207935
0.312657 0.126909 0.213001
0.336629 0.130053 0.217731
0.361486 0.133394 0.22237
0.385977 0.136507 0.226398
0.410346 0.139773 0.230182
0.434607 0.143175 0.233814
0.458732 0.146715 0.237247
0.482856 0.150362 0.240452
0.507332 0.154162 0.243442
0.530373 0.157504 0.245502
0.552346 0.160479 0.246723
0.573434 0.163043 0.24715
0.593591 0.165225 0.246876
0.0629435 0.0615091 0.0964675
0.0691386 0.0659953 0.103792
0.0755932 0.0706493 0.111345
0.0823682 0.0755474 0.119051
0.0893568 0.0804608 0.126711
0.0966506 0.0852827 0.134264
0.104677 0.0902724 0.142046
0.113802 0.0954604 0.150118
0.124407 0.100603 0.158175
0.136675 0.105669 0.166155
0.150011 0.11043 0.173648
0.164569 0.115068 0.180926
0.180636 0.119677 0.188083
0.198154 0.124163 0.194949
0.216876 0.128405 0.201328
0.237217 0.132601 0.207477
0.258412 0.136385 0.212863
0.280674 0.139956 0.217777
0.303868 0.143389 0.222202
0.327794 0.146654 0.226169
0.3523 0.149828 0.229694
0.377707 0.153262 0.233112
0.402914 0.156481 0.236011
0.428168 0.159762 0.238636
0.453162 0.163149 0.241047
0.477317 0.166629 0.243183
0.500511 0.170062 0.244739
0.521828 0.172992 0.245441
0.541985 0.175586 0.245487
0.56112 0.177844 0.244907
0.5794 0.179767 0.243793
0.597086 0.181353 0.242161
0.614435 0.182742 0.240101
0.0771344 0.0797436 0.119707
0.0838178 0.0846113 0.127321
0.090837 0.0897231 0.135286
0.0982071 0.0952316 0.143404
0.10605 0.100954 0.151705
0.114458 0.106813 0.160098
0.12343 0.112596 0.168307
0.133394 0.118303 0.176318
0.145296 0.124178 0.184497
0.158785 0.129641 0.192035
0.173693 0.13492 0.199191
0.189822 0.139925 0.205798
0.207263 0.144656 0.211887
0.226307 0.14931 0.217639
0.246571 0.153643 0.222751
0.267933 0.15761 0.227176
0.290425 0.161334 0.231022
0.313848 0.164874 0.234333
0.338216 0.168276 0.237201
0.363653 0.171817 0.239841
0.389288 0.175113 0.241932
0.415045 0.178332 0.243656
0.440162 0.181353 0.244755
0.464088 0.184024 0.245121
0.486534 0.186435 0.244877
0.507637 0.188876 0.244251
0.526879 0.19089 0.243107
0.544945 0.192691 0.241566
0.562081 0.194247 0.239643
0.578485 0.195544 0.2374
0.594263 0.196567 0.234882
0.609903 0.197421 0.232059
0.62501 0.19791 0.229068
0.0910964 0.100359 0.143465
0.0989548 0.106416 0.152316
0.106844 0.112413 0.161044
0.114763 0.118547 0.169253
0.123095 0.124865 0.177447
0.132067 0.131365 0.185718
0.141955 0.138064 0.194049
0.153002 0.144686 0.202045
0.16553 0.150729 0.209186
0.17995 0.156359 0.215625
0.195865 0.161715 0.2215
0.213092 0.166796 0.22681
0.231907 0.17174 0.231647
0.252033 0.176318 0.235798
0.273274 0.180529 0.239216
0.295842 0.184512 0.2421
0.319539 0.188266 0.24445
0.344152 0.191806 0.246265
0.369711 0.195346 0.2477
0.394781 0.198245 0.248142
0.419135 0.20058 0.247684
0.442603 0.202502 0.246525
0.464942 0.204089 0.2448
0.486091 0.205402 0.242649
0.506127 0.206744 0.240253
0.5243 0.207858 0.237675
0.541192 0.208865 0.234943
0.557076 0.20972 0.232074
0.572274 0.210391 0.229099
0.587121 0.211017 0.226001
0.60148 0.211353 0.222858
0.615747 0.211505 0.219669
0.630564 0.211704 0.216876
0.105425 0.124941 0.168643
0.113619 0.131365 0.177264
0.122103 0.138079 0.18613
0.130632 0.145113 0.194293
0.139467 0.152163 0.202167
0.148821 0.159243 0.209812
0.159045 0.166354 0.217197
0.170306 0.173068 0.223865
0.183474 0.179324 0.229801
0.198718 0.185077 0.234867
0.215518 0.190463 0.239261
0.234012 0.19588 0.24332
0.253727 0.200717 0.246494
0.27483 0.205234 0.249058
0.297185 0.20943 0.251011
0.3205 0.213184 0.252171
0.344228 0.216312 0.252323
0.367956 0.218769 0.251484
0.391272 0.220508 0.24976
0.414084 0.221759 0.247364
0.436286 0.222599 0.24445
0.457664 0.223163 0.241154
0.478172 0.223636 0.237613
0.497505 0.22388 0.233921
0.51548 0.224033 0.230213
0.532036 0.224231 0.226627
0.547524 0.22443 0.223133
0.562234 0.224598 0.219745
0.576593 0.224781 0.216434
0.5906 0.224826 0.21326
0.604486 0.224765 0.210224
0.618585 0.224628 0.20734
0.635111 0.22533 0.205966
0.118547 0.152773 0.192615
0.127214 0.159792 0.200992
0.135943 0.166903 0.20914
0.144564 0.174289 0.216236
0.153719 0.18201 0.223346
0.16318 0.189349 0.22977
0.173419 0.196506 0.235691
0.184985 0.203403 0.241016
0.198734 0.209827 0.245563
0.214832 0.215763 0.249302
0.232792 0.221515 0.252476
0.251911 0.226627 0.25481
0.272084 0.231022 0.256092
0.292943 0.234546 0.256214
0.314321 0.237263 0.255283
0.336172 0.239307 0.253468
0.358251 0.240742 0.250858
0.380209 0.241474 0.247547
0.401953 0.241764 0.243763
0.423285 0.241703 0.239597
0.444068 0.241352 0.235203
0.464179 0.240909 0.230671
0.483391 0.24036 0.226169
0.501595 0.239719 0.221759
0.5187 0.23917 0.217578
0.534539 0.238758 0.213748
0.549508 0.238483 0.210239
0.56408 0.238376 0.207004
0.578302 0.238209 0.204074
0.592508 0.238102 0.201465
0.606897 0.23801 0.199176
0.621744 0.237964 0.197192
0.640513 0.239536 0.197421
0.129366 0.183078 0.213184
0.138293 0.190402 0.220752
0.147158 0.197848 0.227771
0.156024 0.205829 0.23389
0.165057 0.213489 0.239414
0.17467 0.221118 0.244587
0.185183 0.228565 0.249302
0.197116 0.235691 0.253376
0.211353 0.242145 0.256519
0.227756 0.247669 0.25832
0.245106 0.251926 0.258732
0.263249 0.255314 0.258091
0.282185 0.257816 0.256458
0.301823 0.259571 0.253971
0.322148 0.260822 0.250782
0.342748 0.261265 0.246937
0.363607 0.261189 0.242573
0.384512 0.26067 0.237858
0.40528 0.259815 0.232898
0.425772 0.258793 0.227848
0.445914 0.257664 0.222766
0.465354 0.256397 0.217823
0.484062 0.255177 0.213123
0.502022 0.254047 0.208743
0.519051 0.253132 0.204791
0.535103 0.252552 0.201373
0.55053 0.252201 0.198489
0.56556 0.252003 0.196078
0.580621 0.251972 0.194125
0.595911 0.252079 0.19266
0.611627 0.252369 0.191699
0.628214 0.252857 0.191302
0.64892 0.255329 0.192966
0.13756 0.215351 0.229206
0.146899 0.223163 0.235996
0.155932 0.231006 0.241718
0.164767 0.238956 0.246372
0.173953 0.246876 0.250721
0.183536 0.254414 0.254429
0.193622 0.261112 0.257069
0.204913 0.267155 0.258701
0.218036 0.271687 0.258839
0.233219 0.275013 0.257725
0.249577 0.27747 0.25568
0.266789 0.279164 0.252872
0.284855 0.280156 0.249363
0.303792 0.280659 0.245274
0.323186 0.28043 0.240711
0.343099 0.279698 0.235767
0.363378 0.278599 0.230579
0.383825 0.277195 0.225269
0.404288 0.275639 0.219959
0.424628 0.274037 0.21474
0.444648 0.272343 0.209751
0.46424 0.27071 0.205097
0.483284 0.269276 0.200855
0.501778 0.268055 0.197131
0.5196 0.267201 0.194034
0.53666 0.266804 0.191684
0.55317 0.266697 0.18999
0.569604 0.266896 0.188968
0.586297 0.267384 0.188586
0.603403 0.268177 0.188739
0.621317 0.269474 0.189319
0.63978 0.270924 0.190051
0.661738 0.274311 0.192432
0.143496 0.24979 0.240787
0.153017 0.257465 0.246357
0.161852 0.264973 0.250172
0.170138 0.271946 0.252659
0.178332 0.278279 0.254353
0.186725 0.283909 0.255283
0.195758 0.288991 0.255467
0.205875 0.292988 0.254704
0.218143 0.295872 0.252872
0.232624 0.297688 0.250019
0.248356 0.298711 0.246479
0.264988 0.299123 0.242435
0.282658 0.299092 0.237934
0.301091 0.298405 0.233082
0.320226 0.297292 0.228
0.339986 0.295827 0.222782
0.36025 0.294118 0.217517
0.380926 0.292363 0.212329
0.401679 0.29044 0.207355
0.422431 0.288563 0.202686
0.443122 0.286793 0.198398
0.4636 0.285237 0.194629
0.483726 0.284001 0.19147
0.50367 0.283207 0.189059
0.522972 0.282765 0.187396
0.541634 0.282887 0.186633
0.559976 0.283513 0.186465
0.578317 0.284657 0.186755
0.59704 0.28632 0.187518
0.616464 0.288563 0.1888
0.636362 0.291157 0.190402
0.657298 0.29427 0.192477
0.679789 0.298283 0.195361
0.145342 0.281941 0.244678
0.15462 0.288731 0.248569
0.162417 0.294438 0.2495
0.169711 0.299565 0.249638
0.177005 0.304311 0.249287
0.184543 0.308415 0.248402
0.192691 0.311788 0.246967
0.202136 0.314412 0.244892
0.213886 0.31603 0.241962
0.228 0.316701 0.238239
0.243534 0.316869 0.234043
0.260029 0.316442 0.229572
0.277592 0.315541 0.224872
0.296132 0.314275 0.220035
0.315511 0.312734 0.215167
0.335698 0.310979 0.210346
0.356634 0.309239 0.205676
0.377997 0.307332 0.201282
0.39971 0.305531 0.197238
0.421622 0.303883 0.193698
0.443702 0.30248 0.190707
0.465751 0.301411 0.188403
0.487846 0.300938 0.186954
0.509529 0.300862 0.185901
0.530755 0.301442 0.185458
0.551385 0.302754 0.185687
0.571832 0.304753 0.186557
0.592462 0.307454 0.188067
0.613764 0.310903 0.19028
0.63537 0.314778 0.192889
0.657725 0.319249 0.196094
0.680781 0.324102 0.199725
0.703487 0.328695 0.203204
0.142473 0.308721 0.24033
0.1514 0.314626 0.242695
0.158358 0.318654 0.241642
0.164996 0.322423 0.240345
0.171664 0.325765 0.238788
0.178637 0.328573 0.236973
0.186389 0.330907 0.234821
0.195544 0.332601 0.232227
0.207187 0.333425 0.228992
0.221363 0.333532 0.225147
0.237034 0.333074 0.221073
0.253819 0.332235 0.216892
0.271855 0.331106 0.212665
0.29102 0.329732 0.208484
0.311208 0.328222 0.204456
0.332494 0.326772 0.200687
0.354543 0.3252 0.197223
0.37731 0.323735 0.194171
0.400641 0.322469 0.191669
0.424353 0.321538 0.189654
0.448493 0.321187 0.188128
0.472526 0.321233 0.186954
0.496468 0.321889 0.186343
0.520317 0.323217 0.186358
0.543847 0.325338 0.187106
0.566857 0.328328 0.188678
0.590097 0.332433 0.191272
0.613169 0.337026 0.194415
0.636622 0.342321 0.198245
0.660487 0.34818 0.202716
0.684764 0.354543 0.207752
0.708644 0.360586 0.212619
0.731609 0.365911 0.216999
0.1364 0.331212 0.230884
0.144732 0.335912 0.231601
0.151324 0.338918 0.229694
0.15761 0.341558 0.227802
0.164004 0.343938 0.225864
0.170855 0.346029 0.22385
0.178576 0.347753 0.221714
0.187884 0.349065 0.219333
0.199832 0.349645 0.216495
0.21445 0.349477 0.21323
0.230732 0.348959 0.209888
0.248325 0.348226 0.206638
0.267323 0.347326 0.20351
0.287755 0.346426 0.200641
0.309377 0.345464 0.198077
0.332158 0.344518 0.195865
0.355932 0.343755 0.193835
0.380514 0.343267 0.192035
0.405753 0.343175 0.190555
0.431708 0.343755 0.189639
0.457923 0.344778 0.18912
0.484306 0.346395 0.189166
0.510704 0.34876 0.189914
0.537072 0.351919 0.191424
0.563149 0.355993 0.193835
0.589075 0.361349 0.197498
0.614176 0.367117 0.201709
0.639094 0.373526 0.206638
0.664042 0.380453 0.212222
0.689113 0.3879 0.218433
0.714321 0.395743 0.225177
0.73846 0.402716 0.231327
0.76051 0.407965 0.235981
0.128374 0.350622 0.218875
0.136202 0.354253 0.218372
0.142702 0.35639 0.216373
0.14902 0.35848 0.214588
0.15555 0.360479 0.212955
0.162631 0.362325 0.211429
0.170764 0.364019 0.209979
0.180621 0.365408 0.208469
0.193286 0.366125 0.206653
0.20882 0.366262 0.204562
0.226215 0.366201 0.202564
0.245136 0.366064 0.200824
0.265721 0.365988 0.199344
0.287755 0.365988 0.197894
0.311055 0.366079 0.19649
0.335653 0.3664 0.195224
0.361425 0.367041 0.194217
0.388205 0.368109 0.193545
0.416114 0.36994 0.19353
0.444358 0.372107 0.193881
0.473121 0.374929 0.194858
0.502144 0.378515 0.196597
0.53109 0.382849 0.19913
0.560067 0.388144 0.20267
0.588205 0.394018 0.206928
0.615274 0.400595 0.212039
0.641657 0.407858 0.217975
0.667567 0.415656 0.224628
0.693172 0.423819 0.23183
0.71899 0.4327 0.239933
0.744289 0.44152 0.248188
0.767193 0.448173 0.254536
0.788663 0.45359 0.259785
0.119631 0.368429 0.206592
0.127108 0.370886 0.205478
0.133913 0.372854 0.204044
0.140642 0.374929 0.203006
0.147677 0.37705 0.202289
0.155489 0.379324 0.201938
0.164416 0.381399 0.201755
0.175219 0.383276 0.201694
0.189075 0.384665 0.20148
0.205982 0.385657 0.200946
0.224887 0.386679 0.200351
0.245487 0.387915 0.199832
0.267704 0.389136 0.199283
0.2916 0.39057 0.198856
0.317006 0.392279 0.198627
0.343908 0.394324 0.198688
0.37229 0.396918 0.199222
0.401877 0.400076 0.20029
0.432181 0.403601 0.201801
0.46302 0.407675 0.203906
0.494118 0.412238 0.206622
0.525154 0.417395 0.210056
0.55613 0.423453 0.214511
0.586435 0.430014 0.219654
0.615579 0.437049 0.225498
0.643397 0.444709 0.232181
0.670207 0.452888 0.239597
0.696315 0.461524 0.2477
0.722347 0.470863 0.256718
0.747585 0.480079 0.265827
0.772457 0.489281 0.275044
0.794491 0.495552 0.281361
0.815534 0.500862 0.286717
0.111147 0.385733 0.195895
0.118807 0.387762 0.195087
0.126284 0.390066 0.194827
0.133806 0.39263 0.195132
0.141863 0.395575 0.196033
0.150683 0.398505 0.197299
0.160754 0.401572 0.198657
0.172793 0.404608 0.199908
0.187991 0.407355 0.200763
0.206485 0.409888 0.201312
0.227298 0.41268 0.201968
0.249805 0.415473 0.202625
0.27422 0.418494 0.203433
0.300511 0.421805 0.204517
0.328496 0.425467 0.205951
0.35819 0.429603 0.207858
0.389258 0.43415 0.210239
0.421027 0.438758 0.212879
0.453452 0.443748 0.216037
0.486168 0.449165 0.219821
0.518929 0.455009 0.224201
0.551736 0.461723 0.229648
0.583368 0.468437 0.235386
0.614115 0.475639 0.24184
0.643687 0.483421 0.249119
0.671687 0.491753 0.257206
0.69868 0.500725 0.266133
0.724758 0.509865 0.275303
0.750118 0.518959 0.284459
0.775128 0.528161 0.293767
0.799847 0.537346 0.303075
0.821241 0.543114 0.308965
0.842145 0.548424 0.314412
0.103914 0.403891 0.188449
0.112535 0.406638 0.189212
0.121065 0.409812 0.1906
0.129763 0.413657 0.192493
0.138872 0.417716 0.194568
0.148867 0.422141 0.196902
0.160281 0.42681 0.19939
0.173861 0.431586 0.201877
0.191089 0.436454 0.204303
0.211658 0.440833 0.206287
0.234638 0.44538 0.208408
0.259632 0.450187 0.210788
0.286625 0.455131 0.213382
0.31548 0.460258 0.216251
0.346166 0.465827 0.219669
0.377935 0.471214 0.223133
0.410819 0.476783 0.226993
0.444389 0.482521 0.23125
0.478294 0.488472 0.23595
0.512276 0.494804 0.241306
0.546242 0.501656 0.247425
0.579248 0.508553 0.25388
0.611246 0.515816 0.26096
0.642069 0.523384 0.268528
0.671519 0.53135 0.276539
0.699611 0.540002 0.285267
0.726497 0.548989 0.294377
0.752163 0.557839 0.303395
0.777127 0.566659 0.312413
0.801526 0.575402 0.321416
0.825589 0.584115 0.330404
0.846571 0.589639 0.336202
0.866865 0.594507 0.341329
0.0993362 0.425437 0.186053
0.109148 0.42974 0.188098
0.118868 0.434516 0.19057
0.128786 0.439872 0.19353
0.139361 0.445762 0.196918
0.151019 0.452079 0.200687
0.164279 0.458747 0.204746
0.180224 0.46595 0.209232
0.199588 0.472587 0.213275
0.222614 0.478874 0.21706
0.248035 0.4851 0.220935
0.275349 0.491356 0.224994
0.304601 0.497612 0.229252
0.335943 0.504311 0.234119
0.368215 0.510536 0.238834
0.401602 0.516716 0.243793
0.435813 0.522911 0.249042
0.470497 0.529229 0.254688
0.505379 0.535805 0.260868
0.540185 0.542779 0.26775
0.574044 0.549508 0.27451
0.607065 0.556512 0.281559
0.639033 0.563821 0.288975
0.669795 0.571389 0.296681
0.699474 0.57966 0.30515
0.726864 0.587732 0.313451
0.752895 0.595972 0.321996
0.77792 0.604334 0.330694
0.802182 0.612619 0.339391
0.825895 0.620859 0.348089
0.849149 0.628977 0.35671
0.869047 0.633585 0.36173
0.88864 0.637964 0.366522
0.0978866 0.452811 0.187472
0.109163 0.458854 0.190799
0.120546 0.465553 0.194736
0.132311 0.472953 0.199329
0.144915 0.480949 0.204517
0.15874 0.489357 0.210147
0.174548 0.498344 0.216403
0.192477 0.506828 0.222431
0.214084 0.51487 0.228183
0.239368 0.522393 0.233661
0.266957 0.529717 0.239185
0.296666 0.537285 0.245197
0.327672 0.544244 0.250935
0.360128 0.551034 0.256825
0.393729 0.557733 0.262913
0.428214 0.564294 0.2692
0.463172 0.570748 0.275608
0.498695 0.577646 0.282536
0.533608 0.584131 0.289113
0.568078 0.590753 0.295857
0.601846 0.597436 0.302708
0.634577 0.604181 0.309682
0.666087 0.611109 0.316884
0.696666 0.618585 0.324697
0.725246 0.625879 0.332387
0.751934 0.633371 0.340322
0.77705 0.640864 0.348333
0.801007 0.64831 0.356329
0.824277 0.655772 0.364431
0.846967 0.663203 0.372564
0.868727 0.669993 0.380087
0.887831 0.674006 0.384665
0.906645 0.677791 0.389029
0.101091 0.487083 0.193835
0.114443 0.495171 0.198932
0.128023 0.503914 0.204776
0.141985 0.51313 0.211246
0.15697 0.522988 0.218463
0.173068 0.532906 0.226001
0.190723 0.542702 0.233707
0.210758 0.552224 0.241413
0.234348 0.561028 0.248722
0.261418 0.5691 0.255619
0.291051 0.577264 0.262913
0.32195 0.584863 0.269978
0.354192 0.59205 0.276982
0.387518 0.598947 0.283879
0.421576 0.605646 0.290639
0.456245 0.612207 0.297292
0.491737 0.619135 0.304372
0.52668 0.625406 0.310857
0.561257 0.631571 0.317281
0.595209 0.63769 0.32372
0.628412 0.643854 0.330266
0.660563 0.650095 0.33695
0.691691 0.656764 0.344121
0.720913 0.662989 0.350912
0.748394 0.669337 0.357885
0.773999 0.675883 0.365133
0.798016 0.682429 0.372412
0.821057 0.689128 0.379919
0.84271 0.695155 0.38677
0.8636 0.700908 0.393378
0.883909 0.706401 0.399741
0.902434 0.710018 0.404074
0.920668 0.71342 0.408209
0.110582 0.528191 0.206378
0.126162 0.537728 0.213275
0.141955 0.547753 0.22089
0.158297 0.558389 0.229358
0.175326 0.56907 0.238209
0.19324 0.579522 0.247196
0.212696 0.589792 0.256336
0.234424 0.599695 0.265461
0.259617 0.608789 0.274128
0.288563 0.617487 0.282734
0.31873 0.625238 0.290517
0.350042 0.6327 0.298054
0.382513 0.639872 0.305348
0.415885 0.646723 0.312367
0.450172 0.653559 0.319463
0.484596 0.659815 0.326009
0.519097 0.665721 0.33228
0.553536 0.671489 0.33846
0.587503 0.677073 0.344549
0.620691 0.68249 0.350515
0.653315 0.688151 0.356817
0.684382 0.693431 0.362799
0.714031 0.698726 0.368841
0.742077 0.703944 0.374868
0.768231 0.709102 0.38088
0.792325 0.71429 0.386938
0.815152 0.719799 0.393393
0.836393 0.724834 0.399359
0.856626 0.729564 0.405035
0.875975 0.733883 0.410285
0.894652 0.737819 0.415122
0.912551 0.740932 0.419059
0.930465 0.744152 0.423133
0.126696 0.57377 0.224842
0.144564 0.584268 0.233524
0.162615 0.595178 0.242985
0.180621 0.605936 0.252689
0.199268 0.61677 0.262821
0.21883 0.62742 0.273167
0.239643 0.637736 0.283467
0.262501 0.647791 0.293568
0.288426 0.657053 0.302937
0.317098 0.665248 0.311284
0.347311 0.672892 0.319127
0.378439 0.680049 0.326558
0.410544 0.686717 0.333577
0.443778 0.693324 0.340597
0.477378 0.699413 0.347158
0.511086 0.704921 0.353216
0.544808 0.710033 0.358938
0.578241 0.714824 0.364416
0.6112 0.719448 0.369802
0.643671 0.724239 0.375433
0.674754 0.728481 0.38056
0.704387 0.732479 0.385458
0.732479 0.736385 0.390311
0.759045 0.740276 0.395163
0.78378 0.744167 0.400061
0.806683 0.748318 0.405234
0.827558 0.75198 0.409873
0.847166 0.755459 0.414298
0.865858 0.758724 0.418479
0.883772 0.761669 0.422309
0.901457 0.764691 0.426246
0.918822 0.767361 0.429801
0.93611 0.770016 0.433326
0.149187 0.621485 0.248615
0.169162 0.632456 0.258976
0.188647 0.643153 0.269474
0.207935 0.653864 0.280217
0.227375 0.664561 0.29099
0.247379 0.675151 0.301701
0.268559 0.685603 0.312337
0.291478 0.695521 0.322515
0.31696 0.704143 0.331441
0.345266 0.711788 0.339467
0.375082 0.718868 0.347005
0.405783 0.725444 0.354116
0.437736 0.731853 0.361135
0.469841 0.73724 0.367208
0.502327 0.742184 0.3729
0.535088 0.746731 0.378256
0.567758 0.750835 0.383261
0.600198 0.754711 0.388083
0.63183 0.758144 0.392493
0.662425 0.761196 0.396567
0.691981 0.764096 0.400488
0.720165 0.766812 0.404273
0.746715 0.769345 0.407828
0.771801 0.771923 0.41146
0.794919 0.774334 0.414878
0.815976 0.776761 0.41825
0.835462 0.77911 0.42153
0.853956 0.781567 0.424918
0.871824 0.784085 0.428351
0.889494 0.786877 0.432105
0.906737 0.789517 0.435691
0.923888 0.792081 0.439185
0.940932 0.794568 0.442588
0.177203 0.669734 0.276829
0.197543 0.680201 0.287388
0.217395 0.690822 0.298177
0.23682 0.701457 0.30901
0.256306 0.711955 0.319799
0.276478 0.722454 0.330663
0.297124 0.732128 0.340764
0.319417 0.741192 0.350332
0.344503 0.749172 0.358907
0.372198 0.756024 0.366415
0.401328 0.76228 0.373419
0.431434 0.768109 0.380087
0.462028 0.773083 0.385962
0.493111 0.777432 0.391241
0.52433 0.78114 0.395956
0.555611 0.784283 0.400137
0.586984 0.787198 0.40415
0.617914 0.789731 0.407797
0.647929 0.791714 0.41088
0.676875 0.793347 0.413581
0.704707 0.794705 0.416007
0.731228 0.795956 0.418296
0.756359 0.797253 0.420615
0.77995 0.798489 0.422827
0.801953 0.799939 0.425254
0.822309 0.801755 0.428046
0.841443 0.803876 0.431144
0.859709 0.806195 0.43444
0.877562 0.808789 0.438056
0.894774 0.8112 0.441398
0.911711 0.813626 0.44477
0.928649 0.816022 0.448127
0.94551 0.818418 0.451453
0.206226 0.717205 0.305715
0.226474 0.727306 0.316136
0.246052 0.737392 0.326619
0.265202 0.747463 0.337163
0.284749 0.757717 0.347997
0.304097 0.767117 0.358038
0.324132 0.775921 0.367559
0.345663 0.783948 0.376394
0.369924 0.790906 0.384237
0.396872 0.796826 0.391135
0.425132 0.80209 0.397436
0.453651 0.806317 0.402731
0.482811 0.809888 0.407385
0.512459 0.812879 0.411521
0.54229 0.81532 0.415122
0.572381 0.817411 0.418402
0.601862 0.818662 0.420783
0.630869 0.819516 0.422736
0.659205 0.820081 0.424369
0.686595 0.820371 0.425696
0.713222 0.820752 0.4271
0.738888 0.821317 0.428717
0.763256 0.822019 0.430442
0.78645 0.823026 0.432471
0.808209 0.824338 0.434821
0.82829 0.826017 0.437507
0.847257 0.828061 0.440574
0.865324 0.830289 0.443793
0.882765 0.832547 0.447044
0.899794 0.834852 0.450324
0.916548 0.837156 0.45359
0.933272 0.839414 0.456794
0.950072 0.841825 0.460166
0.234638 0.762921 0.333791
