assets/cube/cross_process_cp14.cube
TITLE "Generated by Resolve"
LUT_3D_SIZE 5
0 0.0182193 0.0191806
0.0603189 0.000122072 0.00108339
0.31574 0 0
0.674067 0 0
1 0 0
0 0.135515 0
0.064271 0.141207 0.00503548
0.337514 0.119585 0
0.710964 0.0758221 0
1 0.0161746 0
0 0.337697 0
0.0611582 0.356298 0.00192264
0.346212 0.346502 0
0.730602 0.313664 0
1 0.264256 0
0 0.59527 0
0.0545815 0.62388 0
0.349096 0.623545 0
0.742473 0.59971 0
1 0.558877 0
0 0.897459 0
0.0455177 0.934524 0
0.348135 0.94229 0
0.749325 0.926268 0
1 0.892973 0
0 0.012726 0.12604
0.0592508 0 0.112352
0.317098 0 0.0753643
0.677317 0 0.0183566
1 0 0
0 0.139376 0.115557
0.0696574 0.146578 0.122759
0.344244 0.126329 0.10251
0.718929 0.0837873 0.0599832
1 0.0252842 0.00146487
0 0.34609 0.104067
0.0706645 0.365805 0.123766
0.356741 0.357031 0.115007
0.742107 0.325185 0.0831617
1 0.276692 0.0346685
0 0.607126 0.0909438
0.0673533 0.636652 0.12047
0.362722 0.637186 0.120989
0.756954 0.614176 0.0979934
1 0.574151 0.057969
0 0.91223 0.0763256
0.0610666 0.950088 0.114183
0.364446 0.958618 0.122713
0.766384 0.943328 0.107439
1 0.91075 0.0748608
0 0.00480659 0.293095
0.0545663 0 0.282658
0.314626 0 0.247868
0.676616 0 0.19263
1 0 0.122698
0 0.139254 0.29041
0.070985 0.147921 0.299077
0.346883 0.128969 0.28014
0.722774 0.0876326 0.238804
1 0.0302281 0.181399
0 0.350347 0.283299
0.0760052 0.37113 0.304097
0.363088 0.363378 0.296345
0.749432 0.332494 0.265446
1 0.284916 0.217868
0 0.614786 0.273579
0.0758984 0.645197 0.30399
0.372137 0.646586 0.305379
0.767178 0.624414 0.283207
1 0.585168 0.243961
0 0.922744 0.26183
0.0723735 0.961379 0.300465
0.376516 0.970672 0.309758
0.779171 0.956115 0.295201
1 0.924254 0.263325
0 0 0.502129
0.0475319 0 0.494438
0.309621 0 0.461662
0.673289 0 0.408118
1 0 0.339635
0 0.136477 0.506447
0.0696117 0.146548 0.516518
0.346792 0.128862 0.498833
0.723842 0.0887007 0.458671
1 0.0323796 0.40235
0 0.351812 0.503578
0.0785229 0.373663 0.525429
0.366613 0.366903 0.518669
0.753887 0.336965 0.488716
1 0.290272 0.442039
0 0.619577 0.497185
0.0815747 0.650874 0.528481
0.378653 0.653117 0.530709
0.774517 0.631754 0.509346
1 0.593286 0.470893
0 0.930373 0.488258
0.080766 0.969787 0.527672
0.385657 0.979812 0.537713
0.789044 0.965988 0.523873
1 0.934813 0.492714
0 0 0.745464
0.0386664 0 0.740185
0.302617 0 0.7093
0.667887 0 0.657343
1 0 0.590265
0 0.131609 0.756207
0.0661021 0.143023 0.76762
0.344503 0.126589 0.751171
0.722698 0.0875563 0.712154
1 0.0322881 0.656886
0 0.351049 0.757443
0.0788128 0.373938 0.780331
0.36788 0.36817 0.774548
0.756085 0.339147 0.745525
1 0.293355 0.699733
0 0.622095 0.754314
0.0849622 0.654261 0.78648
0.382879 0.657328 0.789548
0.779538 0.636759 0.768994
1 0.599084 0.731304
0 0.935683 0.74818
0.0868391 0.975845 0.788357
0.392462 0.986618 0.79913
0.796567 0.97351 0.786007
1 0.943038 0.75555
