assets/cube/dark_green_02.cube
TITLE "Generated by Resolve"
LUT_3D_SIZE 9
0 0 0
0 0 0
0.00915541 0 0
0.10103 0 0
0.206867 0 0
0.321965 0 0
0.443168 0 0
0.571008 0 0
0.718273 0 0
0 0 0
0 0 0
0 0 0
0.0719615 0 0
0.163272 0 0
0.273396 0 0
0.399542 0 0
0.541024 0 0
0.698283 0 0
0 0 0
0 0 0
0 0 0
0.0726024 0 0
0.173922 0.0021973 0
0.2916 0.00434882 0
0.424247 0.0055848 0
0.571466 0.00544747 0
0.733776 0.0034638 0
0 0.0826734 0
0 0.0860304 0
0.00210575 0.105135 0
0.0884718 0.12018 0
0.196597 0.131777 0
0.320409 0.140978 0
0.458732 0.148791 0
0.611307 0.154742 0
0.778408 0.15816 0
0 0.212818 0
0 0.223651 0
0.016907 0.249836 0
0.111513 0.270436 0
0.226154 0.287327 0
0.356207 0.3019 0
0.500237 0.314702 0
0.658167 0.325307 0
0.830625 0.333227 0
0 0.369787 0
0 0.387182 0
0.0370947 0.418509 0
0.139727 0.443259 0
0.260716 0.46421 0
0.396841 0.483162 0
0.54641 0.500038 0
0.709392 0.514321 0
0.887266 0.526192 0
0 0.548409 0
0 0.572061 0
0.0617227 0.607172 0
0.172076 0.635264 0
0.299382 0.659709 0
0.44123 0.6822 0
0.596155 0.702541 0
0.764126 0.720043 0
0.947173 0.735332 0.0105287
0 0.746212 0
0.00242618 0.77586 0
0.0896315 0.813474 0
0.206912 0.843931 0
0.34052 0.8719 0
0.487816 0.897505 0.00880446
0.647852 0.920913 0.0263066
0.820706 0.94139 0.0412909
1 0.959609 0.0542611
0 0.961364 0
0.02121 0.996933 0
0.119677 1 0
0.24358 1 0.000717174
0.382788 1 0.0252689
0.535164 1 0.0469673
0.699901 1 0.0662242
0.877409 1 0.0830091
1 1 0.0977188
0 0 0
0 0 0
0.0119936 0 0
0.102586 0 0
0.206973 0 0
0.32015 0 0
0.438437 0 0
0.568124 0 0
0.716686 0 0
0 0 0
0 0 0
0 0 0
0.0678111 0 0
0.160754 0 0
0.271687 0 0
0.398505 0 0
0.540566 0 0
0.697856 0 0
0 0 0
0 0 0
0 0 0
0.0731975 0 0
0.174746 0.00460822 0
0.29276 0.00776684 0
0.425818 0.00993362 0
0.573449 0.0106355 0
0.735805 0.00923171 0
0 0.0843977 0
0 0.0879683 0
0.00549325 0.108003 0
0.0918898 0.123919 0
0.199863 0.136019 0
0.324269 0.146334 0
0.462913 0.154879 0
0.615824 0.161532 0
0.783261 0.165606 0
0 0.217151 0
0 0.228183 0
0.0223697 0.254963 0
0.117144 0.276219 0
0.231815 0.293584 0.004654
0.36228 0.308995 0.0164034
0.5066 0.322423 0.0260014
0.664729 0.333547 0.0334783
0.837613 0.342123 0.0388342
0 0.37615 0
0 0.393774 0
0.0444495 0.425544 0
0.147265 0.450782 0.0175631
0.268498 0.472313 0.0348516
0.404898 0.491859 0.0493629
0.554757 0.509285 0.0615091
0.717891 0.52398 0.0713054
0.896223 0.536522 0.079118
0 0.556634 0
0 0.580545 0
0.0708324 0.6159 0.0222782
0.181231 0.644114 0.0467994
0.30898 0.669367 0.0666514
0.451118 0.692393 0.0834211
0.60621 0.7131 0.0976272
0.774624 0.731243 0.109483
0.957992 0.747021 0.119249
0 0.756268 0
0.0115358 0.786389 0.0113222
0.10042 0.823758 0.0505379
0.217945 0.854566 0.0772412
0.351827 0.883009 0.0992447
0.499443 0.909102 0.117937
0.659388 0.932555 0.133837
0.832959 0.953948 0.147494
1 0.972641 0.158892
0 0.973083 0
0.0331426 1 0.0377356
0.132036 1 0.0793927
0.256214 1 0.108156
0.395712 1 0.131975
0.548424 1 0.152331
0.713085 1 0.169741
0.891356 1 0.184771
1 1 0.197467
0 0 0.00196841
0 0 0.0115053
0.0154879 0 0.0252537
0.105028 0 0.0301366
0.207965 0 0.0280003
0.319112 0 0.0189059
0.434836 0 0.00123598
0.566873 0 0
0.716426 0 0
0 0 0.00302129
0 0 0
0 0 0.00140383
0.0670176 0 0
0.161135 0 0
0.272984 0 0
0.400443 0 0
0.543038 0 0
0.700771 0 0
0 0 0
0 0 0
0 0 0.000991836
0.0767071 0.00480659 0.00961318
0.178515 0.0104219 0.0154269
0.297322 0.0146181 0.0199893
0.430854 0.0174868 0.0233616
0.578668 0.018677 0.0252232
0.741695 0.0180209 0.0254063
0 0.0892653 0
0 0.0938735 0
0.0109407 0.114961 0.0175937
0.0981155 0.131533 0.0325017
0.206561 0.144274 0.0435798
0.33138 0.155184 0.0527199
0.47042 0.164263 0.0601205
0.62324 0.171069 0.0655375
0.791516 0.175967 0.069276
0 0.224201 0
0 0.236316 0.0136873
0.0299077 0.263905 0.0402228
0.125383 0.285664 0.0593118
0.240497 0.303517 0.0742199
0.371359 0.319402 0.0868544
0.51603 0.333257 0.0974899
0.674205 0.344564 0.105943
0.847684 0.35378 0.112581
0 0.385031 0.0148165
0 0.403647 0.035874
0.053727 0.436011 0.0672007
0.156893 0.461265 0.0892195
0.278828 0.483619 0.107408
0.415579 0.503548 0.122911
0.565759 0.521324 0.136233
0.729183 0.536355 0.147265
0.907805 0.549218 0.15639
0 0.567071 0.0357977
0.00178531 0.591913 0.0629282
0.0816052 0.627604 0.0975814
0.192447 0.656016 0.122164
0.320714 0.681788 0.142885
0.463172 0.705119 0.16083
0.618448 0.726009 0.176349
0.787228 0.744549 0.189761
0.97084 0.760586 0.201083
0 0.767773 0.0603647
0.0218967 0.798886 0.0935836
0.112413 0.836362 0.130129
0.230518 0.867613 0.15697
0.364782 0.896345 0.179904
0.512688 0.922698 0.199969
0.672801 0.946303 0.217441
0.846693 0.968002 0.233005
1 0.986893 0.246311
0 0.985473 0.0871901
0.0454414 1 0.125383
0.145022 1 0.163699
0.269902 1 0.192691
0.409735 1 0.217594
0.562524 1 0.23949
0.727581 1 0.258976
0.906035 1 0.276387
1 1 0.291524
0 0 0.103426
0 0 0.110323
0.0176394 0 0.122087
0.106264 0 0.125994
0.207904 0 0.123095
0.317021 0 0.11281
0.432624 0 0.0959335
0.566537 0 0.0825208
0.717205 0 0.069749
0 0 0.0970474
0 0 0.0905623
0 0 0.0876173
0.0664836 0 0.083772
0.161715 0 0.0813764
0.274754 0 0.0797284
0.403082 0 0.0780957
0.546349 0 0.0758221
0.704921 0 0.0721904
0 0 0.08365
0 0 0.0788128
0.000320439 0 0.088365
0.079881 0.00834669 0.0977188
0.182422 0.0147555 0.104616
0.301961 0.0196689 0.110506
0.436149 0.0231479 0.115267
0.584482 0.0248264 0.118364
0.748196 0.0247349 0.119844
0 0.0928206 0.0822309
0 0.0985122 0.0879072
0.0152895 0.120531 0.10695
0.103273 0.137545 0.122118
0.212543 0.150988 0.134218
0.337987 0.162387 0.144503
0.477607 0.171939 0.153155
0.630976 0.179156 0.159762
0.799771 0.184451 0.16466
0 0.230228 0.0938277
0 0.243214 0.107042
0.0359045 0.271519 0.132509
0.131975 0.293309 0.151568
0.248051 0.311986 0.167544
0.379492 0.328252 0.181216
0.524407 0.342199 0.192798
0.683391 0.354116 0.202564
0.857359 0.363653 0.210285
0 0.392889 0.112917
0 0.412329 0.132647
0.0610971 0.445212 0.162768
0.165118 0.470817 0.184939
0.287694 0.493492 0.203861
0.425025 0.513741 0.220325
0.57525 0.531365 0.234424
0.73962 0.547143 0.246799
0.918715 0.560296 0.256947
0 0.576425 0.137316
0.00862135 0.602243 0.163394
0.0901961 0.638117 0.196567
0.201846 0.666819 0.221256
0.330739 0.692866 0.242649
0.473762 0.716457 0.261479
0.629297 0.737377 0.277836
0.798764 0.756405 0.292409
0.982834 0.772702 0.304707
0 0.778439 0.165209
0.0302281 0.8103 0.197208
0.121904 0.847578 0.232105
0.240986 0.879515 0.259297
0.37586 0.908492 0.282841
0.524254 0.935012 0.303731
0.684901 0.958892 0.322148
0.859236 0.980804 0.338674
1 0.999939 0.352911
0 0.997314 0.195041
0.0550088 1 0.231907
0.155688 1 0.268803
0.281361 1 0.297963
0.421805 1 0.323461
0.57499 1 0.346059
0.740627 1 0.366491
0.919539 1 0.384833
1 1 0.400748
0 0 0.212375
0 0 0.217365
0.0191196 0 0.227253
0.106798 0 0.230137
0.206897 0 0.226047
0.313359 0 0.213779
0.431113 0 0.199451
0.566369 0 0.187839
0.718517 0 0.176715
0 0 0.199741
0 0 0.190631
0 0 0.18468
0.0662394 0 0.183505
0.162692 0 0.182681
0.276753 0 0.182452
0.406012 0 0.182147
0.549798 0 0.180835
0.709499 0 0.178515
0 0 0.183246
0 0 0.178393
0.0024567 0.000534066 0.187823
0.0828412 0.0112612 0.197848
0.186267 0.0184634 0.205707
0.306584 0.0240482 0.212634
0.441489 0.0281224 0.218433
0.590402 0.0302892 0.222461
0.754879 0.0307622 0.224948
0 0.0959487 0.184543
0 0.102663 0.189654
0.0192264 0.125521 0.208301
0.108003 0.142901 0.223697
0.218173 0.157061 0.236683
0.34432 0.168933 0.247852
0.484428 0.17879 0.257313
0.638575 0.186572 0.264942
0.807965 0.192264 0.27071
0 0.235813 0.198795
0 0.249638 0.211337
0.0413062 0.278553 0.23621
0.138323 0.300755 0.255528
0.255131 0.319844 0.272129
0.387243 0.336492 0.28661
0.532662 0.350698 0.298939
0.692332 0.363043 0.309636
0.866865 0.372915 0.318151
0 0.40032 0.220569
0 0.420584 0.239643
0.0676738 0.45362 0.268833
0.172732 0.479805 0.291371
0.29604 0.502815 0.310857
0.433997 0.523369 0.328054
0.584802 0.541299 0.342916
0.749737 0.557366 0.356085
0.929351 0.570794 0.366995
0 0.585397 0.247669
0.0145418 0.612222 0.273304
0.0978103 0.647669 0.305058
0.21059 0.677134 0.33022
0.340185 0.703441 0.352132
0.483482 0.726925 0.371359
0.639933 0.74847 0.388724
0.809934 0.767758 0.404044
0.994507 0.784283 0.41706
0 0.788785 0.278141
0.0378576 0.821378 0.309453
0.130831 0.858839 0.34342
0.250767 0.89099 0.370733
0.386328 0.920195 0.394751
0.53492 0.946456 0.415946
0.696513 0.971038 0.435355
0.871382 0.993179 0.452628
1 1 0.467536
0 1 0.310369
0.0636759 1 0.34641
0.165591 1 0.382391
0.292103 1 0.411658
0.433219 1 0.437583
0.586831 1 0.460639
0.75317 1 0.481865
0.932586 1 0.500908
1 1 0.517205
0 0 0.327703
0 0 0.331212
0.0200046 0 0.339315
0.106538 0 0.341024
0.205158 0 0.335744
0.309636 0 0.322026
0.43003 0 0.310552
0.566705 0 0.300572
0.720027 0 0.290806
0 0 0.309819
0 0 0.297749
0 0 0.29102
0.0660258 0 0.291524
0.163775 0 0.292317
0.278859 0 0.293339
0.409049 0 0.294209
0.553704 0 0.29395
0.714214 0 0.292607
0 0 0.291493
0 0 0.286717
0.00453193 0.00227359 0.296178
0.0855421 0.0136568 0.306615
0.190005 0.0218051 0.315557
0.311101 0.0280156 0.323384
0.446326 0.0324102 0.329747
0.596368 0.0353704 0.334997
0.761532 0.0363317 0.338308
0 0.0988327 0.295201
0 0.106493 0.300008
0.0229038 0.130129 0.318441
0.112612 0.148058 0.334203
0.223575 0.162707 0.34786
0.350439 0.175051 0.359777
0.490959 0.185138 0.369818
0.646021 0.193545 0.378439
0.816022 0.199619 0.384955
0 0.241062 0.311818
0 0.255711 0.323949
0.0463264 0.285115 0.348363
0.14435 0.30782 0.368032
0.261906 0.327276 0.385199
0.394705 0.344289 0.400336
0.540719 0.358831 0.413352
0.70103 0.371542 0.424796
0.876158 0.38175 0.434012
0 0.407416 0.335958
0 0.428489 0.35465
0.0738842 0.461753 0.383139
0.179965 0.488426 0.406012
0.304006 0.511742 0.426001
0.44242 0.532372 0.443626
0.594049 0.55082 0.459312
0.759564 0.567178 0.473182
0.939681 0.580819 0.484672
0 0.594064 0.365408
0.0204929 0.621653 0.390646
0.105241 0.657374 0.421729
0.218921 0.687068 0.447059
0.349233 0.713649 0.469413
0.49308 0.737285 0.489113
0.650217 0.759197 0.507179
0.820783 0.778714 0.52314
1 0.795148 0.536507
0 0.798825 0.398138
0.0449226 0.831708 0.428687
0.139284 0.869764 0.462226
0.26009 0.902113 0.489662
0.396368 0.931548 0.514092
0.545586 0.958038 0.53579
0.707759 0.982834 0.55581
0.883177 1 0.573693
1 1 0.588785
0 1 0.432441
0.0716411 1 0.467521
0.175006 1 0.503166
0.302358 1 0.532525
0.443793 1 0.558465
0.598413 1 0.582376
0.765316 1 0.604181
0.945281 1 0.623804
1 1 0.64062
0 0 0.449653
0 0 0.451682
0.020325 0 0.458015
0.105562 0 0.458488
0.202289 0 0.451621
0.306859 0 0.438361
0.429099 0 0.428946
0.567147 0 0.420478
0.721569 0 0.411933
0 0 0.426566
0 0 0.410819
0 0 0.40557
0.0660868 0 0.407568
0.164889 0 0.409674
0.280964 0 0.411841
0.41178 0 0.413504
0.55758 0 0.414496
0.718914 0 0.414054
0 0 0.407599
0 0 0.402975
0.00650034 0.00363165 0.412345
0.0883192 0.0159915 0.423621
0.193622 0.0248264 0.433341
0.315511 0.0316625 0.441993
0.451453 0.0366064 0.449165
0.602197 0.0401007 0.455207
0.768048 0.0415503 0.459281
0 0.101457 0.413565
0 0.110048 0.418189
0.0261997 0.134066 0.436133
0.117006 0.152865 0.452659
0.228748 0.168002 0.466911
0.356329 0.180819 0.47953
0.49752 0.191333 0.490272
0.653223 0.200137 0.499611
0.823865 0.206607 0.506798
0 0.246006 0.432349
0 0.261479 0.444236
0.0509957 0.291142 0.468116
0.150088 0.314504 0.488319
0.268406 0.334356 0.505989
0.40148 0.351324 0.521355
0.548547 0.366613 0.535393
0.709468 0.379675 0.547494
0.885191 0.390188 0.557336
0 0.414191 0.458671
0.00463874 0.436088 0.477134
0.0798962 0.469703 0.505165
0.186877 0.496666 0.528252
0.311666 0.520302 0.548684
0.450523 0.540993 0.566644
0.602991 0.559976 0.583154
0.7691 0.576608 0.59762
0.949645 0.590417 0.609598
0 0.602411 0.490288
0.0262608 0.630671 0.515175
0.112337 0.666712 0.545785
0.226902 0.696666 0.571267
0.357916 0.723461 0.594003
0.502434 0.747372 0.614221
0.660182 0.769543 0.632853
0.831327 0.789319 0.649409
1 0.805829 0.663172
0 0.808545 0.525063
0.0517586 0.841947 0.555138
0.147372 0.880339 0.58822
0.269062 0.912886 0.615778
0.405798 0.942214 0.64033
0.555886 0.969238 0.662745
0.718669 0.994263 0.683299
0.894499 1 0.701625
1 1 0.717327
0 1 0.561135
0.079408 1 0.595895
0.184039 1 0.63093
0.312245 1 0.660395
0.454337 1 0.686641
0.609613 1 0.711025
0.777111 1 0.733349
0.957183 1 0.753155
1 1 0.770794
0 0 0.5794
0 0 0.579858
0.0200198 0 0.584375
0.103685 0 0.583474
0.19765 0 0.574243
0.304433 0 0.56347
0.428046 0 0.555627
0.567498 0 0.548699
0.722957 0 0.541283
0 0 0.550881
0 0 0.532784
0 0 0.529015
0.0661479 0 0.532387
0.165911 0 0.535668
0.282918 0 0.538918
0.414496 0 0.541466
0.561227 0 0.543481
0.723354 0 0.543908
0 0 0.532433
0 0 0.527993
0.00843824 0.00469978 0.537331
0.090898 0.0179751 0.549386
0.196994 0.0274968 0.559869
0.319493 0.0348516 0.569146
0.456291 0.0404364 0.577203
0.607721 0.0444495 0.584009
0.774227 0.0463722 0.588785
0 0.103777 0.540505
0 0.113237 0.545037
0.0294652 0.137942 0.562875
0.121126 0.157275 0.579828
0.233631 0.1729 0.594659
0.361563 0.185855 0.607584
0.503746 0.197101 0.619333
0.66009 0.206317 0.629343
0.831083 0.212985 0.636957
0 0.250568 0.561379
0 0.26659 0.572854
0.0555428 0.297032 0.596735
0.155505 0.320775 0.617243
0.274571 0.341009 0.635401
0.408301 0.358343 0.651331
0.555993 0.373968 0.66598
0.717525 0.387366 0.678691
0.893309 0.397803 0.688701
0 0.420584 0.589761
0.00924697 0.442771 0.607614
0.0856031 0.477211 0.635706
0.193469 0.504479 0.659022
0.318975 0.52842 0.679881
0.458473 0.549416 0.698344
0.611551 0.568689 0.715419
0.778225 0.585611 0.730449
0.959014 0.59942 0.742718
0 0.61033 0.623407
0.0317693 0.639048 0.647852
0.119112 0.675608 0.678233
0.234531 0.705806 0.703899
0.365896 0.732403 0.726604
0.511406 0.757031 0.747692
0.669734 0.779461 0.766857
0.841443 0.799466 0.783948
1 0.816236 0.798199
0 0.817853 0.660105
0.0583658 0.851896 0.689891
0.155138 0.890455 0.722484
0.277653 0.923217 0.750195
0.414939 0.95256 0.774914
0.565805 0.980011 0.79794
0.729168 1 0.818998
0.905425 1 0.83772
1 1 0.854002
0 1 0.697887
0.0868544 1 0.732372
0.192721 1 0.766873
0.321691 1 0.796368
0.46453 1 0.822995
0.620432 1 0.847807
0.788479 1 0.870619
0.968994 1 0.890806
1 1 0.908995
0 0 0.718395
0 0 0.717296
0.0189975 0 0.719646
0.100801 0 0.717556
0.192874 0 0.706874
0.302037 0 0.698772
0.427008 0 0.69247
0.567559 0 0.686809
0.723995 0 0.680461
0 0 0.684047
0 0 0.665537
0 0 0.66244
0.0660716 0 0.667308
0.166674 0 0.671687
0.28452 0 0.675959
0.416922 0 0.679469
0.564431 0 0.682383
0.727321 0 0.683619
0 0 0.667369
0 0 0.663111
0.0103609 0.00527962 0.672328
0.0931716 0.0195315 0.685252
0.199985 0.0297246 0.696452
0.322927 0.0374914 0.706203
0.460655 0.0438239 0.715282
0.612741 0.0483253 0.722805
0.779767 0.05066 0.728161
0 0.105653 0.677485
0 0.115862 0.681819
0.0324865 0.141314 0.699718
0.124895 0.161181 0.717083
0.238087 0.17731 0.732494
0.366629 0.190661 0.745968
0.509499 0.202396 0.758434
0.666438 0.212009 0.7691
0.837888 0.218967 0.777203
0 0.254658 0.700374
0 0.271305 0.711559
0.0598001 0.302358 0.735393
0.160555 0.326513 0.756191
0.28014 0.346944 0.774639
0.414679 0.364828 0.791302
0.562951 0.380819 0.806561
0.725063 0.394537 0.819867
0.901396 0.405295 0.830411
0 0.426429 0.730739
0.0137789 0.449348 0.748425
0.0909895 0.484154 0.776196
0.199664 0.511742 0.799756
0.32546 0.535546 0.8206
0.465965 0.557305 0.839994
0.619608 0.576867 0.857618
0.786526 0.59379 0.872923
0.96817 0.608164 0.885969
0 0.61738 0.766018
0.0371862 0.647105 0.790585
0.125551 0.683925 0.820569
0.241764 0.714397 0.846418
0.3738 0.741253 0.869505
0.519905 0.76614 0.891051
0.678798 0.78883 0.910735
0.850538 0.808591 0.927886
1 0.826108 0.943069
0 0.826062 0.804456
0.0647135 0.861234 0.834424
0.162554 0.899992 0.866575
0.285863 0.932982 0.894438
0.423789 0.962554 0.919478
0.575265 0.990234 0.942946
0.739162 1 0.964508
0.915679 1 0.983459
1 1 1
0 1 0.84419
0.0940261 1 0.878553
0.201053 1 0.912596
0.330495 1 0.941817
0.474281 1 0.969131
0.630762 1 0.994354
0.799329 1 1
0.980377 1 1
1 1 1
