assets/cube/dark_green_02.cube
TITLE "Generated by Resolve"
LUT_3D_SIZE 5
0 0 0
0.00915541 0 0
0.206867 0 0
0.443168 0 0
0.718273 0 0
0 0 0
0 0 0
0.173922 0.0021973 0
0.424247 0.0055848 0
0.733776 0.0034638 0
0 0.212818 0
0.016907 0.249836 0
0.226154 0.287327 0
0.500237 0.314702 0
0.830625 0.333227 0
0 0.548409 0
0.0617227 0.607172 0
0.299382 0.659709 0
0.596155 0.702541 0
0.947173 0.735332 0.0105287
0 0.961364 0
0.119677 1 0
0.382788 1 0.0252689
0.699901 1 0.0662242
1 1 0.0977188
0 0 0.00196841
0.0154879 0 0.0252537
0.207965 0 0.0280003
0.434836 0 0.00123598
0.716426 0 0
0 0 0
0 0 0.000991836
0.178515 0.0104219 0.0154269
0.430854 0.0174868 0.0233616
0.741695 0.0180209 0.0254063
0 0.224201 0
0.0299077 0.263905 0.0402228
0.240497 0.303517 0.0742199
0.51603 0.333257 0.0974899
0.847684 0.35378 0.112581
0 0.567071 0.0357977
0.0816052 0.627604 0.0975814
0.320714 0.681788 0.142885
0.618448 0.726009 0.176349
0.97084 0.760586 0.201083
0 0.985473 0.0871901
0.145022 1 0.163699
0.409735 1 0.217594
0.727581 1 0.258976
1 1 0.291524
0 0 0.212375
0.0191196 0 0.227253
0.206897 0 0.226047
0.431113 0 0.199451
0.718517 0 0.176715
0 0 0.183246
0.0024567 0.000534066 0.187823
0.186267 0.0184634 0.205707
0.441489 0.0281224 0.218433
0.754879 0.0307622 0.224948
0 0.235813 0.198795
0.0413062 0.278553 0.23621
0.255131 0.319844 0.272129
0.532662 0.350698 0.298939
0.866865 0.372915 0.318151
0 0.585397 0.247669
0.0978103 0.647669 0.305058
0.340185 0.703441 0.352132
0.639933 0.74847 0.388724
0.994507 0.784283 0.41706
0 1 0.310369
0.165591 1 0.382391
0.433219 1 0.437583
0.75317 1 0.481865
1 1 0.517205
0 0 0.449653
0.020325 0 0.458015
0.202289 0 0.451621
0.429099 0 0.428946
0.721569 0 0.411933
0 0 0.407599
0.00650034 0.00363165 0.412345
0.193622 0.0248264 0.433341
0.451453 0.0366064 0.449165
0.768048 0.0415503 0.459281
0 0.246006 0.432349
0.0509957 0.291142 0.468116
0.268406 0.334356 0.505989
0.548547 0.366613 0.535393
0.885191 0.390188 0.557336
0 0.602411 0.490288
0.112337 0.666712 0.545785
0.357916 0.723461 0.594003
0.660182 0.769543 0.632853
1 0.805829 0.663172
0 1 0.561135
0.184039 1 0.63093
0.454337 1 0.686641
0.777111 1 0.733349
1 1 0.770794
0 0 0.718395
0.0189975 0 0.719646
0.192874 0 0.706874
0.427008 0 0.69247
0.723995 0 0.680461
0 0 0.667369
0.0103609 0.00527962 0.672328
0.199985 0.0297246 0.696452
0.460655 0.0438239 0.715282
0.779767 0.05066 0.728161
0 0.254658 0.700374
0.0598001 0.302358 0.735393
0.28014 0.346944 0.774639
0.562951 0.380819 0.806561
0.901396 0.405295 0.830411
0 0.61738 0.766018
0.125551 0.683925 0.820569
0.3738 0.741253 0.869505
0.678798 0.78883 0.910735
1 0.826108 0.943069
0 1 0.84419
0.201053 1 0.912596
0.474281 1 0.969131
0.799329 1 1
1 1 1
