assets/cube/dark_green_02.cube
TITLE "Generated by Resolve"
LUT_3D_SIZE 33
0 0 0
0 0 0
0 0 0
0 0 0
0 0 0
0 0 0
0 0 0
0 0 0
0.00915541 0 0
0.0307774 0 0
0.0531624 0 0
0.0765393 0 0
0.10103 0 0
0.126406 0 0
0.152544 0 0
0.179477 0 0
0.206867 0 0
0.234821 0 0
0.26331 0 0
0.292256 0 0
0.321965 0 0
0.351858 0 0
0.382025 0 0
0.412482 0 0
0.443168 0 0
0.47396 0 0
0.504768 0 0
0.537148 0 0
0.571008 0 0
0.606134 0 0
0.642374 0 0
0.679988 0 0
0.718273 0 0
0 0 0
0 0 0
0 0 0
0 0 0
0 0 0
0 0 0
0 0 0
0 0 0
0.00746166 0 0
0.0280766 0 0
0.0496529 0 0
0.0722362 0 0
0.0959335 0 0
0.120684 0 0
0.145922 0 0
0.171801 0 0
0.198276 0 0
0.225238 0 0
0.252705 0 0
0.280659 0 0
0.308843 0 0
0.337194 0 0
0.365286 0 0
0.394018 0 0
0.424384 0 0
0.456062 0 0
0.488746 0 0
0.52253 0 0
0.557519 0 0
0.593622 0 0
0.630884 0 0
0.669261 0 0
0.708156 0 0
0 0 0
0 0 0
0 0 0
0 0 0
0 0 0
0 0 0
0 0 0
0 0 0
0.00485237 0 0
0.024445 0 0
0.0450599 0 0
0.0666819 0 0
0.0895705 0 0
0.1131 0 0
0.13727 0 0
0.16202 0 0
0.187228 0 0
0.212818 0 0
0.238697 0 0
0.26424 0 0
0.291234 0 0
0.319554 0 0
0.348943 0 0
0.379675 0 0
0.4112 0 0
0.443748 0 0
0.477302 0 0
0.511879 0 0
0.547677 0 0
0.58471 0 0
0.622446 0 0
0.661265 0 0
0.700725 0 0
0 0 0
0 0 0
0 0 0
0 0 0
0 0 0
0 0 0
0 0 0
0 0 0
0.00192264 0 0
0.020325 0 0
0.0399329 0 0
0.0604105 0 0
0.0818799 0 0
0.104082 0 0
0.126726 0 0
0.149615 0 0
0.172885 0 0
0.197665 0 0
0.223743 0 0
0.25095 0 0
0.279332 0 0
0.308736 0 0
0.339315 0 0
0.370611 0 0
0.402884 0 0
0.436103 0 0
0.470298 0 0
0.505547 0 0
0.542153 0 0
0.579461 0 0
0.617731 0 0
0.657053 0 0
0.697002 0 0
0 0 0
0 0 0
0 0 0
0 0 0
0 0 0
0 0 0
0 0 0
0 0 0
0 0 0
0.0158236 0 0
0.0338598 0 0
0.0526589 0 0
0.0719615 0 0
0.0925154 0 0
0.114702 0 0
0.138445 0 0
0.163272 0 0
0.189212 0 0
0.21622 0 0
0.244266 0 0
0.273396 0 0
0.303807 0 0
0.334768 0 0
0.36669 0 0
0.399542 0 0
0.433341 0 0
0.468482 0 0
0.504204 0 0
0.541024 0 0
0.578836 0 0
0.617578 0 0
0.65742 0 0
0.698283 0 0
0 0 0
0 0 0
0 0 0
0 0 0
0 0 0
0 0 0
0 0 0
0 0 0
0 0 0
0.010071 0 0
0.0267796 0 0
0.0453956 0 0
0.0657816 0 0
0.0878157 0 0
0.111101 0 0
0.135531 0 0
0.16112 0 0
0.187778 0 0
0.215488 0 0
0.24448 0 0
0.274327 0 0
0.305058 0 0
0.336645 0 0
0.369177 0 0
0.402625 0 0
0.437461 0 0
0.472816 0 0
0.509133 0 0
0.546517 0 0
0.584909 0 0
0.624216 0 0
0.665141 0 0
0.706172 0 0
0 0 0
0 0 0
0 0 0
0 0 0
0 0 0
0 0 0
0 0 0
0 0 0
0 0 0
0.00994888 0 0
0.0277104 0 0
0.0471962 0 0
0.0684977 0 0
0.0912184 0 0
0.115068 0 0
0.140124 0 0
0.166278 0 0
0.193484 0 0
0.221942 0 0
0.25124 0 0
0.281468 0 0
0.312627 0 0
0.34461 0 0
0.377493 0 0
0.411719 0 0
0.446433 0 0
0.482063 0 0
0.518654 0 0
0.556283 0 0
0.595315 0 0
0.634897 0 0
0.675456 0 0
0.716609 0 0
0 0 0
0 0 0
0 0 0
0 0 0
0 0 0
0 0 0
0 0 0
0 0 0
0 0 0
0.0103151 0 0
0.0286564 0 0
0.0488899 0 0
0.0705882 0 0
0.0936904 0 0
0.117983 0 0
0.14345 0 0
0.170138 0 0
0.19791 0 0
0.22649 0 0
0.256031 0 0
0.28658 0 0
0.318059 0 0
0.350591 0 0
0.383917 0 0
0.418006 0 0
0.452995 0 0
0.488899 0 0
0.525734 0 0
0.563989 0 0
0.60296 0 0
0.642741 0 0
0.683543 0 0
0.724941 0 0
0 0 0
0 0 0
0 0 0
0 0 0
0 0 0
0 0 0
0 0 0
0 0 0
0 0 0
0.011017 0 0
0.0299687 0 0
0.0504616 0 0
0.0726024 0 0
0.0961166 0 0
0.120821 0.000411994 0
0.146792 0.00131228 0
0.173922 0.0021973 0
0.201877 0.00285344 0
0.230823 0.00343328 0
0.260716 0.00393683 0
0.2916 0.00434882 0
0.323598 0.00482185 0
0.356374 0.00523384 0
0.389868 0.00544747 0
0.424247 0.0055848 0
0.459525 0.00564584 0
0.49572 0.00560006 0
0.533288 0.00572213 0
0.571466 0.00544747 0
0.61062 0.00505074 0
0.650675 0.00456245 0
0.691752 0.00392157 0
0.733776 0.0034638 0
0 0.00956741 0
0 0.00697337 0
0 0.00509651 0
0 0.00442512 0
0 0.00485237 0
0 0.0069276 0
0 0.0107118 0
0 0.013611 0
0 0.0167086 0
0.0125582 0.0195621 0
0.0318303 0.0218662 0
0.0527657 0.0239109 0
0.0753185 0.025742 0
0.0992752 0.0273747 0
0.124651 0.0291447 0
0.150927 0.0305333 0
0.178256 0.0318151 0
0.206592 0.0330053 0
0.235904 0.0341039 0
0.266239 0.0351873 0
0.297734 0.036286 0
0.329885 0.0371099 0
0.362829 0.0378729 0
0.396643 0.0385443 0
0.431357 0.0391394 0
0.46714 0.0397498 0
0.503883 0.0402991 0
0.541314 0.040589 0
0.579797 0.0407111 0
0.619272 0.0407263 0
0.659617 0.0406348 0
0.701289 0.0405585 0
0.743435 0.0404059 0
0 0.0308537 0
0 0.0293126 0
0 0.028275 0
0 0.0281834 0
0 0.0292973 0
0 0.0320287 0
0 0.0364843 0
0 0.0403296 0
0 0.0440833 0
0.0148623 0.047303 0
0.034638 0.0501717 0
0.0560311 0.052781 0
0.079057 0.0551461 0
0.1037 0.0575875 0
0.129244 0.0596017 0
0.155947 0.0614939 0
0.183688 0.0632639 0
0.212421 0.0649271 0
0.242176 0.0665293 0
0.273075 0.0682231 0
0.304707 0.0695659 0
0.337209 0.0708324 0
0.37052 0.0720073 0
0.404685 0.073106 0
0.439887 0.0742046 0
0.476097 0.075288 0
0.512947 0.0760662 0
0.550713 0.0767224 0
0.589517 0.0772412 0
0.629313 0.0776074 0
0.670451 0.0781872 0
0.712154 0.078294 0
0.754437 0.0783703 0
0 0.0554513 0
0 0.0545052 0
0 0.0541085 0
0 0.0546426 0
0 0.0563821 0
0 0.0597086 0
0 0.0650187 0
0 0.0692149 0
0 0.0735485 0
0.0178073 0.0772412 0
0.0381018 0.0806134 0
0.0599832 0.083711 0
0.083711 0.0868238 0
0.108568 0.0894636 0
0.134554 0.0919356 0
0.161669 0.0942702 0
0.189837 0.0964828 0
0.219287 0.0988632 0
0.249393 0.100832 0
0.280415 0.102708 0
0.312413 0.104448 0
0.345312 0.106096 0
0.379004 0.107698 0
0.413901 0.109453 0
0.449317 0.110826 0
0.485618 0.112078 0
0.522805 0.113222 0
0.560922 0.114244 0
0.600183 0.115175 0
0.64065 0.116136 0
0.681666 0.116732 0
0.723705 0.117174 0
0.766308 0.117571 0
0 0.0826734 0
0 0.0822766 0
0 0.082475 0
0 0.0835584 0
0 0.0860304 0
0 0.0900282 0
0 0.0955978 0
0 0.100298 0
0.00210575 0.105135 0
0.0211337 0.109255 0
0.0420996 0.113329 0
0.0645151 0.116915 0
0.0884718 0.12018 0
0.113771 0.123232 0
0.140185 0.126116 0
0.167712 0.128862 0
0.196597 0.131777 0
0.226139 0.134249 0
0.256626 0.136614 0
0.288029 0.138872 0
0.320409 0.140978 0
0.353658 0.142992 0
0.388067 0.145251 0
0.422965 0.147082 0
0.458732 0.148791 0
0.495384 0.150393 0
0.532921 0.151873 0
0.571435 0.153292 0
0.611307 0.154742 0
0.651774 0.155795 0
0.693126 0.15671 0
0.735485 0.157458 0
0.778408 0.15816 0
0 0.112184 0
0 0.112337 0
0 0.113039 0
0 0.114824 0
0 0.117754 0
0 0.122164 0
0 0.128206 0
0 0.13341 0
0.00518807 0.138674 0
0.0249638 0.14342 0
0.0463264 0.147707 0
0.0691844 0.151629 0
0.0935836 0.155291 0
0.119326 0.158724 0
0.146166 0.162005 0
0.174395 0.165454 0
0.203372 0.168414 0
0.233326 0.171252 0
0.264195 0.173983 0
0.295964 0.176577 0
0.329046 0.179355 0
0.362707 0.181735 0
0.397101 0.184009 0
0.432349 0.186175 0
0.468467 0.18822 0
0.505455 0.190143 0
0.543755 0.192279 0
0.582544 0.193957 0
0.622385 0.195438 0
0.663188 0.19678 0
0.70486 0.198001 0
0.7476 0.199069 0
0.791302 0.200412 0
0 0.143755 0
0 0.144396 0
0 0.145907 0
0 0.148013 0
0 0.151293 0
0 0.156207 0
0 0.162676 0
0 0.168521 0
0.00885023 0.174319 0
0.0291142 0.179156 0
0.0509499 0.183719 0
0.0742657 0.188022 0
0.0991379 0.192035 0
0.125475 0.196048 0
0.15285 0.199786 0
0.181216 0.20325 0
0.21059 0.206577 0
0.240909 0.209751 0
0.272175 0.212802 0
0.304616 0.216037 0
0.337804 0.218875 0
0.371786 0.221546 0
0.406546 0.22414 0
0.442145 0.226612 0
0.478599 0.228962 0
0.516365 0.231556 0
0.554574 0.233646 0
0.593713 0.235615 0
0.633875 0.2374 0
0.675013 0.239033 0
0.717021 0.240528 0
0.760525 0.242222 0
0.80412 0.243503 0
0 0.177295 0
0 0.178668 0
0 0.180331 0
0 0.182895 0
0 0.186633 0
0 0.19202 0
0 0.199039 0
0 0.205417 0
0.0127108 0.211307 0
0.0335699 0.216449 0
0.0559243 0.221347 0
0.0797131 0.225971 0
0.105165 0.230518 0
0.131899 0.234806 0
0.159594 0.238743 0
0.188357 0.242527 0
0.218128 0.246174 0
0.248844 0.249668 0
0.280827 0.253407 0
0.313359 0.256641 0
0.346853 0.259739 0
0.381201 0.262715 0
0.416297 0.265599 0
0.452552 0.26865 0
0.489479 0.271382 0
0.527153 0.273899 0
0.565713 0.27628 0
0.605173 0.278538 0
0.645685 0.280598 0
0.687572 0.282856 0
0.729961 0.284657 0
0.773312 0.286244 0
0.817227 0.2878 0
0 0.212818 0
0 0.214374 0
0 0.216464 0
0 0.219455 0
0 0.223651 0
0 0.229892 0
0 0.23714 0
0 0.243809 0
0.016907 0.249836 0
0.0383764 0.255268 0
0.0612955 0.260578 0
0.0857404 0.265797 0
0.111513 0.270436 0
0.138552 0.274876 0
0.166659 0.279118 0
0.195834 0.283207 0
0.226154 0.287327 0
0.257435 0.291325 0
0.289464 0.294987 0
0.322362 0.298528 0
0.356207 0.3019 0
0.390921 0.305165 0
0.426627 0.308598 0
0.463081 0.311772 0
0.500237 0.314702 0
0.538247 0.317494 0
0.577142 0.32015 0
0.616938 0.322652 0
0.658167 0.325307 0
0.700038 0.32755 0
0.742718 0.32958 0
0.786404 0.331426 0
0.830625 0.333227 0
0 0.249714 0
0 0.251698 0
0 0.2542 0
0 0.257633 0
0 0.262623 0
0 0.268971 0
0 0.27657 0
0.00175479 0.283635 0
0.0214542 0.289845 0
0.0435492 0.295628 0
0.0670939 0.301427 0
0.0918441 0.306645 0
0.118059 0.311589 0
0.145541 0.316304 0
0.17406 0.320851 0
0.203754 0.325383 0
0.234516 0.329839 0
0.266011 0.333913 0
0.298405 0.337865 0
0.33167 0.34168 0
0.365881 0.345327 0
0.401328 0.349264 0
0.43714 0.352712 0
0.473793 0.356023 0
0.511284 0.359213 0
0.549645 0.362264 0
0.58912 0.365393 0
0.629465 0.368353 0
0.670634 0.370932 0
0.712749 0.373342 0
0.755749 0.375631 0
0.799756 0.377707 0
0.844678 0.380056 0
0 0.288182 0
0 0.290547 0
0 0.293462 0
0 0.297673 0
0 0.302724 0
0 0.309545 0
0 0.317464 0
0.00581369 0.324849 0
0.0265202 0.33167 0
0.0491646 0.337621 0
0.0730602 0.343359 0
0.0982681 0.348852 0
0.124926 0.35407 0
0.15285 0.359106 0
0.182071 0.364279 0
0.212055 0.368933 0
0.243 0.373419 0
0.274876 0.377752 0
0.307637 0.381964 0
0.341375 0.38616 0
0.376226 0.390372 0
0.411643 0.394171 0
0.447807 0.397879 0
0.484794 0.401434 0
0.522622 0.404883 0
0.561532 0.408377 0
0.601328 0.411765 0
0.641794 0.414771 0
0.683299 0.417594 0
0.72575 0.420249 0
0.769055 0.422766 0
0.813718 0.425361 0
0.858763 0.427787 0
0 0.328115 0
0 0.331212 0
0 0.334569 0
0 0.338796 0
0 0.344259 0
0 0.351537 0
0 0.359777 0
0.0104067 0.367849 0
0.031693 0.374441 0
0.0549172 0.380621 0
0.0793011 0.386603 0
0.104982 0.392355 0
0.132082 0.397833 0
0.160708 0.403494 0
0.190051 0.40856 0
0.220432 0.413458 0
0.251774 0.418204 0
0.284016 0.422797 0
0.31722 0.427359 0
0.351522 0.432013 0
0.386465 0.436179 0
0.422232 0.440238 0
0.458732 0.444175 0
0.496056 0.44799 0
0.534676 0.452094 0
0.573709 0.45565 0
0.613596 0.459037 0
0.654383 0.462287 0
0.696223 0.465354 0
0.739162 0.468391 0
0.783123 0.471412 0
0.827787 0.47396 0
0.872969 0.476463 0
0 0.369787 0
0 0.373022 0
0 0.376699 0
0 0.381308 0
0 0.387182 0
0 0.394949 0
0 0.403937 0
0.0151217 0.411734 0
0.0370947 0.418509 0
0.0608835 0.424903 0
0.085771 0.431128 0
0.112154 0.437537 0
0.139727 0.443259 0
0.168475 0.448753 0
0.19823 0.454078 0
0.228992 0.45922 0
0.260716 0.46421 0
0.29369 0.46949 0
0.327199 0.474189 0
0.361563 0.478767 0
0.396841 0.483162 0
0.432959 0.487449 0
0.469856 0.491676 0
0.507897 0.496117 0
0.54641 0.500038 0
0.585763 0.503807 0
0.625986 0.507439 0
0.667094 0.510918 0
0.709392 0.514321 0
0.752834 0.517739 0
0.796796 0.520714 0
0.841764 0.523476 0
0.887266 0.526192 0
0 0.412604 0
0 0.416114 0
0 0.420157 0
0 0.425147 0
0 0.431739 0
0 0.440162 0
0.00106813 0.449042 0
0.0201267 0.45687 0
0.0427863 0.463813 0
0.0671244 0.47042 0
0.0927138 0.477241 0
0.119356 0.483528 0
0.147341 0.489464 0
0.176501 0.495186 0
0.206668 0.500755 0
0.237812 0.506127 0
0.270268 0.511803 0
0.303258 0.516869 0
0.337133 0.521813 0
0.371832 0.526604 0
0.407477 0.531243 0
0.443946 0.53576 0
0.481529 0.540612 0
0.519539 0.544884 0
0.558373 0.549035 0
0.598062 0.553033 0
0.638605 0.556878 0
0.680507 0.561028 0
0.722988 0.564523 0
0.7664 0.567849 0
0.810681 0.571023 0
0.85597 0.573999 0
0.901869 0.57702 0
0 0.456596 0
0 0.460456 0
0 0.464866 0
0 0.470512 0
0 0.477378 0
0 0.486137 0
0.00531014 0.495308 0
0.025452 0.503182 0
0.0487831 0.510292 0
0.07393 0.517555 0
0.099794 0.524208 0
0.126848 0.530648 0
0.155276 0.536797 0
0.184848 0.542748 0
0.215656 0.548867 0
0.247288 0.554574 0
0.279774 0.560021 0
0.31313 0.565316 0
0.347356 0.570474 0
0.382422 0.575509 0
0.418784 0.580789 0
0.455619 0.58555 0
0.493156 0.590188 0
0.531487 0.594675 0
0.570657 0.599023 0
0.610666 0.603235 0
0.651987 0.607767 0
0.693751 0.611673 0
0.736553 0.615381 0
0.78027 0.618906 0
0.824872 0.622293 0
0.870527 0.625528 0
0.917113 0.629068 0
0 0.501854 0
0 0.506188 0
0 0.511284 0
0 0.517021 0
0 0.524117 0
0 0.533333 0
0.00999466 0.542687 0
0.0311589 0.550881 0
0.0552529 0.558404 0
0.0807202 0.565377 0
0.107073 0.572229 0
0.134569 0.578882 0
0.163424 0.585245 0
0.193622 0.591714 0
0.224704 0.597864 0
0.256626 0.603677 0
0.289479 0.609339 0
0.323217 0.614847 0
0.357794 0.620218 0
0.393545 0.625864 0
0.429938 0.630991 0
0.467094 0.635935 0
0.504952 0.640787 0
0.543603 0.645472 0
0.583108 0.65005 0
0.623896 0.654932 0
0.66508 0.659205 0
0.707164 0.66331 0
0.750271 0.667231 0
0.794308 0.670954 0
0.839734 0.675013 0
0.885649 0.678401 0
0.932082 0.681727 0
0 0.548409 0
0 0.553307 0
0 0.55845 0
0 0.564553 0
0 0.572061 0
0 0.581704 0
0.0150607 0.591394 0
0.0370947 0.599741 0
0.0617227 0.607172 0
0.0877241 0.614313 0
0.114549 0.621363 0
0.142504 0.628214 0
0.172076 0.635264 0
0.202487 0.641627 0
0.233845 0.647822 0
0.266148 0.653834 0
0.299382 0.659709 0
0.333684 0.66569 0
0.368795 0.671489 0
0.404562 0.676921 0
0.44123 0.6822 0
0.478721 0.687343 0
0.516899 0.692393 0
0.556222 0.697658 0
0.596155 0.702541 0
0.63682 0.707164 0
0.678325 0.711635 0
0.720714 0.715938 0
0.764126 0.720043 0
0.808957 0.724422 0.00260929
0.854215 0.728237 0.00540169
0.90045 0.731807 0.00801099
0.947173 0.735332 0.0105287
0 0.596414 0
0 0.601297 0
0 0.606775 0
0 0.61326 0
0 0.621241 0
0.00302129 0.631815 0
0.0204623 0.641306 0
0.0431678 0.649454 0
0.0684062 0.657023 0
0.0949264 0.664347 0
0.122301 0.671733 0
0.150896 0.679118 0
0.180606 0.685863 0
0.211414 0.692424 0
0.243153 0.698817 0
0.275837 0.705043 0
0.309606 0.711345 0
0.344259 0.71751 0
0.379553 0.723293 0
0.415656 0.728939 0
0.452659 0.734417 0
0.490486 0.739757 0
0.52929 0.745327 0
0.56875 0.750591 0
0.608881 0.75555 0
0.649851 0.760372 0
0.691676 0.765026 0.00334173
0.734371 0.769528 0.00666819
0.778607 0.774319 0.0101167
0.82327 0.778439 0.013138
0.868788 0.782406 0.016022
0.915328 0.78616 0.0187533
0.962356 0.789868 0.0214084
0 0.645228 0
0 0.650431 0
0 0.656245 0
0 0.663111 0
0 0.671946 0
0.0071107 0.682567 0
0.0259861 0.691981 0
0.049424 0.700236 0
0.0752575 0.707958 0
0.102358 0.715557 0
0.130343 0.723354 0
0.159167 0.730571 0
0.189273 0.737514 0
0.220478 0.744274 0
0.252598 0.750851 0
0.286015 0.757763 0
0.319982 0.764035 0
0.354788 0.770138 0
0.390417 0.776104 0
0.426856 0.781949 0
0.464378 0.787808 0
0.502785 0.793652 0
0.541619 0.799084 0
0.581262 0.804379 0.00233463
0.621714 0.809537 0.00619516
0.662989 0.814542 0.00991836
0.705394 0.819669 0.0136721
0.748608 0.824582 0.0172427
0.792645 0.829068 0.0205234
0.837613 0.833356 0.0236667
0.883436 0.837507 0.0266728
0.930282 0.841459 0.0295262
0.978012 0.845716 0.0325017
0 0.695155 0
0 0.700679 0
0 0.707332 0
0 0.714565 0
0 0.723339 0
0.01178 0.734295 0
0.0317235 0.743709 0
0.0558633 0.752071 0
0.082536 0.760449 0
