assets/cube/dream_1.cube
TITLE "Generated by Resolve"
LUT_3D_SIZE 5
0 0 0
0.268406 0.0184176 0
0.536812 0.03682 0
0.805234 0.0552377 0
1 0.07364 0
0 0.213886 0.463874
0.232303 0.232303 0.227298
0.50071 0.250706 0
0.769131 0.269123 0
1 0.287541 0
0 0.427787 0.927779
0.196201 0.446204 0.691203
0.464622 0.464622 0.454612
0.733028 0.483024 0.218021
1 0.501442 0
0 0.641703 1
0.160098 0.660105 1
0.428519 0.678523 0.918517
0.696925 0.696925 0.681926
0.965347 0.715343 0.445335
0 0.855604 1
0.123995 0.874006 1
0.392416 0.892424 1
0.660822 0.910826 1
0.929244 0.929244 0.909239
0.0184176 0.0184176 0.0134127
0.286809 0.03682 0
0.55523 0.0552377 0
0.823636 0.07364 0
1 0.0920577 0
0 0.232303 0.477287
0.250706 0.250706 0.240711
0.519127 0.269123 0.00411994
0.787533 0.287526 0
1 0.305943 0
0 0.446204 0.941192
0.214603 0.464607 0.704616
0.483024 0.483024 0.468025
0.751446 0.501442 0.231434
1 0.519844 0
0 0.660105 1
0.178515 0.678523 1
0.446921 0.696925 0.93193
0.715343 0.715343 0.695338
0.983749 0.733745 0.458747
0 0.874006 1
0.142412 0.892424 1
0.410819 0.910826 1
0.67924 0.929244 1
0.947662 0.947662 0.922652
0.03682 0.03682 0.0268254
0.305226 0.0552377 0
0.573632 0.07364 0
0.842054 0.0920577 0
1 0.11046 0
0.000717174 0.250706 0.4907
0.269123 0.269123 0.254124
0.53753 0.287526 0.0175326
0.805951 0.305943 0
1 0.324361 0
0 0.464622 0.954604
0.233021 0.483024 0.718029
0.501442 0.501442 0.481437
0.769848 0.519844 0.244846
1 0.538262 0.00825513
0 0.678523 1
0.196918 0.696925 1
0.465339 0.715343 0.945342
0.733745 0.733745 0.708751
1 0.752163 0.47216
0 0.892424 1
0.160815 0.910826 1
0.429236 0.929244 1
0.697658 0.947662 1
0.966064 0.966064 0.936065
0.0552377 0.0552377 0.040238
0.323629 0.07364 0
0.59205 0.0920577 0
0.860456 0.11046 0
1 0.128878 0
0.0191348 0.269123 0.504112
0.287526 0.287526 0.267536
0.555947 0.305943 0.0309453
0.824369 0.324361 0
1 0.342763 0
0 0.483024 0.968017
0.251438 0.501442 0.731441
0.519844 0.519844 0.49485
0.788266 0.538262 0.258259
1 0.556664 0.0216678
0 0.696925 1
0.215335 0.715343 1
0.483742 0.733745 0.958755
0.752163 0.752163 0.722164
1 0.770581 0.485573
0 0.910826 1
0.179232 0.929244 1
0.447654 0.947662 1
0.71606 0.966064 1
0.984482 0.984482 0.949477
0.07364 0.07364 0.0536507
0.342046 0.0920577 0
0.610452 0.11046 0
0.878874 0.128878 0
1 0.147295 0
0.0375525 0.287541 0.517525
0.305943 0.305943 0.280949
0.574365 0.324361 0.044358
0.842771 0.342763 0
1 0.361181 0
0.00144961 0.501442 0.98143
0.269841 0.519844 0.744854
0.538262 0.538262 0.508263
0.806668 0.556664 0.271672
1 0.575082 0.0350805
0 0.715343 1
0.233738 0.733745 1
0.502159 0.752163 0.972168
0.770581 0.770581 0.735576
1 0.788983 0.498985
0 0.929244 1
0.19765 0.947662 1
0.466056 0.966064 1
0.734478 0.984482 1
1 1 0.96289
