assets/cube/dream_1.cube
TITLE "Generated by Resolve"
LUT_3D_SIZE 9
0 0 0
0.134188 0.00920119 0
0.268406 0.0184176 0
0.402609 0.0276188 0
0.536812 0.03682 0
0.671016 0.0460212 0
0.805234 0.0552377 0
0.939437 0.0644388 0
1 0.07364 0
0 0.106935 0.231922
0.116136 0.116136 0.113649
0.250355 0.125353 0
0.384558 0.134554 0
0.518761 0.143755 0
0.652979 0.152972 0
0.787182 0.162173 0
0.921386 0.171374 0
1 0.180575 0
0 0.213886 0.463874
0.0981003 0.223102 0.345602
0.232303 0.232303 0.227298
0.366506 0.241505 0.10901
0.50071 0.250706 0
0.634928 0.259922 0
0.769131 0.269123 0
0.903334 0.278325 0
1 0.287541 0
0 0.320836 0.695827
0.0800488 0.330053 0.577554
0.214252 0.339254 0.459251
0.348455 0.348455 0.340963
0.482658 0.357656 0.22266
0.616876 0.366873 0.104372
0.75108 0.376074 0
0.885283 0.385275 0
1 0.394491 0
0 0.427787 0.927779
0.0619974 0.437003 0.809506
0.196201 0.446204 0.691203
0.330404 0.455406 0.572915
0.464622 0.464622 0.454612
0.598825 0.473823 0.336324
0.733028 0.483024 0.218021
0.867231 0.492226 0.099733
1 0.501442 0
0 0.534752 1
0.043946 0.543954 1
0.178149 0.553155 0.923156
0.312352 0.562356 0.804868
0.446571 0.571572 0.686564
0.580774 0.580774 0.568276
0.714977 0.589975 0.449973
0.84918 0.599176 0.331685
0.983398 0.608392 0.213382
0 0.641703 1
0.0258946 0.650904 1
0.160098 0.660105 1
0.294301 0.669306 1
0.428519 0.678523 0.918517
0.562722 0.687724 0.800229
0.696925 0.696925 0.681926
0.831144 0.706142 0.563638
0.965347 0.715343 0.445335
0 0.748653 1
0.00784314 0.757855 1
0.142046 0.767056 1
0.276249 0.776257 1
0.410468 0.785473 1
0.544671 0.794675 1
0.678874 0.803876 0.913878
0.813092 0.813092 0.79559
0.947295 0.822293 0.677287
0 0.855604 1
0 0.864805 1
0.123995 0.874006 1
0.258213 0.883223 1
0.392416 0.892424 1
0.526619 0.901625 1
0.660822 0.910826 1
0.795041 0.920043 1
0.929244 0.929244 0.909239
0.00920119 0.00920119 0.00669871
0.143389 0.0184024 0
0.277607 0.0276188 0
0.41181 0.03682 0
0.546014 0.0460212 0
0.680232 0.0552377 0
0.814435 0.0644388 0
0.948638 0.07364 0
1 0.0828412 0
0 0.116136 0.238636
0.125353 0.125353 0.120348
0.259556 0.134554 0.00204471
0.393759 0.143755 0
0.527977 0.152972 0
0.662181 0.162173 0
0.796384 0.171374 0
0.930587 0.180575 0
1 0.189792 0
0 0.223102 0.470588
0.107301 0.232303 0.3523
0.241505 0.241505 0.234012
0.375708 0.250706 0.115709
0.509926 0.259922 0
0.644129 0.269123 0
0.778332 0.278325 0
0.912535 0.287526 0
1 0.296742 0
0 0.330053 0.702541
0.08925 0.339254 0.584253
0.223453 0.348455 0.465965
0.357656 0.357656 0.347662
0.491875 0.366873 0.229374
0.626078 0.376074 0.11107
0.760281 0.385275 0
0.894499 0.394491 0
1 0.403693 0
0 0.437003 0.934493
0.0711986 0.446204 0.816205
0.205402 0.455406 0.697917
0.339605 0.464607 0.579614
0.473823 0.473823 0.461326
0.608026 0.483024 0.343023
0.742229 0.492226 0.22472
0.876448 0.501442 0.106432
1 0.510643 0
0 0.543954 1
0.0531472 0.553155 1
0.18735 0.562356 0.92987
0.321569 0.571572 0.811566
0.455772 0.580774 0.693278
0.589975 0.589975 0.574975
0.724178 0.599176 0.456687
0.858396 0.608392 0.338384
0.992599 0.617594 0.220081
0 0.650904 1
0.0350958 0.660105 1
0.169299 0.669306 1
0.303517 0.678523 1
0.43772 0.687724 0.925231
0.571923 0.696925 0.806928
0.706127 0.706127 0.68864
0.840345 0.715343 0.570336
0.974548 0.724544 0.452049
0 0.757855 1
0.0170443 0.767056 1
0.151247 0.776257 1
0.285466 0.785473 1
0.419669 0.794675 1
0.553872 0.803876 1
0.68809 0.813092 0.920592
0.822293 0.822293 0.802289
0.956497 0.831495 0.684001
0 0.864805 1
0 0.874006 1
0.133196 0.883207 1
0.267414 0.892424 1
0.401617 0.901625 1
0.535821 0.910826 1
0.670039 0.920043 1
0.804242 0.929244 1
0.938445 0.938445 0.915953
0.0184176 0.0184176 0.0134127
0.152605 0.0276188 0
0.286809 0.03682 0
0.421012 0.0460212 0
0.55523 0.0552377 0
0.689433 0.0644388 0
0.823636 0.07364 0
0.957839 0.0828412 0
1 0.0920577 0
0.000366217 0.125353 0.245335
0.134554 0.134554 0.127047
0.268757 0.143755 0.00875868
0.402975 0.152972 0
0.537179 0.162173 0
0.671382 0.171374 0
0.805585 0.180575 0
0.939803 0.189792 0
1 0.198993 0
0 0.232303 0.477287
0.116503 0.241505 0.359014
0.250706 0.250706 0.240711
0.384924 0.259922 0.122408
0.519127 0.269123 0.00411994
0.65333 0.278325 0
0.787533 0.287526 0
0.921752 0.296742 0
1 0.305943 0
0 0.339254 0.709239
0.0984512 0.348455 0.590967
0.232654 0.357656 0.472663
0.366873 0.366873 0.354376
0.501076 0.376074 0.236072
0.635279 0.385275 0.117769
0.769497 0.394491 0
0.9037 0.403693 0
1 0.412894 0
0 0.446204 0.941192
0.0803998 0.455406 0.822919
0.214603 0.464607 0.704616
0.348821 0.473823 0.586328
0.483024 0.483024 0.468025
0.617227 0.492226 0.349737
0.751446 0.501442 0.231434
0.885649 0.510643 0.11313
1 0.519844 0
0 0.553155 1
0.0623484 0.562356 1
0.196567 0.571572 0.936568
0.33077 0.580774 0.81828
0.464973 0.589975 0.699977
0.599176 0.599176 0.581689
0.733394 0.608392 0.463386
0.867597 0.617594 0.345083
1 0.626795 0.226795
0 0.660105 1
0.0442969 0.669306 1
0.178515 0.678523 1
0.312718 0.687724 1
0.446921 0.696925 0.93193
0.581125 0.706127 0.813642
0.715343 0.715343 0.695338
0.849546 0.724544 0.57705
0.983749 0.733745 0.458747
0 0.767056 1
0.0262455 0.776257 1
0.160464 0.785473 1
0.294667 0.794675 1
0.42887 0.803876 1
0.563088 0.813092 1
0.697292 0.822293 0.927291
0.831495 0.831495 0.809003
0.965698 0.840696 0.6907
0 0.874006 1
0.00819409 0.883207 1
0.142412 0.892424 1
0.276616 0.901625 1
0.410819 0.910826 1
0.545037 0.920043 1
0.67924 0.929244 1
0.813443 0.938445 1
0.947662 0.947662 0.922652
0.0276188 0.0276188 0.0201114
0.161807 0.03682 0
0.29601 0.0460212 0
0.430228 0.0552377 0
0.564431 0.0644388 0
0.698634 0.07364 0
0.832837 0.0828412 0
0.967056 0.0920577 0
1 0.101259 0
0.00956741 0.134554 0.252049
0.143755 0.143755 0.133761
0.277974 0.152972 0.0154574
0.412177 0.162173 0
0.54638 0.171374 0
0.680583 0.180575 0
0.814801 0.189792 0
0.949004 0.198993 0
1 0.208194 0
0 0.241505 0.484001
0.125704 0.250706 0.365713
0.259922 0.259922 0.24741
0.394125 0.269123 0.129122
0.528328 0.278325 0.0108186
0.662531 0.287526 0
0.79675 0.296742 0
0.930953 0.305943 0
1 0.315145 0
0 0.348455 0.715953
0.107652 0.357656 0.597665
0.241871 0.366873 0.479377
0.376074 0.376074 0.361074
0.510277 0.385275 0.242771
0.644495 0.394491 0.124483
0.778698 0.403693 0.0061799
0.912902 0.412894 0
1 0.422095 0
0 0.455406 0.947906
0.089601 0.464607 0.829618
0.223819 0.473823 0.71133
0.358022 0.483024 0.593027
0.492226 0.492226 0.474723
0.626444 0.501442 0.356435
0.760647 0.510643 0.238132
0.89485 0.519844 0.119844
1 0.529061 0.00154116
0 0.562356 1
0.0715648 0.571572 1
0.205768 0.580774 0.943282
0.339971 0.589975 0.824979
0.474174 0.599176 0.706691
0.608392 0.608392 0.588388
0.742596 0.617594 0.470085
0.876799 0.626795 0.351797
1 0.636011 0.233494
0 0.669306 1
0.0535134 0.678523 1
0.187716 0.687724 1
0.32192 0.696925 1
0.456123 0.706127 0.938643
0.590341 0.715343 0.82034
0.724544 0.724544 0.702052
0.858747 0.733745 0.583749
0.992966 0.742962 0.465446
0 0.776257 1
0.035462 0.785473 1
0.169665 0.794675 1
0.303868 0.803876 1
0.438087 0.813092 1
0.57229 0.822293 1
0.706493 0.831495 0.934005
0.840696 0.840696 0.815702
0.974914 0.849912 0.697414
0 0.883223 1
0.0174105 0.892424 1
0.151614 0.901625 1
0.285817 0.910826 1
0.420035 0.920043 1
0.554238 0.929244 1
0.688441 0.938445 1
0.82266 0.947662 1
0.956863 0.956863 0.929366
0.03682 0.03682 0.0268254
0.171008 0.0460212 0
0.305226 0.0552377 0
0.439429 0.0644388 0
0.573632 0.07364 0
0.707835 0.0828412 0
0.842054 0.0920577 0
0.976257 0.101259 0
1 0.11046 0
0.0187686 0.143755 0.258747
0.152972 0.152972 0.140459
0.287175 0.162173 0.0221714
0.421378 0.171374 0
0.555581 0.180575 0
0.689799 0.189792 0
0.824002 0.198993 0
0.958206 0.208194 0
1 0.217411 0
0.000717174 0.250706 0.4907
0.13492 0.259922 0.372412
0.269123 0.269123 0.254124
0.403326 0.278325 0.135821
0.53753 0.287526 0.0175326
0.671748 0.296742 0
0.805951 0.305943 0
0.940154 0.315145 0
1 0.324361 0
0 0.357656 0.722652
0.116869 0.366873 0.604379
0.251072 0.376074 0.486076
0.385275 0.385275 0.367773
0.519493 0.394491 0.249485
0.653696 0.403693 0.131182
0.7879 0.412894 0.0128939
0.922103 0.422095 0
1 0.431312 0
0 0.464622 0.954604
0.0988174 0.473823 0.836332
0.233021 0.483024 0.718029
0.367224 0.492226 0.599725
0.501442 0.501442 0.481437
0.635645 0.510643 0.363134
0.769848 0.519844 0.244846
0.904067 0.529061 0.126543
1 0.538262 0.00825513
0 0.571572 1
0.080766 0.580774 1
0.214969 0.589975 0.949981
0.349172 0.599176 0.831693
0.483391 0.608392 0.71339
0.617594 0.617594 0.595087
0.751797 0.626795 0.476799
0.886015 0.636011 0.358495
1 0.645212 0.240208
0 0.678523 1
0.0627146 0.687724 1
0.196918 0.696925 1
0.331121 0.706127 1
0.465339 0.715343 0.945342
0.599542 0.724544 0.827054
0.733745 0.733745 0.708751
0.867964 0.742962 0.590448
1 0.752163 0.47216
0 0.785473 1
0.0446632 0.794675 1
0.178866 0.803876 1
0.313085 0.813092 1
0.447288 0.822293 1
0.581491 0.831495 1
0.715694 0.840696 0.940703
0.849912 0.849912 0.822416
0.984115 0.859113 0.704112
0 0.892424 1
0.0266117 0.901625 1
0.160815 0.910826 1
0.295033 0.920043 1
0.429236 0.929244 1
0.563439 0.938445 1
0.697658 0.947662 1
0.831861 0.956863 1
0.966064 0.966064 0.936065
0.0460212 0.0460212 0.0335241
0.180224 0.0552377 0
0.314427 0.0644388 0
0.448631 0.07364 0
0.582834 0.0828412 0
0.717052 0.0920577 0
0.851255 0.101259 0
0.985458 0.11046 0
1 0.119677 0
0.027985 0.152972 0.265446
0.162173 0.162173 0.147173
0.296376 0.171374 0.0288701
0.430579 0.180575 0
0.564797 0.189792 0
0.699001 0.198993 0
0.833204 0.208194 0
0.967422 0.217411 0
1 0.226612 0
0.00993362 0.259922 0.497414
0.144121 0.269123 0.379126
0.278325 0.278325 0.260822
0.412528 0.287526 0.142535
0.546746 0.296742 0.0242313
0.680949 0.305943 0
0.815152 0.315145 0
0.949371 0.324361 0
1 0.333562 0
0 0.366873 0.729366
0.12607 0.376074 0.611078
0.260273 0.385275 0.492775
0.394491 0.394491 0.374487
0.528695 0.403693 0.256184
0.662898 0.412894 0.137896
0.797101 0.422095 0.0195926
0.931319 0.431312 0
1 0.440513 0
0 0.473823 0.961318
0.108019 0.483024 0.84303
0.242222 0.492226 0.724727
0.37644 0.501442 0.606439
0.510643 0.510643 0.488136
0.644846 0.519844 0.369848
0.779065 0.529061 0.251545
0.913268 0.538262 0.133257
1 0.547463 0.0149538
0 0.580774 1
0.0899672 0.589975 1
0.22417 0.599176 0.956695
0.358389 0.608392 0.838392
0.492592 0.617594 0.720088
0.626795 0.626795 0.601801
0.761013 0.636011 0.483497
0.895216 0.645212 0.365209
1 0.654414 0.246906
0 0.687724 1
0.0719158 0.696925 1
0.206119 0.706127 1
0.340337 0.715343 1
0.47454 0.724544 0.952056
0.608743 0.733745 0.833753
0.742962 0.742962 0.71545
0.877165 0.752163 0.597162
1 0.761364 0.478859
0 0.794675 1
0.0538643 0.803876 1
0.188083 0.813092 1
0.322286 0.822293 1
0.456489 0.831495 1
0.590692 0.840696 1
0.72491 0.849912 0.947417
0.859113 0.859113 0.829114
0.993317 0.868315 0.710811
0 0.901625 1
0.0358129 0.910826 1
0.170031 0.920043 1
0.304234 0.929244 1
0.438437 0.938445 1
0.572656 0.947662 1
0.706859 0.956863 1
0.841062 0.966064 1
0.975265 0.975265 0.942779
0.0552377 0.0552377 0.040238
0.189425 0.0644388 0
0.323629 0.07364 0
0.457832 0.0828412 0
0.59205 0.0920577 0
0.726253 0.101259 0
0.860456 0.11046 0
0.994675 0.119677 0
1 0.128878 0
0.0371862 0.162173 0.27216
0.171374 0.171374 0.153872
0.305577 0.180575 0.035584
0.439796 0.189792 0
0.573999 0.198993 0
0.708202 0.208194 0
0.84242 0.217411 0
0.976623 0.226612 0
1 0.235813 0
0.0191348 0.269123 0.504112
0.153323 0.278325 0.385824
0.287526 0.287526 0.267536
0.421744 0.296742 0.149233
0.555947 0.305943 0.0309453
0.69015 0.315145 0
0.824369 0.324361 0
0.958572 0.333562 0
1 0.342763 0
0.00108339 0.376074 0.736065
0.135271 0.385275 0.617777
0.26949 0.394491 0.499489
0.403693 0.403693 0.381186
0.537896 0.412894 0.262898
0.672099 0.422095 0.144594
0.806317 0.431312 0.0263066
0.94052 0.440513 0
1 0.449714 0
0 0.483024 0.968017
0.11722 0.492226 0.849729
0.251438 0.501442 0.731441
0.385641 0.510643 0.613138
0.519844 0.519844 0.49485
0.654063 0.529061 0.376547
0.788266 0.538262 0.258259
0.922469 0.547463 0.139956
1 0.556664 0.0216678
0 0.589975 1
0.0991684 0.599176 1
0.233387 0.608392 0.963394
0.36759 0.617594 0.84509
0.501793 0.626795 0.726802
0.636011 0.636011 0.608499
0.770214 0.645212 0.490211
0.904418 0.654414 0.371908
1 0.663615 0.25362
0 0.696925 1
0.081117 0.706127 1
0.215335 0.715343 1
0.349538 0.724544 1
0.483742 0.733745 0.958755
0.61796 0.742962 0.840452
0.752163 0.752163 0.722164
0.886366 0.761364 0.603861
1 0.770581 0.485573
0 0.803876 1
0.0630808 0.813092 1
0.197284 0.822293 1
0.331487 0.831495 1
0.46569 0.840696 1
0.599908 0.849912 1
0.734112 0.859113 0.954116
0.868315 0.868315 0.835813
1 0.877531 0.717525
0 0.910826 1
0.0450294 0.920043 1
0.179232 0.929244 1
0.313436 0.938445 1
0.447654 0.947662 1
0.581857 0.956863 1
0.71606 0.966064 1
0.850263 0.975265 1
0.984482 0.984482 0.949477
0.0644388 0.0644388 0.0469368
0.198627 0.07364 0
0.33283 0.0828412 0
0.467048 0.0920577 0
0.601251 0.101259 0
0.735454 0.11046 0
0.869673 0.119677 0
1 0.128878 0
1 0.138079 0
0.0463874 0.171374 0.278859
0.180575 0.180575 0.160586
0.314794 0.189792 0.0422827
0.448997 0.198993 0
0.5832 0.208194 0
0.717418 0.217411 0
0.851621 0.226612 0
0.985824 0.235813 0
1 0.245014 0
0.028336 0.278325 0.510811
0.162524 0.287526 0.392538
0.296742 0.296742 0.274235
0.430945 0.305943 0.155947
0.565148 0.315145 0.037644
0.699367 0.324361 0
0.83357 0.333562 0
0.967773 0.342763 0
1 0.35198 0
0.0102846 0.385275 0.742763
0.144488 0.394491 0.624491
0.278691 0.403693 0.506188
0.412894 0.412894 0.3879
0.547097 0.422095 0.269596
0.681315 0.431312 0.151308
0.815518 0.440513 0.0330053
0.949722 0.449714 0
1 0.45893 0
0 0.492226 0.974731
0.126436 0.501442 0.856443
0.260639 0.510643 0.73814
0.394842 0.519844 0.619852
0.529061 0.529061 0.501549
0.663264 0.538262 0.383261
0.797467 0.547463 0.264958
0.93167 0.556664 0.14667
1 0.565881 0.0283665
0 0.599176 1
0.108385 0.608392 1
0.242588 0.617594 0.970092
0.376791 0.626795 0.851804
0.511009 0.636011 0.733501
0.645212 0.645212 0.615213
0.779416 0.654414 0.49691
0.913619 0.663615 0.378622
1 0.672831 0.260319
0 0.706142 1
0.0903334 0.715343 1
0.224537 0.724544 1
0.35874 0.733745 1
0.492958 0.742962 0.965454
0.627161 0.752163 0.847166
0.761364 0.761364 0.728862
0.895582 0.770581 0.610574
1 0.779782 0.492271
0 0.813092 1
0.072282 0.822293 1
0.206485 0.831495 1
0.340688 0.840696 1
0.474907 0.849912 1
0.60911 0.859113 1
0.743313 0.868315 0.960815
0.877531 0.877531 0.842527
1 0.886732 0.724224
0 0.920043 1
0.0542306 0.929244 1
0.188434 0.938445 1
0.322652 0.947662 1
0.456855 0.956863 1
0.591058 0.966064 1
0.725261 0.975265 1
0.85948 0.984482 1
0.993683 0.993683 0.956176
0.07364 0.07364 0.0536507
0.207828 0.0828412 0
0.342046 0.0920577 0
0.476249 0.101259 0
0.610452 0.11046 0
0.744671 0.119677 0
0.878874 0.128878 0
1 0.138079 0
1 0.147295 0
0.0555886 0.180575 0.285573
0.189792 0.189792 0.167285
0.323995 0.198993 0.0489967
0.458198 0.208194 0
0.592416 0.217411 0
0.726619 0.226612 0
0.860822 0.235813 0
0.995026 0.245014 0
1 0.254231 0
0.0375525 0.287541 0.517525
0.17174 0.296742 0.399237
0.305943 0.305943 0.280949
0.440146 0.315145 0.162646
0.574365 0.324361 0.044358
0.708568 0.333562 0
0.842771 0.342763 0
0.976989 0.35198 0
1 0.361181 0
0.019501 0.394491 0.749477
0.153689 0.403693 0.631189
0.287892 0.412894 0.512901
0.422095 0.422095 0.394598
0.556313 0.431312 0.27631
0.690517 0.440513 0.158007
0.82472 0.449714 0.0397192
0.958938 0.45893 0
1 0.468132 0
0.00144961 0.501442 0.98143
0.135637 0.510643 0.863142
0.269841 0.519844 0.744854
0.404059 0.529061 0.626551
0.538262 0.538262 0.508263
0.672465 0.547463 0.38996
0.806668 0.556664 0.271672
0.940887 0.565881 0.153368
1 0.575082 0.0350805
0 0.608392 1
0.117586 0.617594 1
0.251789 0.626795 0.976806
0.386007 0.636011 0.858503
0.520211 0.645212 0.740215
0.654414 0.654414 0.621912
0.788617 0.663615 0.503624
0.922835 0.672831 0.385321
1 0.682033 0.267033
0 0.715343 1
0.0995346 0.724544 1
0.233738 0.733745 1
0.367956 0.742962 1
0.502159 0.752163 0.972168
0.636362 0.761364 0.853864
0.770581 0.770581 0.735576
0.904784 0.779782 0.617273
1 0.788983 0.498985
0 0.822293 1
0.0814832 0.831495 1
0.215686 0.840696 1
0.349905 0.849912 1
0.484108 0.859113 1
0.618311 0.868315 1
0.752529 0.877531 0.967529
0.886732 0.886732 0.849226
1 0.895933 0.730938
0 0.929244 1
0.0634318 0.938445 1
0.19765 0.947662 1
0.331853 0.956863 1
0.466056 0.966064 1
0.600259 0.975265 1
0.734478 0.984482 1
0.868681 0.993683 1
1 1 0.96289
