assets/cube/dream_1.cube
TITLE "Generated by Resolve"
LUT_3D_SIZE 33
0 0 0
0.0335393 0.00230411 0
0.0670939 0.00460822 0
0.100633 0.00689708 0
0.134188 0.00920119 0
0.167742 0.0115053 0
0.201297 0.0138094 0
0.234852 0.0161135 0
0.268406 0.0184176 0
0.301946 0.0207065 0
0.3355 0.0230106 0
0.369055 0.0253147 0
0.402609 0.0276188 0
0.436164 0.0299229 0
0.469703 0.0322118 0
0.503258 0.0345159 0
0.536812 0.03682 0
0.570367 0.0391241 0
0.603922 0.0414282 0
0.637476 0.0437324 0
0.671016 0.0460212 0
0.70457 0.0483253 0
0.738125 0.0506294 0
0.771679 0.0529335 0
0.805234 0.0552377 0
0.838788 0.0575418 0
0.872328 0.0598306 0
0.905882 0.0621347 0
0.939437 0.0644388 0
0.972992 0.066743 0
1 0.0690471 0
1 0.0713359 0
1 0.07364 0
0 0.0267185 0.0579538
0.0290227 0.0290227 0.028397
0.0625772 0.0313268 0
0.0961318 0.0336309 0
0.129686 0.035935 0
0.163226 0.0382239 0
0.19678 0.040528 0
0.230335 0.0428321 0
0.26389 0.0451362 0
0.297444 0.0474403 0
0.330999 0.0497444 0
0.364538 0.0520333 0
0.398093 0.0543374 0
0.431647 0.0566415 0
0.465202 0.0589456 0
0.498756 0.0612497 0
0.532311 0.0635538 0
0.56585 0.0658427 0
0.599405 0.0681468 0
0.632959 0.0704509 0
0.666514 0.072755 0
0.700069 0.0750591 0
0.733608 0.077348 0
0.767163 0.0796521 0
0.800717 0.0819562 0
0.834272 0.0842603 0
0.867826 0.0865644 0
0.901381 0.0888685 0
0.93492 0.0911574 0
0.968475 0.0934615 0
1 0.0957656 0
1 0.0980697 0
1 0.100374 0
0 0.0534676 0.115953
0.024506 0.0557565 0.0863813
0.0580606 0.0580606 0.0568093
0.0916152 0.0603647 0.0272374
0.12517 0.0626688 0
0.158724 0.0649729 0
0.192279 0.067277 0
0.225818 0.0695659 0
0.259373 0.07187 0
0.292927 0.0741741 0
0.326482 0.0764782 0
0.360037 0.0787823 0
0.393576 0.0810712 0
0.427131 0.0833753 0
0.460685 0.0856794 0
0.49424 0.0879835 0
0.527794 0.0902876 0
0.561349 0.0925917 0
0.594888 0.0948806 0
0.628443 0.0971847 0
0.661997 0.0994888 0
0.695552 0.101793 0
0.729107 0.104097 0
0.762661 0.106401 0
0.796201 0.10869 0
0.829755 0.110994 0
0.86331 0.113298 0
0.896864 0.115602 0
0.930419 0.117906 0
0.963958 0.120195 0
0.997513 0.122499 0
1 0.124804 0
1 0.127108 0
0 0.0802014 0.173938
0.0200046 0.0825055 0.144381
0.0535592 0.0848096 0.114809
0.0870985 0.0870985 0.0852216
0.120653 0.0894026 0.0556497
0.154208 0.0917067 0.0260777
0.187762 0.0940108 0
0.221317 0.0963149 0
0.254856 0.0986038 0
0.288411 0.100908 0
0.321965 0.103212 0
0.35552 0.105516 0
0.389075 0.10782 0
0.422629 0.110124 0
0.456168 0.112413 0
0.489723 0.114717 0
0.523278 0.117021 0
0.556832 0.119326 0
0.590387 0.12163 0
0.623941 0.123934 0
0.657481 0.126223 0
0.691035 0.128527 0
0.72459 0.130831 0
0.758144 0.133135 0
0.791699 0.135439 0
0.825238 0.137728 0
0.858793 0.140032 0
0.892348 0.142336 0
0.925902 0.14464 0
0.959457 0.146944 0
0.993011 0.149248 0
1 0.151537 0
1 0.153841 0
0 0.106935 0.231922
0.0154879 0.109239 0.202365
0.0490425 0.111543 0.172793
0.0825971 0.113848 0.143221
0.116136 0.116136 0.113649
0.149691 0.118441 0.084062
0.183246 0.120745 0.05449
0.2168 0.123049 0.024918
0.250355 0.125353 0
0.283909 0.127657 0
0.317449 0.129946 0
0.351003 0.13225 0
0.384558 0.134554 0
0.418112 0.136858 0
0.451667 0.139162 0
0.485206 0.141451 0
0.518761 0.143755 0
0.552316 0.146059 0
0.58587 0.148363 0
0.619425 0.150668 0
0.652979 0.152972 0
0.686519 0.155261 0
0.720073 0.157565 0
0.753628 0.159869 0
0.787182 0.162173 0
0.820737 0.164477 0
0.854292 0.166781 0
0.887831 0.16907 0
0.921386 0.171374 0
0.95494 0.173678 0
0.988495 0.175982 0
1 0.178286 0
1 0.180575 0
0 0.133669 0.289906
0.0109712 0.135973 0.260349
0.0445258 0.138277 0.230777
0.0780804 0.140581 0.201205
0.111635 0.142885 0.171633
0.14519 0.14519 0.142061
0.178729 0.147478 0.11249
0.212284 0.149783 0.0829023
0.245838 0.152087 0.0533303
0.279393 0.154391 0.0237583
0.312947 0.156695 0
0.346487 0.158984 0
0.380041 0.161288 0
0.413596 0.163592 0
0.44715 0.165896 0
0.480705 0.1682 0
0.51426 0.170504 0
0.547799 0.172793 0
0.581353 0.175097 0
0.614908 0.177401 0
0.648463 0.179706 0
0.682017 0.18201 0
0.715572 0.184314 0
0.749111 0.186603 0
0.782666 0.188907 0
0.81622 0.191211 0
0.849775 0.193515 0
0.88333 0.195819 0
0.916869 0.198108 0
0.950423 0.200412 0
0.983978 0.202716 0
1 0.20502 0
1 0.207324 0
0 0.160418 0.347906
0.00646983 0.162722 0.318349
0.0400092 0.165011 0.288762
0.0735637 0.167315 0.25919
0.107118 0.169619 0.229618
0.140673 0.171923 0.200046
0.174228 0.174228 0.170474
0.207767 0.176516 0.140902
0.241321 0.17882 0.11133
0.274876 0.181125 0.0817426
0.308431 0.183429 0.0521706
0.341985 0.185733 0.0225986
0.37554 0.188037 0
0.409079 0.190326 0
0.442634 0.19263 0
0.476188 0.194934 0
0.509743 0.197238 0
0.543297 0.199542 0
0.576837 0.201831 0
0.610391 0.204135 0
0.643946 0.206439 0
0.677501 0.208743 0
0.711055 0.211048 0
0.74461 0.213352 0
0.778149 0.215641 0
0.811704 0.217945 0
0.845258 0.220249 0
0.878813 0.222553 0
0.912367 0.224857 0
0.945922 0.227161 0
0.979461 0.22945 0
1 0.231754 0
1 0.234058 0
0 0.187152 0.40589
0.00195315 0.189456 0.376333
0.0355077 0.19176 0.346761
0.0690471 0.194049 0.317189
0.102602 0.196353 0.287602
0.136156 0.198657 0.25803
0.169711 0.200961 0.228458
0.203265 0.203265 0.198886
0.23682 0.20557 0.169314
0.270359 0.207858 0.139742
0.303914 0.210163 0.11017
0.337469 0.212467 0.0805829
0.371023 0.214771 0.0510109
0.404578 0.217075 0.0214389
0.438117 0.219364 0
0.471672 0.221668 0
0.505226 0.223972 0
0.538781 0.226276 0
0.572335 0.22858 0
0.60589 0.230884 0
0.639429 0.233173 0
0.672984 0.235477 0
0.706538 0.237781 0
0.740093 0.240085 0
0.773648 0.24239 0
0.807202 0.244694 0
0.840742 0.246983 0
0.874296 0.249287 0
0.907851 0.251591 0
0.941405 0.253895 0
0.97496 0.256199 0
1 0.258488 0
1 0.260792 0
0 0.213886 0.463874
0 0.21619 0.434318
0.0309911 0.218494 0.404746
0.0645457 0.220798 0.375174
0.0981003 0.223102 0.345602
0.13164 0.225391 0.31603
0.165194 0.227695 0.286442
0.198749 0.229999 0.25687
0.232303 0.232303 0.227298
0.265858 0.234607 0.197726
0.299397 0.236896 0.168154
0.332952 0.2392 0.138582
0.366506 0.241505 0.10901
0.400061 0.243809 0.0794232
0.433616 0.246113 0.0498512
0.46717 0.248417 0.0202792
0.50071 0.250706 0
0.534264 0.25301 0
0.567819 0.255314 0
0.601373 0.257618 0
0.634928 0.259922 0
0.668482 0.262226 0
0.702022 0.264515 0
0.735576 0.266819 0
0.769131 0.269123 0
0.802686 0.271427 0
0.83624 0.273732 0
0.86978 0.27602 0
0.903334 0.278325 0
0.936889 0.280629 0
0.970443 0.282933 0
1 0.285237 0
1 0.287541 0
0 0.240635 0.521874
0 0.242924 0.492302
0.0264744 0.245228 0.46273
0.060029 0.247532 0.433158
0.0935836 0.249836 0.403586
0.127138 0.25214 0.374014
0.160678 0.254429 0.344442
0.194232 0.256733 0.31487
0.227787 0.259037 0.285283
0.261341 0.261341 0.255711
0.294896 0.263645 0.226139
0.32845 0.265949 0.196567
0.36199 0.268238 0.166995
0.395544 0.270542 0.137423
0.429099 0.272847 0.107851
0.462654 0.275151 0.0782635
0.496208 0.277455 0.0486915
0.529747 0.279744 0.0191196
0.563302 0.282048 0
0.596857 0.284352 0
0.630411 0.286656 0
0.663966 0.28896 0
0.69752 0.291264 0
0.73106 0.293553 0
0.764614 0.295857 0
0.798169 0.298161 0
0.831724 0.300465 0
0.865278 0.30277 0
0.898833 0.305074 0
0.932372 0.307362 0
0.965927 0.309667 0
0.999481 0.311971 0
1 0.314275 0
0 0.267369 0.579858
0 0.269673 0.550301
0.0219577 0.271962 0.520729
0.0555123 0.274266 0.491142
0.0890669 0.27657 0.46157
0.122621 0.278874 0.431998
0.156176 0.281178 0.402426
0.189731 0.283482 0.372854
0.22327 0.285771 0.343282
0.256825 0.288075 0.31371
0.290379 0.290379 0.284123
0.323934 0.292683 0.254551
0.357488 0.294987 0.224979
0.391028 0.297276 0.195407
0.424582 0.29958 0.165835
0.458137 0.301885 0.136263
0.491691 0.304189 0.106691
0.525246 0.306493 0.0771038
0.558801 0.308797 0.0475319
0.59234 0.311086 0.0179599
0.625895 0.31339 0
0.659449 0.315694 0
0.693004 0.317998 0
0.726558 0.320302 0
0.760113 0.322606 0
0.793652 0.324895 0
0.827207 0.327199 0
0.860761 0.329503 0
0.894316 0.331807 0
0.927871 0.334112 0
0.96141 0.3364 0
0.994965 0.338704 0
1 0.341009 0
0 0.294102 0.637842
0 0.296407 0.608286
0.0174563 0.298711 0.578714
0.0509957 0.300999 0.549142
0.0845502 0.303304 0.51957
0.118105 0.305608 0.489982
0.151659 0.307912 0.46041
0.185214 0.310216 0.430838
0.218769 0.31252 0.401266
0.252308 0.314809 0.371695
0.285863 0.317113 0.342123
0.319417 0.319417 0.312551
0.352972 0.321721 0.282963
0.386526 0.324025 0.253391
0.420081 0.326329 0.223819
0.45362 0.328618 0.194247
0.487175 0.330922 0.164675
0.520729 0.333227 0.135103
0.554284 0.335531 0.105531
0.587839 0.337835 0.0759442
0.621378 0.340124 0.0463722
0.654932 0.342428 0.0168002
0.688487 0.344732 0
0.722042 0.347036 0
0.755596 0.34934 0
0.789151 0.351644 0
0.82269 0.353933 0
0.856245 0.356237 0
0.889799 0.358541 0
0.923354 0.360845 0
0.956909 0.363149 0
0.990463 0.365454 0
1 0.367742 0
0 0.320836 0.695827
0 0.32314 0.66627
0.0129397 0.325444 0.636698
0.0464942 0.327749 0.607126
0.0800488 0.330053 0.577554
0.113588 0.332341 0.547982
0.147143 0.334646 0.518395
0.180697 0.33695 0.488823
0.214252 0.339254 0.459251
0.247807 0.341558 0.429679
0.281361 0.343862 0.400107
0.3149 0.346151 0.370535
0.348455 0.348455 0.340963
0.38201 0.350759 0.311391
0.415564 0.353063 0.281804
0.449119 0.355367 0.252232
0.482658 0.357656 0.22266
0.516213 0.35996 0.193088
0.549767 0.362264 0.163516
0.583322 0.364569 0.133944
0.616876 0.366873 0.104372
0.650431 0.369177 0.0747845
0.68397 0.371466 0.0452125
0.717525 0.37377 0.0156405
0.75108 0.376074 0
0.784634 0.378378 0
0.818189 0.380682 0
0.851743 0.382986 0
0.885283 0.385275 0
0.918837 0.387579 0
0.952392 0.389883 0
0.985946 0.392187 0
1 0.394491 0
0 0.347585 0.753826
0 0.349874 0.724254
0.00842298 0.352178 0.694682
0.0419776 0.354482 0.66511
0.0755322 0.356786 0.635538
0.109087 0.359091 0.605966
0.142641 0.361395 0.576394
0.176181 0.363684 0.546822
0.209735 0.365988 0.517235
0.24329 0.368292 0.487663
0.276844 0.370596 0.458091
0.310399 0.3729 0.428519
0.343938 0.375189 0.398947
0.377493 0.377493 0.369375
0.411048 0.379797 0.339803
0.444602 0.382101 0.310231
0.478157 0.384405 0.280644
0.511711 0.386709 0.251072
0.545251 0.388998 0.2215
0.578805 0.391302 0.191928
0.61236 0.393606 0.162356
0.645914 0.395911 0.132784
0.679469 0.398215 0.103212
0.713008 0.400504 0.0736248
0.746563 0.402808 0.0440528
0.780118 0.405112 0.0144808
0.813672 0.407416 0
0.847227 0.40972 0
0.880781 0.412024 0
0.914321 0.414313 0
0.947875 0.416617 0
0.98143 0.418921 0
1 0.421225 0
0 0.374319 0.81181
0 0.376623 0.782254
0.00390631 0.378912 0.752682
0.0374609 0.381216 0.723095
0.0710155 0.38352 0.693523
0.10457 0.385824 0.663951
0.138125 0.388128 0.634379
0.171679 0.390433 0.604807
0.205219 0.392721 0.575235
0.238773 0.395026 0.545663
0.272328 0.39733 0.516075
0.305882 0.399634 0.486503
0.339437 0.401938 0.456931
0.372992 0.404242 0.427359
0.406531 0.406531 0.397787
0.440085 0.408835 0.368215
0.47364 0.411139 0.338643
0.507195 0.413443 0.309071
0.540749 0.415747 0.279484
0.574289 0.418036 0.249912
0.607843 0.42034 0.22034
0.641398 0.422644 0.190768
0.674952 0.424949 0.161196
0.708507 0.427253 0.131624
0.742061 0.429557 0.102052
0.775601 0.431846 0.0724651
0.809155 0.43415 0.0428931
0.84271 0.436454 0.0133211
0.876265 0.438758 0
0.909819 0.441062 0
0.943374 0.443366 0
0.976913 0.445655 0
1 0.447959 0
0 0.401053 0.869795
0 0.403357 0.840238
0 0.405661 0.810666
0.0329595 0.407965 0.781094
0.0664988 0.410254 0.751522
0.100053 0.412558 0.721935
0.133608 0.414862 0.692363
0.167163 0.417166 0.662791
0.200717 0.419471 0.633219
0.234272 0.421775 0.603647
0.267811 0.424063 0.574075
0.301366 0.426368 0.544503
0.33492 0.428672 0.514916
0.368475 0.430976 0.485344
0.402029 0.43328 0.455772
0.435569 0.435569 0.4262
0.469123 0.437873 0.396628
0.502678 0.440177 0.367056
0.536233 0.442481 0.337484
0.569787 0.444785 0.307912
0.603342 0.447089 0.278325
0.636881 0.449378 0.248753
0.670436 0.451682 0.219181
0.70399 0.453986 0.189609
0.737545 0.456291 0.160037
0.771099 0.458595 0.130465
0.804654 0.460883 0.100893
0.838193 0.463188 0.0713054
0.871748 0.465492 0.0417334
0.905303 0.467796 0.0121614
0.938857 0.4701 0
0.972412 0.472404 0
1 0.474693 0
0 0.427787 0.927779
0 0.430091 0.898222
0 0.432395 0.86865
0.0284428 0.434699 0.839078
0.0619974 0.437003 0.809506
0.0955367 0.439292 0.779934
0.129091 0.441596 0.750362
0.162646 0.4439 0.720775
0.196201 0.446204 0.691203
0.229755 0.448508 0.661631
0.26331 0.450813 0.632059
0.296849 0.453101 0.602487
0.330404 0.455406 0.572915
0.363958 0.45771 0.543343
0.397513 0.460014 0.513756
0.431067 0.462318 0.484184
0.464622 0.464622 0.454612
0.498161 0.466911 0.42504
0.531716 0.469215 0.395468
0.56527 0.471519 0.365896
0.598825 0.473823 0.336324
0.63238 0.476127 0.306752
0.665919 0.478416 0.277165
0.699474 0.48072 0.247593
0.733028 0.483024 0.218021
0.766583 0.485328 0.188449
0.800137 0.487633 0.158877
0.833692 0.489937 0.129305
0.867231 0.492226 0.099733
0.900786 0.49453 0.0701457
0.93434 0.496834 0.0405737
0.967895 0.499138 0.0110018
1 0.501442 0
0 0.454536 0.985779
0 0.456825 0.956222
0 0.459129 0.926635
0.0239261 0.461433 0.897063
0.0574807 0.463737 0.867491
0.0910353 0.466041 0.837919
0.12459 0.468345 0.808347
0.158129 0.470634 0.778775
0.191684 0.472938 0.749203
0.225238 0.475242 0.719615
0.258793 0.477546 0.690044
0.292348 0.47985 0.660471
0.325902 0.482155 0.6309
0.359442 0.484443 0.601328
0.392996 0.486748 0.571756
0.426551 0.489052 0.542184
0.460105 0.491356 0.512596
0.49366 0.49366 0.483024
0.527199 0.495949 0.453452
0.560754 0.498253 0.42388
0.594308 0.500557 0.394308
0.627863 0.502861 0.364736
0.661418 0.505165 0.335164
0.694972 0.507469 0.305592
0.728511 0.509758 0.276005
0.762066 0.512062 0.246433
0.795621 0.514366 0.216861
0.829175 0.51667 0.187289
0.86273 0.518975 0.157717
0.896284 0.521279 0.128145
0.929824 0.523568 0.0985733
0.963378 0.525872 0.068986
0.996933 0.528176 0.0394141
0 0.48127 1
0 0.483574 1
0 0.485878 0.984634
0.0194095 0.488167 0.955062
0.0529641 0.490471 0.925475
0.0865187 0.492775 0.895903
0.120073 0.495079 0.866331
0.153628 0.497383 0.836759
0.187167 0.499672 0.807187
0.220722 0.501976 0.777615
0.254276 0.50428 0.748043
0.287831 0.506584 0.718456
0.321386 0.508888 0.688884
0.35494 0.511193 0.659312
0.388479 0.513481 0.62974
0.422034 0.515785 0.600168
0.455589 0.51809 0.570596
0.489143 0.520394 0.541024
0.522698 0.522698 0.511437
0.556252 0.525002 0.481865
0.589792 0.527291 0.452293
0.623346 0.529595 0.422721
0.656901 0.531899 0.393149
0.690455 0.534203 0.363577
0.72401 0.536507 0.334005
0.757549 0.538796 0.304433
0.791104 0.5411 0.274846
0.824659 0.543404 0.245274
0.858213 0.545708 0.215702
0.891768 0.548012 0.18613
0.925322 0.550317 0.156558
0.958862 0.552605 0.126986
0.992416 0.55491 0.0974136
0 0.508003 1
0 0.510307 1
0 0.512612 1
0.0149081 0.514916 1
0.0484474 0.517205 0.983474
0.082002 0.519509 0.953902
0.115557 0.521813 0.924315
0.149111 0.524117 0.894743
0.182666 0.526421 0.865171
0.21622 0.528725 0.835599
0.24976 0.531014 0.806027
0.283314 0.533318 0.776455
0.316869 0.535622 0.746883
0.350423 0.537926 0.717296
0.383978 0.54023 0.687724
0.417533 0.542535 0.658152
0.451072 0.544823 0.62858
0.484627 0.547127 0.599008
0.518181 0.549432 0.569436
0.551736 0.551736 0.539864
0.58529 0.55404 0.510277
0.61883 0.556329 0.480705
0.652384 0.558633 0.451133
0.685939 0.560937 0.421561
0.719493 0.563241 0.391989
0.753048 0.565545 0.362417
0.786603 0.567849 0.332845
0.820142 0.570138 0.303258
0.853697 0.572442 0.273686
0.887251 0.574746 0.244114
0.920806 0.57705 0.214542
0.95436 0.579355 0.18497
0.987915 0.581659 0.155398
0 0.534752 1
0 0.537041 1
0 0.539345 1
0.0103914 0.54165 1
0.043946 0.543954 1
0.0775006 0.546258 1
0.11104 0.548547 0.982315
0.144594 0.550851 0.952728
0.178149 0.553155 0.923156
0.211704 0.555459 0.893584
0.245258 0.557763 0.864012
0.278813 0.560067 0.83444
0.312352 0.562356 0.804868
0.345907 0.56466 0.775296
0.379461 0.566964 0.745724
0.413016 0.569268 0.716136
0.446571 0.571572 0.686564
0.48011 0.573861 0.656992
0.513664 0.576165 0.62742
0.547219 0.57847 0.597848
0.580774 0.580774 0.568276
0.614328 0.583078 0.538705
0.647883 0.585382 0.509117
0.681422 0.587671 0.479545
0.714977 0.589975 0.449973
0.748531 0.592279 0.420401
0.782086 0.594583 0.390829
0.815641 0.596887 0.361257
0.84918 0.599176 0.331685
0.882734 0.60148 0.302098
0.916289 0.603784 0.272526
0.949844 0.606088 0.242954
0.983398 0.608392 0.213382
0 0.561486 1
0 0.56379 1
0 0.566079 1
0.00587472 0.568383 1
0.0394293 0.570687 1
0.0729839 0.572992 1
0.106538 0.575296 1
0.140078 0.577585 1
0.173632 0.579889 0.981155
0.207187 0.582193 0.951568
0.240742 0.584497 0.921996
0.274296 0.586801 0.892424
0.307851 0.589105 0.862852
0.34139 0.591394 0.83328
0.374945 0.593698 0.803708
0.408499 0.596002 0.774136
0.442054 0.598306 0.744564
0.475608 0.60061 0.714977
0.509163 0.602914 0.685405
0.542702 0.605203 0.655833
0.576257 0.607507 0.626261
0.609812 0.609812 0.596689
0.643366 0.612116 0.567117
0.676921 0.61442 0.537545
0.71046 0.616709 0.507958
0.744015 0.619013 0.478386
0.777569 0.621317 0.448814
0.811124 0.623621 0.419242
0.844678 0.625925 0.38967
0.878233 0.628229 0.360098
0.911772 0.630518 0.330526
0.945327 0.632822 0.300938
0.978882 0.635126 0.271366
0 0.58822 1
0 0.590524 1
0 0.592828 1
0.00135805 0.595117 1
0.0349126 0.597421 1
0.0684672 0.599725 1
0.102022 0.602029 1
0.135576 0.604334 1
0.169131 0.606638 1
0.20267 0.608927 1
0.236225 0.611231 0.979995
0.26978 0.613535 0.950408
0.303334 0.615839 0.920836
0.336889 0.618143 0.891264
0.370443 0.620447 0.861692
0.403983 0.622736 0.83212
0.437537 0.62504 0.802548
0.471092 0.627344 0.772976
0.504646 0.629648 0.743404
0.538201 0.631952 0.713817
0.57174 0.634241 0.684245
0.605295 0.636545 0.654673
0.638849 0.638849 0.625101
0.672404 0.641154 0.595529
0.705959 0.643458 0.565957
0.739513 0.645762 0.536385
0.773053 0.648051 0.506798
0.806607 0.650355 0.477226
0.840162 0.652659 0.447654
0.873716 0.654963 0.418082
0.907271 0.657267 0.38851
0.940826 0.659556 0.358938
0.974365 0.66186 0.329366
0 0.614954 1
0 0.617258 1
0 0.619562 1
0 0.621866 1
0.0304112 0.62417 1
0.0639506 0.626459 1
0.0975052 0.628763 1
0.13106 0.631067 1
0.164614 0.633371 1
0.198169 0.635676 1
0.231708 0.637964 1
0.265263 0.640269 1
0.298817 0.642573 0.978836
0.332372 0.644877 0.949248
0.365927 0.647181 0.919676
0.399481 0.649485 0.890105
0.433021 0.651774 0.860533
0.466575 0.654078 0.830961
0.50013 0.656382 0.801389
0.533684 0.658686 0.771817
0.567239 0.66099 0.742245
0.600793 0.663294 0.712657
0.634333 0.665583 0.683085
0.667887 0.667887 0.653513
0.701442 0.670192 0.623941
0.734997 0.672496 0.594369
0.768551 0.6748 0.564797
0.80209 0.677089 0.535225
0.835645 0.679393 0.505638
0.8692 0.681697 0.476066
0.902754 0.684001 0.446494
0.936309 0.686305 0.416922
0.969863 0.688609 0.38735
0 0.641703 1
0 0.643992 1
0 0.646296 1
0 0.6486 1
0.0258946 0.650904 1
0.0594492 0.653208 1
0.0929885 0.655497 1
0.126543 0.657801 1
0.160098 0.660105 1
0.193652 0.662409 1
0.227207 0.664714 1
0.260761 0.667018 1
0.294301 0.669306 1
0.327855 0.671611 1
0.36141 0.673915 0.977676
0.394965 0.676219 0.948089
0.428519 0.678523 0.918517
0.462074 0.680827 0.888945
0.495613 0.683116 0.859373
0.529168 0.68542 0.829801
0.562722 0.687724 0.800229
0.596277 0.690028 0.770657
0.629831 0.692332 0.741085
0.663371 0.694621 0.711498
0.696925 0.696925 0.681926
0.73048 0.699229 0.652354
0.764035 0.701534 0.622782
0.797589 0.703838 0.59321
0.831144 0.706142 0.563638
0.864683 0.708431 0.534066
0.898238 0.710735 0.504479
0.931792 0.713039 0.474907
0.965347 0.715343 0.445335
0 0.668437 1
0 0.670741 1
0 0.67303 1
0 0.675334 1
0.0213779 0.677638 1
0.0549325 0.679942 1
0.0884871 0.682246 1
0.122042 0.68455 1
0.155581 0.686839 1
0.189136 0.689143 1
0.22269 0.691447 1
0.256245 0.693751 1
0.289799 0.696056 1
0.323339 0.698344 1
0.356893 0.700648 1
0.390448 0.702953 1
0.424002 0.705257 0.976516
0.457557 0.707561 0.946929
0.491112 0.709865 0.917357
0.524651 0.712154 0.887785
0.558206 0.714458 0.858213
0.59176 0.716762 0.828641
0.625315 0.719066 0.799069
0.658869 0.72137 0.769497
0.692424 0.723674 0.739925
0.725963 0.725963 0.710338
0.759518 0.728267 0.680766
0.793072 0.730571 0.651194
0.826627 0.732876 0.621622
0.860182 0.73518 0.59205
0.893721 0.737469 0.562478
0.927275 0.739773 0.532906
0.96083 0.742077 0.503319
0 0.695171 1
0 0.697475 1
0 0.699779 1
0 0.702083 1
0.0168612 0.704372 1
0.0504158 0.706676 1
0.0839704 0.70898 1
0.117525 0.711284 1
0.15108 0.713588 1
0.184619 0.715877 1
0.218173 0.718181 1
0.251728 0.720485 1
0.285283 0.722789 1
0.318837 0.725093 1
0.352392 0.727398 1
0.385931 0.729686 1
0.419486 0.731991 1
0.45304 0.734295 1
0.486595 0.736599 0.975357
0.52015 0.738903 0.945769
0.553704 0.741207 0.916197
0.587243 0.743496 0.886625
0.620798 0.7458 0.857053
0.654353 0.748104 0.827482
0.687907 0.750408 0.797909
0.721462 0.752712 0.768338
0.755001 0.755001 0.738766
0.788556 0.757305 0.709178
0.82211 0.759609 0.679606
0.855665 0.761913 0.650034
0.88922 0.764218 0.620462
0.922774 0.766522 0.59089
0.956313 0.768811 0.561318
0 0.721904 1
0 0.724208 1
0 0.726513 1
0 0.728817 1
0.0123598 0.731121 1
0.0458991 0.73341 1
0.0794537 0.735714 1
0.113008 0.738018 1
0.146563 0.740322 1
