assets/cube/faded_retro_02.cube
TITLE "Generated by Resolve"
LUT_3D_SIZE 5
0.123186 0.131579 0.0274052
0.229221 0.121233 0.0148318
0.476829 0.0715801 0
0.655375 0.0472419 0
0.722759 0.0742809 0
0.092195 0.223468 0
0.223728 0.241032 0.00985733
0.508446 0.231479 0
0.725292 0.248631 0.0190738
0.819089 0.304616 0.0868849
0.047837 0.49102 0
0.202365 0.531838 0
0.499062 0.535348 0
0.719081 0.554696 0.0149996
0.806149 0.600595 0.0732891
0.119097 0.761166 0.0270237
0.264347 0.78819 0.0653086
0.538918 0.770993 0.0410773
0.73257 0.764172 0.0315099
0.794049 0.781643 0.0560464
0.242466 0.909697 0.183749
0.357778 0.909545 0.183536
0.600839 0.864836 0.11931
0.765698 0.832425 0.0728923
0.803738 0.828656 0.0675364
0.117891 0.125933 0.17055
0.222889 0.114717 0.156619
0.471275 0.0659495 0.0972457
0.654536 0.0465705 0.0738842
0.727199 0.0792554 0.113802
0.0933242 0.224765 0.140169
0.229297 0.247349 0.167529
0.51632 0.240192 0.158862
0.735134 0.25948 0.182193
0.829694 0.316258 0.251026
0.0580911 0.502098 0.0985733
0.21355 0.543496 0.150912
0.509468 0.54609 0.154284
0.727489 0.563531 0.176074
0.812375 0.60679 0.231647
0.127779 0.768734 0.188418
0.270115 0.793164 0.222538
0.541253 0.773007 0.194125
0.732067 0.763546 0.180819
0.790661 0.778317 0.201572
0.240909 0.908064 0.331991
0.35288 0.904906 0.327367
0.593225 0.857877 0.259586
0.75639 0.82388 0.211231
0.794003 0.819715 0.205005
0.096788 0.103532 0.524224
0.200992 0.0914626 0.509438
0.451179 0.044831 0.452567
0.639719 0.0310674 0.435889
0.716991 0.068864 0.481926
0.0811933 0.212161 0.505974
0.220233 0.237919 0.537087
0.509239 0.233204 0.531136
0.729824 0.254292 0.556664
0.824781 0.311513 0.626017
0.0530709 0.497124 0.47364
0.208621 0.538598 0.525841
0.503243 0.539864 0.527459
0.719051 0.554955 0.546578
0.801297 0.595651 0.598642
0.11812 0.759503 0.557427
0.257115 0.780865 0.587457
0.525673 0.758236 0.555627
0.713436 0.745846 0.538231
0.768734 0.757824 0.555032
0.220874 0.889662 0.687678
0.329549 0.883558 0.679057
0.567483 0.834195 0.608072
0.729519 0.799207 0.558251
0.76704 0.794751 0.551843
0.0829938 0.0890364 0.767742
0.187625 0.0772869 0.753307
0.440497 0.0335241 0.700069
0.635767 0.0271611 0.692149
0.715984 0.0679484 0.742077
0.0783398 0.209476 0.763699
0.219944 0.237858 0.798154
0.511162 0.235645 0.795178
0.73254 0.257618 0.82208
0.827909 0.315267 0.891859
0.0565957 0.500893 0.739666
0.211429 0.541604 0.790982
0.504891 0.541634 0.791012
0.718044 0.554147 0.806928
0.797574 0.591943 0.855299
0.116564 0.75758 0.816571
0.252491 0.776272 0.842939
0.5178 0.750591 0.806775
0.702739 0.735698 0.786007
0.754757 0.744625 0.798444
0.208896 0.878569 0.933822
0.314153 0.869459 0.920699
0.550286 0.818372 0.847654
0.711635 0.782559 0.796536
0.749187 0.778302 0.790539
0.0832532 0.0892653 0.823072
0.18854 0.0784161 0.809781
0.446174 0.0398413 0.762722
0.646586 0.0390326 0.76173
0.729671 0.082826 0.815122
0.0904097 0.22266 0.834791
0.234287 0.25359 0.872282
0.527489 0.253315 0.871946
0.74966 0.276387 0.899672
0.844694 0.333425 0.9691
0.0743114 0.519356 0.81799
0.228473 0.559228 0.868559
0.519829 0.557031 0.865721
0.730724 0.567056 0.878553
0.807279 0.601846 0.923049
0.129046 0.768978 0.88777
0.261952 0.784772 0.909926
0.524285 0.75639 0.870176
0.706233 0.738979 0.845518
0.754955 0.744778 0.853925
0.211185 0.880369 0.991653
0.31371 0.868955 0.975296
0.548104 0.816403 0.899992
0.709087 0.780133 0.848356
0.746883 0.776089 0.842695
