assets/cube/faded_retro_01.cube
TITLE "Generated by Resolve"
LUT_3D_SIZE 33
0.118578 0.118578 0.169772
0.127367 0.118471 0.169696
0.135241 0.118807 0.16997
0.142977 0.11928 0.170367
0.151629 0.119356 0.170428
0.162661 0.118654 0.169848
0.178302 0.116518 0.168048
0.19942 0.112749 0.165072
0.223606 0.108125 0.161181
0.250034 0.102937 0.157015
0.278386 0.0971389 0.152331
0.308431 0.0908675 0.147066
0.339834 0.0842145 0.141649
0.371969 0.077348 0.13608
0.40415 0.0705425 0.130556
0.435966 0.0640116 0.125261
0.466758 0.057847 0.120058
0.49601 0.0521553 0.11548
0.523354 0.047013 0.111345
0.548638 0.0426184 0.107652
0.572 0.0391546 0.104936
0.593118 0.0364996 0.102693
0.611917 0.0346227 0.101122
0.628519 0.0334478 0.10013
0.643214 0.0331579 0.0998856
0.656062 0.0340581 0.100633
0.666804 0.0361181 0.102373
0.675654 0.0388342 0.104662
0.683223 0.0420539 0.107179
0.690211 0.0458839 0.110399
0.697292 0.05037 0.11397
0.704921 0.055436 0.118242
0.712993 0.0605631 0.122347
0.118608 0.127489 0.169802
0.127474 0.127474 0.169787
0.135241 0.127687 0.16997
0.142596 0.127779 0.170031
0.150896 0.12752 0.169818
0.161685 0.126558 0.169009
0.177188 0.1243 0.167117
0.198322 0.120546 0.164157
0.222477 0.115892 0.160235
0.248814 0.110613 0.155993
0.277165 0.104814 0.151308
0.307271 0.0986191 0.14609
0.338857 0.0921187 0.140826
0.371328 0.0856031 0.135546
0.403769 0.0790417 0.13022
0.435737 0.0726787 0.125063
0.466819 0.066804 0.120119
0.496559 0.0615854 0.115923
0.524575 0.0571298 0.112245
0.550546 0.0534066 0.109255
0.574319 0.05037 0.106691
0.596063 0.0483406 0.10518
0.615869 0.0474708 0.104448
0.633753 0.0475929 0.104555
0.649638 0.0484779 0.105303
0.663386 0.0502785 0.106615
0.674891 0.0531014 0.108995
0.684947 0.057023 0.112184
0.69395 0.061677 0.115999
0.702129 0.0666819 0.120012
0.710048 0.0720073 0.124498
0.718135 0.0775311 0.128954
0.726619 0.0830854 0.133425
0.119112 0.135546 0.17023
0.127687 0.135225 0.169955
0.135164 0.135164 0.169909
0.142428 0.135164 0.169909
0.150713 0.134874 0.169665
0.161456 0.133883 0.168826
0.177005 0.131655 0.166949
0.198093 0.127855 0.163958
0.222354 0.123308 0.160128
0.248905 0.118257 0.156069
0.277531 0.112718 0.151614
0.307881 0.106767 0.146609
0.339773 0.100587 0.141604
0.372534 0.0943465 0.136553
0.405524 0.0883497 0.131701
0.438178 0.0826581 0.126909
0.46978 0.0773022 0.122606
0.500038 0.0726177 0.11873
0.528908 0.0690166 0.115831
0.555962 0.0663767 0.113619
0.581018 0.0646067 0.112215
0.603769 0.0635843 0.111467
0.624369 0.063508 0.111406
0.643397 0.0647746 0.112322
0.660578 0.0669566 0.114092
0.675593 0.0700236 0.116686
0.688121 0.0738689 0.119722
0.698756 0.0783703 0.123507
0.708278 0.0835431 0.127657
0.717174 0.0892805 0.132387
0.725521 0.0950332 0.137133
0.733898 0.100847 0.141833
0.742718 0.106722 0.146563
0.119158 0.142855 0.17026
0.127687 0.142489 0.169955
0.135134 0.142412 0.169879
0.142382 0.142382 0.169863
0.150698 0.142138 0.16965
0.161669 0.14136 0.169009
0.177401 0.13933 0.167285
0.198764 0.135805 0.164523
0.223255 0.131472 0.160876
0.25005 0.126665 0.157046
0.279179 0.121645 0.152834
0.31017 0.11632 0.148516
0.342611 0.110689 0.143999
0.375891 0.104967 0.139178
0.409445 0.0995346 0.134798
0.442985 0.094728 0.130953
0.476005 0.0907912 0.127657
0.507469 0.0873121 0.12491
0.537133 0.0844892 0.122545
0.564981 0.0826581 0.121004
0.591119 0.0819715 0.120424
0.61529 0.0823682 0.12076
0.6374 0.0838178 0.121965
0.657069 0.0857252 0.123583
0.674754 0.0883955 0.12578
0.690257 0.0919509 0.128618
0.703349 0.0963607 0.132265
0.714534 0.101411 0.136385
0.724544 0.107088 0.140948
0.733608 0.112978 0.145708
0.742412 0.119188 0.150942
0.751324 0.125536 0.156085
0.760571 0.131853 0.161196
0.118181 0.150439 0.169436
0.126772 0.150149 0.169192
0.134432 0.150256 0.169284
0.141985 0.150546 0.169528
0.150576 0.150576 0.169558
0.1617 0.149966 0.169039
0.177737 0.148226 0.167575
0.199603 0.145205 0.165225
0.22475 0.141527 0.162142
0.252216 0.137392 0.158831
0.281804 0.132815 0.155001
0.31342 0.128145 0.151263
0.346944 0.123583 0.147433
0.381491 0.119142 0.143893
0.416159 0.114824 0.140261
0.450675 0.110994 0.137224
0.484443 0.107805 0.134554
0.517143 0.105562 0.132677
0.548226 0.104158 0.131685
0.577203 0.103456 0.13109
0.604044 0.103471 0.131106
0.628901 0.104555 0.132021
0.651331 0.10631 0.133303
0.67158 0.108782 0.135378
0.689677 0.111894 0.138003
0.705516 0.11577 0.141054
0.719219 0.120806 0.14522
0.730877 0.126329 0.149737
0.741207 0.132311 0.154574
0.750668 0.138598 0.15967
0.759747 0.145098 0.165148
0.769024 0.151812 0.170596
0.779019 0.158862 0.176318
0.115541 0.159548 0.167224
0.124376 0.159487 0.167163
0.13228 0.159869 0.167483
0.140215 0.160525 0.168032
0.149371 0.161105 0.168521
0.161151 0.161151 0.168566
0.177707 0.159945 0.167544
0.200092 0.157443 0.165545
0.226154 0.154681 0.163333
0.254749 0.151675 0.160784
0.285573 0.148333 0.158175
0.318181 0.14464 0.155062
0.352468 0.140841 0.152071
0.388128 0.137514 0.149279
0.424231 0.13463 0.146853
0.459968 0.132021 0.144854
0.494682 0.129778 0.142962
0.527962 0.128115 0.141558
0.559503 0.127184 0.14078
0.589242 0.12723 0.14081
0.616648 0.12781 0.141314
0.641672 0.129061 0.142367
0.664408 0.131136 0.144106
0.685069 0.134035 0.146334
0.703716 0.137667 0.149401
0.720302 0.142306 0.153094
0.734081 0.147417 0.157412
0.746044 0.153231 0.162097
0.756771 0.159609 0.167269
0.766705 0.166384 0.172763
0.776211 0.173297 0.178592
0.786038 0.18056 0.184512
0.796017 0.18761 0.190234
0.10956 0.171344 0.162387
0.119097 0.171984 0.162936
0.127611 0.172961 0.163745
0.135988 0.174075 0.164691
0.145739 0.17525 0.16556
0.158465 0.176226 0.166293
0.176349 0.176349 0.1664
0.200031 0.175143 0.165499
0.226825 0.173129 0.163897
0.256245 0.170932 0.162036
0.288182 0.168719 0.160189
0.32221 0.16643 0.158465
0.357885 0.164034 0.156435
0.394339 0.161486 0.154299
0.430838 0.159014 0.152392
0.467079 0.156893 0.150637
0.502358 0.15523 0.149233
0.53611 0.15404 0.148226
0.568185 0.153628 0.147875
0.598138 0.153887 0.148104
0.625971 0.15491 0.148959
0.65153 0.156695 0.150454
0.674693 0.159182 0.152499
0.695674 0.162387 0.155062
0.7149 0.166629 0.158618
0.731655 0.171435 0.162463
0.745937 0.177035 0.166979
0.758251 0.183215 0.172061
0.769223 0.189837 0.177554
0.779706 0.197147 0.183505
0.789624 0.204471 0.189471
0.799542 0.211841 0.195468
0.809796 0.21915 0.201419
0.100465 0.187121 0.154925
0.110628 0.188403 0.156008
0.120211 0.190448 0.157733
0.129915 0.192874 0.159564
0.140719 0.195117 0.161456
0.154284 0.196933 0.162982
0.173159 0.198032 0.163912
0.198001 0.198001 0.163882
0.226246 0.197421 0.163394
0.256733 0.196307 0.162463
0.289342 0.194751 0.161151
0.324056 0.193179 0.159823
0.360143 0.191165 0.158343
0.39704 0.18909 0.156588
0.433982 0.187045 0.154864
0.470542 0.18526 0.153353
0.50631 0.18407 0.152499
0.540719 0.18352 0.152102
0.573129 0.183459 0.152041
0.603387 0.184024 0.152468
0.631525 0.185336 0.153429
0.657435 0.187488 0.15523
0.681254 0.190631 0.15787
0.702785 0.194385 0.160845
0.722057 0.198672 0.164446
0.739055 0.203723 0.16849
0.753643 0.209628 0.173266
0.766339 0.21619 0.17879
0.77792 0.223423 0.18468
0.788434 0.230747 0.190646
0.798505 0.238239 0.19675
0.808652 0.245823 0.20293
0.819165 0.253407 0.209125
0.0919661 0.207446 0.147982
0.103075 0.209659 0.149844
0.113451 0.212497 0.152239
0.124163 0.21593 0.154925
0.136553 0.21976 0.158145
0.151431 0.222904 0.160586
0.171099 0.224796 0.162188
0.19649 0.225299 0.162615
0.225177 0.225177 0.162509
0.256291 0.224674 0.162081
0.289616 0.22385 0.161379
0.324483 0.2224 0.160174
0.360876 0.220737 0.158907
0.398215 0.219074 0.157565
0.435691 0.217563 0.156298
0.472816 0.216342 0.155261
0.50898 0.215549 0.154604
0.543542 0.215167 0.154284
0.576364 0.215503 0.154559
0.607095 0.216556 0.155459
0.63563 0.218265 0.156878
0.661982 0.220844 0.158984
0.686015 0.224216 0.161685
0.707774 0.228199 0.165042
0.727459 0.232883 0.168795
0.744778 0.238239 0.173098
0.759548 0.244343 0.178241
0.772747 0.251408 0.183978
0.784329 0.258656 0.189883
0.795056 0.266194 0.196033
0.805325 0.273884 0.202289
0.815595 0.28159 0.208576
0.826444 0.289494 0.215045
0.0846723 0.231769 0.142046
0.0972152 0.235416 0.145083
0.108827 0.239475 0.148333
0.1205 0.243885 0.152056
0.133181 0.248005 0.155306
0.148547 0.251621 0.158358
0.168795 0.254108 0.16025
0.194659 0.255085 0.161074
0.223713 0.255314 0.161273
0.255344 0.255344 0.161288
0.288945 0.254795 0.16083
0.324361 0.253895 0.160067
0.361181 0.252628 0.159106
0.39881 0.25127 0.158068
0.436881 0.25037 0.157305
0.474357 0.2495 0.156573
0.510826 0.249012 0.156161
0.545739 0.248981 0.15613
0.57882 0.249561 0.156634
0.609918 0.25098 0.157824
0.639048 0.2533 0.159564
0.665614 0.256092 0.161913
0.689769 0.259571 0.164858
0.711742 0.263767 0.16817
0.731624 0.26865 0.172152
0.749325 0.274418 0.176944
0.764553 0.280949 0.182239
0.777615 0.287877 0.187869
0.789303 0.295216 0.193851
0.800122 0.302876 0.200092
0.810513 0.310674 0.206455
0.821103 0.3187 0.213016
0.831891 0.326558 0.219425
0.0791485 0.260395 0.137606
0.0923629 0.264714 0.141024
0.104524 0.269337 0.14493
0.116548 0.274098 0.14873
0.129625 0.278599 0.152468
0.145327 0.282567 0.155657
0.165942 0.285405 0.158053
0.192599 0.28719 0.15935
0.222141 0.287907 0.159945
0.25391 0.288075 0.160082
0.287816 0.287816 0.159869
0.323583 0.287266 0.159411
0.360876 0.286488 0.158907
0.399237 0.285863 0.158419
0.437339 0.284977 0.157687
0.475059 0.284352 0.157168
0.511849 0.284184 0.157015
0.547158 0.28455 0.157321
0.580621 0.285527 0.158145
0.612146 0.287358 0.159487
0.64123 0.289631 0.161395
0.668025 0.292653 0.163943
0.69247 0.296422 0.166918
0.714641 0.300816 0.170626
0.734783 0.305974 0.174746
0.752667 0.311894 0.179553
0.767803 0.318364 0.184985
0.780987 0.325414 0.190723
0.792767 0.332845 0.196765
0.803632 0.340536 0.203037
0.814328 0.348653 0.209674
0.824689 0.356435 0.216022
0.835325 0.364141 0.222309
0.073991 0.291539 0.133242
0.0874037 0.296071 0.137057
0.0998856 0.300999 0.141009
0.112337 0.306188 0.145281
0.125963 0.311238 0.149432
0.142123 0.315663 0.152941
0.163317 0.319081 0.155825
0.190021 0.320912 0.157366
0.219974 0.322042 0.158328
0.252232 0.322698 0.158846
0.286519 0.32282 0.158923
0.322545 0.322545 0.158755
0.360418 0.322332 0.158572
0.39884 0.321767 0.158099
0.437339 0.321279 0.157687
0.475364 0.320958 0.157412
0.512352 0.320989 0.157427
0.548165 0.321859 0.15816
0.581827 0.323049 0.15906
0.613352 0.32488 0.16051
0.642634 0.327337 0.162585
0.669551 0.33048 0.165225
0.694118 0.334386 0.168307
0.716701 0.339193 0.172198
0.736843 0.344335 0.176486
0.754604 0.350149 0.18117
0.769772 0.356634 0.186435
0.782925 0.363668 0.192248
0.794751 0.371145 0.198428
0.805814 0.379019 0.204883
0.816159 0.386786 0.211215
0.826429 0.394491 0.217502
0.836927 0.402045 0.223651
0.0687419 0.324376 0.129046
0.0826429 0.329381 0.133059
0.0955062 0.334707 0.13753
0.108278 0.3402 0.141955
0.122423 0.345769 0.146456
0.139116 0.350729 0.150622
0.16054 0.354391 0.15349
0.187564 0.356527 0.155306
0.217777 0.357916 0.156466
0.250309 0.358846 0.157259
0.285237 0.359625 0.1579
0.321691 0.359762 0.158022
0.359518 0.359518 0.157809
0.398123 0.359136 0.157488
0.436835 0.358862 0.157259
0.475135 0.358801 0.157214
0.512673 0.359396 0.157717
0.548333 0.360098 0.158312
0.582116 0.36141 0.159243
0.613733 0.363348 0.16083
0.643137 0.365927 0.162997
0.670161 0.369177 0.165621
0.695079 0.373419 0.169116
0.717372 0.377951 0.172732
0.737484 0.383062 0.17702
0.755199 0.38883 0.181674
0.770336 0.395285 0.186923
0.78352 0.402335 0.192645
0.795407 0.409873 0.19884
0.806058 0.41735 0.205081
0.816205 0.424918 0.211261
0.826322 0.432471 0.217411
0.836667 0.439872 0.223453
0.0641184 0.35874 0.125353
0.0784009 0.364126 0.129686
0.0917678 0.369955 0.134386
0.105119 0.376028 0.1393
0.119478 0.381826 0.144183
0.136355 0.386954 0.148302
0.158083 0.390921 0.151629
0.185519 0.393469 0.153582
0.216052 0.395193 0.155016
0.249042 0.396582 0.156191
0.28397 0.39736 0.156847
0.320623 0.397696 0.157122
0.358709 0.397711 0.157137
0.397543 0.397543 0.157
0.436393 0.397406 0.156878
0.47509 0.397757 0.157183
0.512428 0.398154 0.157519
0.548226 0.398993 0.158221
0.582086 0.400366 0.159228
0.613748 0.40235 0.160845
0.643427 0.405203 0.163256
0.670451 0.408453 0.165805
0.695003 0.412345 0.169055
0.717281 0.416846 0.172641
0.737316 0.421881 0.176883
0.75491 0.427512 0.18143
0.770169 0.434104 0.18677
0.783093 0.440894 0.192355
0.794583 0.448035 0.198306
0.805081 0.45536 0.204257
0.814984 0.462669 0.210224
0.824781 0.469917 0.216114
0.835096 0.477287 0.22211
0.0609293 0.394537 0.122667
0.0754711 0.400183 0.127214
0.0893873 0.406561 0.132464
0.102937 0.412833 0.137667
0.117571 0.418906 0.14258
0.134737 0.424323 0.146929
0.156664 0.428489 0.150439
0.184436 0.431373 0.152728
0.215396 0.433524 0.154467
0.248417 0.434943 0.155657
0.283452 0.435828 0.156405
0.320211 0.436271 0.156786
0.358404 0.436393 0.156878
0.397574 0.436561 0.157015
0.436637 0.436637 0.157092
0.47509 0.436744 0.157183
0.512444 0.437156 0.157519
0.548211 0.437964 0.158206
0.58204 0.439323 0.159197
0.613931 0.44152 0.160998
0.643336 0.444099 0.16318
0.670253 0.447242 0.165667
0.694636 0.450965 0.16875
0.716716 0.455268 0.172213
0.736584 0.460151 0.176272
0.754345 0.46595 0.180957
0.7691 0.472023 0.185931
0.781735 0.478523 0.191348
0.792889 0.485344 0.196887
0.803113 0.492378 0.202609
0.812787 0.499474 0.208377
0.822583 0.506706 0.214252
0.832227 0.513405 0.219699
0.0593118 0.43125 0.121294
0.0744488 0.437507 0.126345
0.088304 0.443824 0.13167
0.102037 0.450294 0.136919
0.116899 0.45658 0.142016
0.134325 0.462272 0.146593
0.156619 0.466789 0.150393
0.184588 0.469886 0.152834
0.215488 0.471962 0.154543
0.248615 0.473487 0.155825
0.283787 0.474495 0.15668
0.320638 0.475044 0.157137
0.35906 0.475395 0.157427
0.398154 0.475486 0.157519
0.437079 0.475425 0.157473
0.475502 0.475502 0.157534
0.512825 0.475868 0.157839
0.548547 0.476631 0.15848
0.582574 0.478187 0.159594
0.614023 0.479957 0.161074
0.643168 0.482292 0.163043
0.669932 0.485267 0.165469
0.694179 0.488853 0.168368
0.716243 0.493141 0.171908
0.735882 0.49778 0.175677
0.753002 0.502953 0.179828
0.767514 0.508782 0.184726
0.779919 0.515053 0.189822
0.790768 0.521553 0.195087
0.800809 0.52842 0.200656
0.810086 0.535119 0.206149
0.819272 0.541741 0.211673
0.828626 0.54815 0.216876
0.0597391 0.468635 0.121645
0.074876 0.474891 0.126711
0.0890211 0.481483 0.132219
0.102953 0.488151 0.137682
0.117937 0.494575 0.142885
0.135775 0.500679 0.147814
0.158053 0.50518 0.151614
0.185962 0.508217 0.153948
0.216938 0.510369 0.155779
0.250095 0.511925 0.157076
0.285344 0.513008 0.157992
0.322393 0.513756 0.158618
0.360601 0.513878 0.158724
0.399512 0.513802 0.158663
0.438376 0.51368 0.158556
0.476661 0.513619 0.158511
0.513939 0.513939 0.15877
0.549645 0.514702 0.159258
0.583215 0.515785 0.160128
0.614496 0.517372 0.161471
0.643381 0.519448 0.163226
0.66981 0.522103 0.165393
0.69395 0.525567 0.16817
0.715663 0.529503 0.171481
0.734966 0.533822 0.174914
0.75172 0.538613 0.178943
0.765789 0.544015 0.183276
0.777829 0.54992 0.188052
0.788602 0.556344 0.193271
0.798108 0.562676 0.198535
0.806912 0.568887 0.203632
0.815579 0.575006 0.20856
0.824506 0.580987 0.213397
0.06215 0.506004 0.12369
0.0773938 0.512367 0.128832
0.0916457 0.519066 0.134279
0.105714 0.525872 0.139803
0.121126 0.532708 0.145434
0.138705 0.538552 0.150271
0.161013 0.543084 0.153887
0.188876 0.546075 0.156405
0.219821 0.548196 0.15819
0.253025 0.549798 0.15935
0.28838 0.551003 0.160342
0.325124 0.551415 0.160708
0.363165 0.551385 0.160678
0.401877 0.55111 0.160449
0.440574 0.55082 0.160204
0.478843 0.550744 0.160128
0.515953 0.550912 0.160281
0.551186 0.551186 0.16051
0.584421 0.551934 0.161135
0.615427 0.553262 0.162249
0.644099 0.555123 0.163821
0.670527 0.557763 0.16585
0.694057 0.560632 0.168261
0.715236 0.564034 0.171115
0.734203 0.568017 0.174273
0.750683 0.572519 0.178073
0.764523 0.577707 0.182223
0.776181 0.583215 0.186664
0.786221 0.588907 0.191455
0.795316 0.594827 0.196246
0.8038 0.600732 0.201007
0.812039 0.606409 0.205753
0.820584 0.612009 0.2103
0.066743 0.543084 0.127352
0.0820935 0.549538 0.132616
0.0963607 0.556268 0.138262
0.11075 0.563378 0.14403
0.125811 0.569879 0.14931
0.143374 0.575692 0.153994
0.165621 0.580179 0.157778
0.193454 0.583124 0.160052
0.224582 0.585443 0.162005
0.257527 0.586786 0.163134
0.292454 0.587549 0.163775
0.32903 0.587823 0.164004
0.366918 0.58764 0.163851
0.405447 0.587167 0.163455
0.444083 0.586816 0.163149
0.481895 0.586282 0.162722
0.518593 0.586023 0.162493
0.553597 0.586084 0.162539
0.586496 0.586496 0.16289
0.617151 0.587457 0.163699
0.645609 0.589105 0.165087
0.671443 0.591165 0.166629
0.694682 0.593744 0.16878
0.71545 0.596719 0.171298
0.733898 0.600183 0.174014
0.750027 0.604349 0.177523
0.763516 0.609171 0.181384
0.774716 0.614221 0.18558
0.784283 0.619455 0.189837
0.792798 0.624796 0.194125
0.800793 0.630213 0.198611
0.80885 0.635691 0.203098
0.816922 0.640833 0.207218
0.0734874 0.579507 0.13283
0.0890669 0.586191 0.138445
0.103365 0.59295 0.143938
0.117372 0.599695 0.149416
0.132372 0.606119 0.15462
0.149783 0.611795 0.159243
0.171847 0.616098 0.162814
0.199802 0.61915 0.165347
0.230488 0.621027 0.166781
0.263264 0.622202 0.167758
0.297902 0.62269 0.16817
0.334157 0.622629 0.168109
0.371756 0.622156 0.167712
0.4103 0.621714 0.167346
0.448417 0.620829 0.166598
0.485863 0.619928 0.16585
0.522103 0.619211 0.165393
0.556725 0.618891 0.165179
0.58941 0.619089 0.165316
0.619867 0.619867 0.165805
0.647669 0.620844 0.166613
0.672969 0.62237 0.167895
0.695796 0.624537 0.169726
0.716243 0.627207 0.171908
0.734554 0.630518 0.174563
0.750027 0.634043 0.177523
0.762829 0.638178 0.180804
0.773602 0.642802 0.184695
0.782834 0.6477 0.188617
0.791028 0.652705 0.19263
0.798581 0.657679 0.196811
0.80592 0.662455 0.200641
0.813489 0.667094 0.204532
0.082414 0.615259 0.140139
0.0977035 0.621653 0.145403
0.111788 0.628183 0.15082
0.125612 0.634745 0.156146
0.140444 0.641016 0.161212
0.157702 0.64654 0.165713
0.179873 0.650935 0.16936
0.207202 0.653376 0.17142
0.237552 0.654917 0.172519
0.270069 0.655818 0.173281
0.304494 0.656092 0.17351
0.340703 0.656001 0.173434
0.377905 0.655116 0.172686
0.415717 0.653941 0.171847
0.453513 0.652735 0.170886
0.490669 0.65156 0.169894
0.526543 0.650477 0.168994
0.560937 0.649912 0.168505
0.593057 0.649561 0.1682
0.622934 0.649744 0.168368
0.650401 0.650401 0.168917
0.675273 0.651499 0.169848
0.697566 0.653117 0.171206
0.717708 0.655497 0.173007
0.735393 0.658183 0.175265
0.750515 0.661341 0.177935
0.76286 0.665019 0.180819
0.773022 0.669047 0.184207
0.781811 0.673487 0.187747
0.78967 0.678172 0.191699
0.79675 0.682673 0.195285
0.803586 0.686946 0.198749
0.810575 0.69099 0.202075
0.0928511 0.64947 0.14873
0.107927 0.65565 0.153719
0.121843 0.662028 0.159014
0.135424 0.668345 0.164202
0.150134 0.674479 0.169177
0.167178 0.679774 0.173434
0.1888 0.683635 0.176684
0.215885 0.685847 0.178546
0.245914 0.687037 0.179416
0.277974 0.68751 0.179736
0.312245 0.687617 0.179828
0.347936 0.686992 0.179385
0.384802 0.685786 0.178485
0.422202 0.684199 0.177157
0.459464 0.682475 0.175692
0.496178 0.680842 0.174319
0.531975 0.679667 0.173342
0.565744 0.678508 0.172366
0.59736 0.677638 0.171801
0.626657 0.677256 0.171511
0.653681 0.677455 0.171679
0.678218 0.678218 0.172168
0.700313 0.679652 0.173327
0.719707 0.68127 0.174685
0.736812 0.683375 0.176455
0.751476 0.686091 0.178744
0.76347 0.689403 0.181338
0.773434 0.693233 0.184558
0.781613 0.697063 0.187579
0.788754 0.70103 0.190921
0.795407 0.705104 0.194141
0.801892 0.709026 0.197452
0.808515 0.712703 0.200351
0.104799 0.682094 0.158587
0.119539 0.687922 0.163302
0.133181 0.694026 0.168231
0.146715 0.700298 0.173312
0.161044 0.706065 0.178164
0.177615 0.710887 0.182025
0.198795 0.71429 0.184894
0.225544 0.716167 0.186267
0.255268 0.717083 0.18703
0.287266 0.717464 0.18735
0.320806 0.716854 0.186847
0.355947 0.715679 0.185901
0.392416 0.714076 0.184695
0.429496 0.712169 0.183093
0.46656 0.710231 0.18146
0.502785 0.70811 0.17969
0.537758 0.706127 0.178225
0.57113 0.704555 0.176883
0.602411 0.703365 0.175891
0.631296 0.702556 0.175219
0.657923 0.702373 0.175051
0.68191 0.702586 0.175235
0.703395 0.703395 0.175921
0.722438 0.704677 0.176989
0.739086 0.706325 0.178378
0.753201 0.708476 0.17998
0.764813 0.711421 0.182467
0.774212 0.714672 0.185214
0.78204 0.718166 0.187945
0.788708 0.72166 0.19089
0.794781 0.725155 0.193622
0.800793 0.728588 0.196521
0.807157 0.732021 0.199207
0.117922 0.712978 0.169223
0.132433 0.718608 0.173754
0.14583 0.724453 0.178683
0.15877 0.730129 0.183261
0.172686 0.735485 0.187564
0.188952 0.740001 0.191363
0.209766 0.743038 0.193729
0.236118 0.744503 0.194949
0.265476 0.745052 0.195422
0.296849 0.744823 0.195224
0.330068 0.743893 0.19443
0.364767 0.742275 0.193072
0.400656 0.740093 0.19144
0.4374 0.737835 0.189548
0.473976 0.735424 0.187503
0.509773 0.732876 0.18555
0.544274 0.730434 0.183505
0.57705 0.728252 0.181689
0.607858 0.726574 0.18027
0.63653 0.725567 0.179461
0.662623 0.724834 0.179004
0.686076 0.724529 0.178744
0.706966 0.724743 0.178927
0.725551 0.725551 0.179461
0.741863 0.726864 0.180514
0.755734 0.728786 0.182132
0.766659 0.731029 0.184024
0.775494 0.73373 0.186084
0.782864 0.736751 0.188632
0.789212 0.739925 0.191302
0.795056 0.743191 0.193851
0.800549 0.74612 0.196307
0.806241 0.748882 0.198566
0.131838 0.741878 0.180529
0.146166 0.747326 0.185107
0.159075 0.752697 0.189425
0.171572 0.757916 0.193622
0.184939 0.762722 0.197681
0.200793 0.766827 0.200931
0.221363 0.769635 0.203281
0.247364 0.770748 0.204227
0.276097 0.770672 0.204166
0.306905 0.769863 0.203479
0.339681 0.76849 0.202319
0.374029 0.766522 0.200671
0.409751 0.764187 0.198764
0.445777 0.761212 0.196399
0.481712 0.758144 0.19382
0.517067 0.755169 0.191516
0.551232 0.752377 0.189166
0.583703 0.749905 0.187076
0.614008 0.747723 0.185443
0.641947 0.745983 0.183978
0.667613 0.744823 0.183001
0.69073 0.744167 0.182452
0.711192 0.743969 0.182284
0.72932 0.74432 0.182589
0.745113 0.745113 0.183261
0.758434 0.746487 0.184405
0.769055 0.748425 0.185885
0.777462 0.750698 0.187747
0.784314 0.753201 0.189853
0.790295 0.756024 0.192157
0.795666 0.758801 0.194369
0.800824 0.761395 0.196551
0.806058 0.763684 0.198459
0.146838 0.768856 0.192767
0.160449 0.773571 0.196735
0.172976 0.778546 0.200732
0.185138 0.783444 0.204852
0.198169 0.7879 0.208392
0.213642 0.791638 0.211551
0.233585 0.793805 0.213169
0.259037 0.794385 0.213657
0.287449 0.793973 0.213306
0.3178 0.792721 0.212375
0.350042 0.790814 0.210849
0.383993 0.788449 0.20885
0.41912 0.785504 0.206378
0.454795 0.782193 0.203784
0.490257 0.778653 0.200824
0.525032 0.775082 0.198016
0.55877 0.771862 0.1953
0.590845 0.768994 0.192889
0.620706 0.766384 0.19089
0.648173 0.764172 0.189014
0.673243 0.762417 0.187549
0.695888 0.761273 0.186587
0.716106 0.76083 0.186206
0.733822 0.760769 0.18616
0.749111 0.761074 0.186419
0.761898 0.761898 0.187121
0.772076 0.763394 0.188373
0.780163 0.765347 0.190021
0.786755 0.767605 0.191913
0.792126 0.769802 0.193561
0.796918 0.772 0.195407
0.801633 0.774166 0.197238
0.806531 0.77612 0.198749
0.162646 0.793332 0.205829
0.175814 0.797604 0.209262
0.187762 0.802014 0.212772
0.199451 0.806439 0.216495
0.212299 0.810712 0.219883
0.227207 0.813886 0.222568
0.246632 0.815534 0.223957
0.271504 0.815518 0.223941
0.299413 0.814618 0.223178
0.329473 0.813077 0.221881
0.361425 0.810864 0.22002
0.394705 0.807828 0.21767
0.429252 0.804303 0.214694
0.464454 0.800519 0.211719
0.49958 0.796658 0.208469
0.534127 0.792859 0.205463
0.567239 0.789014 0.202228
0.598657 0.785489 0.199268
0.628092 0.782452 0.196902
0.655238 0.779904 0.194766
0.679988 0.777829 0.193027
0.70219 0.776257 0.191897
0.721798 0.775189 0.190997
0.739086 0.774716 0.1906
0.754055 0.774685 0.190585
0.76643 0.775113 0.190936
0.77612 0.77612 0.191775
0.783734 0.7776 0.192828
0.789822 0.779355 0.194293
0.794812 0.781155 0.195819
0.799069 0.782834 0.197238
0.803128 0.784329 0.198459
0.807477 0.785748 0.199481
0.178653 0.815473 0.218845
0.19147 0.819394 0.222034
0.20322 0.823606 0.225452
0.214343 0.827466 0.228626
