assets/cube/faded_retro_02.cube
TITLE "Generated by Resolve"
LUT_3D_SIZE 9
0.123186 0.131579 0.0274052
0.156146 0.132357 0.0283513
0.229221 0.121233 0.0148318
0.34757 0.097612 0
0.476829 0.0715801 0
0.583505 0.053193 0
0.655375 0.0472419 0
0.694621 0.0560159 0
0.722759 0.0742809 0
0.120943 0.164202 0.0250248
0.153338 0.16434 0.0252079
0.228351 0.155383 0.0143435
0.352239 0.137621 0
0.491157 0.122026 0
0.611048 0.117769 0
0.695918 0.126101 0
0.745693 0.146258 0.00329595
0.781003 0.172519 0.035111
0.092195 0.223468 0
0.135729 0.235599 0.00360113
0.223728 0.241032 0.00985733
0.359945 0.236576 0.00469978
0.508446 0.231479 0
0.634974 0.234104 0.00180056
0.725292 0.248631 0.0190738
0.779751 0.274144 0.0499428
0.819089 0.304616 0.0868849
0.0630655 0.343847 0
0.114763 0.365026 0
0.209186 0.376959 0
0.350744 0.378531 0
0.503914 0.378424 0
0.633875 0.384848 0.00283818
0.726787 0.401724 0.0235447
0.782544 0.428138 0.0558022
0.821591 0.457588 0.0924392
0.047837 0.49102 0
0.104311 0.516411 0
0.202365 0.531838 0
0.345724 0.535286 0
0.499062 0.535348 0
0.62826 0.540703 0
0.719081 0.554696 0.0149996
0.771405 0.576669 0.0426642
0.806149 0.600595 0.0732891
0.0670787 0.637934 0
0.124407 0.662745 0
0.221393 0.676036 0.010956
0.36173 0.676234 0.0112154
0.510338 0.671824 0.00534066
0.634211 0.671748 0.00523384
0.719127 0.679179 0.0151827
0.765484 0.693782 0.0348211
0.794293 0.71043 0.0575113
0.119097 0.761166 0.0270237
0.172915 0.780728 0.0547951
0.264347 0.78819 0.0653086
0.397757 0.782116 0.0565499
0.538918 0.770993 0.0410773
0.655055 0.763882 0.0311131
0.73257 0.764172 0.0315099
0.772 0.771756 0.0421759
0.794049 0.781643 0.0560464
0.186481 0.849943 0.112779
0.233188 0.862745 0.13109
0.31693 0.863218 0.131777
0.442206 0.850034 0.112886
0.575784 0.832364 0.087602
0.684367 0.818662 0.0680705
0.754391 0.812253 0.0587625
0.786175 0.812863 0.0595102
0.800687 0.815686 0.0637675
0.242466 0.909697 0.183749
0.281605 0.915755 0.192432
0.357778 0.909545 0.183536
0.475227 0.889464 0.154696
0.600839 0.864836 0.11931
0.70193 0.844556 0.0902724
0.765698 0.832425 0.0728923
0.792615 0.828779 0.0677043
0.803738 0.828656 0.0675364
0.122667 0.131075 0.0686809
0.15555 0.131777 0.0695354
0.228351 0.120348 0.0556344
0.34667 0.0966964 0.0269017
0.476295 0.0710613 0
0.583795 0.0534524 0
0.65687 0.0489662 0
0.697459 0.059266 0
0.727123 0.0789502 0.00527962
0.12018 0.163409 0.0659648
0.15288 0.163912 0.0665751
0.228748 0.155917 0.0569009
0.354299 0.140032 0.0376593
0.494926 0.126284 0.0209659
0.615793 0.122911 0.0168765
0.701228 0.131868 0.0277562
0.751583 0.152697 0.0529793
0.787259 0.17937 0.0852979
0.0946822 0.226078 0.0339666
0.139651 0.240131 0.05066
0.228763 0.246509 0.058381
0.365576 0.242741 0.0541238
0.51458 0.238209 0.0483406
0.641398 0.241428 0.0522774
0.732341 0.256397 0.0703441
0.78732 0.282231 0.101869
0.826474 0.312718 0.138613
0.068925 0.35021 0.00244144
0.121065 0.371847 0.0286412
0.216098 0.384451 0.0442817
0.358007 0.386404 0.0466773
0.511147 0.386252 0.0464942
0.641535 0.393164 0.0549477
0.734417 0.409979 0.0755932
0.789975 0.436133 0.107591
0.828763 0.465217 0.143816
0.0553902 0.499031 0
0.112093 0.524575 0.0188907
0.210224 0.540047 0.038407
0.353567 0.54345 0.0424048
0.506508 0.543084 0.0420081
0.635386 0.548089 0.0485847
0.725704 0.561532 0.0655985
0.777493 0.582864 0.0925154
0.811765 0.606226 0.122683
0.0749828 0.645792 0.0129091
0.132235 0.670344 0.0453498
0.22884 0.683177 0.0626688
0.368521 0.682719 0.0621958
0.516442 0.677653 0.0551156
0.639643 0.676905 0.0541238
0.723934 0.683696 0.0632181
0.769482 0.697597 0.0821393
0.797711 0.713481 0.103975
0.126009 0.767407 0.0777905
0.179202 0.786343 0.104723
0.269795 0.792996 0.114122
0.402228 0.786023 0.10428
0.542672 0.774456 0.0876936
0.658137 0.766735 0.0768902
0.73489 0.766308 0.0764324
0.773617 0.77322 0.0862745
0.794842 0.782345 0.0987869
0.190997 0.853849 0.160342
0.236698 0.865888 0.177356
0.319646 0.865644 0.177005
0.444282 0.851881 0.157275
0.577203 0.833616 0.131456
0.685039 0.819242 0.110933
0.754025 0.811841 0.10013
0.785092 0.81181 0.100084
0.798978 0.814237 0.103517
0.244205 0.911208 0.228
0.282628 0.916625 0.235752
0.358053 0.909728 0.225864
0.474754 0.888975 0.196048
0.599664 0.863691 0.159716
0.700191 0.842908 0.129946
0.76347 0.830457 0.112184
0.790356 0.826642 0.106691
0.801404 0.826444 0.106416
0.117891 0.125933 0.17055
0.150378 0.126177 0.17084
0.222889 0.114717 0.156619
0.341299 0.0911727 0.128008
0.471275 0.0659495 0.0972457
0.57969 0.0492256 0.0768139
0.654536 0.0465705 0.0738842
0.696773 0.0587015 0.0884108
0.727199 0.0792554 0.113802
0.11519 0.158007 0.167529
0.148425 0.159106 0.168856
0.225177 0.152102 0.160388
0.352209 0.137896 0.14313
0.494743 0.12607 0.128832
0.616266 0.123659 0.125597
0.70248 0.133211 0.137469
0.753124 0.154665 0.163409
0.789425 0.181811 0.196307
0.0933242 0.224765 0.140169
0.139651 0.240177 0.158816
0.229297 0.247349 0.167529
0.366827 0.244388 0.163928
0.51632 0.240192 0.158862
0.643839 0.24416 0.163653
0.735134 0.25948 0.182193
0.790066 0.285496 0.213718
0.829694 0.316258 0.251026
0.070161 0.351797 0.112215
0.123217 0.374166 0.139773
0.218631 0.387411 0.155795
0.361013 0.38967 0.158801
0.514321 0.3897 0.158846
0.644785 0.396674 0.167391
0.737636 0.413428 0.187976
0.792676 0.439002 0.219272
0.831128 0.467964 0.255116
0.0580911 0.502098 0.0985733
0.11545 0.528038 0.131456
0.21355 0.543496 0.150912
0.356786 0.546731 0.154879
0.509468 0.54609 0.154284
0.637797 0.550729 0.159899
0.727489 0.563531 0.176074
0.778653 0.583902 0.202396
0.812375 0.60679 0.231647
0.0780194 0.648753 0.124987
0.135195 0.67306 0.15729
0.231205 0.685512 0.174014
0.370123 0.684291 0.172396
0.517586 0.678767 0.164691
0.639948 0.677195 0.16289
0.723476 0.683238 0.170962
0.76849 0.696452 0.1888
0.795972 0.711757 0.209674
0.127779 0.768734 0.188418
0.180224 0.787182 0.214084
0.270115 0.793164 0.222538
0.401617 0.785336 0.211475
0.541253 0.773007 0.194125
0.655955 0.764584 0.182284
0.732067 0.763546 0.180819
0.770199 0.769909 0.189944
0.790661 0.778317 0.201572
0.19028 0.85301 0.267506
0.235172 0.864332 0.28365
0.31722 0.863279 0.282124
0.441123 0.848829 0.261402
0.573327 0.829923 0.234653
0.680461 0.814878 0.213092
0.748638 0.806745 0.201633
0.779019 0.806058 0.200656
0.792355 0.80798 0.203128
0.240909 0.908064 0.331991
0.27837 0.912734 0.338491
0.35288 0.904906 0.327367
0.469001 0.883574 0.296757
0.593225 0.857877 0.259586
0.693462 0.836606 0.229374
0.75639 0.82388 0.211231
0.782986 0.819928 0.20531
0.794003 0.819715 0.205005
0.107988 0.11545 0.339727
0.140002 0.11516 0.339467
0.212497 0.103685 0.325307
0.331167 0.0804761 0.297063
0.461646 0.0558328 0.267002
0.570916 0.0400702 0.247715
0.647288 0.0391394 0.246571
0.691585 0.053254 0.263828
0.722667 0.0745403 0.290135
0.105196 0.147402 0.336751
0.139223 0.149401 0.338842
0.217288 0.143877 0.332189
0.345861 0.131121 0.317021
0.489387 0.120714 0.304097
0.611902 0.119127 0.302159
0.698711 0.129503 0.3149
0.749996 0.151522 0.341436
0.786801 0.179187 0.375235
0.0876173 0.218997 0.314946
0.134844 0.235325 0.334707
0.225193 0.243091 0.344091
0.363256 0.240742 0.341573
0.513344 0.237217 0.337209
0.641398 0.241779 0.342565
0.732982 0.25745 0.361791
0.788052 0.283604 0.393164
0.827817 0.314519 0.430671
0.066804 0.348394 0.29015
0.120394 0.371359 0.318166
0.216373 0.385046 0.334905
0.358846 0.387594 0.338033
0.512444 0.387961 0.338491
0.642893 0.394903 0.347005
0.735622 0.411521 0.367422
0.790417 0.436805 0.398611
0.828519 0.465293 0.433936
0.0560922 0.500175 0.27837
0.113619 0.526299 0.311147
0.211719 0.541695 0.330587
0.354376 0.544366 0.333989
0.507012 0.543679 0.33312
0.634958 0.54786 0.338415
0.723934 0.559945 0.35375
0.774517 0.579828 0.37911
0.807416 0.601892 0.407462
0.0759136 0.646601 0.304616
0.132586 0.670436 0.336233
0.228046 0.682353 0.351934
0.3664 0.680583 0.349676
0.513268 0.674449 0.341314
0.634928 0.672206 0.338399
0.717403 0.677211 0.345281
0.761624 0.689891 0.362097
0.788357 0.704494 0.381994
0.12372 0.764752 0.365103
0.175402 0.782483 0.390097
0.264607 0.787839 0.39765
0.395453 0.779385 0.385702
0.53431 0.766323 0.367346
0.648173 0.757092 0.35436
0.723278 0.755337 0.351965
0.7608 0.761135 0.360067
0.780545 0.768872 0.370947
0.183474 0.846738 0.441138
0.227848 0.857389 0.456367
0.308934 0.85565 0.453605
0.432303 0.840589 0.432181
0.563577 0.820935 0.404211
0.669795 0.80502 0.381552
0.737362 0.796277 0.369146
0.767117 0.795148 0.367391
0.780072 0.796597 0.369604
0.231739 0.899641 0.502297
0.268559 0.903578 0.508156
0.34197 0.894865 0.49572
0.457298 0.872847 0.464088
0.581033 0.846677 0.426261
0.680827 0.825147 0.395483
0.743679 0.812146 0.377111
0.770138 0.808057 0.371099
0.78114 0.807813 0.370748
0.096788 0.103532 0.524224
0.128511 0.102937 0.52369
0.200992 0.0914626 0.509438
0.320012 0.0686503 0.481666
0.451179 0.044831 0.452567
0.561975 0.0304875 0.435294
0.639719 0.0310674 0.435889
0.685191 0.0464942 0.454902
0.716991 0.068864 0.481926
0.0941329 0.135622 0.521477
0.129046 0.138613 0.524788
0.20885 0.134966 0.520485
0.33904 0.124132 0.50724
0.483543 0.114549 0.495598
0.606622 0.113588 0.494423
0.693935 0.124666 0.507881
0.745724 0.147112 0.535073
0.783185 0.17557 0.569802
0.0811933 0.212161 0.505974
0.12929 0.229465 0.526909
0.220233 0.237919 0.537087
0.358785 0.236118 0.534951
0.509239 0.233204 0.531136
0.637858 0.238209 0.537346
0.729824 0.254292 0.556664
0.78497 0.280537 0.588434
0.824781 0.311513 0.626017
0.0625925 0.344076 0.483894
0.11667 0.367575 0.512566
0.21294 0.381628 0.529793
0.35555 0.384283 0.533028
0.509453 0.384985 0.533883
0.639857 0.391882 0.542321
0.732235 0.408118 0.562295
0.786816 0.433173 0.593179
0.82446 0.46125 0.627863
0.0530709 0.497124 0.47364
0.110613 0.523308 0.506508
0.208621 0.538598 0.525841
0.351034 0.541024 0.528923
0.503243 0.539864 0.527459
0.630579 0.543496 0.532082
0.719051 0.554955 0.546578
0.768994 0.574334 0.571313
0.801297 0.595651 0.598642
0.0724651 0.643137 0.499397
0.128695 0.666545 0.530434
0.223362 0.677699 0.545068
0.361151 0.675349 0.542229
0.507332 0.668544 0.533043
0.628214 0.665721 0.529076
0.710048 0.6701 0.53489
0.753597 0.681956 0.551095
0.779278 0.695827 0.56965
0.11812 0.759503 0.557427
0.169131 0.77641 0.58114
0.257115 0.780865 0.587457
0.387457 0.771923 0.574853
0.525673 0.758236 0.555627
0.638743 0.748241 0.541588
0.713436 0.745846 0.538231
0.749905 0.750912 0.545357
0.768734 0.757824 0.555032
0.175296 0.838972 0.629694
0.218692 0.848951 0.644007
0.299306 0.846571 0.640558
0.421958 0.830961 0.618219
0.552453 0.810636 0.589227
0.657649 0.793744 0.565194
0.724422 0.78439 0.551781
0.753704 0.782788 0.549447
0.766247 0.783978 0.55108
0.220874 0.889662 0.687678
0.256947 0.892912 0.692576
0.329549 0.883558 0.679057
0.444266 0.860883 0.646586
0.567483 0.834195 0.608072
0.666941 0.812329 0.576852
0.729519 0.799207 0.558251
0.756054 0.794995 0.552193
0.76704 0.794751 0.551843
0.0878614 0.0941329 0.673686
0.119554 0.0934768 0.672892
0.192111 0.0821088 0.659007
0.311666 0.059617 0.631647
0.443671 0.036759 0.603708
0.555932 0.0243687 0.58854
0.635538 0.0267338 0.591409
0.681788 0.0430915 0.611353
0.714229 0.0660716 0.639277
0.0860151 0.127108 0.671839
0.121813 0.13109 0.676478
0.203204 0.129046 0.674189
0.335103 0.120027 0.663264
0.480507 0.111467 0.652857
0.604181 0.111177 0.652506
0.691997 0.12282 0.666606
0.744244 0.145785 0.694484
0.782208 0.174762 0.729549
0.0776074 0.208438 0.662257
0.12636 0.226505 0.684001
0.218006 0.235737 0.695186
0.356939 0.234363 0.693523
0.508202 0.232074 0.691066
0.636957 0.237522 0.697368
0.728893 0.25359 0.716808
0.784665 0.280247 0.749371
0.824292 0.311208 0.786755
0.0610361 0.342641 0.643183
0.115618 0.36672 0.672557
0.212284 0.381125 0.690181
0.355001 0.383978 0.693492
0.50898 0.384756 0.694331
0.639307 0.391577 0.702876
0.731273 0.40734 0.722393
0.785611 0.432105 0.752621
0.822858 0.459602 0.786877
0.0527962 0.496803 0.634348
0.11017 0.523018 0.667124
0.207965 0.538064 0.686351
0.350225 0.540322 0.688884
0.501976 0.538705 0.687144
0.628748 0.541711 0.690669
0.716503 0.552407 0.704509
0.765835 0.571145 0.728252
0.797513 0.591821 0.75491
0.071458 0.642176 0.659083
0.127306 0.665156 0.68957
0.221332 0.675654 0.703685
0.358541 0.67274 0.699748
0.503914 0.665125 0.68954
0.62388 0.661418 0.684611
0.705165 0.665232 0.689677
0.74789 0.676524 0.70486
0.773007 0.689647 0.722622
0.115236 0.756649 0.71458
0.165408 0.772854 0.737545
0.252674 0.776532 0.742885
0.382162 0.766796 0.729122
0.519615 0.752392 0.708888
0.631922 0.741817 0.693889
0.705959 0.738857 0.690013
0.741878 0.743191 0.696025
0.759503 0.749187 0.704143
0.16968 0.833814 0.783612
0.212177 0.842878 0.796719
0.292042 0.839918 0.792325
0.413993 0.823636 0.769116
0.543786 0.80264 0.739116
0.648249 0.785046 0.714107
0.714412 0.774975 0.700191
0.743053 0.772885 0.696971
0.755337 0.773693 0.698283
0.212802 0.882063 0.838315
0.247669 0.884443 0.841764
0.319768 0.87451 0.827466
0.433906 0.851377 0.794263
0.556649 0.824247 0.755444
0.655833 0.80209 0.723842
0.718257 0.788815 0.704692
0.744762 0.784543 0.698924
0.75584 0.784375 0.698695
0.0829938 0.0890364 0.767742
0.11458 0.0883803 0.766842
0.187625 0.0772869 0.753307
0.3075 0.0554513 0.726696
0.440497 0.0335241 0.700069
0.55436 0.0227817 0.686732
0.635767 0.0271611 0.692149
0.682826 0.044358 0.71313
0.715984 0.0679484 0.742077
0.0824292 0.123278 0.767605
0.119554 0.128756 0.773953
0.202335 0.128267 0.773358
0.33547 0.120668 0.764126
0.481575 0.112871 0.754681
0.605951 0.113375 0.755291
0.694377 0.125414 0.769879
0.747234 0.149065 0.798611
0.785336 0.17847 0.834195
0.0783398 0.209476 0.763699
0.127657 0.228168 0.78613
0.219944 0.237858 0.798154
0.359472 0.237308 0.79733
0.511162 0.235645 0.795178
0.640421 0.241367 0.802411
0.73254 0.257618 0.82208
0.788205 0.284428 0.854261
0.827909 0.315267 0.891859
0.063859 0.345708 0.747005
0.118883 0.370245 0.776989
0.215457 0.384771 0.794812
0.358785 0.388067 0.798825
0.512718 0.3888 0.799725
0.642939 0.395483 0.807919
0.734676 0.410986 0.827008
0.788617 0.435279 0.856992
0.825193 0.46215 0.890364
0.0565957 0.500893 0.739666
0.114031 0.527016 0.772519
0.211429 0.541604 0.790982
0.353506 0.543664 0.793606
0.504891 0.541634 0.791012
0.630869 0.543816 0.793805
0.718044 0.554147 0.806928
0.766644 0.57203 0.82977
0.797574 0.591943 0.855299
0.0745861 0.645365 0.763607
0.129915 0.667735 0.793393
0.22356 0.677607 0.806928
0.360006 0.674174 0.802014
0.504677 0.665873 0.79086
0.623743 0.661265 0.784726
0.70428 0.664332 0.789059
0.746303 0.674937 0.803037
0.770748 0.687404 0.820233
0.116564 0.75758 0.816571
0.165942 0.773144 0.838483
0.252491 0.776272 0.842939
0.381216 0.765805 0.828153
0.5178 0.750591 0.806775
0.629313 0.7393 0.791058
0.702739 0.735698 0.786007
0.737758 0.739406 0.791196
0.754757 0.744625 0.798444
0.168414 0.832517 0.882216
0.210132 0.84094 0.894301
0.289342 0.837293 0.889357
0.410437 0.820233 0.864942
0.539254 0.798337 0.833738
0.643046 0.780194 0.807843
0.708614 0.76968 0.793164
0.73698 0.767102 0.789517
0.748821 0.767651 0.790295
0.208896 0.878569 0.933822
0.243 0.880034 0.936187
0.314153 0.869459 0.920699
0.427787 0.845853 0.886809
0.550286 0.818372 0.847654
0.649348 0.795956 0.815869
0.711635 0.782559 0.796536
0.737942 0.778317 0.79057
0.749187 0.778302 0.790539
0.0822003 0.0882582 0.807111
0.113787 0.0875868 0.80621
0.187198 0.0768902 0.793164
0.307866 0.0558938 0.767636
0.442252 0.0354314 0.742885
0.55761 0.0261692 0.731533
0.639994 0.0319371 0.738308
0.68809 0.0500038 0.760693
0.72192 0.074403 0.790448
0.082948 0.123949 0.808774
0.12195 0.131243 0.817609
0.206394 0.132631 0.819303
0.340368 0.125963 0.810895
0.487022 0.118791 0.802197
0.611978 0.119936 0.803601
0.700908 0.132555 0.819211
0.75433 0.156863 0.848569
0.79292 0.186587 0.884596
0.0834821 0.215091 0.810956
0.13341 0.23447 0.834257
0.226093 0.244678 0.846647
0.366232 0.244678 0.846647
0.518318 0.243534 0.84506
0.647837 0.249531 0.852644
0.7402 0.266056 0.872663
0.795865 0.292851 0.90483
0.835462 0.323537 0.94226
0.0708782 0.353353 0.796811
0.126268 0.378256 0.827131
0.223117 0.393011 0.845396
0.366567 0.39649 0.849531
0.52047 0.397177 0.85037
0.650202 0.403311 0.857923
0.741878 0.418723 0.87689
0.795453 0.442573 0.906386
0.831434 0.468742 0.938933
0.0646372 0.509194 0.79057
0.121798 0.535073 0.823102
0.219104 0.549554 0.841627
0.360754 0.551141 0.843488
0.511559 0.548531 0.840467
0.637049 0.550179 0.842237
0.723674 0.559884 0.854627
0.771572 0.577066 0.876585
0.801572 0.595926 0.901091
0.0820325 0.652659 0.813657
0.136584 0.674113 0.842359
0.229648 0.683574 0.855146
0.365515 0.679377 0.84976
0.509529 0.670436 0.837736
0.627955 0.665202 0.830503
0.707576 0.667597 0.833631
0.748928 0.677287 0.846937
0.772457 0.689052 0.862608
0.121904 0.762539 0.864073
0.170352 0.777218 0.884749
0.256489 0.779721 0.888487
0.384344 0.768688 0.872724
0.520104 0.752712 0.850248
0.631189 0.740826 0.833753
0.703593 0.736492 0.827573
0.737713 0.739345 0.831571
0.75407 0.743938 0.837949
0.171344 0.834943 0.926452
0.212406 0.842786 0.937682
0.290837 0.838621 0.931746
0.4112 0.82089 0.906371
0.53901 0.798062 0.873823
0.641978 0.779232 0.84715
0.707134 0.768246 0.831617
0.735164 0.765362 0.827527
0.746777 0.765698 0.828
0.209308 0.878767 0.974746
0.242603 0.879606 0.976074
0.313069 0.868406 0.959686
0.426139 0.844297 0.925063
0.548241 0.816541 0.885374
0.647044 0.793988 0.853284
0.709392 0.780438 0.834318
0.735744 0.776226 0.828077
0.747127 0.776333 0.828214
0.0832532 0.0892653 0.823072
0.115023 0.0887007 0.822553
0.18854 0.0784161 0.809781
0.310262 0.0583658 0.785336
0.446174 0.0398413 0.762722
0.563302 0.0324407 0.753628
0.646586 0.0390326 0.76173
0.695262 0.0577554 0.784588
0.729671 0.082826 0.815122
0.0856336 0.127001 0.826917
0.126085 0.135927 0.837736
0.21236 0.139101 0.84155
0.347204 0.13341 0.834669
0.494469 0.126925 0.826825
0.619928 0.128634 0.828901
0.709331 0.141802 0.844846
0.76318 0.166613 0.874876
0.802136 0.196735 0.911299
0.0904097 0.22266 0.834791
0.141039 0.242832 0.858961
0.234287 0.25359 0.872282
0.37496 0.25417 0.872984
0.527489 0.253315 0.871946
0.656886 0.259495 0.879133
0.74966 0.276387 0.899672
0.805402 0.303029 0.932235
0.844694 0.333425 0.9691
0.0797742 0.363012 0.823255
0.135439 0.38819 0.854078
0.232685 0.403174 0.872496
0.376089 0.40676 0.8766
0.529915 0.40737 0.877363
0.659358 0.413184 0.884825
0.750652 0.428122 0.903273
0.803738 0.451408 0.932097
0.8392 0.476936 0.963897
0.0743114 0.519356 0.81799
0.131304 0.544961 0.850401
0.228473 0.559228 0.868559
0.369711 0.560372 0.870024
0.519829 0.557031 0.865721
0.644724 0.558053 0.867048
0.730724 0.567056 0.878553
0.778027 0.583597 0.899718
0.807279 0.601846 0.923049
0.0912947 0.661433 0.840421
0.145251 0.682399 0.868345
0.237675 0.691157 0.880278
0.372732 0.686198 0.873457
0.515633 0.676295 0.860319
0.6336 0.670588 0.852384
0.712596 0.672343 0.854749
0.753048 0.681331 0.86688
0.776104 0.692393 0.8822
0.129046 0.768978 0.88777
0.176837 0.783001 0.907744
0.261952 0.784772 0.909926
0.389166 0.772961 0.893507
0.524285 0.75639 0.870176
0.634546 0.743984 0.852811
0.706233 0.738979 0.845518
0.739467 0.74078 0.848295
0.754955 0.744778 0.853925
0.175738 0.838941 0.946685
0.216175 0.846204 0.957092
0.294026 0.841306 0.950347
0.413489 0.822965 0.923827
0.540551 0.799451 0.890364
0.642954 0.779934 0.862882
0.707408 0.76849 0.846632
0.735073 0.765255 0.842191
0.746517 0.765438 0.842435
0.211185 0.880369 0.991653
0.243763 0.880659 0.992065
0.31371 0.868955 0.975296
0.426322 0.844434 0.940078
0.548104 0.816403 0.899992
0.646738 0.793683 0.867643
0.709087 0.780133 0.848356
0.7355 0.775982 0.842512
0.746883 0.776089 0.842695
