assets/cube/faded_retro_02.cube
TITLE "Generated by Resolve"
LUT_3D_SIZE 33
0.123186 0.131579 0.0274052
0.131991 0.131472 0.0272679
0.139818 0.131807 0.0276799
0.147509 0.13228 0.0282597
0.156146 0.132357 0.0283513
0.167269 0.131655 0.0274968
0.183154 0.129534 0.0249027
0.204501 0.125841 0.0204471
0.229221 0.121233 0.0148318
0.256031 0.116136 0.00865187
0.284855 0.110414 0.00172427
0.315602 0.104173 0
0.34757 0.097612 0
0.38027 0.0908522 0
0.413016 0.0841535 0
0.44535 0.0777142 0
0.476829 0.0715801 0
0.506508 0.06598 0
0.534218 0.0609445 0
0.559991 0.0565805 0
0.583505 0.053193 0
0.604913 0.0505531 0
0.623926 0.0486915 0
0.64065 0.0475319 0
0.655375 0.0472419 0
0.668132 0.048127 0
0.678645 0.0501717 0
0.687205 0.0528725 0
0.694621 0.0560159 0
0.701198 0.0598154 0
0.707988 0.06421 0
0.715053 0.0692454 0
0.722759 0.0742809 0
0.122667 0.140703 0.0269017
0.131548 0.140688 0.0268711
0.139284 0.140902 0.0271458
0.146624 0.140993 0.0272526
0.154971 0.140734 0.0269322
0.165866 0.139773 0.0257725
0.181628 0.13753 0.0230259
0.202991 0.133852 0.0185855
0.227695 0.129213 0.0129397
0.254429 0.124025 0.00665293
0.283238 0.118303 0
0.314061 0.112123 0
0.346197 0.10573 0
0.379202 0.0993057 0
0.412161 0.0928511 0
0.444739 0.0865492 0
0.476402 0.0807355 0
0.506508 0.0756085 0
0.535012 0.0711681 0
0.561196 0.0675364 0
0.585306 0.0645151 0
0.607233 0.062501 0
0.626963 0.0617075 0
0.644862 0.0618143 0
0.660838 0.0626383 0
0.674388 0.0644236 0
0.685588 0.0672313 0
0.695399 0.0710613 0
0.703883 0.0757 0
0.711711 0.0806134 0
0.719036 0.0859083 0
0.726711 0.0913405 0
0.734768 0.0968032 0
0.122698 0.148928 0.0270848
0.131304 0.148608 0.0267033
0.138796 0.148562 0.026627
0.146059 0.148547 0.026627
0.154376 0.148257 0.026276
0.16524 0.14728 0.0250706
0.181048 0.145052 0.0223697
0.202365 0.141329 0.0178836
0.227161 0.136797 0.0123751
0.254093 0.131823 0.00634775
0.283162 0.126375 0
0.314199 0.120455 0
0.346593 0.114351 0
0.379858 0.108202 0
0.413397 0.102266 0
0.446616 0.0966354 0
0.47863 0.091371 0
0.509316 0.0867475 0
0.538491 0.0831922 0
0.565835 0.0805676 0
0.590967 0.0788434 0
0.613748 0.0778515 0
0.634348 0.0777905 0
0.653361 0.0790112 0
0.670375 0.0811322 0
0.685054 0.0841993 0
0.697353 0.087953 0
0.707485 0.0924392 0
0.716625 0.0975204 0
0.725078 0.103151 0
0.732769 0.108904 0
0.740688 0.114626 0
0.74902 0.120409 0
0.122332 0.156405 0.0267491
0.130892 0.156039 0.0262913
0.138369 0.155947 0.0261845
0.145617 0.155932 0.0261692
0.153964 0.155688 0.025864
0.165026 0.15491 0.024918
0.180987 0.15288 0.022446
0.202564 0.149432 0.0182956
0.227558 0.145113 0.0130465
0.254719 0.140398 0.00735485
0.284428 0.135378 0.00128176
0.315816 0.130144 0
0.348714 0.124605 0
0.382498 0.118959 0
0.416617 0.113558 0
0.450492 0.108843 0
0.48397 0.104921 0
0.515633 0.101518 0
0.545602 0.0987106 0
0.573663 0.0968948 0
0.599878 0.0962081 0
0.624002 0.0966049 0
0.645945 0.0980392 0
0.665415 0.0999313 0
0.682887 0.102571 0
0.6981 0.106065 0
0.710689 0.11046 0
0.721492 0.115434 0
0.73106 0.121019 0
0.739528 0.126864 0
0.747723 0.133013 0
0.756115 0.139269 0.00598154
0.764828 0.145495 0.0135195
0.120943 0.164202 0.0250248
0.129595 0.163912 0.0246891
0.137224 0.164019 0.0248112
0.144747 0.164294 0.0251469
0.153338 0.16434 0.0252079
0.164538 0.163714 0.024445
0.180774 0.16199 0.0223545
0.202792 0.159045 0.0188144
0.228351 0.155383 0.0143435
0.256138 0.151308 0.00944533
0.286229 0.146761 0.00390631
0.318196 0.142153 0
0.352239 0.137621 0
0.387106 0.133257 0
0.422278 0.128954 0
0.457023 0.1252 0
0.491157 0.122026 0
0.524117 0.119783 0
0.555154 0.118456 0
0.584222 0.117769 0
0.611048 0.117769 0
0.635782 0.118868 0
0.658213 0.120546 0
0.678172 0.123003 0
0.695918 0.126101 0
0.711513 0.1299 0
0.724727 0.13489 0
0.735851 0.140352 0
0.745693 0.146258 0.00329595
0.75462 0.152453 0.0107881
0.762951 0.158938 0.018677
0.771649 0.16556 0.026688
0.781003 0.172519 0.035111
0.117845 0.173617 0.0210574
0.12668 0.173556 0.0209812
0.134554 0.173938 0.0214389
0.142397 0.174594 0.0222324
0.151476 0.175174 0.0229343
0.163256 0.175219 0.0229801
0.179965 0.174014 0.0215305
0.20264 0.171511 0.0186618
0.229023 0.168765 0.0154726
0.257771 0.165835 0.0116274
0.288975 0.162493 0.00790417
0.321813 0.158877 0.00321965
0.356542 0.155093 0
0.392493 0.151827 0
0.42884 0.148974 0
0.464866 0.146365 0
0.499779 0.144167 0
0.53312 0.142535 0
0.564782 0.141619 0
0.594507 0.141665 0
0.621851 0.142245 0
0.646723 0.143496 0
0.669413 0.145464 0
0.689754 0.148379 0
0.70808 0.151965 0
0.724208 0.156558 0.000381476
0.737606 0.161578 0.00677501
0.748943 0.167361 0.0135805
0.75906 0.173678 0.0211337
0.768414 0.180362 0.0292058
0.777295 0.187182 0.0377813
0.786465 0.194369 0.046479
0.795819 0.201328 0.0548867
0.111467 0.185855 0.0130312
0.120928 0.186496 0.0138247
0.12932 0.187457 0.0149844
0.137575 0.188571 0.0163424
0.147189 0.189761 0.0175937
0.159792 0.190738 0.0186313
0.177676 0.19086 0.0187839
0.20148 0.189654 0.0175021
0.228519 0.18764 0.015198
0.258183 0.185443 0.0125277
0.290196 0.183322 0.00965896
0.324483 0.181033 0.00720226
0.360449 0.178637 0.00430304
0.396994 0.176181 0.00102235
0.433783 0.173693 0
0.470268 0.171588 0
0.505745 0.169924 0
0.539635 0.168719 0
0.571756 0.168322 0
0.601678 0.168582 0
0.629389 0.169589 0
0.654749 0.171374 0
0.677623 0.173861 0
0.69839 0.177005 0.00227359
0.717159 0.181216 0.0074464
0.733547 0.185946 0.013138
0.747173 0.191546 0.0196078
0.758953 0.197635 0.0271
0.769345 0.204166 0.0352026
0.779171 0.211398 0.0439307
0.788418 0.218647 0.0526894
0.797681 0.225925 0.0614939
0.807279 0.233143 0.070222
0.101732 0.202319 0.00062562
0.111742 0.203601 0.00216678
0.121096 0.205646 0.004654
0.13051 0.208072 0.00727855
0.141253 0.210224 0.0101778
0.154604 0.212055 0.0123903
0.173327 0.213138 0.0137179
0.198184 0.213107 0.0136721
0.22649 0.212528 0.0129702
0.257115 0.211414 0.0116274
0.289876 0.209888 0.00972
0.32462 0.208362 0.00762951
0.360922 0.206363 0.00552377
0.398077 0.204288 0.00300603
0.435264 0.202243 0.000518807
0.471885 0.200519 0
0.507744 0.199344 0
0.542199 0.198795 0
0.574624 0.198734 0
0.604822 0.199313 0
0.632868 0.200595 0
0.658656 0.202686 0.00106813
0.682094 0.205814 0.00486763
0.703288 0.209537 0.00920119
0.722164 0.213779 0.0144808
0.738781 0.218738 0.0204776
0.752667 0.224659 0.0273136
0.764782 0.231113 0.035462
0.775708 0.23827 0.0440986
0.785565 0.245518 0.0528725
0.794949 0.252918 0.0618296
0.80441 0.26041 0.0708934
0.814252 0.267918 0.0799725
0.092195 0.223468 0
0.103105 0.22565 0
0.113283 0.228428 0
0.123583 0.231861 0
0.135729 0.235599 0.00360113
0.150256 0.238758 0.00709544
0.16968 0.240635 0.0093843
0.195026 0.241154 0.0100099
0.223728 0.241032 0.00985733
0.254887 0.240528 0.00924697
0.288304 0.239689 0.00823987
0.323354 0.238254 0.00650034
0.359945 0.236576 0.00469978
0.397467 0.234913 0.00277714
0.434989 0.233463 0.000808728
0.47219 0.232273 0
0.508446 0.231479 0
0.543069 0.231098 0
0.575845 0.231434 0
0.606455 0.232486 0
0.634974 0.234104 0.00180056
0.661036 0.236698 0.00480659
0.684672 0.240055 0.00868238
0.706157 0.243946 0.0137026
0.725292 0.248631 0.0190738
0.742184 0.25391 0.0254368
0.756436 0.259922 0.0330358
0.769009 0.266911 0.0414893
0.779751 0.274144 0.0499428
0.789807 0.28159 0.0589761
0.799374 0.289189 0.0681773
0.808957 0.296803 0.077409
0.819089 0.304616 0.0868849
0.0836957 0.248615 0
0.0959945 0.252171 0
0.107134 0.256245 0
0.118486 0.260563 0
0.130694 0.264668 0
0.14583 0.268208 0.00205997
0.165789 0.270695 0.00474556
0.191531 0.271672 0.0059205
0.220569 0.271916 0.00622568
0.252201 0.271931 0.00624094
0.285863 0.271382 0.0055848
0.32137 0.270481 0.00448615
0.358343 0.26923 0.00311284
0.396124 0.267857 0.00163272
0.434287 0.266972 0.000503548
0.471687 0.266163 0
0.508217 0.265675 0
0.543145 0.265644 0
0.57615 0.266224 0
0.607263 0.267567 0.0012665
0.636149 0.269886 0.00375372
0.662379 0.272679 0.00715648
0.68632 0.276081 0.0115663
0.707805 0.280262 0.0163424
0.727321 0.285069 0.0222324
0.744396 0.290791 0.02916
0.75903 0.297261 0.0369421
0.771496 0.304097 0.0452277
0.782544 0.311345 0.0540322
0.792691 0.318898 0.0632029
0.802396 0.326604 0.0725719
0.812268 0.334524 0.0822003
0.822385 0.34229 0.0916457
0.0767376 0.27808 0
0.0894484 0.282383 0
0.101274 0.286931 0
0.11281 0.291646 0
0.125505 0.296101 0
0.140917 0.299977 0
0.161227 0.302815 0
0.187701 0.304585 0.00141909
0.217151 0.305303 0.00228885
0.248905 0.30547 0.00248722
0.282826 0.305211 0.00216678
0.318669 0.304677 0.00151064
0.356039 0.303883 0.000808728
0.394461 0.303258 0.000106813
0.432685 0.302373 0
0.470481 0.301762 0
0.507271 0.301595 0
0.54255 0.301946 0
0.575891 0.302937 0
0.607217 0.304768 0.00161746
0.636042 0.307027 0.00436408
0.662684 0.309957 0.00823987
0.686702 0.313726 0.0125124
0.708553 0.318029 0.0180514
0.72813 0.323171 0.0239872
0.745525 0.329 0.0310979
0.760128 0.335363 0.0391241
0.772717 0.342321 0.0475776
0.783871 0.349645 0.0565194
0.794079 0.357229 0.0657511
0.804089 0.36524 0.0755322
0.813687 0.372961 0.0848096
0.823667 0.38056 0.0940566
0.0699779 0.310109 0
0.0828717 0.314611 0
0.0949874 0.319463 0
0.106905 0.32462 0
0.120104 0.329595 0
0.135958 0.333928 0
0.156771 0.337346 0
0.183261 0.339162 0
0.213092 0.340291 0
0.245274 0.340932 0
0.279561 0.34107 0
0.315618 0.340795 0
0.353506 0.340581 0
0.391989 0.340017 0
0.430549 0.339529 0
0.468605 0.339208 0
0.505577 0.339239 0
0.541299 0.340093 0
0.574899 0.341268 0
0.606363 0.343053 0.00117494
0.635355 0.345495 0.00416571
0.661921 0.348623 0.00798047
0.686259 0.352438 0.012604
0.708431 0.357198 0.0183413
0.728069 0.36228 0.0246128
0.745403 0.367971 0.0315709
0.760052 0.374365 0.0393683
0.772519 0.381338 0.047837
0.783673 0.388724 0.0569467
0.794079 0.39649 0.0664836
0.803815 0.40412 0.0758526
0.813474 0.411704 0.0851606
0.823392 0.419135 0.0943008
0.0630655 0.343847 0
0.0764172 0.348852 0
0.0888838 0.35407 0
0.101228 0.359472 0
0.114763 0.365026 0
0.131106 0.369879 0
0.152148 0.373526 0
0.179126 0.37557 0
0.209186 0.376959 0
0.241627 0.377874 0
0.276463 0.378637 0
0.312901 0.37879 0
0.350744 0.378531 0
0.38941 0.378164 0
0.428153 0.37789 0
0.466438 0.377829 0
0.503914 0.378424 0
0.539513 0.379126 0
0.573144 0.380423 0
0.604669 0.382315 0
0.633875 0.384848 0.00283818
0.660563 0.388083 0.00663767
0.685206 0.392218 0.0118868
0.707042 0.396735 0.0171054
0.726787 0.401724 0.0235447
0.744106 0.407385 0.0304875
0.758587 0.413809 0.0380865
0.771221 0.420722 0.0465858
0.782544 0.428138 0.0558022
0.792615 0.435477 0.0650797
0.802213 0.442908 0.0742657
0.81178 0.450309 0.0834363
0.821591 0.457588 0.0924392
0.056733 0.379126 0
0.070634 0.384405 0
0.0833753 0.390204 0
0.0962692 0.39617 0
0.110216 0.401862 0
0.126543 0.406958 0
0.148058 0.410819 0
0.175235 0.413352 0
0.205631 0.415045 0
0.238636 0.416358 0
0.273487 0.417121 0
0.310094 0.417456 0
0.34818 0.417472 0
0.38703 0.417319 0
0.425895 0.417182 0
0.464561 0.417533 0
0.501854 0.417914 0
0.53756 0.418738 0
0.571298 0.420127 0
0.602747 0.42208 0
0.632319 0.424842 0.00138857
0.659022 0.428077 0.00508125
0.68336 0.431861 0.0100099
0.705196 0.436316 0.0152132
0.72491 0.441245 0.0216068
0.741955 0.44683 0.0282292
0.756771 0.453285 0.0362097
0.769223 0.459937 0.0445411
0.780209 0.466941 0.0534524
0.790204 0.474098 0.0623484
0.799619 0.48127 0.0712749
0.808957 0.48835 0.0801099
0.818784 0.495567 0.0890974
0.0518502 0.415747 0
0.0659953 0.421286 0
0.0794385 0.427543 0
0.0925307 0.433692 0
0.106569 0.439719 0
0.123384 0.445014 0
0.145098 0.449058 0
0.172595 0.451926 0
0.203342 0.454047 0
0.236225 0.455451 0
0.271336 0.456275 0
0.30808 0.456687 0
0.346258 0.456809 0
0.385412 0.456977 0
0.424475 0.457053 0
0.462913 0.457176 0
0.500237 0.457572 0
0.535912 0.458381 0
0.569619 0.459724 0
0.601297 0.461906 0
0.63064 0.464378 0
0.657252 0.467491 0.00332647
0.6813 0.471183 0.00782788
0.703166 0.475364 0.013077
0.722652 0.480156 0.0191043
0.740001 0.485847 0.0260929
0.754391 0.491783 0.0335546
0.766613 0.498131 0.0417182
0.777325 0.504799 0.0500038
0.786969 0.511727 0.0584726
0.796231 0.518654 0.0671702
0.8056 0.525704 0.0760204
0.814878 0.532235 0.0842451
0.0487526 0.453132 0
0.0634775 0.459251 0
0.0769055 0.465431 0
0.0900282 0.471824 0
0.104509 0.477989 0
0.121599 0.483528 0
0.143465 0.487999 0
0.171344 0.490974 0
0.20206 0.493034 0
0.23505 0.494545 0
0.270115 0.495537 0
0.30692 0.496086 0
0.345373 0.496406 0
0.384466 0.496483 0
0.423392 0.496437 0
0.461814 0.496498 0
0.499184 0.496834 0
0.534859 0.497581 0
0.568765 0.499123 0
0.600061 0.500862 0
0.629007 0.503166 0
0.65568 0.506035 0.00175479
0.679637 0.50956 0.00601205
0.701518 0.513726 0.0114137
0.72076 0.518303 0.0169833
0.737621 0.523323 0.02327
0.751812 0.528984 0.0307164
0.763714 0.53518 0.0382239
0.774227 0.541497 0.0462043
0.783917 0.54818 0.0546578
0.792859 0.554696 0.062974
0.801709 0.56112 0.0713664
0.810575 0.567422 0.0790875
0.047837 0.49102 0
0.0624704 0.497185 0
0.0761425 0.503639 0
0.0896925 0.510155 0
0.104311 0.516411 0
0.121828 0.522347 0
0.143709 0.526802 0
0.171557 0.529717 0
0.202365 0.531838 0
0.235386 0.533364 0
0.270542 0.534432 0
0.30753 0.535164 0
0.345724 0.535286 0
0.384649 0.53521 0
0.423514 0.535088 0
0.461814 0.535027 0
0.499062 0.535348 0
0.534707 0.536095 0
0.5682 0.537179 0
0.599527 0.538659 0
0.62826 0.540703 0
0.654459 0.543297 0.000518807
0.678523 0.546654 0.00482185
0.699916 0.550515 0.00973526
0.719081 0.554696 0.0149996
0.735454 0.559396 0.0209964
0.749294 0.56463 0.0276188
0.76109 0.570352 0.0348974
0.771405 0.576669 0.0426642
0.780636 0.582788 0.050721
0.789181 0.588815 0.0585031
0.79762 0.59472 0.0660563
0.806149 0.600595 0.0732891
0.0489052 0.528801 0
0.0638285 0.534997 0
0.0777142 0.541527 0
0.0914473 0.54815 0
0.106493 0.554803 0
0.123613 0.56054 0
0.145769 0.56492 0
0.173404 0.567849 0
0.204196 0.56994 0
0.237476 0.571435 0
0.27274 0.57261 0
0.309438 0.573037 0
0.347494 0.572992 0
0.386221 0.572732 0
0.424949 0.572442 0
0.463218 0.572366 0
0.500328 0.572534 0
0.535531 0.572808 0
0.568704 0.573541 0
0.599619 0.574838 0
0.628153 0.576654 0
0.654582 0.579187 0.000640879
0.677913 0.581994 0.00424201
0.698833 0.585321 0.00852979
0.717723 0.589151 0.0133974
0.733944 0.593545 0.0191501
0.74757 0.598566 0.0254673
0.759045 0.603906 0.0323033
0.768704 0.609461 0.0395209
0.777615 0.615167 0.0468605
0.785916 0.620874 0.0542
0.793988 0.626337 0.0615396
0.802213 0.6318 0.0684062
0.0525826 0.566033 0
0.0676432 0.57229 0
0.0815137 0.578866 0
0.095491 0.585794 0
0.110292 0.592096 0
0.127626 0.597726 0
0.149584 0.602106 0
0.177417 0.604913 0
0.208392 0.607187 0
0.24126 0.608484 0
0.276127 0.609232 0
0.312688 0.609506 0
0.350591 0.609323 0
0.389151 0.608865 0
0.427802 0.608515 0
0.46566 0.608011 0
0.502373 0.607752 0
0.537362 0.607797 0
0.570245 0.608209 0
0.600824 0.609155 0
0.629297 0.610712 0
0.655085 0.612711 0.00144961
0.678157 0.615213 0.00469978
0.698787 0.618112 0.00852979
0.717144 0.621439 0.012726
0.733013 0.625513 0.0180056
0.746426 0.630152 0.0240024
0.757504 0.634989 0.0305486
0.766812 0.640085 0.0369879
0.77525 0.645212 0.0436713
0.783154 0.650401 0.05066
0.790936 0.655726 0.0574807
0.798962 0.660639 0.0639353
0.0585031 0.602472 0
0.0738231 0.608927 0
0.0878767 0.615457 0
0.101656 0.621988 0
0.116457 0.628183 0
0.133532 0.633707 0
0.15555 0.637827 0
0.183352 0.640803 0
0.213993 0.642618 0.00155642
0.246845 0.643687 0.00317388
0.281468 0.64416 0.0037995
0.317708 0.644099 0.0037232
0.355337 0.643656 0.00311284
0.393896 0.643214 0.002533
0.431891 0.642435 0.00125124
0.469368 0.641566 0.000106813
0.505638 0.640864 0
0.540291 0.640543 0
0.572961 0.640742 0
0.603387 0.641505 4.57771e-05
0.631144 0.642451 0.00128176
0.656535 0.64387 0.00340276
0.679255 0.64596 0.00616464
0.699565 0.648569 0.00947585
0.717906 0.651713 0.0136873
0.733196 0.655131 0.0181888
0.745998 0.659068 0.0233463
0.756573 0.663554 0.0293126
0.765805 0.668223 0.0355077
0.773831 0.673045 0.0416724
0.781415 0.677775 0.0483101
0.788785 0.682307 0.0543679
0.796216 0.686778 0.0603952
0.0670787 0.637934 0
0.0822156 0.644083 0
0.095964 0.650431 0
0.109651 0.656733 0
0.124407 0.662745 0
0.141634 0.668009 0.00030518
0.163653 0.672251 0.0059205
0.190951 0.674586 0.00915541
0.221393 0.676036 0.010956
0.25388 0.676905 0.0121309
0.288289 0.677165 0.0124819
0.324514 0.677073 0.0123598
0.36173 0.676234 0.0112154
0.399573 0.67509 0.0099031
0.437232 0.673991 0.00827039
0.474434 0.672862 0.00674449
0.510338 0.671824 0.00534066
0.544747 0.671275 0.00460822
0.576883 0.670924 0.0041352
0.606744 0.671107 0.0043946
0.634211 0.671748 0.00523384
0.659037 0.672801 0.00666819
0.681285 0.674357 0.0087892
0.701518 0.676585 0.0116884
0.719127 0.679179 0.0151827
0.734218 0.6822 0.0193637
0.746563 0.685695 0.0239261
0.756649 0.68957 0.0292058
0.765484 0.693782 0.0348211
0.773297 0.698253 0.0410315
0.780423 0.702525 0.0467079
0.787366 0.706554 0.0523079
0.794293 0.71043 0.0575113
0.0775006 0.671656 0
0.092546 0.677546 0
0.106462 0.683619 0
0.11986 0.689708 0
0.1346 0.695537 0.00630198
0.151705 0.700557 0.0131075
0.173266 0.70425 0.0181735
0.200412 0.70634 0.021149
0.230503 0.707454 0.0225986
0.262577 0.707897 0.0231022
0.296834 0.708003 0.0232395
0.332525 0.707408 0.0225528
0.369299 0.706279 0.0210574
0.406668 0.704784 0.0189059
0.443946 0.703136 0.0166323
0.48069 0.701579 0.0144808
0.516503 0.700465 0.0129549
0.550301 0.699336 0.0114137
0.581781 0.698558 0.0104067
0.611063 0.698207 0.00994888
0.638071 0.69839 0.010193
0.662745 0.699077 0.0110933
0.684855 0.700435 0.0129244
0.704219 0.701991 0.0150454
0.721279 0.704005 0.0178225
0.736034 0.706554 0.0215
0.748043 0.709712 0.0256046
0.757946 0.713375 0.0306401
0.766247 0.716976 0.035523
0.773342 0.720775 0.0407568
0.780133 0.724605 0.0459754
0.786603 0.728344 0.0511788
0.793378 0.731792 0.0558938
0.0899977 0.703471 0
0.104829 0.708995 0
0.118563 0.714778 0.00573739
0.132021 0.720775 0.0136721
0.146471 0.726223 0.0214694
0.16318 0.730755 0.0276951
0.18436 0.734005 0.0322118
0.211109 0.73579 0.0343786
0.240833 0.73666 0.035584
0.272831 0.737026 0.0361028
0.306371 0.736446 0.0352941
0.341512 0.735317 0.033814
0.377981 0.733791 0.0319219
0.415076 0.731975 0.0293889
0.452018 0.730175 0.0267185
0.488197 0.728176 0.0238499
0.523186 0.726284 0.0215457
0.556558 0.724773 0.0194553
0.587869 0.723644 0.0178988
0.616754 0.722881 0.0168307
0.643381 0.722698 0.0165866
0.667369 0.722896 0.0168612
0.688838 0.723674 0.0179294
0.707881 0.72488 0.0196078
0.724514 0.726467 0.0218051
0.738613 0.728527 0.0243229
0.750393 0.731258 0.028397
0.759777 0.734356 0.0327153
0.767666 0.737667 0.0370947
0.774441 0.740948 0.0418555
0.780514 0.744274 0.0461585
0.786694 0.747478 0.0509041
0.793072 0.750744 0.0551461
0.104112 0.733349 0.00810254
0.118791 0.738643 0.0154116
0.132174 0.744213 0.023209
0.145281 0.749554 0.0305791
0.159396 0.754574 0.0375677
0.175677 0.758862 0.043595
0.196643 0.761715 0.0474708
0.223041 0.763073 0.0494545
0.252415 0.763607 0.0502022
0.283787 0.763378 0.0498817
0.316991 0.762493 0.0486305
0.351507 0.761028 0.0463111
0.387381 0.758953 0.0437171
0.424109 0.756817 0.0406958
0.46067 0.754513 0.0374762
0.4963 0.752163 0.0342107
0.5308 0.749828 0.0309911
0.563577 0.747768 0.0280919
0.594369 0.746166 0.025864
0.622904 0.745266 0.024445
0.648966 0.744564 0.0236973
0.672419 0.744274 0.0232853
0.693309 0.744488 0.0235752
0.711925 0.745266 0.0244297
0.728374 0.746441 0.0262455
0.74226 0.748272 0.028809
0.75317 0.750408 0.0317845
0.762081 0.752956 0.035111
0.769574 0.755795 0.0392615
0.775937 0.758801 0.0435035
0.781964 0.761837 0.0476844
0.787488 0.764614 0.0516213
0.79321 0.767224 0.0552071
0.119097 0.761166 0.0270237
0.133623 0.766262 0.0344701
0.146761 0.771282 0.0415045
0.159319 0.776242 0.048188
0.172915 0.780728 0.0547951
0.188983 0.784558 0.0601511
0.209583 0.787198 0.06392
0.235615 0.788266 0.0654154
0.264347 0.78819 0.0653086
0.29514 0.787427 0.0642252
0.327886 0.786114 0.0623636
0.362158 0.784283 0.0596933
0.397757 0.782116 0.0565499
0.433738 0.779293 0.052781
0.469505 0.77644 0.0485389
0.504784 0.773632 0.0448157
0.538918 0.770993 0.0410773
0.571206 0.768704 0.0375982
0.60148 0.766629 0.0350042
0.629404 0.764981 0.0326696
0.655055 0.763882 0.0311131
0.678172 0.763272 0.0302434
0.698634 0.763073 0.0299687
0.716762 0.763409 0.0304417
0.73257 0.764172 0.0315099
0.745907 0.765469 0.033341
0.756542 0.7673 0.0357061
0.765087 0.769421 0.0387732
0.772 0.771756 0.0421759
0.778027 0.774441 0.0458381
0.783566 0.77702 0.0495003
0.788769 0.779461 0.0529946
0.794049 0.781643 0.0560464
0.13547 0.786877 0.047715
0.149157 0.791333 0.0540475
0.161929 0.795972 0.0606088
0.17435 0.800534 0.0673533
0.187472 0.804746 0.0730602
0.203174 0.808209 0.0782635
0.223163 0.810254 0.0808576
0.248631 0.810803 0.0816358
0.277028 0.810422 0.0810864
0.307362 0.809232 0.0795911
0.339467 0.807462 0.0770428
0.373297 0.805264 0.0737926
0.408377 0.802487 0.0698253
0.443824 0.799405 0.065507
0.479225 0.796078 0.0607462
0.513848 0.792737 0.0561837
0.547448 0.789715 0.0517586
0.579492 0.787015 0.0479133
0.609262 0.784543 0.0446632
0.636591 0.782498 0.0415656
0.661631 0.780835 0.0392309
0.68426 0.779767 0.037705
0.704479 0.779339 0.0370947
0.722194 0.779293 0.0370184
0.737484 0.779568 0.0374151
0.750286 0.780362 0.0385443
0.760479 0.781781 0.0405432
0.768582 0.783612 0.0431678
0.775372 0.785687 0.0463417
0.780774 0.787762 0.0489815
0.785595 0.789837 0.0519417
0.790356 0.791882 0.0548562
0.795438 0.793667 0.0574502
0.152529 0.810101 0.0695659
0.165774 0.81413 0.0750744
0.177981 0.818235 0.0808728
0.189761 0.8224 0.0868391
0.202884 0.826368 0.0924697
0.217868 0.829358 0.0967727
0.237415 0.830884 0.0990921
0.262287 0.830869 0.0990768
0.290089 0.83006 0.0977798
0.320119 0.828595 0.0956741
0.352026 0.82652 0.0926986
0.385168 0.823667 0.0888533
0.419516 0.820386 0.0839704
0.454643 0.816815 0.0791791
0.489525 0.813245 0.0737926
0.52398 0.809644 0.068986
0.556863 0.806088 0.0636454
0.58822 0.802762 0.0588846
0.617441 0.799939 0.054963
0.644526 0.797543 0.0515145
0.669245 0.79559 0.0487373
0.691402 0.794095 0.0469215
0.710948 0.793118 0.0454566
0.728161 0.792691 0.0447242
0.74313 0.792676 0.0446937
0.755581 0.793042 0.0453346
0.765332 0.793973 0.0467384
0.772976 0.795377 0.0484169
0.77911 0.797024 0.0507668
0.784115 0.798733 0.0532082
0.788495 0.80029 0.0555428
0.79266 0.801663 0.0576028
0.79704 0.803006 0.0592355
0.16965 0.831022 0.091249
0.18265 0.834699 0.0964675
0.194629 0.838621 0.102083
0.20589 0.842237 0.107225
0.218051 0.845487 0.111971
0.232776 0.848051 0.115526
0.251881 0.849287 0.117311
0.276326 0.848875 0.116732
0.303822 0.847654 0.114977
