assets/cube/faded_retro_01.cube
TITLE "Generated by Resolve"
LUT_3D_SIZE 9
0.118578 0.118578 0.169772
0.151629 0.119356 0.170428
0.223606 0.108125 0.161181
0.339834 0.0842145 0.141649
0.466758 0.057847 0.120058
0.572 0.0391546 0.104936
0.643214 0.0331579 0.0998856
0.683223 0.0420539 0.107179
0.712993 0.0605631 0.122347
0.118181 0.150439 0.169436
0.150576 0.150576 0.169558
0.22475 0.141527 0.162142
0.346944 0.123583 0.147433
0.484443 0.107805 0.134554
0.604044 0.103471 0.131106
0.689677 0.111894 0.138003
0.741207 0.132311 0.154574
0.779019 0.158862 0.176318
0.0919661 0.207446 0.147982
0.136553 0.21976 0.158145
0.225177 0.225177 0.162509
0.360876 0.220737 0.158907
0.50898 0.215549 0.154604
0.63563 0.218265 0.156878
0.727459 0.232883 0.168795
0.784329 0.258656 0.189883
0.826444 0.289494 0.215045
0.0687419 0.324376 0.129046
0.122423 0.345769 0.146456
0.217777 0.357916 0.156466
0.359518 0.359518 0.157809
0.512673 0.359396 0.157717
0.643137 0.365927 0.162997
0.737484 0.383062 0.17702
0.795407 0.409873 0.19884
0.836667 0.439872 0.223453
0.0597391 0.468635 0.121645
0.117937 0.494575 0.142885
0.216938 0.510369 0.155779
0.360601 0.513878 0.158724
0.513939 0.513939 0.15877
0.643381 0.519448 0.163226
0.734966 0.533822 0.174914
0.788602 0.556344 0.193271
0.824506 0.580987 0.213397
0.082414 0.615259 0.140139
0.140444 0.641016 0.161212
0.237552 0.654917 0.172519
0.377905 0.655116 0.172686
0.526543 0.650477 0.168994
0.650401 0.650401 0.168917
0.735393 0.658183 0.175265
0.781811 0.673487 0.187747
0.810575 0.69099 0.202075
0.131838 0.741878 0.180529
0.184939 0.762722 0.197681
0.276097 0.770672 0.204166
0.409751 0.764187 0.198764
0.551232 0.752377 0.189166
0.667613 0.744823 0.183001
0.745113 0.745113 0.183261
0.784314 0.753201 0.189853
0.806058 0.763684 0.198459
0.194415 0.835584 0.2318
0.240406 0.849302 0.242954
0.324132 0.849805 0.243381
0.450126 0.83566 0.231876
0.584512 0.81677 0.216373
0.693782 0.802106 0.204425
0.764111 0.795224 0.198734
0.79588 0.79588 0.199191
0.810193 0.798932 0.201755
0.246815 0.899245 0.274495
0.285603 0.90576 0.279789
0.362142 0.899077 0.274372
0.48072 0.877531 0.256825
0.607614 0.851118 0.235203
0.709789 0.829374 0.217502
0.77406 0.816419 0.206806
0.801221 0.812482 0.203693
0.81236 0.81236 0.203586
0.119188 0.119188 0.196643
0.152163 0.11989 0.197253
0.223835 0.108354 0.187732
0.340032 0.0843977 0.16817
0.467353 0.0584421 0.146929
0.573404 0.0405737 0.132387
0.646082 0.0360266 0.128664
0.687602 0.0464485 0.137224
0.718868 0.0664378 0.15346
0.118502 0.150774 0.196078
0.151278 0.151278 0.19649
0.226398 0.143191 0.189899
0.350484 0.127123 0.176776
0.489845 0.113207 0.165408
0.610376 0.109804 0.1626
0.696651 0.118868 0.170016
0.748852 0.139956 0.187167
0.787076 0.166918 0.209262
0.0957809 0.211261 0.177554
0.142199 0.225406 0.189059
0.231861 0.231861 0.194293
0.368246 0.228092 0.191318
0.516899 0.223484 0.187427
0.644083 0.226719 0.190158
0.736416 0.24184 0.202487
0.793698 0.268009 0.223911
0.835752 0.298802 0.249027
0.0763256 0.33196 0.161578
0.13048 0.353826 0.179446
0.226505 0.366644 0.189975
0.368612 0.368612 0.191638
0.521752 0.36846 0.191501
0.652689 0.375479 0.197208
0.74699 0.392554 0.211185
0.804669 0.419135 0.232807
0.845579 0.448783 0.257099
0.0690318 0.477943 0.155627
0.127413 0.504051 0.17702
0.22649 0.519921 0.18996
0.370092 0.523369 0.192676
0.523003 0.523003 0.192401
0.652094 0.528161 0.196704
0.74313 0.541985 0.207935
0.796124 0.563867 0.225757
0.831479 0.587961 0.245548
0.0917067 0.624537 0.174121
0.149523 0.650095 0.195026
0.246189 0.663554 0.206027
0.385855 0.663066 0.205722
0.533806 0.65774 0.201251
0.656962 0.656962 0.20061
0.741299 0.664088 0.206394
0.786954 0.67863 0.218448
0.814984 0.695399 0.232151
0.13962 0.749676 0.213245
0.192096 0.769879 0.229847
0.282399 0.776974 0.23563
0.415122 0.769543 0.229572
0.556039 0.757183 0.219364
0.671763 0.748974 0.21268
0.748531 0.748531 0.21239
0.786999 0.755901 0.218479
0.80795 0.765576 0.22623
0.199771 0.84094 0.26247
0.244907 0.853803 0.272892
0.327871 0.853544 0.272679
0.453239 0.838773 0.260655
0.586999 0.819257 0.244831
0.695537 0.803861 0.232273
0.764843 0.795956 0.225635
0.795926 0.795926 0.225605
0.80975 0.798489 0.227741
0.249592 0.902022 0.303197
0.287678 0.907835 0.307897
0.3635 0.90045 0.301869
0.481361 0.878157 0.283726
0.607553 0.851072 0.261524
0.709194 0.828779 0.243366
0.773083 0.815457 0.232502
0.800122 0.811383 0.229114
0.81117 0.81117 0.228946
0.116915 0.116915 0.26276
0.149432 0.117159 0.262974
0.220981 0.105501 0.253361
0.337301 0.0816815 0.233906
0.465019 0.0561227 0.213001
0.572 0.0391546 0.19913
0.646555 0.0364996 0.197086
0.689937 0.0487678 0.207019
0.722057 0.0696422 0.224186
0.115969 0.148241 0.261967
0.14934 0.14934 0.262898
0.225467 0.14226 0.25713
0.351217 0.127855 0.24538
0.492576 0.115938 0.235584
0.614008 0.113436 0.233478
0.700954 0.123156 0.241459
0.753704 0.144808 0.259236
0.792462 0.172305 0.281621
0.0973373 0.212818 0.246693
0.145159 0.228367 0.259449
0.235599 0.235599 0.265461
0.372763 0.232624 0.262959
0.521828 0.228397 0.259464
0.649744 0.232395 0.26276
0.742458 0.247883 0.27541
0.799863 0.274189 0.296941
0.842268 0.305318 0.322347
0.0807965 0.336431 0.233173
0.13576 0.359121 0.251835
0.23238 0.372519 0.262745
0.374853 0.374853 0.264714
0.528176 0.374899 0.264744
0.659205 0.381979 0.270512
0.753429 0.398993 0.284428
0.810513 0.424979 0.305562
0.851255 0.454459 0.329702
0.0750439 0.48394 0.228519
0.133913 0.510552 0.250309
0.232959 0.52639 0.263249
0.37641 0.529686 0.265904
0.529046 0.529046 0.265476
0.65771 0.533776 0.269245
0.748074 0.546929 0.279927
0.800183 0.567941 0.2972
0.835019 0.591501 0.316442
0.097734 0.630579 0.247013
0.155337 0.655909 0.26775
0.251545 0.66891 0.278477
0.390433 0.667659 0.277424
0.537911 0.661845 0.272557
0.660227 0.660227 0.271382
0.743755 0.666545 0.276493
0.788754 0.68043 0.287785
0.816129 0.696544 0.300938
0.144091 0.754131 0.285039
0.195956 0.773739 0.300923
0.285557 0.780133 0.306111
0.417365 0.771786 0.29929
0.557488 0.758633 0.288624
0.672465 0.749676 0.281285
0.748592 0.748592 0.280354
0.78648 0.755367 0.285985
0.806683 0.764309 0.293187
0.201877 0.843046 0.332158
0.24625 0.855146 0.342061
0.328328 0.854017 0.3411
0.452995 0.838529 0.328466
0.586069 0.818311 0.312062
0.693904 0.802228 0.298848
0.762432 0.793545 0.291814
0.792813 0.792813 0.291203
0.806119 0.794858 0.292744
0.249241 0.901656 0.370932
0.286488 0.906645 0.374914
0.361334 0.898283 0.368078
0.478599 0.875395 0.349432
0.604288 0.847807 0.326802
0.705486 0.825071 0.308263
0.769055 0.811429 0.297185
0.795911 0.807172 0.293599
0.806943 0.806943 0.293416
0.111177 0.111177 0.37258
0.14316 0.110887 0.372396
0.21471 0.0992447 0.362844
0.33135 0.0757153 0.343648
0.459663 0.0507515 0.323232
0.56759 0.0347601 0.31017
0.64387 0.033814 0.309377
0.689311 0.0481575 0.32105
0.722194 0.0697642 0.338827
0.110124 0.142397 0.371801
0.144381 0.144381 0.373281
0.222004 0.138796 0.368765
0.349279 0.125933 0.358343
0.491981 0.115343 0.34963
0.614328 0.113756 0.348302
0.702052 0.124269 0.356954
0.755413 0.146517 0.375067
0.79469 0.174548 0.398062
0.0963302 0.21181 0.360388
0.145098 0.228321 0.373877
0.236164 0.236164 0.380285
0.373983 0.233829 0.378531
0.523705 0.230274 0.375525
0.652216 0.234852 0.379217
0.745281 0.250706 0.392325
0.802823 0.277134 0.413764
0.84538 0.308431 0.439307
0.0822461 0.337881 0.348943
0.137804 0.361166 0.367941
0.234913 0.375051 0.379248
0.37763 0.37763 0.381399
0.531273 0.377997 0.381704
0.662287 0.385061 0.387457
0.756359 0.401938 0.401251
0.813184 0.427649 0.422293
0.853452 0.456657 0.446036
0.0779889 0.486885 0.345556
0.137026 0.513664 0.367285
0.236027 0.529458 0.380179
0.378897 0.532174 0.382467
0.531487 0.531487 0.381888
0.659693 0.53576 0.385397
0.749325 0.54818 0.395529
0.8009 0.568643 0.412238
0.834882 0.591363 0.430869
0.100465 0.63331 0.363882
0.15758 0.658152 0.384192
0.253223 0.670588 0.394247
0.391531 0.668757 0.392798
0.538384 0.662318 0.387488
0.659983 0.659983 0.385595
0.742473 0.665263 0.38996
0.786831 0.678508 0.400702
0.813458 0.693874 0.413245
0.144884 0.754925 0.400046
0.196002 0.773785 0.415518
0.284947 0.779522 0.420157
0.416098 0.77052 0.412772
0.555444 0.756588 0.40145
0.669581 0.746792 0.393393
0.744869 0.744869 0.391989
0.782162 0.751064 0.396994
0.801663 0.759289 0.403708
0.200183 0.841337 0.445396
0.2439 0.852796 0.454627
0.3252 0.850874 0.45301
0.449241 0.834775 0.439872
0.581491 0.813733 0.422766
0.688411 0.796719 0.408835
0.756298 0.787411 0.401205
0.786175 0.786175 0.400153
0.799008 0.787762 0.401495
0.245243 0.897658 0.482109
0.281773 0.901915 0.485634
0.355642 0.892592 0.478035
0.472175 0.868971 0.458762
0.59736 0.840879 0.435721
0.698238 0.817823 0.416907
0.761578 0.803952 0.405585
0.788281 0.799542 0.401938
0.799298 0.799298 0.401724
0.104479 0.104479 0.492317
0.136141 0.103868 0.491936
0.207691 0.0922103 0.482322
0.324712 0.0690929 0.463462
0.453834 0.0449378 0.443732
0.563272 0.0304265 0.431937
0.641077 0.0310216 0.432349
0.687846 0.0466773 0.445212
0.721721 0.0693065 0.463645
0.103563 0.135836 0.491676
0.138827 0.138827 0.493996
0.218326 0.135119 0.491081
0.347524 0.124163 0.482063
0.491112 0.114473 0.474098
0.614084 0.113512 0.473289
0.70248 0.124697 0.482506
0.756298 0.147402 0.501015
0.796368 0.176211 0.524666
0.0948043 0.210285 0.484504
0.144549 0.227756 0.498817
0.236301 0.236301 0.505776
0.37464 0.234501 0.50428
0.524926 0.23151 0.501762
0.653956 0.236591 0.505959
0.747417 0.252842 0.519158
0.805066 0.279377 0.540856
0.847669 0.310719 0.56643
0.0832227 0.338857 0.474968
0.139315 0.362676 0.494408
0.236789 0.376928 0.506081
0.379629 0.379629 0.508278
0.533608 0.380316 0.508858
0.664561 0.387335 0.514565
0.758267 0.40383 0.528054
0.814847 0.429313 0.548882
0.854688 0.457893 0.572244
0.0802319 0.489143 0.472618
0.139345 0.515984 0.494438
0.238239 0.53167 0.50724
0.380865 0.534142 0.509316
0.532952 0.532952 0.508324
0.660594 0.53666 0.511437
0.749599 0.548455 0.520958
0.80061 0.568353 0.537316
0.833875 0.590356 0.55523
0.102312 0.635157 0.490623
0.158984 0.659556 0.510567
0.253819 0.671183 0.519951
0.391531 0.668757 0.518105
0.537682 0.661616 0.512261
0.658625 0.658625 0.509789
0.740444 0.663233 0.513451
0.783993 0.675669 0.523735
0.809781 0.690196 0.535546
0.144762 0.754818 0.525353
0.195071 0.772854 0.53994
0.282994 0.777569 0.543908
0.413626 0.768063 0.536095
0.552331 0.753475 0.524239
0.66566 0.74287 0.515496
0.740353 0.740353 0.51339
0.776806 0.745693 0.517876
0.795407 0.753033 0.523857
0.197436 0.83859 0.568276
0.240375 0.849256 0.577066
0.32105 0.846723 0.574929
0.44448 0.830014 0.561257
0.575998 0.808255 0.543542
0.681895 0.790219 0.528756
0.749096 0.780209 0.520546
0.778485 0.778485 0.519112
0.790997 0.779736 0.52015
0.240055 0.892485 0.603159
0.275868 0.896025 0.606088
0.34902 0.885969 0.597879
0.464881 0.861677 0.578027
0.589532 0.833036 0.554528
0.690059 0.809628 0.535424
0.753231 0.795605 0.524025
0.779873 0.791135 0.520256
0.790875 0.790875 0.520043
0.0992599 0.0992599 0.589349
0.130877 0.0986038 0.5888
0.202518 0.0870375 0.579431
0.319951 0.0643168 0.560754
0.450019 0.0411078 0.541817
0.561349 0.0285039 0.531609
0.641016 0.0309606 0.533471
0.688685 0.0475319 0.547021
0.723217 0.0708019 0.566033
0.0992294 0.131502 0.589334
0.135485 0.135485 0.592569
0.216648 0.13344 0.590967
0.347692 0.124346 0.583505
0.492302 0.115663 0.57641
0.615946 0.115373 0.576165
0.704921 0.127138 0.585824
0.759258 0.150378 0.604822
0.799863 0.179706 0.628702
0.0953536 0.210834 0.586145
0.145876 0.229084 0.601022
0.238407 0.238407 0.608682
0.377188 0.237034 0.607523
0.528176 0.234745 0.605798
0.657572 0.240208 0.610193
0.751019 0.256443 0.623453
0.809125 0.283452 0.645579
0.851682 0.314733 0.671122
0.0860914 0.341711 0.578668
0.142763 0.36611 0.598611
0.240589 0.380743 0.610529
0.383627 0.383627 0.612818
0.537682 0.38439 0.613397
0.668544 0.391333 0.61915
0.761776 0.407355 0.632319
0.818082 0.432547 0.65272
0.857359 0.460563 0.6757
0.0843061 0.493217 0.577173
0.143389 0.520027 0.599023
0.242039 0.53547 0.611734
0.384482 0.537758 0.613458
0.53611 0.53611 0.612284
0.663111 0.539178 0.614649
0.751354 0.55021 0.623743
0.801709 0.569451 0.639429
0.834302 0.590784 0.656886
0.105684 0.638529 0.594568
0.161913 0.662486 0.61413
0.256092 0.673442 0.623163
0.39321 0.67042 0.620615
0.538521 0.662455 0.614099
0.658549 0.658549 0.611017
0.739773 0.662562 0.614191
0.782666 0.674357 0.623926
0.807736 0.688151 0.635142
0.146181 0.756222 0.627649
0.195727 0.77351 0.641794
0.282856 0.777432 0.64509
0.41265 0.767071 0.636576
0.550591 0.751736 0.624063
0.663264 0.740475 0.614786
0.737362 0.737362 0.612375
0.773098 0.741985 0.616053
0.790677 0.748302 0.62118
0.196338 0.837491 0.668666
0.238331 0.847227 0.676646
0.318349 0.844038 0.673961
0.441077 0.826612 0.659754
0.571893 0.80415 0.641398
0.677058 0.785382 0.625986
0.743557 0.77467 0.61738
0.772396 0.772396 0.615473
0.784558 0.773297 0.61622
0.236439 0.888869 0.701411
0.271229 0.891386 0.703532
0.343816 0.880766 0.694789
0.459174 0.85597 0.674525
0.583352 0.826871 0.650843
0.683574 0.803159 0.631495
0.746593 0.788968 0.619745
0.77319 0.784451 0.616144
0.784283 0.784283 0.615991
0.0967727 0.0967727 0.650446
0.128359 0.0961013 0.649882
0.200351 0.0848707 0.640635
0.318349 0.0627298 0.622599
0.449424 0.0405127 0.604501
0.562432 0.0296025 0.595514
0.644114 0.0340581 0.59913
0.692668 0.0515145 0.613352
0.727855 0.0754406 0.632975
0.0980697 0.130343 0.651545
0.135836 0.135836 0.65597
0.21854 0.135332 0.655543
0.351003 0.127642 0.649271
0.496406 0.119768 0.642832
0.620829 0.120256 0.643259
0.710262 0.132479 0.653132
0.765286 0.156405 0.672724
0.806256 0.186099 0.697063
0.0990768 0.214557 0.652308
0.150225 0.233433 0.667674
0.243275 0.243275 0.675761
0.382834 0.242695 0.675273
0.534417 0.240986 0.673838
0.664164 0.246799 0.678721
0.757794 0.263218 0.692149
0.815991 0.290318 0.714153
0.858488 0.321538 0.739712
0.0919051 0.347539 0.646357
0.149065 0.372412 0.666697
0.246967 0.387106 0.678828
0.390478 0.390478 0.681498
0.544503 0.391226 0.682124
0.675227 0.398016 0.687648
0.768215 0.413779 0.700511
0.824048 0.438499 0.720714
0.862669 0.465873 0.743145
0.0911727 0.500084 0.645853
0.15021 0.526848 0.667659
0.248386 0.541817 0.679866
0.390646 0.543923 0.681636
0.541863 0.541863 0.679896
0.668025 0.544091 0.681773
0.75581 0.554665 0.690471
0.805325 0.573068 0.705516
0.83714 0.593622 0.722255
0.111681 0.644526 0.662608
0.16733 0.667903 0.681666
0.260914 0.678279 0.690211
0.397436 0.674647 0.687144
0.542031 0.665965 0.680034
0.661112 0.661112 0.676158
0.741588 0.664378 0.678859
0.783749 0.675425 0.687816
0.808148 0.688563 0.698665
0.149981 0.760037 0.693828
0.198825 0.776608 0.707378
0.285328 0.779904 0.710155
0.414359 0.76878 0.700999
0.551461 0.752605 0.68777
0.663371 0.740581 0.678065
0.736797 0.736797 0.674876
0.771801 0.740703 0.678157
0.788617 0.746242 0.682628
0.197726 0.838895 0.732815
0.239017 0.847913 0.7402
0.318349 0.844038 0.737148
0.440253 0.825788 0.722194
0.570092 0.80235 0.703059
0.674662 0.782986 0.68716
0.740658 0.771771 0.678126
0.769055 0.769055 0.675837
0.78088 0.769619 0.67631
0.235431 0.887861 0.763745
0.269322 0.889479 0.765103
0.341146 0.87808 0.755718
0.455985 0.852796 0.735027
0.579858 0.823377 0.711086
0.679866 0.799451 0.691539
0.742733 0.785107 0.679667
0.769299 0.78056 0.676036
0.780529 0.780529 0.67602
0.0970626 0.0970626 0.676081
0.128634 0.096376 0.675486
0.201038 0.0855573 0.66659
0.319905 0.064271 0.649287
0.452461 0.0435492 0.632441
0.56701 0.034165 0.624735
0.650004 0.0399481 0.629419
0.699504 0.0583352 0.64448
0.735485 0.0830549 0.664698
0.0998245 0.132097 0.678401
0.139483 0.139483 0.684413
0.224079 0.140871 0.685588
0.357458 0.134096 0.679881
0.503487 0.126848 0.673976
0.628565 0.127993 0.674952
0.718578 0.140795 0.685527
0.774273 0.165377 0.705562
0.815595 0.195438 0.730114
0.105852 0.221332 0.683268
0.157687 0.240894 0.699229
0.25124 0.25124 0.707637
0.391394 0.25124 0.707637
0.543465 0.250034 0.70663
0.673487 0.256123 0.711757
0.767407 0.272831 0.725414
0.825589 0.299916 0.747402
0.867933 0.330983 0.772854
0.10074 0.356359 0.679057
0.158251 0.381613 0.699611
0.256428 0.396582 0.712016
0.400122 0.400122 0.714794
0.554086 0.400809 0.715373
0.684276 0.407065 0.720439
0.777157 0.422736 0.733227
0.832547 0.447013 0.753063
0.870481 0.473686 0.774914
0.100801 0.509697 0.679088
0.159564 0.536202 0.70071
0.257649 0.55108 0.712947
0.39942 0.552697 0.714199
0.550042 0.550042 0.712169
0.675639 0.551705 0.713375
0.762829 0.561669 0.721553
0.811612 0.579355 0.736034
0.842359 0.59884 0.752041
0.120378 0.653223 0.695109
0.175113 0.675685 0.713405
0.268223 0.685588 0.721538
0.404013 0.681224 0.718074
0.547936 0.67187 0.710399
0.666377 0.666377 0.705821
0.746059 0.668849 0.707851
0.787366 0.679057 0.716243
0.810956 0.691386 0.726223
0.156329 0.766384 0.724559
0.204242 0.782025 0.737316
0.290166 0.784741 0.739544
0.418524 0.772961 0.729885
0.554803 0.755947 0.715984
0.666148 0.743358 0.705684
0.738735 0.738735 0.701885
0.772839 0.741741 0.704417
0.789014 0.746639 0.708339
0.20148 0.842649 0.761364
0.242145 0.851041 0.768231
0.320867 0.846555 0.764645
0.442054 0.827588 0.749081
0.570932 0.803174 0.729137
0.674739 0.783062 0.712779
0.740261 0.771374 0.703166
0.768322 0.768322 0.700603
0.779934 0.768673 0.700893
0.236789 0.88922 0.790265
0.269993 0.89015 0.791058
0.341146 0.878096 0.781109
0.455451 0.852247 0.75996
0.578988 0.822507 0.735729
0.678828 0.798398 0.716045
0.741604 0.783978 0.704311
0.7682 0.779461 0.700496
0.779568 0.779568 0.700587
0.0985275 0.0985275 0.686442
0.13022 0.0979629 0.686076
0.20296 0.08748 0.677485
0.322835 0.0672007 0.660822
0.457282 0.0483711 0.645563
0.573709 0.0408789 0.639368
0.657603 0.0475624 0.644892
0.707759 0.0665904 0.660304
0.744396 0.0919814 0.681071
0.103273 0.135546 0.690379
0.144564 0.144564 0.69778
0.231022 0.147814 0.700298
0.365393 0.142046 0.695644
0.512108 0.13547 0.690318
0.637751 0.137179 0.691752
0.728313 0.15053 0.702586
0.784497 0.175601 0.723095
0.826215 0.206073 0.747936
0.113909 0.229374 0.699077
0.166522 0.249729 0.715648
0.260655 0.260655 0.724651
0.401389 0.261234 0.725139
0.553811 0.26038 0.724422
0.68394 0.266575 0.729427
0.778241 0.283665 0.743404
0.836347 0.310658 0.76553
0.87837 0.341436 0.790631
0.110918 0.366552 0.69662
0.168719 0.392081 0.71751
0.26717 0.407324 0.729931
0.410925 0.410925 0.732754
0.564828 0.411536 0.733272
0.694697 0.417472 0.738277
0.787121 0.432685 0.750683
0.841947 0.456413 0.770047
0.879255 0.48246 0.791363
0.111574 0.52047 0.697154
0.170092 0.546731 0.718654
0.267979 0.56141 0.730617
0.409308 0.562585 0.731594
0.559167 0.559167 0.728725
0.684138 0.560204 0.729595
0.770611 0.569467 0.737194
0.818738 0.586496 0.751125
0.848829 0.60531 0.76643
0.130007 0.662852 0.712276
0.184207 0.684779 0.730129
0.276616 0.69398 0.737682
0.411582 0.688792 0.733303
0.554482 0.678416 0.724971
0.672419 0.672419 0.719936
0.751461 0.67425 0.721462
0.791974 0.68365 0.729183
0.814908 0.695323 0.738811
0.163607 0.773663 0.739666
0.210834 0.788617 0.751949
0.295918 0.790494 0.753323
0.423499 0.777935 0.743145
0.559167 0.760311 0.72871
0.669871 0.747082 0.717998
0.741741 0.741741 0.713497
0.774823 0.743709 0.715145
0.790295 0.747921 0.7187
0.206134 0.847303 0.77435
0.246189 0.855085 0.780697
0.324193 0.849882 0.776516
0.444663 0.830198 0.760357
0.572808 0.805066 0.739849
0.675944 0.784268 0.722896
0.740917 0.772015 0.712917
0.768627 0.768627 0.71014
0.780072 0.768811 0.710292
0.238926 0.891356 0.801144
0.271504 0.891661 0.801404
0.342138 0.879088 0.791226
0.456016 0.852811 0.769711
0.579248 0.822766 0.74522
0.678904 0.798489 0.725383
0.74168 0.784054 0.713436
0.768338 0.779599 0.709895
0.779736 0.779736 0.710002
