assets/cube/faded_retro_01.cube
TITLE "Generated by Resolve"
LUT_3D_SIZE 5
0.118578 0.118578 0.169772
0.223606 0.108125 0.161181
0.466758 0.057847 0.120058
0.643214 0.0331579 0.0998856
0.712993 0.0605631 0.122347
0.0919661 0.207446 0.147982
0.225177 0.225177 0.162509
0.50898 0.215549 0.154604
0.727459 0.232883 0.168795
0.826444 0.289494 0.215045
0.0597391 0.468635 0.121645
0.216938 0.510369 0.155779
0.513939 0.513939 0.15877
0.734966 0.533822 0.174914
0.824506 0.580987 0.213397
0.131838 0.741878 0.180529
0.276097 0.770672 0.204166
0.551232 0.752377 0.189166
0.745113 0.745113 0.183261
0.806058 0.763684 0.198459
0.246815 0.899245 0.274495
0.362142 0.899077 0.274372
0.607614 0.851118 0.235203
0.77406 0.816419 0.206806
0.81236 0.81236 0.203586
0.116915 0.116915 0.26276
0.220981 0.105501 0.253361
0.465019 0.0561227 0.213001
0.646555 0.0364996 0.197086
0.722057 0.0696422 0.224186
0.0973373 0.212818 0.246693
0.235599 0.235599 0.265461
0.521828 0.228397 0.259464
0.742458 0.247883 0.27541
0.842268 0.305318 0.322347
0.0750439 0.48394 0.228519
0.232959 0.52639 0.263249
0.529046 0.529046 0.265476
0.748074 0.546929 0.279927
0.835019 0.591501 0.316442
0.144091 0.754131 0.285039
0.285557 0.780133 0.306111
0.557488 0.758633 0.288624
0.748592 0.748592 0.280354
0.806683 0.764309 0.293187
0.249241 0.901656 0.370932
0.361334 0.898283 0.368078
0.604288 0.847807 0.326802
0.769055 0.811429 0.297185
0.806943 0.806943 0.293416
0.104479 0.104479 0.492317
0.207691 0.0922103 0.482322
0.453834 0.0449378 0.443732
0.641077 0.0310216 0.432349
0.721721 0.0693065 0.463645
0.0948043 0.210285 0.484504
0.236301 0.236301 0.505776
0.524926 0.23151 0.501762
0.747417 0.252842 0.519158
0.847669 0.310719 0.56643
0.0802319 0.489143 0.472618
0.238239 0.53167 0.50724
0.532952 0.532952 0.508324
0.749599 0.548455 0.520958
0.833875 0.590356 0.55523
0.144762 0.754818 0.525353
0.282994 0.777569 0.543908
0.552331 0.753475 0.524239
0.740353 0.740353 0.51339
0.795407 0.753033 0.523857
0.240055 0.892485 0.603159
0.34902 0.885969 0.597879
0.589532 0.833036 0.554528
0.753231 0.795605 0.524025
0.790875 0.790875 0.520043
0.0967727 0.0967727 0.650446
0.200351 0.0848707 0.640635
0.449424 0.0405127 0.604501
0.644114 0.0340581 0.59913
0.727855 0.0754406 0.632975
0.0990768 0.214557 0.652308
0.243275 0.243275 0.675761
0.534417 0.240986 0.673838
0.757794 0.263218 0.692149
0.858488 0.321538 0.739712
0.0911727 0.500084 0.645853
0.248386 0.541817 0.679866
0.541863 0.541863 0.679896
0.75581 0.554665 0.690471
0.83714 0.593622 0.722255
0.149981 0.760037 0.693828
0.285328 0.779904 0.710155
0.551461 0.752605 0.68777
0.736797 0.736797 0.674876
0.788617 0.746242 0.682628
0.235431 0.887861 0.763745
0.341146 0.87808 0.755718
0.579858 0.823377 0.711086
0.742733 0.785107 0.679667
0.780529 0.780529 0.67602
0.0985275 0.0985275 0.686442
0.20296 0.08748 0.677485
0.457282 0.0483711 0.645563
0.657603 0.0475624 0.644892
0.744396 0.0919814 0.681071
0.113909 0.229374 0.699077
0.260655 0.260655 0.724651
0.553811 0.26038 0.724422
0.778241 0.283665 0.743404
0.87837 0.341436 0.790631
0.111574 0.52047 0.697154
0.267979 0.56141 0.730617
0.559167 0.559167 0.728725
0.770611 0.569467 0.737194
0.848829 0.60531 0.76643
0.163607 0.773663 0.739666
0.295918 0.790494 0.753323
0.559167 0.760311 0.72871
0.741741 0.741741 0.713497
0.790295 0.747921 0.7187
0.238926 0.891356 0.801144
0.342138 0.879088 0.791226
0.579248 0.822766 0.74522
0.74168 0.784054 0.713436
0.779736 0.779736 0.710002
