assets/cube/film_9879.cube
TITLE "Generated by Resolve"
LUT_3D_SIZE 33
0 0 0
0.0190585 0.00112917 0.00112917
0.0391699 0.00248722 0.00248722
0.0595865 0.00402838 0.00402838
0.0795148 0.00543221 0.00543221
0.0987106 0.00703441 0.00703441
0.116884 0.00892653 0.00892653
0.133822 0.0111391 0.0111391
0.149142 0.0138094 0.0138094
0.163424 0.0169985 0.0169985
0.176928 0.0201572 0.0201572
0.190341 0.0233463 0.0233463
0.20415 0.0264286 0.0264286
0.218891 0.0292515 0.0292515
0.234882 0.0317998 0.0317998
0.251957 0.0341802 0.0341802
0.26952 0.0362249 0.0362249
0.287572 0.0381476 0.0381476
0.305867 0.0400092 0.0400092
0.324117 0.041886 0.041886
0.342351 0.0440223 0.0440375
0.360174 0.0460365 0.0460365
0.378012 0.0480507 0.0480507
0.39588 0.0500496 0.0500496
0.413504 0.0521248 0.0521248
0.430762 0.0544289 0.0544289
0.44744 0.0569467 0.0569467
0.463264 0.059556 0.059556
0.478462 0.0623331 0.0623331
0.493202 0.0652476 0.0652476
0.507637 0.0682383 0.0682536
0.522087 0.0714122 0.0714122
0.536385 0.0745708 0.0745708
0.0100557 0.020676 0.0100557
0.0295262 0.0222019 0.0115969
0.0498512 0.0237583 0.0131533
0.0700389 0.0250858 0.0144808
0.0899519 0.0264744 0.0158694
0.109148 0.0280766 0.0174716
0.127306 0.0299535 0.0193484
0.144457 0.0323796 0.0217594
0.159747 0.0350347 0.0244297
0.173861 0.0380407 0.0274357
0.187366 0.0411994 0.0305943
0.200763 0.0443885 0.0337835
0.214588 0.0474708 0.0368658
0.229541 0.0505074 0.0399023
0.245487 0.0530098 0.0424048
0.262409 0.0552377 0.0446326
0.279988 0.0572976 0.0466926
0.298054 0.0592355 0.0486305
0.316396 0.0611582 0.0505379
0.334844 0.0632181 0.0526131
0.35288 0.0651713 0.0545663
0.370718 0.0672007 0.0565957
0.388586 0.0692302 0.0586252
0.40647 0.0712596 0.0606546
0.424201 0.0734417 0.0628214
0.44152 0.0758068 0.0651865
0.458091 0.0782177 0.0676127
0.47393 0.080827 0.070222
0.489143 0.0836194 0.0730144
0.503899 0.0865492 0.0759442
0.518425 0.0896315 0.0790265
0.532769 0.0926986 0.0820935
0.546838 0.0956283 0.0850233
0.0205081 0.0419471 0.0205081
0.0400244 0.0435187 0.0220798
0.0601205 0.0448615 0.0234226
0.0803082 0.0461738 0.0247501
0.100221 0.0475776 0.026154
0.119417 0.0491798 0.0277409
0.137774 0.0512398 0.0298161
0.154742 0.0534829 0.0320439
0.170047 0.0561532 0.0347143
0.184146 0.059144 0.0377203
0.197665 0.0623178 0.0408942
0.211078 0.0655222 0.0440833
0.225101 0.0688182 0.0473793
0.239857 0.0716564 0.0502174
0.255818 0.0741741 0.0527352
0.27277 0.0764172 0.0549935
0.290364 0.0784924 0.0570687
0.308461 0.0804608 0.0590372
0.32697 0.0825513 0.0611276
0.345266 0.0844739 0.0630503
0.363348 0.0864576 0.0650187
0.381201 0.0885023 0.0670787
0.399084 0.090547 0.0691234
0.417197 0.0928054 0.0713664
0.434867 0.0949111 0.0734874
0.452064 0.0971695 0.0757305
0.468635 0.0995804 0.0781567
0.484443 0.102159 0.0807355
0.499596 0.104906 0.0834821
0.514351 0.10782 0.0863966
0.528618 0.110658 0.0892348
0.542763 0.113512 0.0920729
0.556756 0.116381 0.0949416
0.0308385 0.0630808 0.0308385
0.050309 0.0646067 0.0323644
0.0704051 0.0659648 0.0337072
0.0905928 0.067277 0.0350347
0.110506 0.0686809 0.0364385
0.129915 0.0704967 0.0382391
0.148089 0.0723735 0.0401312
0.165042 0.0746014 0.042359
0.180346 0.0772717 0.0450294
0.194461 0.0802777 0.0480354
0.208164 0.0836347 0.0513924
0.221637 0.0868849 0.0546426
0.235462 0.0899977 0.0577554
0.250248 0.0928511 0.0606088
0.266224 0.0953841 0.0631418
0.283177 0.0976577 0.0654154
0.30103 0.0999771 0.0677348
0.319127 0.101946 0.0697032
0.337469 0.103868 0.0716259
0.355779 0.105791 0.0735485
0.373861 0.10779 0.0755474
0.39173 0.10985 0.0776074
0.409842 0.112123 0.079881
0.427741 0.114153 0.0819104
0.445335 0.116213 0.0839704
0.462425 0.118334 0.0860914
0.478843 0.120592 0.0883497
0.49453 0.123064 0.0908217
0.509712 0.125841 0.0935988
0.524254 0.128542 0.0962997
0.53846 0.131304 0.0990616
0.552514 0.134081 0.101839
0.566445 0.136873 0.104631
0.0411078 0.0841993 0.0411078
0.0605631 0.0857252 0.0426337
0.0806744 0.0870832 0.0439765
0.100984 0.0885176 0.0454261
0.121004 0.0900282 0.0469215
0.1402 0.0916304 0.0485237
0.158389 0.0935225 0.0504158
0.175357 0.0957656 0.0526589
0.190677 0.0984512 0.0553597
0.204974 0.10164 0.0585489
0.21857 0.104891 0.061799
0.232013 0.108125 0.0650187
0.245869 0.111254 0.0681621
0.260685 0.114137 0.071046
0.276677 0.116686 0.0735943
0.293843 0.119173 0.0760815
0.311513 0.121309 0.0782177
0.329625 0.123293 0.0802014
0.347982 0.125231 0.0821393
0.366308 0.127169 0.0840772
0.384375 0.129137 0.0860456
0.402365 0.131334 0.0882277
0.420111 0.133242 0.0901503
0.437842 0.135119 0.0920272
0.455329 0.137057 0.0939651
0.472343 0.139101 0.0960098
0.488899 0.141497 0.0984054
0.504479 0.143862 0.100771
0.519417 0.146395 0.103304
0.533898 0.14905 0.105943
0.548089 0.151781 0.10869
0.562173 0.154589 0.111498
0.576318 0.15761 0.114519
0.0514076 0.105318 0.0514076
0.0708782 0.106844 0.0529335
0.0910964 0.108309 0.0543984
0.111406 0.109758 0.055848
0.13135 0.111177 0.0572671
0.150576 0.11281 0.0588998
0.16878 0.114717 0.0608072
0.185748 0.116976 0.0630655
0.201312 0.11989 0.06598
0.215473 0.122942 0.0690318
0.229038 0.126177 0.0722667
0.242496 0.129427 0.0755169
0.256382 0.13257 0.0786603
0.271336 0.135607 0.0816968
0.287419 0.138247 0.0843366
0.304417 0.140551 0.0866407
0.322057 0.142672 0.0887617
0.340139 0.144625 0.0907149
0.358389 0.146441 0.0925307
0.376715 0.148394 0.0944839
0.394675 0.150256 0.0963455
0.412345 0.152132 0.0982223
0.430045 0.153979 0.100069
0.447715 0.155795 0.101884
0.46511 0.157656 0.103746
0.482246 0.159823 0.105913
0.498558 0.161975 0.108064
0.514138 0.16434 0.11043
0.529107 0.166888 0.112978
0.543618 0.169574 0.115663
0.557824 0.172351 0.118441
0.572137 0.175372 0.121462
0.586175 0.178271 0.124361
0.0618601 0.126482 0.0618601
0.0815137 0.128191 0.0635843
0.101656 0.129564 0.0649577
0.121874 0.130922 0.0663157
0.141833 0.132372 0.0677501
0.161074 0.13402 0.069398
0.179385 0.136034 0.0714122
0.196521 0.138445 0.0738384
0.211887 0.141176 0.0765698
0.226062 0.144244 0.0796368
0.239643 0.147478 0.0828717
0.253117 0.150744 0.0861372
0.267124 0.154025 0.0894179
0.282032 0.157 0.0923934
0.297978 0.159503 0.0948959
0.314839 0.161685 0.0970779
0.332326 0.163638 0.0990311
0.350271 0.165454 0.100847
0.368582 0.167346 0.102724
0.38674 0.169116 0.104509
0.404578 0.170871 0.106249
0.422187 0.172671 0.108049
0.439811 0.174456 0.109834
0.45745 0.176242 0.111635
0.475059 0.178302 0.113695
0.492027 0.180301 0.115694
0.50837 0.182483 0.117876
0.52398 0.184878 0.120272
0.538979 0.187472 0.122866
0.55378 0.190433 0.125826
0.568139 0.193362 0.128756
0.582391 0.196323 0.131716
0.596536 0.199344 0.134737
0.0725719 0.147799 0.0725719
0.0920882 0.149355 0.0741436
0.112245 0.150759 0.0755474
0.132494 0.152148 0.076936
0.152468 0.153613 0.0784009
0.171801 0.155337 0.0801251
0.190188 0.157427 0.0822156
0.207202 0.159731 0.0845197
0.222583 0.162478 0.0872663
0.236759 0.165545 0.0903334
0.250324 0.168765 0.0935531
0.26392 0.172152 0.0969253
0.277653 0.175158 0.0999466
0.292317 0.17789 0.102678
0.308141 0.18027 0.105058
0.324941 0.182376 0.107164
0.342443 0.18436 0.109148
0.360418 0.186206 0.110994
0.3785 0.187869 0.112657
0.396567 0.189548 0.114336
0.414389 0.191287 0.116075
0.432013 0.193103 0.117891
0.449805 0.195041 0.119829
0.467536 0.196933 0.121721
0.484977 0.198825 0.123613
0.502007 0.200885 0.125673
0.518456 0.203189 0.127977
0.534218 0.205722 0.13051
0.549523 0.208606 0.133394
0.564279 0.211536 0.136324
0.578759 0.214588 0.139376
0.59324 0.217777 0.142565
0.607675 0.221073 0.145861
0.0836805 0.168856 0.0836805
0.103197 0.170443 0.0852674
0.123384 0.171862 0.0866865
0.143648 0.173251 0.0880751
0.163836 0.174945 0.0897688
0.183124 0.176623 0.0914473
0.201358 0.178561 0.0934005
0.218326 0.180819 0.0956436
0.2336 0.183444 0.0982834
0.247654 0.186404 0.101228
0.261234 0.189639 0.104463
0.274525 0.192706 0.107546
0.288197 0.195666 0.110491
0.302785 0.198322 0.113146
0.318547 0.200626 0.115465
0.335332 0.202747 0.117571
0.35285 0.20473 0.119554
0.370718 0.206455 0.121294
0.388815 0.208148 0.122972
0.406912 0.209842 0.124681
0.424765 0.211612 0.126436
0.442527 0.213581 0.128405
0.460365 0.215564 0.130388
0.478157 0.217502 0.132342
0.49575 0.219547 0.134386
0.512886 0.221729 0.136553
0.529458 0.22414 0.138964
0.545586 0.227054 0.141894
0.560983 0.23003 0.144869
0.575982 0.233188 0.148028
0.590677 0.236469 0.151293
0.605356 0.239857 0.154681
0.620249 0.24361 0.158434
0.0954147 0.189746 0.0954147
0.114961 0.191348 0.0970169
0.135149 0.192782 0.0984512
0.155596 0.194369 0.100038
0.175525 0.195773 0.101442
0.194675 0.197314 0.102998
0.212741 0.1991 0.104784
0.229587 0.201221 0.106905
0.2448 0.2038 0.109468
0.25893 0.206836 0.112505
0.272267 0.209827 0.115496
0.285481 0.212818 0.118502
0.299107 0.215717 0.121386
0.313664 0.218357 0.124025
0.329625 0.220874 0.126543
0.34638 0.222934 0.128603
0.36379 0.224826 0.130495
0.381689 0.226581 0.132265
0.399847 0.228321 0.133989
0.418082 0.230182 0.135851
0.436225 0.232227 0.137911
0.454032 0.234226 0.139895
0.47187 0.236225 0.141909
0.489799 0.2383 0.143969
0.507591 0.240543 0.146227
0.525109 0.243091 0.148775
0.542046 0.245884 0.151553
0.558175 0.248783 0.154467
0.573785 0.251987 0.157671
0.589136 0.255497 0.161166
0.604273 0.25922 0.164889
0.619501 0.263157 0.168826
0.634638 0.26714 0.172824
0.107362 0.210559 0.107362
0.126986 0.212238 0.109041
0.147051 0.21355 0.110353
0.167147 0.214771 0.111589
0.186954 0.216068 0.112886
0.206027 0.217548 0.114351
0.224048 0.219272 0.116075
0.241001 0.221515 0.118318
0.256123 0.223987 0.12079
0.270039 0.226795 0.123598
0.28336 0.229786 0.126589
0.29659 0.232792 0.12961
0.310246 0.235721 0.132525
0.325032 0.23859 0.135393
0.340825 0.24094 0.137743
0.357641 0.243061 0.139879
0.375174 0.245075 0.141878
0.39321 0.246983 0.143786
0.411536 0.248875 0.145693
0.429999 0.25095 0.147768
0.448142 0.25301 0.149828
0.466178 0.255238 0.152041
0.484306 0.257527 0.15433
0.502464 0.259831 0.156634
0.520531 0.262348 0.159152
0.538354 0.265217 0.16202
0.555566 0.268269 0.165072
0.572137 0.271626 0.168444
0.588113 0.275181 0.172
0.603769 0.278996 0.175814
0.619577 0.283375 0.180194
0.635264 0.28777 0.184588
0.65095 0.292332 0.189136
0.11873 0.231189 0.11873
0.138125 0.232654 0.120195
0.158099 0.23386 0.121401
0.178119 0.235019 0.12256
0.197848 0.23624 0.123781
0.216861 0.237644 0.125185
0.235035 0.239521 0.127062
0.251804 0.241581 0.129122
0.266941 0.244083 0.131624
0.280888 0.246921 0.134463
0.29424 0.249928 0.137469
0.307515 0.252995 0.140536
0.321447 0.256199 0.14374
0.336172 0.258991 0.146532
0.352117 0.261479 0.149035
0.369039 0.263737 0.151278
0.386694 0.265843 0.153399
0.405112 0.268147 0.155688
0.423667 0.270268 0.157824
0.442222 0.27245 0.159991
0.460594 0.274723 0.162264
0.478828 0.27715 0.164691
0.497276 0.279759 0.167315
0.516075 0.282719 0.17026
0.534493 0.285588 0.173129
0.552499 0.288624 0.176165
0.570047 0.292012 0.179553
0.587091 0.295842 0.183398
0.6038 0.30013 0.187671
0.620233 0.304738 0.192279
0.63624 0.3093 0.196841
0.652293 0.314076 0.201617
0.668482 0.319127 0.206683
0.128801 0.251789 0.128801
0.148074 0.253117 0.130129
0.167987 0.254276 0.131289
0.187991 0.255421 0.132433
0.207858 0.256779 0.133791
0.226963 0.258289 0.135286
0.244984 0.259998 0.137011
0.261769 0.262074 0.139086
0.276967 0.264637 0.141649
0.291005 0.267567 0.144579
0.304677 0.270893 0.147906
0.31812 0.274128 0.151141
0.33196 0.277241 0.154253
0.346822 0.280171 0.157183
0.362966 0.282872 0.159884
0.380179 0.285389 0.162402
0.398291 0.287984 0.164996
0.416709 0.290272 0.167285
0.435492 0.292622 0.169635
0.454414 0.295171 0.172183
0.473213 0.297887 0.174899
0.491844 0.30071 0.177722
0.510826 0.303838 0.18085
0.529793 0.30695 0.183963
0.54876 0.310369 0.187396
0.567422 0.314076 0.191089
0.585504 0.317998 0.19501
0.602991 0.322286 0.199298
0.620264 0.327123 0.204135
0.637079 0.332113 0.209125
0.653727 0.337316 0.214343
0.670283 0.342596 0.219608
0.686839 0.348013 0.225025
0.136767 0.272877 0.136767
0.156069 0.274235 0.138125
0.176013 0.275425 0.139315
0.196155 0.276707 0.140597
0.216022 0.27805 0.141955
0.235126 0.279561 0.14345
0.253254 0.281392 0.145296
0.270191 0.283619 0.147509
0.285512 0.28629 0.150195
0.299825 0.289494 0.153399
0.313527 0.292866 0.156756
0.327184 0.2963 0.160189
0.341299 0.299687 0.163592
0.35639 0.302846 0.166751
0.372732 0.305745 0.16965
0.390433 0.308766 0.172671
0.408743 0.311543 0.175448
0.427604 0.314275 0.17818
0.446738 0.316976 0.18088
0.465965 0.319829 0.183734
0.485435 0.323217 0.187106
0.504692 0.326665 0.19057
0.524086 0.330205 0.19411
0.543511 0.333791 0.197696
0.56286 0.337591 0.201495
0.581979 0.341756 0.205646
0.600977 0.346593 0.210483
0.619028 0.351431 0.215335
0.6365 0.356481 0.220386
0.653666 0.361822 0.225711
0.670741 0.367437 0.231342
0.687877 0.373297 0.237201
0.705226 0.379507 0.243412
0.142016 0.295079 0.142016
0.161349 0.296483 0.14342
0.181582 0.297963 0.144884
0.201755 0.29926 0.146197
0.221668 0.300664 0.147601
0.240894 0.302281 0.149218
0.259144 0.30425 0.151186
0.276371 0.306752 0.153689
0.292073 0.309804 0.156741
0.306493 0.31313 0.160067
0.320348 0.31664 0.163577
0.334218 0.320287 0.167224
0.348653 0.323995 0.170932
0.364324 0.327749 0.174685
0.38117 0.331151 0.178088
0.398978 0.334264 0.181201
0.417609 0.337377 0.184314
0.436973 0.340612 0.187549
0.456748 0.343969 0.190906
0.476799 0.347631 0.194568
0.496498 0.351232 0.198169
0.516136 0.355062 0.201999
0.536034 0.359136 0.206073
0.556115 0.363363 0.2103
0.576013 0.367697 0.214649
0.595819 0.372549 0.219486
0.614878 0.377462 0.224399
0.633417 0.382773 0.229709
0.651453 0.388388 0.235325
0.669062 0.394171 0.241108
0.686442 0.400107 0.247044
0.704158 0.406546 0.253483
0.721599 0.412848 0.259785
0.144533 0.318776 0.144518
0.164157 0.32047 0.146227
0.184298 0.321859 0.147601
0.204608 0.323293 0.14905
0.224735 0.324926 0.150668
0.244236 0.326818 0.15256
0.262821 0.329107 0.154864
0.280278 0.331838 0.157595
0.296117 0.335027 0.160784
0.310903 0.33872 0.164477
0.325216 0.342687 0.168444
0.339452 0.346716 0.172473
0.35433 0.350866 0.176623
0.370352 0.354955 0.180713
0.387686 0.358846 0.184604
0.406149 0.362631 0.188373
0.425299 0.366262 0.192004
0.445045 0.369863 0.195621
0.465537 0.373938 0.19968
0.485939 0.377951 0.203708
0.506233 0.382162 0.207919
0.526345 0.386465 0.212222
0.546609 0.39089 0.216632
0.5673 0.395727 0.221485
0.587808 0.400687 0.226444
0.607858 0.405783 0.231525
0.627314 0.411063 0.23682
0.646128 0.416663 0.24242
0.664469 0.422599 0.248341
0.682795 0.429084 0.254841
0.700587 0.435447 0.261204
0.718257 0.441825 0.267582
0.735866 0.44831 0.274052
0.145098 0.343954 0.145098
0.164813 0.345739 0.146883
0.185245 0.347402 0.148547
0.205768 0.349065 0.150195
0.226093 0.350881 0.152026
0.246113 0.353292 0.154437
0.265019 0.355917 0.157061
0.28278 0.358953 0.160098
0.298955 0.362493 0.163622
0.314061 0.366491 0.167636
0.328893 0.370977 0.172122
0.343954 0.375814 0.176959
0.359319 0.380468 0.181598
0.375677 0.384894 0.186038
0.393393 0.389166 0.190311
0.412329 0.393423 0.194553
0.432258 0.397818 0.198962
0.45275 0.402182 0.203326
0.473381 0.406394 0.207538
0.494133 0.410758 0.211902
0.51487 0.415396 0.216541
0.535531 0.420264 0.221408
0.556497 0.425376 0.22652
0.577417 0.430442 0.231586
0.598108 0.435599 0.236744
0.618509 0.441032 0.242176
0.638376 0.446754 0.247898
0.657557 0.452705 0.253849
0.676402 0.459144 0.260273
0.694652 0.465553 0.266697
0.712596 0.472068 0.273213
0.730495 0.47866 0.279805
0.748272 0.485313 0.286458
0.145373 0.370138 0.145373
0.165316 0.372152 0.147372
0.186069 0.374136 0.149371
0.207034 0.376242 0.151476
0.228016 0.378714 0.153948
0.248112 0.381216 0.156435
0.267384 0.384176 0.159411
0.285649 0.387732 0.162966
0.30248 0.391928 0.167147
0.318212 0.396551 0.171786
0.333593 0.401587 0.176822
0.348867 0.406653 0.181872
0.364782 0.411826 0.18706
0.381781 0.416922 0.192142
0.400031 0.421714 0.196948
0.419455 0.426459 0.201678
0.439796 0.431266 0.2065
0.460624 0.435981 0.2112
0.481819 0.440742 0.215961
0.502998 0.445533 0.220768
0.524041 0.450477 0.225711
0.545327 0.455955 0.231189
0.566461 0.461265 0.236484
0.587671 0.466621 0.241856
0.608682 0.472084 0.247318
0.629282 0.477714 0.252949
0.6495 0.483772 0.259007
0.669032 0.490089 0.265324
0.687816 0.496452 0.271687
0.706142 0.502953 0.278187
0.724147 0.509529 0.284764
0.742031 0.516121 0.291356
0.760037 0.523003 0.298238
0.147997 0.39707 0.147997
0.168292 0.399435 0.150362
0.189349 0.401724 0.152651
0.210971 0.404486 0.155413
0.232303 0.407309 0.158236
0.253056 0.410452 0.161379
0.272816 0.413931 0.164858
0.291478 0.417868 0.168795
0.309026 0.422766 0.173693
0.325307 0.427939 0.178866
0.3411 0.433402 0.184329
0.356832 0.438926 0.189853
0.373098 0.44445 0.195377
0.390539 0.449973 0.2009
0.409598 0.455589 0.206516
0.429435 0.460746 0.211673
0.449973 0.465751 0.216678
0.471077 0.470726 0.221653
0.492576 0.475807 0.226734
0.514275 0.481117 0.232044
0.535927 0.486686 0.237613
0.557153 0.492088 0.24303
0.57847 0.497566 0.248493
0.599863 0.503105 0.254032
0.621073 0.508782 0.259709
0.642023 0.514763 0.26569
0.662348 0.520928 0.27187
0.681758 0.527123 0.27805
0.700526 0.533471 0.284398
0.718837 0.53994 0.290867
0.736828 0.546502 0.297429
0.754879 0.553277 0.304204
0.772625 0.559884 0.310826
0.154513 0.424292 0.154513
0.175677 0.427512 0.157748
0.197391 0.430472 0.160693
0.219211 0.433417 0.163653
0.240925 0.436622 0.166842
0.262165 0.440269 0.170489
0.282567 0.444373 0.174594
0.302098 0.44918 0.179416
0.319768 0.454215 0.184451
0.3364 0.459739 0.189975
0.352651 0.465644 0.195865
0.368933 0.471717 0.201953
0.385687 0.477745 0.207965
0.403738 0.483864 0.214099
0.422797 0.489479 0.219715
0.442985 0.494987 0.225223
0.463951 0.50042 0.230655
0.485405 0.505745 0.235966
0.507195 0.511116 0.241337
0.529229 0.516762 0.246998
0.550835 0.522286 0.252506
0.572274 0.527916 0.258137
0.593744 0.533547 0.263767
0.615213 0.539162 0.269398
0.63679 0.54519 0.275425
0.657557 0.550988 0.281224
0.677684 0.556954 0.28719
0.697063 0.563119 0.293355
0.715755 0.569406 0.299641
0.734035 0.575845 0.306081
0.751995 0.582376 0.312612
0.769604 0.588693 0.318929
0.787091 0.595056 0.325292
0.166186 0.45243 0.166186
0.187594 0.455909 0.16965
0.209827 0.459388 0.173129
0.232288 0.462974 0.17673
0.25452 0.466697 0.180438
0.276127 0.470695 0.184451
0.2972 0.475486 0.189227
0.316945 0.480507 0.194263
0.335164 0.486091 0.199847
0.352209 0.492042 0.205783
0.36875 0.498222 0.211978
0.385657 0.504921 0.218662
0.402808 0.511345 0.225086
0.420951 0.517555 0.231312
0.440299 0.523476 0.237217
0.460685 0.529168 0.242924
0.481804 0.534768 0.248508
0.503807 0.540642 0.254383
0.525734 0.546136 0.259892
0.547631 0.551659 0.2654
0.569299 0.557214 0.27097
0.590723 0.562844 0.2766
0.612207 0.56849 0.282246
0.633967 0.574395 0.288151
0.655161 0.580041 0.293797
0.675837 0.585748 0.299504
0.695766 0.591531 0.305287
0.7149 0.597452 0.311208
0.733486 0.603616 0.317372
0.751797 0.610086 0.323827
0.769619 0.616464 0.33022
0.787411 0.62298 0.336736
0.805142 0.629587 0.343328
0.183276 0.480903 0.183276
0.205081 0.484764 0.187137
0.227665 0.488579 0.190967
0.250523 0.492592 0.194965
0.273518 0.497063 0.199435
0.295735 0.501686 0.204059
0.316884 0.506539 0.208911
0.336904 0.511833 0.214221
0.355444 0.517754 0.220127
0.372915 0.524102 0.22649
0.390112 0.530968 0.233341
0.407004 0.537636 0.240009
0.424308 0.544213 0.246586
0.442634 0.550607 0.252995
0.462196 0.556741 0.259113
0.482765 0.562615 0.265003
0.504341 0.568658 0.271031
0.526024 0.574212 0.276585
0.547936 0.579705 0.282078
0.569802 0.585199 0.287572
0.59144 0.590738 0.293126
0.612833 0.596323 0.298695
0.634485 0.602136 0.304509
0.655711 0.607523 0.309895
0.676661 0.612924 0.315297
0.697169 0.618448 0.320821
0.717067 0.624201 0.326574
0.73666 0.630579 0.332952
0.755367 0.636866 0.339254
0.773663 0.64332 0.345708
0.791669 0.649897 0.35227
0.809628 0.656565 0.358938
0.827649 0.663462 0.36585
0.205356 0.509392 0.205356
0.22771 0.513802 0.209766
0.250751 0.51809 0.214054
0.274128 0.522606 0.21857
0.297322 0.527276 0.223239
0.319814 0.532174 0.228138
0.341375 0.537438 0.233402
0.361715 0.543069 0.239033
0.380484 0.549187 0.245151
0.398444 0.556054 0.252018
0.415564 0.562814 0.258793
0.432609 0.569665 0.265629
0.450065 0.576379 0.272358
0.468467 0.582864 0.278828
0.488304 0.589258 0.285222
0.508934 0.595193 0.291157
0.530144 0.60087 0.296834
0.551797 0.606394 0.302373
0.573632 0.611811 0.307774
0.595346 0.617136 0.313115
0.61706 0.622766 0.31873
0.638224 0.628122 0.324102
0.659419 0.633478 0.329442
0.680674 0.63888 0.334859
0.701793 0.64445 0.340429
0.72253 0.650217 0.346197
0.742992 0.656535 0.352499
0.762402 0.66273 0.358709
0.781308 0.669215 0.365179
0.799863 0.675929 0.371908
0.818189 0.682841 0.378805
0.836484 0.68983 0.385794
0.854917 0.697124 0.393103
0.230488 0.53872 0.230488
0.253254 0.543542 0.235309
0.276921 0.54847 0.240223
0.300511 0.553185 0.244953
0.323842 0.558007 0.249775
0.346517 0.563088 0.254841
0.368246 0.568521 0.260273
0.388983 0.574533 0.2663
0.408118 0.581033 0.272786
0.425864 0.587671 0.279438
0.443015 0.594491 0.286244
0.46006 0.601312 0.29308
0.477501 0.608026 0.299779
0.496117 0.61471 0.306462
0.515755 0.620905 0.312673
0.536187 0.626657 0.318425
0.557198 0.632136 0.323903
0.578607 0.63743 0.329183
0.600244 0.642634 0.334401
0.622171 0.648173 0.33994
0.643702 0.65362 0.345373
0.665049 0.659159 0.350927
0.686488 0.664744 0.356512
0.707942 0.670359 0.362112
0.729213 0.676081 0.367849
0.7505 0.682399 0.374166
0.770916 0.68867 0.380438
0.790677 0.695201 0.386969
0.809812 0.701915 0.393683
0.828458 0.708736 0.400504
0.84712 0.715969 0.407736
0.865278 0.722835 0.414603
0.883299 0.729732 0.421485
0.257374 0.569207 0.257374
0.280522 0.574426 0.262577
0.304143 0.579278 0.267445
0.327901 0.584176 0.272343
0.351461 0.589227 0.277394
0.374319 0.594476 0.282643
0.396277 0.600137 0.288304
0.41706 0.60621 0.294377
0.436011 0.612512 0.300679
0.453727 0.619135 0.307301
0.470863 0.625925 0.314092
0.487846 0.6327 0.320867
0.505486 0.639612 0.327779
0.523644 0.645838 0.334005
0.542947 0.651698 0.339864
0.56321 0.657282 0.345449
0.584207 0.662745 0.350912
0.605936 0.668345 0.356512
0.627955 0.67393 0.362097
0.649805 0.679408 0.367575
0.671473 0.684977 0.373144
0.692988 0.690684 0.378851
0.714656 0.696513 0.38468
0.736706 0.702724 0.39089
0.758389 0.708843 0.397009
0.779507 0.715007 0.403174
0.799969 0.721309 0.409476
0.819654 0.727794 0.415961
0.838697 0.734417 0.422583
0.857603 0.741466 0.429633
0.875822 0.748257 0.436423
0.893767 0.75491 0.443076
0.911391 0.76141 0.449577
0.284657 0.600702 0.284657
0.307774 0.605875 0.28983
0.331533 0.61088 0.294835
0.355367 0.615839 0.299809
0.378958 0.620935 0.304891
0.402106 0.626459 0.31043
0.423896 0.631968 0.315923
0.44445 0.637797 0.321767
0.46331 0.644022 0.327977
0.480873 0.650477 0.334432
0.497856 0.65713 0.341085
0.514855 0.663905 0.34786
0.532036 0.670359 0.354314
0.550225 0.676631 0.360586
0.569711 0.682658 0.366629
0.590219 0.688487 0.372442
0.611582 0.694331 0.378286
0.633463 0.700084 0.384039
0.655512 0.705699 0.38967
0.677653 0.711467 0.395422
0.699641 0.717357 0.401328
0.721431 0.723339 0.407309
0.743481 0.729549 0.41352
0.765377 0.735592 0.419562
0.786892 0.741558 0.425513
0.807919 0.747616 0.431586
0.828305 0.753841 0.437812
0.847852 0.760189 0.44416
0.866957 0.766873 0.450843
0.885084 0.773159 0.457115
0.902785 0.779431 0.463401
0.920348 0.785702 0.469673
0.937621 0.791852 0.475807
0.310491 0.632959 0.310491
0.333593 0.638117 0.315648
0.357336 0.643107 0.320638
0.381155 0.648066 0.325597
0.40499 0.653391 0.330922
0.42771 0.658503 0.336034
0.449302 0.663813 0.341344
0.469612 0.669398 0.346929
0.488289 0.675425 0.352956
0.505852 0.681895 0.359426
0.523095 0.688792 0.366323
0.540078 0.695552 0.373083
0.557488 0.702251 0.379782
0.575875 0.708705 0.386236
0.595514 0.7149 0.392432
0.616587 0.721279 0.398825
0.638102 0.72726 0.404807
0.660136 0.733166 0.410712
0.682399 0.739025 0.416556
0.704631 0.744854 0.4224
0.726726 0.750866 0.428397
0.748638 0.75697 0.434501
0.770352 0.762844 0.440375
0.792035 0.768688 0.44622
0.813367 0.774472 0.452003
0.834058 0.780194 0.457725
