assets/cube/film_9879.cube
TITLE "Generated by Resolve"
LUT_3D_SIZE 9
0 0 0
0.0795148 0.00543221 0.00543221
0.149142 0.0138094 0.0138094
0.20415 0.0264286 0.0264286
0.26952 0.0362249 0.0362249
0.342351 0.0440223 0.0440375
0.413504 0.0521248 0.0521248
0.478462 0.0623331 0.0623331
0.536385 0.0745708 0.0745708
0.0411078 0.0841993 0.0411078
0.121004 0.0900282 0.0469215
0.190677 0.0984512 0.0553597
0.245869 0.111254 0.0681621
0.311513 0.121309 0.0782177
0.384375 0.129137 0.0860456
0.455329 0.137057 0.0939651
0.519417 0.146395 0.103304
0.576318 0.15761 0.114519
0.0836805 0.168856 0.0836805
0.163836 0.174945 0.0897688
0.2336 0.183444 0.0982834
0.288197 0.195666 0.110491
0.35285 0.20473 0.119554
0.424765 0.211612 0.126436
0.49575 0.219547 0.134386
0.560983 0.23003 0.144869
0.620249 0.24361 0.158434
0.128801 0.251789 0.128801
0.207858 0.256779 0.133791
0.276967 0.264637 0.141649
0.33196 0.277241 0.154253
0.398291 0.287984 0.164996
0.473213 0.297887 0.174899
0.54876 0.310369 0.187396
0.620264 0.327123 0.204135
0.686839 0.348013 0.225025
0.145098 0.343954 0.145098
0.226093 0.350881 0.152026
0.298955 0.362493 0.163622
0.359319 0.380468 0.181598
0.432258 0.397818 0.198962
0.51487 0.415396 0.216541
0.598108 0.435599 0.236744
0.676402 0.459144 0.260273
0.748272 0.485313 0.286458
0.166186 0.45243 0.166186
0.25452 0.466697 0.180438
0.335164 0.486091 0.199847
0.402808 0.511345 0.225086
0.481804 0.534768 0.248508
0.569299 0.557214 0.27097
0.655161 0.580041 0.293797
0.733486 0.603616 0.317372
0.805142 0.629587 0.343328
0.257374 0.569207 0.257374
0.351461 0.589227 0.277394
0.436011 0.612512 0.300679
0.505486 0.639612 0.327779
0.584207 0.662745 0.350912
0.671473 0.684977 0.373144
0.758389 0.708843 0.397009
0.838697 0.734417 0.422583
0.911391 0.76141 0.449577
0.350729 0.70074 0.350729
0.444465 0.720409 0.370382
0.529122 0.743816 0.39379
0.599832 0.772122 0.42211
0.68098 0.797696 0.447684
0.768063 0.81976 0.469749
0.851286 0.839933 0.489906
0.924758 0.858656 0.508644
0.988037 0.876234 0.526223
0.402365 0.850355 0.40235
0.497734 0.871656 0.423667
0.58117 0.893828 0.445838
0.646708 0.916991 0.468986
0.719783 0.934478 0.486473
0.79704 0.9467 0.498711
0.869718 0.956344 0.508354
0.933715 0.965591 0.517586
0.989532 0.975708 0.527718
0.0040589 0.0040589 0.0616922
0.0839704 0.00988785 0.0675212
0.153567 0.0182498 0.0758831
0.208591 0.030869 0.0885176
0.273991 0.0406806 0.0983291
0.34667 0.0483406 0.105989
0.418021 0.0566415 0.11429
0.483009 0.0668803 0.124514
0.54081 0.078996 0.136645
0.0455482 0.0886549 0.103197
0.125353 0.094377 0.108919
0.195178 0.102953 0.117479
0.250401 0.115785 0.130327
0.31606 0.125856 0.140398
0.3888 0.133577 0.148104
0.459617 0.141344 0.155871
0.523613 0.150576 0.165118
0.580362 0.161639 0.176181
0.0882124 0.173388 0.145846
0.168185 0.179294 0.151751
0.237934 0.187778 0.16025
0.292424 0.199878 0.172351
0.357046 0.208927 0.181399
0.429038 0.215885 0.188357
0.500221 0.224033 0.19649
0.565881 0.234928 0.207385
0.625589 0.248951 0.221408
0.132982 0.25597 0.190616
0.211963 0.260868 0.195529
0.281346 0.269017 0.203662
0.336583 0.281865 0.21651
0.403052 0.292744 0.22739
0.478828 0.303487 0.238132
0.555322 0.316945 0.251591
0.627695 0.334554 0.269215
0.694926 0.356115 0.290761
0.14992 0.348775 0.207553
0.231388 0.356176 0.214954
0.304845 0.368368 0.227146
0.366018 0.387167 0.245945
0.439719 0.405295 0.264057
0.523278 0.423819 0.282597
0.60708 0.444572 0.303349
0.685603 0.468345 0.327123
0.757717 0.494774 0.353552
0.17322 0.459464 0.230854
0.262318 0.474495 0.245884
0.343679 0.494591 0.26598
0.411887 0.520424 0.291814
0.491234 0.544182 0.315572
0.578729 0.566659 0.338048
0.664439 0.589319 0.360708
0.742504 0.612619 0.384009
0.814588 0.639017 0.410407
0.266468 0.578302 0.324102
0.360922 0.598688 0.344488
0.445426 0.621942 0.367742
0.514382 0.648493 0.394293
0.593469 0.672007 0.417807
0.681056 0.694575 0.440375
0.7682 0.718669 0.464469
0.848478 0.744183 0.489998
0.920455 0.770474 0.516274
0.359777 0.709804 0.417411
0.453864 0.729809 0.43743
0.538949 0.753643 0.46125
0.609674 0.781979 0.489586
0.690578 0.807294 0.514916
0.77702 0.828702 0.536324
0.858885 0.847532 0.555154
0.93135 0.865248 0.572854
0.99353 0.881743 0.589364
0.412161 0.860151 0.469795
0.506981 0.880903 0.490532
0.589654 0.902327 0.511971
0.654307 0.924575 0.534218
0.726192 0.940887 0.55053
0.802182 0.951843 0.561486
0.873915 0.96054 0.570184
0.937667 0.969528 0.579171
0.993225 0.979416 0.589059
0.00827039 0.00827039 0.128328
0.0881208 0.0140536 0.134112
0.157763 0.022446 0.142504
0.212802 0.0350805 0.155138
0.278202 0.0449073 0.164965
0.350881 0.0525521 0.17261
0.422309 0.0609293 0.181003
0.487312 0.0711833 0.191257
0.544961 0.0831464 0.203204
0.0497597 0.0928664 0.169833
0.129534 0.098558 0.175525
0.199435 0.107195 0.184161
0.254704 0.120073 0.19704
0.320302 0.130098 0.207065
0.392889 0.137667 0.214633
0.463584 0.145312 0.222278
0.527565 0.154543 0.23151
0.584375 0.165667 0.242634
0.0925154 0.177691 0.212573
0.172457 0.183566 0.218448
0.241993 0.191836 0.226734
0.296376 0.20383 0.238712
0.360861 0.212726 0.247623
0.433173 0.22002 0.254917
0.504585 0.228397 0.263279
0.570489 0.239536 0.274418
0.630945 0.254307 0.289189
0.136812 0.2598 0.25687
0.215946 0.264866 0.261936
0.285557 0.273213 0.270283
0.341146 0.286427 0.283497
0.408072 0.297765 0.294835
0.484443 0.309102 0.306172
0.561761 0.323384 0.320455
0.63476 0.341634 0.338704
0.70309 0.364263 0.361349
0.154345 0.353216 0.274403
0.236667 0.361456 0.282658
0.310933 0.374472 0.295659
0.372839 0.393988 0.31519
0.447257 0.412818 0.33402
0.531533 0.432074 0.353277
0.615946 0.453437 0.374624
0.694575 0.477317 0.39852
0.766918 0.50396 0.425162
0.180301 0.46656 0.300359
0.270237 0.482414 0.316228
0.352148 0.503075 0.336889
0.420508 0.529046 0.36286
0.50045 0.553399 0.387213
0.587915 0.575845 0.409659
0.673304 0.598184 0.431998
0.751522 0.621653 0.455451
0.823911 0.648356 0.48217
0.275547 0.587381 0.395605
0.370123 0.607889 0.416114
0.454582 0.631083 0.439307
0.523079 0.657191 0.465415
0.602625 0.681163 0.489387
0.690639 0.704143 0.512367
0.777737 0.728191 0.536416
0.857847 0.753567 0.561791
0.929168 0.779187 0.587411
0.368673 0.7187 0.488731
0.463066 0.739025 0.509056
0.548547 0.763241 0.533288
0.619242 0.791531 0.561578
0.699596 0.816312 0.586358
0.785306 0.837003 0.607034
0.866209 0.854856 0.624903
0.93753 0.871427 0.641474
0.998444 0.886641 0.656687
0.421683 0.869688 0.541741
0.51577 0.889693 0.561761
0.597192 0.909865 0.581933
0.661067 0.93135 0.603403
0.73196 0.94667 0.618723
0.806851 0.956527 0.628595
0.877928 0.964553 0.636622
0.941207 0.973083 0.645151
0.996597 0.982773 0.654841
0.0117647 0.01178 0.208286
0.0914321 0.0173648 0.21387
0.161257 0.0259251 0.222446
0.216297 0.0385748 0.23508
0.281697 0.0484016 0.244907
0.354406 0.0560922 0.252598
0.425879 0.0644999 0.261021
0.490913 0.0747845 0.27129
0.548272 0.0864576 0.282963
0.053254 0.0963607 0.249775
0.132998 0.102022 0.255436
0.202991 0.110765 0.264179
0.258274 0.123659 0.277073
0.32372 0.133532 0.286946
0.396231 0.141009 0.294423
0.466819 0.148547 0.301961
0.530785 0.157763 0.311177
0.587793 0.16907 0.322484
0.0960403 0.181216 0.292561
0.175906 0.187015 0.298344
0.245304 0.195148 0.306493
0.299596 0.20705 0.318395
0.364111 0.215991 0.327321
0.436652 0.223514 0.334844
0.508415 0.232227 0.343557
0.574716 0.243763 0.355093
0.635813 0.259174 0.370504
0.140017 0.263005 0.336522
0.219272 0.268193 0.341711
0.289082 0.276738 0.350271
0.344976 0.290242 0.36376
0.412634 0.302327 0.375845
0.489784 0.314443 0.387976
0.567834 0.329458 0.402975
0.64155 0.348424 0.421942
0.710613 0.371786 0.445319
0.158404 0.357259 0.35491
0.241337 0.366125 0.363775
0.316548 0.380087 0.377737
0.379065 0.400198 0.397848
0.454444 0.420005 0.417655
0.539269 0.439811 0.437461
0.623911 0.461402 0.459052
0.703075 0.485817 0.483467
0.775387 0.512428 0.510079
0.186969 0.473213 0.383474
0.277714 0.489891 0.400153
0.360174 0.511101 0.421363
0.428855 0.537392 0.447654
0.508934 0.561883 0.472145
0.596353 0.584283 0.494545
0.681071 0.605951 0.516213
0.75996 0.630076 0.540337
0.832746 0.657191 0.567452
0.284016 0.59585 0.480522
0.378592 0.616358 0.50103
0.462867 0.639384 0.524056
0.531243 0.665354 0.550027
0.611109 0.689647 0.574319
0.699596 0.713115 0.597787
0.786404 0.736873 0.621546
0.866178 0.761883 0.646571
0.936782 0.786801 0.671473
0.377005 0.727031 0.57351
0.471733 0.747677 0.594171
0.557229 0.771923 0.618418
0.628046 0.800351 0.646845
0.707683 0.824399 0.670893
0.792355 0.844053 0.690547
0.872297 0.860945 0.707439
0.942641 0.876524 0.723018
1 0.890715 0.737209
0.430289 0.878279 0.626795
0.52372 0.897642 0.646159
0.604013 0.916671 0.665187
0.666651 0.936934 0.68545
0.736431 0.951125 0.699641
0.810529 0.960204 0.708721
0.881102 0.967727 0.716243
0.944015 0.975875 0.724392
0.999161 0.985336 0.733852
0.016907 0.016907 0.257832
0.0965591 0.0224918 0.263416
0.166384 0.0310521 0.271992
0.221424 0.0437171 0.284642
0.286671 0.0533761 0.294301
0.359609 0.0612802 0.30222
0.431098 0.0697337 0.310658
0.495918 0.0797894 0.320729
0.553246 0.0914473 0.332372
0.0581826 0.101289 0.299123
0.13817 0.107195 0.305028
0.208194 0.115969 0.313802
0.263508 0.128893 0.326726
0.328832 0.138628 0.336461
0.40119 0.145953 0.343801
0.471687 0.153414 0.351247
0.535546 0.162524 0.360357
0.592905 0.174197 0.37203
0.101137 0.186313 0.342061
0.180911 0.19202 0.347784
0.250202 0.200046 0.35581
0.304448 0.211902 0.367666
0.36907 0.220951 0.376699
0.441825 0.228672 0.384436
0.513985 0.237797 0.393561
0.58085 0.249897 0.405661
0.642756 0.266117 0.421881
0.144884 0.267872 0.385824
0.224338 0.273259 0.391196
0.294392 0.282048 0.4
0.35053 0.295811 0.413748
0.418921 0.308614 0.426566
0.497032 0.321706 0.439643
0.57586 0.337469 0.455421
0.650355 0.357214 0.475166
0.719966 0.381155 0.499092
0.164385 0.363241 0.405325
0.247929 0.372717 0.414786
0.323919 0.387457 0.429541
0.38735 0.408499 0.450568
0.463539 0.429099 0.471183
0.548928 0.44947 0.491539
0.633799 0.47129 0.513375
0.713207 0.495949 0.538018
0.785458 0.522515 0.564584
0.195453 0.481712 0.436393
0.2869 0.499077 0.453758
0.369772 0.520699 0.47538
0.438956 0.547494 0.502174
0.519051 0.572 0.52668
0.606302 0.594217 0.548913
0.690867 0.615747 0.570428
0.770077 0.640192 0.594888
0.843351 0.667796 0.622477
0.294148 0.605982 0.535088
0.388708 0.626474 0.555566
0.472313 0.648814 0.57792
0.541192 0.675319 0.60441
0.621393 0.699931 0.629023
0.709911 0.72343 0.652522
0.796872 0.747326 0.676432
0.875914 0.771618 0.700725
0.945525 0.795544 0.724651
0.387091 0.737118 0.628031
0.482246 0.75819 0.649104
0.567758 0.782452 0.673381
0.6383 0.810605 0.701518
0.717296 0.834012 0.724926
0.80061 0.852308 0.743221
0.879561 0.868208 0.759121
0.948775 0.882673 0.773587
1 0.896101 0.787015
0.440177 0.888182 0.681117
0.532845 0.906767 0.699718
0.612253 0.924926 0.717861
0.673747 0.944015 0.736965
0.742245 0.956939 0.749874
0.815488 0.965164 0.758099
0.88571 0.972335 0.765286
0.948379 0.980255 0.77319
1 0.989471 0.782406
0.0227665 0.0227817 0.2907
0.102571 0.0285039 0.296437
0.172396 0.0370794 0.304997
0.22739 0.0496681 0.317601
0.292729 0.0594339 0.327367
0.365713 0.0673838 0.335317
0.437217 0.0758526 0.343786
0.5019 0.085771 0.353704
0.559106 0.0972915 0.365225
0.0642405 0.107332 0.332158
0.144244 0.113268 0.338094
0.214298 0.122072 0.346914
0.269444 0.134829 0.35967
0.334722 0.144533 0.36936
0.406973 0.151751 0.376577
0.477455 0.159182 0.384024
0.54139 0.168368 0.393194
0.598962 0.18024 0.405081
0.10721 0.192386 0.375143
0.186786 0.197894 0.380652
0.255955 0.205798 0.388556
0.310079 0.217533 0.40029
0.375021 0.226902 0.409659
0.448005 0.234852 0.417609
0.520317 0.244129 0.426886
0.588022 0.257084 0.439841
0.650889 0.27425 0.457023
0.150698 0.273686 0.418616
0.230365 0.279271 0.424216
0.300771 0.288441 0.433387
0.357382 0.302663 0.447608
0.426383 0.316075 0.461021
0.505302 0.329961 0.474907
0.584848 0.346471 0.491417
0.660334 0.367193 0.512139
0.730495 0.391684 0.536629
0.171496 0.370352 0.439429
0.255848 0.380636 0.449714
0.332525 0.396063 0.465126
0.396704 0.417853 0.486931
0.47361 0.439185 0.508247
0.559609 0.460136 0.529213
0.64477 0.482261 0.551324
0.724224 0.50695 0.576028
0.796307 0.533349 0.602426
0.205219 0.491463 0.473152
0.2972 0.509377 0.491066
0.380377 0.531304 0.512993
0.449989 0.558526 0.5402
0.530053 0.583001 0.564675
0.6168 0.60473 0.586419
0.701701 0.626581 0.60827
0.781231 0.651347 0.633036
0.854795 0.67924 0.660914
0.305165 0.616999 0.573098
0.399603 0.637354 0.593454
0.482933 0.659449 0.615549
0.552163 0.68629 0.642374
0.632792 0.71133 0.66743
0.721279 0.734783 0.690883
0.808042 0.758511 0.714595
0.886427 0.782147 0.738231
0.954742 0.804776 0.760861
0.398108 0.748135 0.666041
0.493492 0.769436 0.687343
0.579141 0.793835 0.711742
0.649119 0.821424 0.73933
0.727367 0.844083 0.762005
0.809781 0.861479 0.779385
0.887541 0.876188 0.79411
0.955489 0.889387 0.807294
1 0.901839 0.819745
0.450797 0.898787 0.718715
0.542123 0.91606 0.735988
0.620798 0.933455 0.753399
0.681285 0.951568 0.771511
0.748623 0.963317 0.783246
0.821317 0.970977 0.790921
0.891081 0.977707 0.797635
0.953567 0.985428 0.805371
1 0.994629 0.814572
0.0274357 0.0274357 0.347631
0.107301 0.0332341 0.353429
0.177127 0.0418097 0.362005
0.23209 0.0543679 0.374563
0.297505 0.06421 0.384405
0.37052 0.0721904 0.392386
0.442008 0.0806439 0.400839
0.506508 0.0903944 0.41059
0.563607 0.101793 0.421988
0.0690013 0.112093 0.389197
0.149035 0.118059 0.395163
0.21912 0.126894 0.403998
0.27422 0.139605 0.416693
0.339315 0.149111 0.426215
0.411444 0.156207 0.43331
0.481804 0.163531 0.440635
0.546044 0.173007 0.450111
0.60383 0.185122 0.462226
0.111894 0.19707 0.43209
0.191333 0.202441 0.437461
0.260334 0.210178 0.445197
0.314595 0.222049 0.457069
0.379736 0.231617 0.466636
0.453086 0.239933 0.474952
0.525856 0.249668 0.484688
0.594156 0.263203 0.498222
0.657847 0.281209 0.516243
0.155261 0.278248 0.475456
0.235126 0.284047 0.481254
0.30573 0.293385 0.490593
0.363195 0.308461 0.505669
0.43299 0.322683 0.51989
0.512642 0.337301 0.534508
0.592889 0.354513 0.55172
0.669108 0.375967 0.573175
0.739895 0.401068 0.598276
0.177401 0.376257 0.497597
0.262715 0.387503 0.508843
0.340078 0.403616 0.524941
0.405158 0.426307 0.547631
0.482612 0.448173 0.569497
0.568719 0.469245 0.590585
0.654505 0.491997 0.613336
0.733928 0.516655 0.637995
0.805707 0.542748 0.664088
0.213931 0.500191 0.534127
0.306493 0.518669 0.552605
0.389975 0.540902 0.574838
0.459709 0.568246 0.602197
0.539712 0.592676 0.626612
0.625971 0.613901 0.647837
0.711376 0.636255 0.670207
0.791318 0.661448 0.695384
0.864851 0.689296 0.723247
0.31487 0.626719 0.635065
0.409033 0.646799 0.655161
0.492348 0.668864 0.677211
0.561883 0.69601 0.704372
0.642969 0.721508 0.72987
0.73135 0.744869 0.753231
0.817578 0.768048 0.77641
0.895247 0.790967 0.799329
0.962554 0.812589 0.820951
0.408026 0.758038 0.728222
0.503578 0.779538 0.749706
0.589181 0.803876 0.77406
0.658442 0.830747 0.800916
0.735485 0.852201 0.822385
0.817075 0.868772 0.838941
0.893858 0.882506 0.852674
0.960739 0.894621 0.864805
1 0.906371 0.876539
0.459861 0.907851 0.780041
0.55024 0.924163 0.796353
0.627604 0.940276 0.812482
0.686961 0.957244 0.82945
0.753552 0.968246 0.840436
0.825711 0.975387 0.847593
0.895109 0.981735 0.853941
0.957275 0.989136 0.861341
1 0.998535 0.870726
0.0319219 0.0319219 0.408804
0.111803 0.0377203 0.414603
0.181628 0.0463111 0.423194
0.23653 0.0588235 0.435706
0.302068 0.0687724 0.445655
0.375113 0.0767834 0.453666
0.446418 0.0850538 0.461936
0.510872 0.0947433 0.471626
0.567849 0.106035 0.482918
0.0735332 0.11664 0.450416
0.153613 0.122652 0.456428
0.223697 0.131472 0.465248
0.278691 0.144076 0.477852
0.343633 0.153429 0.487221
0.415686 0.160449 0.49424
0.486046 0.167773 0.501564
0.55053 0.177508 0.511284
0.608682 0.18996 0.523751
0.116274 0.20145 0.493156
0.195605 0.206699 0.498405
0.264546 0.214389 0.506096
0.318929 0.226383 0.51809
0.384283 0.236164 0.527871
0.457954 0.2448 0.536507
0.531426 0.255238 0.546944
0.600504 0.269551 0.561257
0.664927 0.288289 0.579995
0.159701 0.282689 0.536583
0.239826 0.288746 0.542626
0.31078 0.298451 0.552331
0.368856 0.314137 0.568032
0.439612 0.329305 0.5832
0.51989 0.344564 0.598459
0.601083 0.362707 0.616602
0.677852 0.38471 0.638605
0.748928 0.410101 0.663996
0.183383 0.382254 0.560265
0.269337 0.394125 0.572152
0.347738 0.411276 0.589303
0.413642 0.434775 0.612802
0.491646 0.457206 0.635233
0.578058 0.478599 0.656626
0.664012 0.501503 0.679515
0.743374 0.526101 0.704128
0.814466 0.551522 0.729549
0.222507 0.508751 0.59939
0.315328 0.527504 0.618128
0.399451 0.550378 0.641016
0.4692 0.577737 0.66836
0.54902 0.601984 0.692607
0.635142 0.623072 0.713695
0.720867 0.645747 0.736385
0.801297 0.671412 0.762051
0.874495 0.69894 0.789563
0.324361 0.636194 0.701228
0.41799 0.655756 0.72079
0.501686 0.678203 0.743252
0.571557 0.705684 0.770718
0.652613 0.731151 0.796201
0.741176 0.754696 0.81973
0.826688 0.777157 0.842206
0.903349 0.799054 0.864103
0.96968 0.819699 0.884749
0.417914 0.767941 0.794797
0.513481 0.789441 0.816297
0.598795 0.813489 0.84036
0.667399 0.839704 0.86656
0.743252 0.859983 0.886839
0.823682 0.87538 0.902235
0.899336 0.887984 0.914855
0.965423 0.899321 0.926177
1 0.910567 0.937423
0.468269 0.916259 0.845151
0.557824 0.931746 0.860639
0.634058 0.946731 0.875608
0.692103 0.962386 0.891264
0.757946 0.972641 0.901518
0.829694 0.979355 0.908248
0.898848 0.985473 0.914366
0.960861 0.992737 0.921614
1 1 0.93109
0.0367742 0.0367742 0.463523
0.11664 0.0425727 0.469322
0.186313 0.0509957 0.477745
0.241428 0.0637064 0.490455
0.306996 0.0737011 0.50045
0.380072 0.0817426 0.508492
0.45124 0.0898756 0.516609
0.515541 0.0994278 0.526177
0.572427 0.110613 0.537362
0.0784314 0.121538 0.50518
0.158556 0.127581 0.511223
0.228473 0.136248 0.51989
0.283406 0.148791 0.532448
0.348241 0.158053 0.541695
0.420279 0.165057 0.548699
0.49073 0.172457 0.5561
0.555413 0.182391 0.566033
0.613962 0.195254 0.578897
0.120974 0.206149 0.547723
0.200183 0.211292 0.552865
0.269108 0.218952 0.560525
0.323705 0.231174 0.572747
0.389303 0.241184 0.582757
0.463203 0.25005 0.591623
0.537438 0.26125 0.602823
0.607477 0.276524 0.618097
0.672709 0.296071 0.637644
0.164553 0.287541 0.591302
0.244984 0.293904 0.597665
0.316487 0.304143 0.607904
0.375174 0.320439 0.624201
0.446723 0.336416 0.640177
0.527871 0.352544 0.656291
0.609903 0.371527 0.675288
0.687221 0.39408 0.697841
0.758526 0.419715 0.723461
0.190173 0.389029 0.616907
0.276783 0.401572 0.629465
0.355947 0.419486 0.647379
0.422553 0.443687 0.67158
0.501015 0.466575 0.694453
0.5879 0.488426 0.71632
0.673838 0.51133 0.739223
0.753033 0.535775 0.763653
0.823987 0.561028 0.788922
0.231647 0.517906 0.658396
0.324895 0.537087 0.677577
0.409308 0.560235 0.700725
0.479026 0.587564 0.728054
0.55819 0.611139 0.751644
0.644816 0.632746 0.773251
0.730877 0.655756 0.796246
0.811383 0.681514 0.822003
0.884672 0.709117 0.849607
0.333898 0.645731 0.760647
0.427451 0.665217 0.780118
0.511482 0.687999 0.802915
0.581796 0.715923 0.830823
0.662867 0.741405 0.856321
0.751171 0.764675 0.879591
0.836027 0.78648 0.901396
0.911299 0.807004 0.92192
0.976654 0.826673 0.941588
0.427893 0.77792 0.854643
0.52369 0.799634 0.876356
0.608423 0.823117 0.89984
0.67628 0.848585 0.925307
0.751232 0.867948 0.944686
0.830488 0.882185 0.958907
0.904875 0.893523 0.970245
0.970077 0.903975 0.980697
1 0.9149 0.991623
0.476524 0.924514 0.903258
0.565164 0.939086 0.91783
0.640406 0.953079 0.931823
0.697322 0.967605 0.946349
0.762585 0.977279 0.956039
0.833875 0.983551 0.962295
0.902846 0.989471 0.968215
0.964858 0.996735 0.975479
1 1 0.984619
