assets/cube/film_high_contrast.cube
TITLE "Generated by Resolve"
LUT_3D_SIZE 9
0 0 0.0698558
0.0527199 0 0.0597848
0.110231 0 0.0502937
0.16846 0 0.0415198
0.227451 0 0.0335088
0.287327 0 0.0263828
0.348119 0 0.0201724
0.410239 0 0.0152895
0.473793 0 0.0118563
0 0.0310674 0.038117
0.0234073 0.0234073 0.0304723
0.0835737 0.0165713 0.0236362
0.144839 0.0108339 0.0178988
0.207401 0.00639353 0.0134585
0.271366 0.00335698 0.0104219
0.337301 0.00228885 0.00935378
0.405447 0.00344854 0.0104982
0.476234 0.00723278 0.0142977
0 0.0757458 0.0158083
0.00485237 0.0718547 0.0119173
0.069398 0.069398 0.00946059
0.135988 0.068986 0.0090486
0.20499 0.0710002 0.0110475
0.276829 0.0758221 0.0158846
0.352499 0.0845045 0.024567
0.432685 0.097673 0.0377356
0.518456 0.116457 0.0565194
0 0.136156 0.00920119
0.00500496 0.13901 0.0120699
0.0779736 0.144976 0.0180362
0.155169 0.155169 0.0282292
0.237568 0.170581 0.0436255
0.325811 0.191806 0.0648661
0.421378 0.220371 0.093431
0.524376 0.256367 0.129427
0.632761 0.297765 0.170825
0 0.226658 0.0327153
0.0426337 0.243641 0.0496986
0.133867 0.267872 0.07393
0.232654 0.299657 0.105714
0.337728 0.337728 0.143786
0.447181 0.380179 0.186252
0.557702 0.423697 0.229755
0.665293 0.464286 0.270344
0.768139 0.500145 0.306203
0.0442206 0.379217 0.118273
0.151537 0.419532 0.158587
0.26183 0.462837 0.201892
0.371435 0.505425 0.24448
0.477333 0.54432 0.283375
0.579126 0.579126 0.318181
0.676463 0.609461 0.348531
0.76965 0.635645 0.374701
0.859739 0.658747 0.397803
0.184497 0.586496 0.258549
0.28896 0.623957 0.296025
0.389227 0.657237 0.32929
0.485267 0.686275 0.358328
0.577157 0.711162 0.383215
0.666178 0.733181 0.405234
0.752529 0.752529 0.424582
0.836362 0.76936 0.441413
0.918547 0.784543 0.456596
0.292988 0.76199 0.367041
0.384146 0.78616 0.391211
0.472267 0.807279 0.412329
0.557473 0.825467 0.430533
0.640757 0.841764 0.446815
0.722194 0.856199 0.46125
0.802045 0.869047 0.474098
0.880232 0.880232 0.485283
0.957366 0.890364 0.495415
0.362295 0.898299 0.436347
0.444938 0.913954 0.452003
0.52575 0.927764 0.465812
0.604746 0.939742 0.477806
0.682643 0.950652 0.488701
0.759365 0.960357 0.498421
0.834958 0.968963 0.507012
0.909407 0.97641 0.514458
0.983108 0.983108 0.521157
0 0 0.121508
0.0512856 0 0.111635
0.108995 0 0.102342
0.167498 0 0.093843
0.226825 0 0.0861677
0.286976 0 0.0793164
0.348196 0 0.0735332
0.410712 0 0.0690471
0.474723 0 0.0660563
0 0.0301976 0.090547
0.022797 0.022797 0.0831311
0.0833448 0.0163424 0.0766918
0.145098 0.0110933 0.0714275
0.208148 0.00715648 0.0674907
0.272648 0.004654 0.0649882
0.339193 0.00418097 0.0645304
0.408148 0.00613413 0.0664836
0.479912 0.0108949 0.0712444
0 0.0760662 0.0694133
0.00563058 0.0726329 0.0659648
0.0709697 0.0709697 0.0643168
0.138323 0.0713207 0.0646677
0.208179 0.0741741 0.0675059
0.28101 0.0800031 0.0733501
0.358114 0.0901045 0.0834516
0.44036 0.105364 0.0987106
0.528405 0.12639 0.119738
0 0.138735 0.0650797
0.00859083 0.14258 0.068925
0.0829023 0.149905 0.0762493
0.161517 0.161517 0.0878614
0.245365 0.178363 0.104707
0.336431 0.202426 0.128771
0.434989 0.233997 0.160342
0.540169 0.272175 0.19852
0.649317 0.314321 0.240665
0 0.233997 0.0933394
0.0519722 0.252979 0.112322
0.145357 0.279362 0.138705
0.246616 0.313619 0.172961
0.353689 0.353689 0.213031
0.463951 0.396948 0.256291
0.573632 0.439628 0.29897
0.679911 0.47892 0.338262
0.781537 0.513527 0.372869
0.0590677 0.394064 0.186404
0.167895 0.435904 0.228244
0.278569 0.479561 0.271901
0.387045 0.52105 0.31339
0.491295 0.558297 0.350637
0.591684 0.591684 0.384024
0.687831 0.620829 0.413169
0.779782 0.645777 0.438117
0.868879 0.667872 0.460212
0.199741 0.60174 0.327077
0.302693 0.637705 0.363043
0.401266 0.669276 0.394614
0.495705 0.696712 0.422049
0.586816 0.720821 0.446159
0.674998 0.742 0.467338
0.760464 0.760464 0.485801
0.843595 0.776593 0.50193
0.925078 0.791074 0.516426
0.303426 0.772427 0.430762
0.393378 0.795392 0.453727
0.480598 0.815595 0.47393
0.565103 0.833112 0.491447
0.647807 0.848798 0.507134
0.728649 0.862654 0.520989
0.807721 0.874723 0.533059
0.885618 0.885618 0.543954
0.962371 0.895369 0.553704
0.369604 0.905608 0.496941
0.451652 0.920653 0.511986
0.531975 0.933974 0.525307
0.610513 0.945525 0.536858
0.687968 0.955962 0.547311
0.764248 0.96524 0.556588
0.839292 0.973297 0.56463
0.913634 0.980636 0.571969
0.987091 0.987091 0.578424
0 0 0.173266
0.049958 0 0.163592
0.107897 0 0.154528
0.166629 0 0.146258
0.22623 0 0.138857
0.286732 0 0.132357
0.34844 0 0.127062
0.41146 0 0.123079
0.475959 0 0.120577
0 0.0294957 0.14313
0.0223392 0.0223392 0.135973
0.083238 0.0162356 0.12987
0.145403 0.0113985 0.125032
0.208988 0.00799573 0.12163
0.27422 0.00621042 0.11986
0.341512 0.00650034 0.120134
0.411292 0.00927749 0.122911
0.484031 0.0150301 0.128664
0 0.0766003 0.123232
0.00663767 0.07364 0.120272
0.0726482 0.0726482 0.11928
0.140917 0.0739147 0.120546
0.211688 0.0776837 0.124315
0.285893 0.0848859 0.131518
0.36437 0.096376 0.143008
0.448249 0.113237 0.159884
0.538994 0.13698 0.183612
0 0.141405 0.121035
0.0124666 0.146471 0.126101
0.0883497 0.155352 0.134981
0.168795 0.168795 0.148425
0.254612 0.18761 0.167239
0.347829 0.213825 0.193454
0.44892 0.247929 0.227558
0.555856 0.287861 0.267491
0.666087 0.331075 0.310704
0 0.241428 0.154055
0.0623026 0.26331 0.175937
0.158251 0.292256 0.204883
0.261524 0.328527 0.241154
0.370031 0.370031 0.282673
0.480705 0.413703 0.326329
0.589303 0.455299 0.367926
0.693645 0.492638 0.40528
0.794156 0.526146 0.438773
0.0747234 0.40972 0.255344
0.184497 0.452506 0.298131
0.294926 0.495933 0.341558
0.401984 0.535988 0.381613
0.505043 0.572045 0.417685
0.603754 0.603754 0.449378
0.698543 0.63154 0.477165
0.789487 0.655497 0.501122
0.877729 0.676722 0.522362
0.214313 0.616312 0.394949
0.315938 0.65095 0.429572
0.413108 0.681117 0.459754
0.50602 0.707027 0.485649
0.596063 0.730068 0.50869
0.68336 0.750362 0.528984
0.768063 0.768063 0.546685
0.85066 0.783658 0.56228
0.931548 0.797543 0.576181
0.313588 0.782589 0.494209
0.402487 0.804486 0.516121
0.48864 0.823651 0.535271
0.572427 0.840436 0.552071
0.654521 0.855528 0.567163
0.73489 0.868894 0.580514
0.813458 0.880461 0.592096
0.890944 0.890944 0.602564
0.967254 0.900252 0.611872
0.376822 0.912825 0.557443
0.458167 0.927169 0.571801
0.537743 0.939757 0.584375
0.616068 0.95108 0.595697
0.693156 0.961151 0.605783
0.768978 0.969985 0.614603
0.843763 0.977752 0.622385
0.917754 0.984741 0.629374
0.990936 0.990936 0.635569
0 0 0.22504
0.0486458 0 0.215564
0.106889 0 0.206821
0.165911 0 0.198825
0.225788 0 0.191699
0.286595 0 0.185519
0.348745 0 0.180667
0.412329 0 0.177249
0.47747 0 0.175387
0 0.0288548 0.195789
0.0220493 0.0220493 0.188968
0.0833448 0.0163424 0.183261
0.145922 0.0119173 0.178836
0.209918 0.00891127 0.175845
0.275883 0.00788891 0.174807
0.344091 0.00907912 0.175998
0.414893 0.0128939 0.179812
0.488869 0.019852 0.186786
0 0.0773632 0.177279
0.00796521 0.0749676 0.174884
0.0745861 0.0745861 0.174517
0.143648 0.0766461 0.176562
0.215534 0.081529 0.18146
0.29131 0.0903029 0.190219
0.371603 0.103593 0.203525
0.457313 0.122316 0.222232
0.550301 0.148287 0.248219
0 0.144594 0.177523
0.0167239 0.150713 0.183642
0.0939956 0.160998 0.193927
0.176364 0.176364 0.209277
0.264897 0.197894 0.230808
0.360632 0.226627 0.259541
0.463737 0.26273 0.295659
0.572198 0.304189 0.337102
0.682841 0.347829 0.380743
0 0.249638 0.215549
0.0729686 0.273976 0.239887
0.171923 0.305928 0.271839
0.276875 0.343877 0.309804
0.386633 0.386633 0.352544
0.497108 0.430106 0.396033
0.604395 0.47039 0.436301
0.707408 0.506401 0.472328
0.806226 0.538216 0.504143
0.090959 0.425956 0.32488
0.201266 0.469276 0.368185
0.310811 0.511818 0.410727
0.416617 0.550622 0.449546
0.518349 0.585351 0.484276
0.615625 0.615625 0.514549
0.708614 0.641611 0.540536
0.798749 0.664759 0.563668
0.886122 0.685115 0.584039
0.228244 0.630243 0.462165
0.328405 0.663401 0.495323
0.424384 0.692393 0.5243
0.516213 0.717205 0.549126
0.605188 0.739178 0.571099
0.691478 0.75848 0.590402
0.775265 0.775265 0.607187
0.857404 0.790402 0.622324
0.937804 0.8038 0.635721
0.323186 0.792187 0.557092
0.411231 0.813245 0.578164
0.496391 0.831403 0.596307
0.579644 0.847654 0.612573
0.661051 0.862058 0.626978
0.740841 0.874846 0.639765
0.819028 0.88603 0.65095
0.896147 0.896147 0.661051
0.972091 0.905089 0.670008
0.383825 0.919829 0.617746
0.464607 0.933608 0.631525
0.543557 0.945571 0.643488
0.621439 0.956451 0.654353
0.698131 0.96614 0.664042
0.773602 0.974594 0.672511
0.848127 0.982132 0.680049
0.921828 0.98883 0.686748
0.994675 0.994675 0.692576
0 0 0.276921
0.047425 0 0.267628
0.105928 0 0.259144
0.16527 0 0.251484
0.225437 0 0.244648
0.286687 0 0.238895
0.349233 0 0.23444
0.413214 0 0.231418
0.479133 0 0.230335
0 0.0282139 0.248432
0.0218204 0.0218204 0.242039
0.0835889 0.0165866 0.236805
0.146685 0.0126802 0.232898
0.211231 0.0102235 0.230442
0.277806 0.00979629 0.230015
0.346807 0.0117952 0.232013
0.418616 0.0166018 0.23682
0.49427 0.0252537 0.245472
0 0.078172 0.231373
0.00955215 0.0765545 0.22977
0.0769665 0.0769665 0.230167
0.146822 0.0798199 0.233036
0.219745 0.0857404 0.238956
0.296925 0.0959335 0.249149
0.379294 0.111284 0.2645
0.467491 0.132479 0.285695
0.562997 0.160998 0.314199
0 0.148287 0.234501
0.0216983 0.155703 0.241901
0.100389 0.167391 0.253605
0.184344 0.184344 0.270558
0.275532 0.20853 0.294743
0.374273 0.240269 0.326482
0.479377 0.278386 0.364599
0.588754 0.32076 0.406973
0.699275 0.364263 0.450477
0 0.259037 0.278248
0.084535 0.285542 0.304753
0.185901 0.31989 0.339101
0.293111 0.360113 0.379324
0.403403 0.403403 0.422614
0.513024 0.446021 0.465232
0.618967 0.484962 0.504173
0.72076 0.519768 0.538979
0.818128 0.550118 0.569329
0.107332 0.442329 0.394537
0.21799 0.486 0.438209
0.326146 0.527153 0.479362
0.430579 0.564569 0.516777
0.530877 0.597879 0.550072
0.626947 0.626947 0.579156
0.718837 0.651835 0.604044
0.807889 0.673884 0.626093
0.894255 0.693248 0.645457
0.241962 0.643961 0.529168
0.340429 0.675441 0.560647
0.434653 0.702663 0.587869
0.525841 0.726848 0.612055
0.613977 0.747982 0.633188
0.699245 0.766247 0.651453
0.782483 0.782483 0.667689
0.863935 0.796933 0.682139
0.943801 0.809796 0.695003
0.332403 0.801404 0.619608
0.419547 0.821546 0.639765
0.504021 0.839033 0.657237
0.586679 0.854688 0.672892
0.667506 0.868498 0.686717
0.746502 0.880507 0.698711
0.824414 0.891417 0.709621
0.901137 0.901137 0.719341
0.976761 0.909758 0.727962
0.390524 0.926528 0.677729
0.470802 0.939803 0.691005
0.549325 0.951339 0.702541
0.626749 0.961761 0.712963
0.703014 0.971008 0.722225
0.778042 0.979034 0.730251
0.852354 0.986358 0.73756
0.925811 0.992798 0.744015
0.998276 0.998276 0.749477
0 0 0.328847
0.0463264 0 0.319829
0.105058 0 0.311574
0.16466 0 0.304158
0.225208 0 0.297704
0.286946 0 0.292439
0.349996 0 0.288487
0.414481 0 0.285985
0.48101 0 0.285512
0 0.0278019 0.301305
0.0217136 0.0217136 0.295216
0.0839094 0.016907 0.29041
0.147478 0.0134737 0.286976
0.212802 0.0117952 0.285298
0.28014 0.0121309 0.285634
0.349966 0.0149691 0.288472
0.422782 0.0207828 0.294286
0.49987 0.0308537 0.304356
0 0.0791943 0.285695
0.0112306 0.078233 0.284733
0.0795453 0.0795453 0.286046
0.150378 0.0833753 0.289876
0.224674 0.0906691 0.297169
0.303243 0.102251 0.308751
0.387076 0.119066 0.325582
0.478096 0.143099 0.349599
0.576623 0.174609 0.381109
0 0.152178 0.291676
0.0271458 0.161151 0.300649
0.107713 0.174716 0.314214
0.193652 0.193652 0.33315
0.287007 0.220005 0.359503
0.388235 0.254231 0.393729
0.495277 0.29427 0.433768
0.605524 0.337514 0.477028
0.715221 0.380209 0.519707
0.00140383 0.269398 0.341894
0.0975052 0.298512 0.371008
0.200732 0.334737 0.407233
0.309468 0.376471 0.448966
0.420142 0.420142 0.492638
0.528679 0.461677 0.534173
0.632929 0.498924 0.57142
0.733333 0.532326 0.604837
0.829496 0.561486 0.633997
0.123949 0.458946 0.464439
0.234333 0.502342 0.507836
0.341329 0.542321 0.547829
0.444312 0.578317 0.58381
0.542916 0.609918 0.615412
0.637446 0.637446 0.642939
0.728511 0.661509 0.667018
0.816709 0.682704 0.688212
0.90222 0.701213 0.706722
0.255161 0.65716 0.595666
0.352193 0.68719 0.625696
0.44509 0.7131 0.651591
0.535073 0.73608 0.674571
0.622309 0.756313 0.694804
0.706844 0.773846 0.712337
0.789532 0.789532 0.728038
0.870405 0.803403 0.741894
0.949508 0.815503 0.754009
0.341482 0.810483 0.681987
0.427436 0.829435 0.700938
0.51133 0.846342 0.71783
0.593393 0.861387 0.732891
0.673732 0.874723 0.746227
0.752285 0.886275 0.757778
0.829725 0.896727 0.768231
0.90602 0.90602 0.777508
0.981079 0.914076 0.785565
0.39704 0.933043 0.73753
0.476509 0.945525 0.750011
0.554864 0.956878 0.761364
0.631922 0.966934 0.77142
0.707622 0.975631 0.780133
0.782498 0.983505 0.787991
0.856474 0.990463 0.794965
0.929641 0.996643 0.801144
1 1 0.806394
0 0 0.38085
0.0453193 0 0.372122
0.104356 0 0.364141
0.164218 0 0.357
0.225086 0 0.350881
0.287251 0 0.346044
0.350851 0 0.342641
0.416052 0 0.340841
0.48333 0 0.341115
0 0.0275273 0.354314
0.0218357 0.0218357 0.348638
0.0844434 0.0174411 0.344228
0.14847 0.0144656 0.341268
0.214481 0.0134737 0.340261
0.282719 0.014725 0.341512
0.353506 0.0184939 0.345296
0.427649 0.0256504 0.352438
0.506111 0.0371099 0.363897
0 0.0805371 0.340337
0.0131991 0.0802014 0.340002
0.0822309 0.0822309 0.342016
0.154253 0.0872511 0.347036
0.230106 0.0961013 0.355901
0.310521 0.109514 0.369314
0.396292 0.128298 0.388083
0.489464 0.154467 0.414252
0.590539 0.18854 0.448325
0 0.156481 0.349264
0.0328222 0.166827 0.359625
0.115129 0.182132 0.374929
0.203983 0.203983 0.396765
0.29987 0.232883 0.425666
0.403098 0.269108 0.461891
0.51162 0.310613 0.503395
0.622278 0.354269 0.547066
0.730892 0.39588 0.588678
0.0121004 0.280095 0.405875
0.111192 0.3122 0.43798
0.216297 0.350301 0.476081
0.32607 0.393072 0.518853
0.436515 0.436515 0.56231
0.543572 0.47657 0.602365
0.646677 0.512673 0.638468
0.745403 0.544396 0.670192
0.840223 0.572213 0.698009
0.140734 0.475731 0.534508
0.250187 0.518196 0.576989
0.355917 0.556924 0.615717
0.457572 0.591577 0.65037
0.554772 0.621775 0.680568
0.6477 0.6477 0.706477
0.737758 0.670771 0.729549
0.825071 0.691066 0.749859
0.909834 0.708827 0.76762
0.267597 0.669596 0.661372
0.363333 0.698329 0.69012
0.455253 0.723262 0.715053
0.544182 0.74519 0.736965
0.630411 0.764416 0.756191
0.714168 0.78117 0.772946
0.796277 0.796277 0.788052
0.876646 0.809644 0.801434
0.95523 0.821225 0.813016
0.350225 0.819226 0.743999
0.435325 0.837324 0.762112
0.518547 0.853559 0.778332
0.599908 0.867918 0.792706
0.679545 0.880537 0.805325
0.757824 0.891829 0.816617
0.834913 0.901915 0.826703
0.910796 0.910796 0.835569
0.985534 0.918532 0.84332
0.403372 0.939376 0.797162
0.482383 0.951385 0.809171
0.560235 0.962234 0.82002
0.636896 0.971908 0.829679
0.712276 0.98027 0.838056
0.786862 0.987869 0.845655
0.860548 0.994553 0.852338
0.933272 1 0.858061
1 1 0.863188
0 0 0.432929
0.044358 0 0.424445
0.103716 0 0.4168
0.163897 0 0.409979
0.225193 0 0.404273
0.287755 0 0.399832
0.351751 0 0.396826
0.417716 0 0.395789
0.485893 0 0.396979
0 0.0272984 0.407385
0.0220951 0.0220951 0.402182
0.0852064 0.018204 0.398291
0.149798 0.0157931 0.39588
0.216419 0.0154116 0.395499
0.285451 0.0174411 0.397528
0.357321 0.0223239 0.402411
0.433066 0.0310521 0.411139
0.513329 0.0443275 0.424399
0 0.0821393 0.395224
0.0155947 0.0825971 0.395666
0.08542 0.08542 0.398505
0.158495 0.0914931 0.404578
0.235752 0.101747 0.414832
0.31812 0.117128 0.430198
0.406577 0.138567 0.451652
0.502251 0.167239 0.480323
0.605341 0.203326 0.516411
0 0.161486 0.407568
0.0392767 0.173281 0.419364
0.123323 0.190326 0.436408
0.214633 0.214633 0.460716
0.313542 0.24654 0.492622
0.418524 0.28452 0.530602
0.528191 0.327199 0.573281
0.638682 0.370672 0.616754
0.746059 0.411063 0.657145
0.023743 0.291737 0.470817
0.124956 0.325963 0.505043
0.232517 0.366522 0.545602
0.34284 0.409842 0.588922
0.452399 0.452399 0.631479
0.558236 0.491234 0.670314
0.659983 0.525994 0.705074
0.757275 0.556268 0.735348
0.850294 0.582284 0.761364
0.157443 0.492439 0.604517
0.265324 0.533333 0.645411
0.369848 0.570855 0.682933
0.470054 0.604059 0.716136
0.566049 0.633051 0.745129
0.657893 0.657893 0.76997
0.746883 0.679881 0.791959
0.833204 0.699199 0.811276
0.916991 0.715984 0.828077
0.279622 0.68162 0.726696
0.373739 0.708751 0.753826
0.464866 0.732876 0.777951
0.552941 0.753948 0.799023
0.638117 0.772122 0.817197
0.721386 0.788388 0.833463
0.802792 0.802792 0.847868
0.882628 0.815625 0.8607
0.9608 0.826795 0.87187
0.358511 0.827512 0.805585
0.442924 0.844938 0.823011
0.525567 0.860563 0.838636
0.606348 0.874357 0.85243
0.685313 0.88632 0.864393
0.763195 0.8972 0.875273
0.839902 0.906905 0.884978
0.915404 0.915404 0.893477
0.989914 0.922911 0.900984
0.409506 0.94551 0.85658
0.488136 0.957153 0.868223
0.565545 0.967544 0.87863
0.641733 0.97673 0.887816
0.716777 0.984787 0.895857
0.791074 0.992081 0.903151
0.864515 0.99852 0.90959
0.936965 1 0.915053
1 1 0.919966
0 0 0.48513
0.0435035 0 0.476875
0.10309 0 0.469459
0.163684 0 0.46305
0.225437 0 0.457816
0.288533 0 0.453895
0.353048 0 0.451423
0.419623 0 0.45098
0.488609 0 0.452979
0 0.0272068 0.460578
0.0224308 0.0224308 0.455802
0.0859998 0.0189975 0.452369
0.151385 0.01738 0.450752
0.218769 0.0177615 0.451133
0.288655 0.0206455 0.454017
0.361532 0.0265202 0.459892
0.438682 0.0366827 0.470054
0.521019 0.052018 0.48539
0 0.0838331 0.450202
0.0181888 0.0851911 0.45156
0.0890822 0.0890822 0.455451
0.163455 0.0964675 0.462837
0.24213 0.108125 0.474495
0.326055 0.125048 0.491417
0.417197 0.149203 0.515572
0.515892 0.18088 0.54725
0.621042 0.219043 0.585412
0 0.166949 0.466316
0.0465553 0.18056 0.479927
0.132708 0.19971 0.499077
0.226184 0.226184 0.525551
0.327535 0.260533 0.559915
0.434684 0.300679 0.600061
0.544961 0.343969 0.643336
0.654597 0.386587 0.685969
0.760662 0.42565 0.725017
0.0367742 0.304768 0.537133
0.139834 0.340841 0.573205
0.24889 0.382895 0.615259
0.359564 0.426566 0.658946
0.467826 0.467826 0.700191
0.572198 0.505196 0.73756
0.672526 0.538521 0.770886
0.768612 0.567605 0.799969
0.860517 0.592523 0.824887
0.173754 0.508751 0.674113
0.280659 0.548669 0.714031
0.383566 0.584573 0.749935
0.482094 0.616083 0.78146
0.576333 0.643336 0.808713
0.667536 0.667536 0.832898
0.755688 0.688685 0.854047
0.841001 0.706996 0.872374
0.924224 0.723217 0.888579
0.291142 0.693141 0.791501
0.384176 0.719173 0.817548
0.474083 0.742092 0.840452
0.561257 0.762264 0.860639
0.645747 0.779751 0.878126
0.72842 0.795422 0.893782
0.809247 0.809247 0.907622
0.888258 0.821256 0.919615
0.966171 0.832166 0.930541
0.366308 0.835309 0.866667
0.450233 0.852247 0.883604
0.53225 0.867262 0.898619
0.612558 0.880568 0.911925
0.691096 0.892088 0.923461
0.768521 0.902525 0.933883
0.844785 0.911788 0.943145
0.919814 0.919814 0.951186
0.994141 0.927138 0.958495
0.415351 0.951354 0.915709
0.49366 0.962661 0.927031
0.570703 0.972702 0.937072
0.646372 0.981369 0.945739
0.721233 0.989242 0.953597
0.795193 0.996185 0.960555
0.86833 1 0.966705
0.940581 1 0.971954
1 1 0.976394
