assets/cube/film_high_contrast.cube
TITLE "Generated by Resolve"
LUT_3D_SIZE 33
0 0 0.0698558
0.00994888 0 0.0672618
0.0241855 0 0.064744
0.038468 0 0.0622721
0.0527199 0 0.0597848
0.0670176 0 0.0573281
0.0813916 0 0.0549477
0.0957961 0 0.0526131
0.110231 0 0.0502937
0.124727 0 0.0480354
0.139239 0 0.0458076
0.153826 0 0.0436408
0.16846 0 0.0415198
0.183108 0 0.0394141
0.197803 0 0.0373693
0.212619 0 0.0354162
0.227451 0 0.0335088
0.242344 0 0.0316472
0.257252 0 0.0298161
0.272206 0 0.0280156
0.287327 0 0.0263828
0.302464 0 0.0247654
0.317632 0 0.0231937
0.332845 0 0.0216526
0.348119 0 0.0201724
0.363546 0 0.0188449
0.379095 0 0.0176547
0.394644 0 0.0164492
0.410239 0 0.0152895
0.42591 0 0.0142214
0.441733 0 0.0132906
0.457755 0 0.0125582
0.473793 0 0.0118563
0 0.00393683 0.0612497
0.00144961 0.00144961 0.0587625
0.0158236 0 0.0563821
0.0302129 0 0.0540169
0.0446326 0 0.0516976
0.0590677 0 0.0493782
0.0735332 0 0.0470893
0.0881208 0 0.0449378
0.102739 0 0.0428016
0.117372 0 0.0406806
0.132036 0 0.0385901
0.146731 0 0.0365454
0.161532 0 0.0345922
0.176455 0 0.0327611
0.191348 0 0.0309148
0.206271 0 0.0290837
0.221256 0 0.0273136
0.236332 0 0.0256504
0.251514 0 0.0240635
0.266758 0 0.0225681
0.281971 0 0.0210269
0.297292 0 0.0195926
0.312734 0 0.0182803
0.328252 0 0.0170596
0.343847 0 0.0158999
0.359518 0 0.0148318
0.37525 0 0.0138094
0.391135 0 0.0129397
0.407111 0 0.0121614
0.423117 0 0.0114137
0.439261 0 0.0108186
0.455558 0 0.0103609
0.471992 0 0.0100404
0 0.0125277 0.0530861
0 0.0102083 0.0507668
0.00790417 0.00790417 0.0484627
0.0224002 0.00564584 0.0462043
0.0369573 0.0034638 0.0440223
0.0515908 0.00132753 0.0419013
0.0662852 0 0.0398413
0.0809491 0 0.0377661
0.0956893 0 0.0357519
0.110521 0 0.0338293
0.125399 0 0.0319524
0.140291 0 0.0301061
0.155306 0 0.0283665
0.170321 0 0.026627
0.185428 0 0.0249943
0.20061 0 0.0234226
0.215793 0 0.0218509
0.231052 0 0.0203555
0.246494 0 0.0190433
0.261967 0 0.0177768
0.277516 0 0.0165713
0.29308 0 0.0153811
0.308721 0 0.0142824
0.32462 0 0.0134127
0.340536 0 0.0125887
0.356527 0 0.011841
0.372549 0 0.0111086
0.388693 0 0.0104982
0.405035 0 0.0100862
0.421607 0 0.0099031
0.438148 0 0.00970474
0.454749 0 0.00955215
0.471504 0 0.00955215
0 0.0215152 0.0453346
0 0.0193637 0.0431678
0.000488289 0.0172427 0.041062
0.0151369 0.0151369 0.0389563
0.0298314 0.013077 0.0368963
0.0446632 0.0111543 0.0349737
0.0595102 0.00926223 0.0330663
0.074403 0.00740063 0.0312047
0.0893111 0.00555428 0.0293736
0.104265 0.00376898 0.0275731
0.119387 0.00213626 0.0259403
0.134539 0.000534066 0.0243534
0.149722 0 0.0227817
0.16492 0 0.0212406
0.180209 0 0.0197604
0.195605 0 0.0184176
0.211215 0 0.0172732
0.226764 0 0.0160678
0.242359 0 0.0149081
0.258045 0 0.0138552
0.273884 0 0.0129397
0.289845 0 0.0121462
0.305959 0 0.0115053
0.322011 0 0.0108186
0.338201 0 0.0102541
0.354589 0 0.00988785
0.371099 0 0.00965896
0.387671 0 0.00947585
0.404425 0 0.00947585
0.421271 0 0.00956741
0.438331 0 0.00988785
0.455558 0 0.0103609
0.472816 0 0.0108797
0 0.0310674 0.038117
0 0.0290227 0.0360876
0 0.0270695 0.0341344
0.00848402 0.0252232 0.0322881
0.0234073 0.0234073 0.0304723
0.0383307 0.0215763 0.0286412
0.053315 0.0198215 0.0268864
0.0684062 0.0181582 0.0252232
0.0835737 0.0165713 0.0236362
0.0988174 0.0150607 0.0221256
0.114061 0.0135653 0.0206302
0.129396 0.0121309 0.0191958
0.144839 0.0108339 0.0178988
0.160372 0.00962844 0.0166781
0.175937 0.00843824 0.0154879
0.191638 0.00738537 0.0144503
0.207401 0.00639353 0.0134585
0.223285 0.00552377 0.0125887
0.239261 0.00476081 0.0118257
0.255283 0.00402838 0.0110781
0.271366 0.00335698 0.0104219
0.287755 0.00299077 0.0100557
0.304189 0.00268559 0.00975052
0.320729 0.00247196 0.00953689
0.337301 0.00228885 0.00935378
0.353994 0.00224308 0.009308
0.371069 0.00256352 0.00962844
0.388205 0.00294499 0.0100099
0.405447 0.00344854 0.0104982
0.422751 0.0039826 0.0110475
0.440223 0.00471504 0.01178
0.458015 0.00575265 0.0128176
0.476234 0.00723278 0.0142977
0 0.0411994 0.0315099
0 0.039353 0.0296635
0 0.037583 0.0278935
0.00239567 0.0358892 0.0261997
0.0175174 0.0342565 0.024567
0.0326848 0.0326848 0.0229953
0.0478828 0.0311284 0.0214389
0.0631418 0.029633 0.0199435
0.078584 0.028336 0.0186465
0.0940719 0.0270848 0.0173953
0.109621 0.0258793 0.0161898
0.1252 0.0247044 0.0150149
0.140856 0.0236057 0.0139162
0.156725 0.0227207 0.0130312
0.172686 0.0219425 0.012253
0.188693 0.0211795 0.01149
0.204715 0.0204623 0.0107729
0.220859 0.0198672 0.0101778
0.237201 0.01944 0.00975052
0.253788 0.0192874 0.00959792
0.270359 0.0191043 0.00941482
0.286961 0.018967 0.00927749
0.303746 0.0189822 0.00929274
0.320745 0.0192416 0.00955215
0.337942 0.0196841 0.00999466
0.355352 0.0203403 0.0106508
0.372702 0.0209354 0.0112459
0.39028 0.0217746 0.0120851
0.408179 0.0229191 0.0132296
0.426276 0.0242771 0.0145876
0.444465 0.0256962 0.0160067
0.462974 0.0274662 0.0177768
0.481651 0.0293889 0.0196994
0 0.0519112 0.0254673
0 0.05037 0.0239261
0 0.0487984 0.0223697
0 0.0472572 0.0208286
0.0122988 0.0458076 0.0193637
0.0277256 0.0444648 0.0180362
0.0432746 0.0432746 0.0168307
0.0588846 0.0421302 0.0157015
0.0744793 0.0409857 0.0145418
0.0901808 0.0399329 0.013489
0.106035 0.0390326 0.012604
0.121996 0.0382544 0.0118105
0.138064 0.0375677 0.0111238
0.154177 0.0369268 0.0104829
0.170397 0.0363928 0.00994888
0.186786 0.0360418 0.00959792
0.203311 0.0358129 0.00936904
0.219867 0.0356146 0.00917067
0.236622 0.0356146 0.00917067
0.253513 0.0357671 0.00932326
0.270604 0.0361028 0.00965896
0.287831 0.0365759 0.010132
0.305104 0.0370947 0.0106661
0.322515 0.0377661 0.0113222
0.340383 0.03888 0.0124361
0.358373 0.040116 0.0136873
0.376516 0.0415198 0.0150759
0.39472 0.0429694 0.0165255
0.413153 0.0446479 0.018204
0.432151 0.0469062 0.0204623
0.451362 0.0493629 0.0229191
0.470726 0.051957 0.0255283
0.490166 0.0546578 0.0282292
0 0.0634012 0.0202182
0 0.0619974 0.0187991
0 0.0607004 0.0175174
0 0.0594949 0.0162966
0.00805676 0.0583047 0.0151064
0.0236973 0.0572061 0.014023
0.0395361 0.0562905 0.0130922
0.055436 0.055436 0.012253
0.0714275 0.0546731 0.01149
0.0874342 0.0539406 0.0107424
0.103548 0.0532845 0.0101015
0.119936 0.0529335 0.00975052
0.1364 0.0526436 0.00946059
0.152941 0.0524453 0.00924697
0.169512 0.0522621 0.00907912
0.186236 0.0522316 0.0090486
0.20325 0.052491 0.009308
0.220478 0.0529793 0.00978103
0.237736 0.0534676 0.0102846
0.255039 0.0540322 0.0108492
0.272541 0.0547799 0.0115969
0.290349 0.055848 0.0126497
0.308537 0.0572824 0.0140841
0.326772 0.0587625 0.0155642
0.345022 0.0602731 0.0170901
0.363577 0.0620737 0.0188907
0.382544 0.0642863 0.0211032
0.401816 0.066804 0.023621
0.421378 0.0696269 0.0264286
0.44097 0.0724651 0.0292668
0.460945 0.0756847 0.0325017
0.481453 0.0794385 0.0362554
0.502327 0.0835584 0.0403754
0 0.0757458 0.0158083
0 0.0745708 0.0146334
0 0.0734874 0.01355
0 0.0725567 0.0126192
0.00485237 0.0718547 0.0119173
0.0208438 0.0710918 0.0111543
0.0368811 0.0703899 0.0104372
0.0530404 0.0697948 0.00985733
0.069398 0.069398 0.00946059
0.0859083 0.0691691 0.00921645
0.102571 0.0690776 0.0091249
0.119188 0.0689403 0.00900282
0.135988 0.068986 0.0090486
0.153017 0.0692607 0.00932326
0.170214 0.0697032 0.00976577
0.187533 0.0702831 0.0103456
0.20499 0.0710002 0.0110475
0.222614 0.0718547 0.0119173
0.240528 0.0730297 0.0130922
0.25864 0.0743877 0.0144503
0.276829 0.0758221 0.0158846
0.295277 0.0775311 0.0175937
0.314076 0.0795758 0.0196384
0.333181 0.0819257 0.021973
0.352499 0.0845045 0.024567
0.371908 0.0871595 0.0272221
0.391577 0.090074 0.0301213
0.412009 0.0937514 0.033814
0.432685 0.097673 0.0377356
0.45362 0.101869 0.0419318
0.474678 0.106172 0.0462348
0.496101 0.110857 0.0509194
0.518456 0.116457 0.0565194
0 0.0889448 0.012253
0 0.0881666 0.0114748
0 0.0874189 0.0107271
0 0.0868544 0.0101625
0.00257877 0.0863355 0.0096437
0.0189975 0.0859998 0.009308
0.035523 0.085771 0.00907912
0.052079 0.0855879 0.00889601
0.0687572 0.0855116 0.00881971
0.085771 0.085771 0.00907912
0.102876 0.0861219 0.00943008
0.120104 0.0866102 0.00991836
0.137392 0.0871443 0.0104524
0.154818 0.0878157 0.0111391
0.172717 0.0889754 0.0122835
0.190738 0.0902266 0.01355
0.208881 0.0916304 0.0149386
0.2271 0.0930953 0.0164034
0.245563 0.0948043 0.0181125
0.264469 0.0969711 0.0202792
0.283833 0.0995804 0.0228885
0.303197 0.102205 0.0255131
0.322667 0.104921 0.0282292
0.342504 0.107988 0.0313115
0.36286 0.111604 0.0349126
0.383795 0.115785 0.0390936
0.404929 0.12018 0.0434882
0.426093 0.124575 0.0478981
0.447745 0.129488 0.0527962
0.4701 0.135103 0.0584115
0.492973 0.141222 0.0645304
0.516274 0.147768 0.0710765
0.539712 0.154452 0.07776
0 0.103227 0.00978103
0 0.102876 0.00943008
0 0.102602 0.00917067
0 0.102403 0.00895705
0.00173953 0.102235 0.00880446
0.0184787 0.10222 0.0087892
0.0354314 0.102434 0.00900282
0.0527504 0.103014 0.00956741
0.0700084 0.103502 0.010071
0.0873274 0.104082 0.0106355
0.10486 0.10486 0.0114137
0.122698 0.105943 0.0124971
0.14078 0.107271 0.0138247
0.159136 0.108888 0.0154421
0.177417 0.110414 0.016968
0.196002 0.112261 0.0188144
0.215 0.114504 0.0210574
0.234287 0.117037 0.0235904
0.253712 0.119707 0.026276
0.273487 0.122728 0.0292973
0.293507 0.126009 0.0325628
0.314061 0.129809 0.0363622
0.334966 0.133959 0.0405127
0.355962 0.138201 0.04477
0.377371 0.14287 0.049424
0.399496 0.148241 0.0548104
0.42208 0.15407 0.0606394
0.44506 0.160311 0.066865
0.468162 0.166644 0.0732128
0.49163 0.173388 0.079942
0.516274 0.181277 0.0878309
0.541222 0.189456 0.096025
0.566537 0.198032 0.104601
0 0.119005 0.00881971
0 0.118914 0.00872816
0 0.11899 0.0087892
0 0.11928 0.00909438
0.00248722 0.119738 0.00955215
0.0197604 0.120256 0.010071
0.0372778 0.121035 0.0108492
0.0549325 0.121935 0.0117494
0.0728771 0.12314 0.0129397
0.0910048 0.124514 0.014313
0.109194 0.125948 0.0157626
0.127565 0.127565 0.0173648
0.146517 0.129763 0.0195773
0.165652 0.132143 0.0219577
0.184985 0.134737 0.0245365
0.20441 0.137407 0.0272068
0.224109 0.140352 0.0301671
0.244587 0.144091 0.0339055
0.265309 0.148058 0.0378576
0.286259 0.152255 0.0420691
0.307332 0.156573 0.0463874
0.328817 0.161318 0.051133
0.351019 0.166766 0.0565652
0.374121 0.173114 0.0629282
0.397147 0.1794 0.0691997
0.42034 0.18584 0.0756542
0.444068 0.192813 0.0826123
0.468559 0.200549 0.0903639
0.493797 0.209049 0.0988632
0.519509 0.218006 0.10782
0.545037 0.22678 0.116594
0.571023 0.236011 0.125826
0.59762 0.245853 0.135668
0 0.136156 0.00920119
0 0.136645 0.00970474
0 0.137179 0.0102388
0 0.137881 0.0109407
0.00500496 0.13901 0.0120699
0.0231022 0.140352 0.0134127
0.0412451 0.141756 0.0148165
0.0594797 0.143236 0.0162966
0.0779736 0.144976 0.0180362
0.096849 0.147112 0.0201724
0.116274 0.149783 0.0228428
0.135683 0.152438 0.0254978
0.155169 0.155169 0.0282292
0.175051 0.158297 0.0313573
0.195468 0.161959 0.0350195
0.216297 0.166033 0.0390936
0.237568 0.170581 0.0436255
0.258762 0.175006 0.0480659
0.280491 0.17998 0.0530404
0.302907 0.185657 0.0587167
0.325811 0.191806 0.0648661
0.348867 0.198123 0.0711833
0.372595 0.205097 0.0781567
0.396612 0.212345 0.0854047
0.421378 0.220371 0.093431
0.446632 0.228885 0.101946
0.472023 0.237522 0.110582
0.497765 0.246509 0.11957
0.524376 0.256367 0.129427
0.551171 0.266423 0.139483
0.578302 0.276799 0.149859
0.605493 0.287236 0.160296
0.632761 0.297765 0.170825
0 0.154925 0.0112459
0 0.156054 0.0123598
0 0.157397 0.0137026
0 0.158923 0.0152285
0.00979629 0.160555 0.0168612
0.0284428 0.162432 0.0187533
0.0474708 0.164721 0.0210269
0.0667735 0.167269 0.0235752
0.0861677 0.169909 0.026215
0.105943 0.172946 0.0292515
0.126085 0.176333 0.032639
0.14667 0.180179 0.0364843
0.16759 0.184344 0.04065
0.188617 0.188617 0.0449226
0.209949 0.193194 0.0495003
0.232258 0.198749 0.0550698
0.254902 0.204654 0.0609598
0.277897 0.210895 0.0672007
0.301015 0.217258 0.0735637
0.324544 0.224048 0.080354
0.349218 0.231968 0.0882734
0.374258 0.240253 0.0965744
0.399603 0.248844 0.10515
0.425055 0.257542 0.113848
0.450889 0.266621 0.122942
0.477302 0.27631 0.132616
0.504784 0.287022 0.143343
0.53196 0.297459 0.153765
0.559167 0.307912 0.164218
0.58648 0.318471 0.174777
0.613931 0.329183 0.185489
0.641535 0.340032 0.196338
0.669642 0.351385 0.207691
0 0.176074 0.0156405
0 0.177722 0.0172732
0 0.179965 0.0195163
0 0.182376 0.0219272
0.0174716 0.18497 0.0245212
0.0368963 0.187655 0.0272068
0.0566415 0.190646 0.0301976
0.0770428 0.194293 0.0338445
0.0979324 0.198444 0.037995
0.118898 0.20264 0.0422065
0.139986 0.206989 0.0465553
0.161532 0.21178 0.0513466
0.183764 0.217258 0.0568246
0.206821 0.22356 0.0631266
0.229984 0.229984 0.0695354
0.253208 0.236454 0.0760204
0.276997 0.243503 0.0830549
0.301564 0.251316 0.0908675
0.326726 0.259724 0.0992905
0.352499 0.268742 0.108293
0.378119 0.277623 0.117174
0.404166 0.286915 0.126482
0.430823 0.296818 0.13637
0.457877 0.307134 0.146685
0.485069 0.317571 0.157137
0.512856 0.328603 0.168154
0.540215 0.339208 0.178775
0.567712 0.349966 0.189517
0.595285 0.360784 0.200351
0.622889 0.371633 0.211185
0.650355 0.382345 0.221912
0.678096 0.393332 0.232898
0.705043 0.40354 0.243091
0 0.199863 0.0226749
0 0.20267 0.0254826
0 0.205432 0.0282444
0.00761425 0.208606 0.0314183
0.0280766 0.212329 0.0351263
0.0489204 0.216434 0.0392309
0.0700236 0.220783 0.043595
0.0914321 0.225437 0.048249
0.113237 0.230488 0.0532998
0.135698 0.23621 0.0590219
0.158633 0.24239 0.0652018
0.18172 0.248722 0.071519
0.205325 0.255573 0.0783703
0.229572 0.263081 0.0858778
0.254398 0.271153 0.0939651
0.279683 0.279683 0.102495
0.305089 0.28835 0.111147
0.330785 0.297276 0.120089
0.357549 0.307301 0.130098
0.38439 0.317388 0.1402
0.411536 0.327779 0.150591
0.438727 0.338231 0.161044
0.466011 0.34876 0.171572
0.493828 0.359823 0.182635
0.521508 0.370748 0.193561
0.549111 0.381598 0.20441
0.576654 0.392401 0.215213
0.604044 0.403037 0.225849
0.631159 0.413397 0.23621
0.658503 0.424002 0.246815
0.685328 0.434073 0.256886
0.712001 0.443992 0.266804
0.738354 0.45359 0.276402
0 0.226658 0.0327153
0 0.230549 0.0366064
0.000228885 0.23473 0.0407874
0.0212558 0.239002 0.0450599
0.0426337 0.243641 0.0496986
0.0650339 0.249287 0.0553445
0.0877089 0.255222 0.0612802
0.110719 0.261479 0.0675364
0.133867 0.267872 0.07393
0.157458 0.274708 0.080766
0.181949 0.282445 0.0885023
0.207309 0.291066 0.0971237
0.232654 0.299657 0.105714
0.258122 0.308385 0.114443
0.284001 0.31751 0.123568
0.310491 0.327245 0.133303
0.337728 0.337728 0.143786
0.365179 0.348424 0.154482
0.392401 0.358907 0.164965
0.41973 0.369482 0.17554
0.447181 0.380179 0.186252
0.474754 0.390997 0.19707
0.502724 0.402213 0.20827
0.530419 0.413153 0.219211
0.557702 0.423697 0.229755
0.58471 0.433967 0.240024
0.611536 0.444022 0.25008
0.638285 0.454032 0.26009
0.665293 0.464286 0.270344
0.691569 0.473808 0.279866
0.717296 0.482795 0.288853
0.742763 0.491508 0.297566
0.768139 0.500145 0.306203
0 0.257404 0.0467231
0 0.262257 0.0515755
0.016556 0.267811 0.0571145
0.0393988 0.273899 0.0632181
0.0628214 0.280568 0.0698711
0.0860761 0.287083 0.0763867
0.109941 0.294194 0.0834974
0.134585 0.302083 0.0914015
0.159777 0.310536 0.0998398
0.18526 0.319265 0.108568
0.211215 0.328466 0.117784
0.237324 0.337819 0.127138
0.264027 0.347768 0.137072
0.291112 0.358114 0.147417
0.318303 0.368551 0.157855
0.345754 0.379263 0.168566
0.373465 0.390219 0.179522
0.400977 0.400977 0.19028
0.428565 0.41181 0.201114
0.456153 0.422644 0.211948
0.483589 0.433341 0.222644
0.511315 0.444312 0.233616
0.538247 0.45449 0.243793
0.565026 0.464515 0.253834
0.591745 0.474495 0.263798
0.618204 0.484215 0.273518
0.644495 0.493736 0.283055
0.670314 0.502815 0.292119
0.69575 0.511482 0.300801
0.72108 0.520073 0.309377
0.746136 0.528374 0.317678
0.770748 0.536248 0.325551
0.795316 0.54406 0.333379
0 0.292973 0.0655375
0.0145571 0.299306 0.07187
0.0379797 0.305989 0.0785382
0.0625467 0.313802 0.0863508
0.0874342 0.321935 0.0944991
0.112749 0.330495 0.103059
0.138155 0.339162 0.111711
0.163897 0.34815 0.120714
0.190723 0.358221 0.130785
0.217609 0.368353 0.140917
0.24477 0.378759 0.151324
0.271977 0.389227 0.161776
0.29926 0.399756 0.172305
0.326741 0.410483 0.183047
0.354772 0.421775 0.194324
0.382376 0.432624 0.205173
0.409918 0.443427 0.215976
0.437278 0.454032 0.226581
0.464363 0.464363 0.236927
0.491371 0.474632 0.247181
0.518517 0.485008 0.257572
0.545159 0.494911 0.267475
0.571481 0.504479 0.277028
0.59733 0.513573 0.286122
0.622843 0.522332 0.294896
0.648463 0.531212 0.303777
0.673961 0.539956 0.31252
0.698863 0.548104 0.320668
0.723339 0.555825 0.328389
0.747509 0.563256 0.335805
0.771603 0.570596 0.343145
0.795804 0.578042 0.350607
0.819547 0.585046 0.357595
0.0148165 0.333074 0.0888685
0.0402838 0.341787 0.0975967
0.0657054 0.350469 0.106264
0.0912032 0.359213 0.115023
0.117144 0.368399 0.124208
0.143694 0.378195 0.133989
0.170687 0.388449 0.144259
0.198413 0.39942 0.15523
0.22565 0.409903 0.165698
0.252979 0.420478 0.176287
0.280446 0.431205 0.187015
0.308034 0.442023 0.197833
0.335637 0.452888 0.208698
0.363668 0.464164 0.219974
0.390921 0.474662 0.230472
0.417914 0.484901 0.240711
0.444724 0.494972 0.250782
0.471473 0.504967 0.260777
0.498131 0.514885 0.270695
0.524666 0.524666 0.280476
0.550362 0.533623 0.289418
0.575814 0.542321 0.298131
0.60119 0.550942 0.306752
0.626352 0.55935 0.31516
0.65153 0.567773 0.323583
0.675868 0.575357 0.331167
0.699992 0.582742 0.338537
0.724056 0.590051 0.345861
0.74789 0.597131 0.352941
0.771496 0.603998 0.359808
0.794873 0.61062 0.36643
0.817853 0.616846 0.372656
0.840772 0.623026 0.378836
0.0442206 0.379217 0.118273
0.0704814 0.388739 0.127794
0.0972305 0.398733 0.137789
0.124331 0.409094 0.14815
0.151537 0.419532 0.158587
0.17879 0.430045 0.1691
0.206714 0.441215 0.18027
0.234241 0.451987 0.191043
0.26183 0.462837 0.201892
0.289403 0.473655 0.212711
0.316838 0.484337 0.223392
0.344503 0.495247 0.234302
0.371435 0.505425 0.24448
0.398215 0.515465 0.25452
0.424918 0.525414 0.264469
0.451347 0.535088 0.274144
0.477333 0.54432 0.283375
0.50338 0.553628 0.292683
0.528801 0.562295 0.30135
0.554116 0.570871 0.309926
0.579126 0.579126 0.318181
0.603708 0.586969 0.326024
0.628 0.594491 0.333547
0.652476 0.602213 0.341268
0.676463 0.609461 0.348531
0.700175 0.616434 0.355489
0.723507 0.623011 0.362066
0.746563 0.629313 0.368368
0.76965 0.635645 0.374701
0.792767 0.642008 0.381079
0.815366 0.647868 0.386923
0.837659 0.653407 0.392462
0.859739 0.658747 0.397803
0.0780041 0.429755 0.152056
0.105196 0.440208 0.162509
0.132494 0.450752 0.173068
0.15993 0.461433 0.183749
0.187869 0.472618 0.194919
0.215641 0.48365 0.205951
0.243168 0.494423 0.216724
0.270512 0.505013 0.227314
0.297566 0.515328 0.237629
0.324407 0.525414 0.247715
0.351629 0.535882 0.258183
0.378332 0.54583 0.268147
0.404593 0.555337 0.277653
0.430411 0.564401 0.286717
0.455894 0.573144 0.29546
0.4813 0.581796 0.304097
0.506996 0.590738 0.313054
0.531838 0.59884 0.321157
0.556283 0.606531 0.328832
0.580438 0.613947 0.336248
0.604517 0.621271 0.343572
0.628458 0.628458 0.350759
0.652415 0.63566 0.357977
0.675624 0.642115 0.364431
0.698634 0.648371 0.370687
0.721584 0.654582 0.376883
0.744366 0.660609 0.38291
0.767208 0.666697 0.389013
0.789395 0.672145 0.394461
0.811444 0.67744 0.399756
0.833463 0.682704 0.405005
0.855299 0.6878 0.410117
0.876966 0.692714 0.415015
0.113725 0.482216 0.187778
0.141283 0.49305 0.198596
0.168887 0.503899 0.209445
0.196689 0.514946 0.220493
0.22414 0.525643 0.231205
0.251102 0.535866 0.241413
0.277913 0.545907 0.251469
0.304646 0.555901 0.261463
0.331182 0.565682 0.271244
0.357778 0.575525 0.281086
0.383444 0.584451 0.289998
0.408881 0.593133 0.298695
0.434241 0.60174 0.307301
0.459358 0.610117 0.315679
0.484398 0.618402 0.323964
0.508797 0.626047 0.331609
0.532921 0.633433 0.338979
0.55697 0.640711 0.346273
0.580774 0.647776 0.353338
0.604212 0.654459 0.360021
0.62768 0.661173 0.366735
0.65069 0.66743 0.372992
0.673594 0.673594 0.379141
0.696269 0.679515 0.385077
0.718654 0.685145 0.390707
0.74078 0.690532 0.396078
0.763149 0.696147 0.401709
0.785122 0.701366 0.406928
0.806882 0.706371 0.411933
0.828382 0.711131 0.416693
0.849714 0.715709 0.421256
0.871 0.720256 0.425803
0.89247 0.724971 0.430518
0.150088 0.535332 0.22414
0.177371 0.545876 0.234684
0.204623 0.556374 0.245182
0.231403 0.5664 0.255207
0.258091 0.576349 0.265156
0.284474 0.585992 0.274784
0.310414 0.595163 0.28397
0.336202 0.604212 0.293019
0.361852 0.613108 0.301915
0.387152 0.621653 0.31046
0.412131 0.629877 0.318685
0.436667 0.637675 0.326482
0.460883 0.645136 0.333944
0.485267 0.652766 0.341573
0.509377 0.660136 0.348943
0.533059 0.667048 0.355856
0.556359 0.673609 0.362417
0.579385 0.679896 0.368704
0.602365 0.686107 0.374914
0.625528 0.692515 0.381323
0.648142 0.69839 0.387198
0.670405 0.703899 0.392706
0.692485 0.709239 0.398047
0.714504 0.714504 0.403311
0.736416 0.719661 0.408469
0.758419 0.72491 0.413718
0.779828 0.72958 0.418387
0.801129 0.734127 0.422934
0.82237 0.738628 0.42742
0.843503 0.743008 0.431815
0.864729 0.747478 0.436286
0.885466 0.751461 0.440269
0.906111 0.755352 0.44416
0.184497 0.586496 0.258549
0.21149 0.596735 0.268803
0.237705 0.60621 0.278279
0.263478 0.615228 0.287282
0.28896 0.623957 0.296025
0.314351 0.632609 0.304662
0.339742 0.641245 0.313313
0.364828 0.649577 0.321645
0.389227 0.657237 0.32929
0.413367 0.664622 0.336675
0.437446 0.671946 0.344015
0.461341 0.679103 0.351156
0.485267 0.686275 0.358328
0.508461 0.692714 0.364767
0.531456 0.698955 0.371008
0.554391 0.705135 0.377203
0.577157 0.711162 0.383215
0.599817 0.717067 0.38912
0.622141 0.722637 0.39469
0.64419 0.727932 0.4
0.666178 0.733181 0.405234
0.688014 0.738262 0.410315
0.70959 0.743084 0.415152
0.731182 0.747936 0.419989
0.752529 0.752529 0.424582
0.773754 0.757 0.429068
0.794827 0.761318 0.433371
0.815671 0.765423 0.437476
0.836362 0.76936 0.441413
0.857267 0.77351 0.445563
0.877852 0.777356 0.449409
0.898299 0.781033 0.453101
0.918547 0.784543 0.456596
0.21651 0.635264 0.290578
0.241932 0.643946 0.299245
0.267292 0.652537 0.307851
0.292378 0.660883 0.316182
0.317098 0.668849 0.324147
0.341741 0.676753 0.332052
0.36585 0.684108 0.339406
0.389883 0.691386 0.3467
0.413672 0.698421 0.353719
0.437064 0.705058 0.360372
0.460273 0.711528 0.366827
0.483513 0.718013 0.373312
0.506401 0.724147 0.379461
0.529061 0.730053 0.385367
0.5514 0.735653 0.390967
0.57351 0.741009 0.396323
0.595712 0.746471 0.40177
0.617838 0.751827 0.407141
0.639567 0.756832 0.412131
0.661067 0.761563 0.416861
0.682368 0.766125 0.421424
0.703639 0.770626 0.42594
0.725017 0.775265 0.430579
0.746105 0.779599 0.434913
0.766888 0.783627 0.438941
0.787533 0.787533 0.442847
0.808164 0.791409 0.446708
0.828702 0.795193 0.450492
0.849348 0.799084 0.454398
0.869535 0.802533 0.457847
0.889647 0.80589 0.461204
0.909728 0.809216 0.46453
0.929717 0.812467 0.467781
0.245136 0.680629 0.319188
0.269627 0.68838 0.32694
0.293828 0.695827 0.334386
0.317937 0.703197 0.341741
0.34229 0.710796 0.349355
0.365927 0.717678 0.356237
0.389197 0.724193 0.362753
0.412222 0.73048 0.369024
0.435187 0.73669 0.375235
0.458091 0.74284 0.381399
0.480903 0.748913 0.387472
0.503151 0.754406 0.392966
0.525216 0.759716 0.398276
0.547234 0.764996 0.40354
0.569131 0.770138 0.408682
0.591089 0.775341 0.413901
0.612497 0.780011 0.418555
0.633783 0.784527 0.423087
0.655024 0.789029 0.427588
0.676143 0.793393 0.431952
0.697169 0.797681 0.436225
0.718074 0.801816 0.440375
0.738705 0.805707 0.444266
0.759304 0.809552 0.448112
0.779797 0.813291 0.45185
0.800092 0.816846 0.455406
0.820401 0.820401 0.458961
0.84062 0.823865 0.462425
0.86067 0.827176 0.465736
0.880613 0.830365 0.468925
0.90042 0.833417 0.471977
0.920104 0.836347 0.474907
0.939925 0.839414 0.477974
0.27039 0.722637 0.344442
0.29424 0.729747 0.351553
0.31812 0.736873 0.358679
0.341283 0.743297 0.365103
0.364279 0.749538 0.371344
0.387213 0.755718 0.377523
0.409934 0.7617 0.383505
0.43238 0.767376 0.389181
0.454871 0.773129 0.394934
