assets/cube/film_high_contrast.cube
TITLE "Generated by Resolve"
LUT_3D_SIZE 5
0 0 0.0698558
0.110231 0 0.0502937
0.227451 0 0.0335088
0.348119 0 0.0201724
0.473793 0 0.0118563
0 0.0757458 0.0158083
0.069398 0.069398 0.00946059
0.20499 0.0710002 0.0110475
0.352499 0.0845045 0.024567
0.518456 0.116457 0.0565194
0 0.226658 0.0327153
0.133867 0.267872 0.07393
0.337728 0.337728 0.143786
0.557702 0.423697 0.229755
0.768139 0.500145 0.306203
0.184497 0.586496 0.258549
0.389227 0.657237 0.32929
0.577157 0.711162 0.383215
0.752529 0.752529 0.424582
0.918547 0.784543 0.456596
0.362295 0.898299 0.436347
0.52575 0.927764 0.465812
0.682643 0.950652 0.488701
0.834958 0.968963 0.507012
0.983108 0.983108 0.521157
0 0 0.173266
0.107897 0 0.154528
0.22623 0 0.138857
0.34844 0 0.127062
0.475959 0 0.120577
0 0.0766003 0.123232
0.0726482 0.0726482 0.11928
0.211688 0.0776837 0.124315
0.36437 0.096376 0.143008
0.538994 0.13698 0.183612
0 0.241428 0.154055
0.158251 0.292256 0.204883
0.370031 0.370031 0.282673
0.589303 0.455299 0.367926
0.794156 0.526146 0.438773
0.214313 0.616312 0.394949
0.413108 0.681117 0.459754
0.596063 0.730068 0.50869
0.768063 0.768063 0.546685
0.931548 0.797543 0.576181
0.376822 0.912825 0.557443
0.537743 0.939757 0.584375
0.693156 0.961151 0.605783
0.843763 0.977752 0.622385
0.990936 0.990936 0.635569
0 0 0.276921
0.105928 0 0.259144
0.225437 0 0.244648
0.349233 0 0.23444
0.479133 0 0.230335
0 0.078172 0.231373
0.0769665 0.0769665 0.230167
0.219745 0.0857404 0.238956
0.379294 0.111284 0.2645
0.562997 0.160998 0.314199
0 0.259037 0.278248
0.185901 0.31989 0.339101
0.403403 0.403403 0.422614
0.618967 0.484962 0.504173
0.818128 0.550118 0.569329
0.241962 0.643961 0.529168
0.434653 0.702663 0.587869
0.613977 0.747982 0.633188
0.782483 0.782483 0.667689
0.943801 0.809796 0.695003
0.390524 0.926528 0.677729
0.549325 0.951339 0.702541
0.703014 0.971008 0.722225
0.852354 0.986358 0.73756
0.998276 0.998276 0.749477
0 0 0.38085
0.104356 0 0.364141
0.225086 0 0.350881
0.350851 0 0.342641
0.48333 0 0.341115
0 0.0805371 0.340337
0.0822309 0.0822309 0.342016
0.230106 0.0961013 0.355901
0.396292 0.128298 0.388083
0.590539 0.18854 0.448325
0.0121004 0.280095 0.405875
0.216297 0.350301 0.476081
0.436515 0.436515 0.56231
0.646677 0.512673 0.638468
0.840223 0.572213 0.698009
0.267597 0.669596 0.661372
0.455253 0.723262 0.715053
0.630411 0.764416 0.756191
0.796277 0.796277 0.788052
0.95523 0.821225 0.813016
0.403372 0.939376 0.797162
0.560235 0.962234 0.82002
0.712276 0.98027 0.838056
0.860548 0.994553 0.852338
1 1 0.863188
0 0 0.48513
0.10309 0 0.469459
0.225437 0 0.457816
0.353048 0 0.451423
0.488609 0 0.452979
0 0.0838331 0.450202
0.0890822 0.0890822 0.455451
0.24213 0.108125 0.474495
0.417197 0.149203 0.515572
0.621042 0.219043 0.585412
0.0367742 0.304768 0.537133
0.24889 0.382895 0.615259
0.467826 0.467826 0.700191
0.672526 0.538521 0.770886
0.860517 0.592523 0.824887
0.291142 0.693141 0.791501
0.474083 0.742092 0.840452
0.645747 0.779751 0.878126
0.809247 0.809247 0.907622
0.966171 0.832166 0.930541
0.415351 0.951354 0.915709
0.570703 0.972702 0.937072
0.721233 0.989242 0.953597
0.86833 1 0.966705
1 1 0.976394
