assets/cube/film_9879.cube
TITLE "Generated by Resolve"
LUT_3D_SIZE 5
0 0 0
0.149142 0.0138094 0.0138094
0.26952 0.0362249 0.0362249
0.413504 0.0521248 0.0521248
0.536385 0.0745708 0.0745708
0.0836805 0.168856 0.0836805
0.2336 0.183444 0.0982834
0.35285 0.20473 0.119554
0.49575 0.219547 0.134386
0.620249 0.24361 0.158434
0.145098 0.343954 0.145098
0.298955 0.362493 0.163622
0.432258 0.397818 0.198962
0.598108 0.435599 0.236744
0.748272 0.485313 0.286458
0.257374 0.569207 0.257374
0.436011 0.612512 0.300679
0.584207 0.662745 0.350912
0.758389 0.708843 0.397009
0.911391 0.76141 0.449577
0.402365 0.850355 0.40235
0.58117 0.893828 0.445838
0.719783 0.934478 0.486473
0.869718 0.956344 0.508354
0.989532 0.975708 0.527718
0.00827039 0.00827039 0.128328
0.157763 0.022446 0.142504
0.278202 0.0449073 0.164965
0.422309 0.0609293 0.181003
0.544961 0.0831464 0.203204
0.0925154 0.177691 0.212573
0.241993 0.191836 0.226734
0.360861 0.212726 0.247623
0.504585 0.228397 0.263279
0.630945 0.254307 0.289189
0.154345 0.353216 0.274403
0.310933 0.374472 0.295659
0.447257 0.412818 0.33402
0.615946 0.453437 0.374624
0.766918 0.50396 0.425162
0.275547 0.587381 0.395605
0.454582 0.631083 0.439307
0.602625 0.681163 0.489387
0.777737 0.728191 0.536416
0.929168 0.779187 0.587411
0.421683 0.869688 0.541741
0.597192 0.909865 0.581933
0.73196 0.94667 0.618723
0.877928 0.964553 0.636622
0.996597 0.982773 0.654841
0.016907 0.016907 0.257832
0.166384 0.0310521 0.271992
0.286671 0.0533761 0.294301
0.431098 0.0697337 0.310658
0.553246 0.0914473 0.332372
0.101137 0.186313 0.342061
0.250202 0.200046 0.35581
0.36907 0.220951 0.376699
0.513985 0.237797 0.393561
0.642756 0.266117 0.421881
0.164385 0.363241 0.405325
0.323919 0.387457 0.429541
0.463539 0.429099 0.471183
0.633799 0.47129 0.513375
0.785458 0.522515 0.564584
0.294148 0.605982 0.535088
0.472313 0.648814 0.57792
0.621393 0.699931 0.629023
0.796872 0.747326 0.676432
0.945525 0.795544 0.724651
0.440177 0.888182 0.681117
0.612253 0.924926 0.717861
0.742245 0.956939 0.749874
0.88571 0.972335 0.765286
1 0.989471 0.782406
0.0274357 0.0274357 0.347631
0.177127 0.0418097 0.362005
0.297505 0.06421 0.384405
0.442008 0.0806439 0.400839
0.563607 0.101793 0.421988
0.111894 0.19707 0.43209
0.260334 0.210178 0.445197
0.379736 0.231617 0.466636
0.525856 0.249668 0.484688
0.657847 0.281209 0.516243
0.177401 0.376257 0.497597
0.340078 0.403616 0.524941
0.482612 0.448173 0.569497
0.654505 0.491997 0.613336
0.805707 0.542748 0.664088
0.31487 0.626719 0.635065
0.492348 0.668864 0.677211
0.642969 0.721508 0.72987
0.817578 0.768048 0.77641
0.962554 0.812589 0.820951
0.459861 0.907851 0.780041
0.627604 0.940276 0.812482
0.753552 0.968246 0.840436
0.895109 0.981735 0.853941
1 0.998535 0.870726
0.0367742 0.0367742 0.463523
0.186313 0.0509957 0.477745
0.306996 0.0737011 0.50045
0.45124 0.0898756 0.516609
0.572427 0.110613 0.537362
0.120974 0.206149 0.547723
0.269108 0.218952 0.560525
0.389303 0.241184 0.582757
0.537438 0.26125 0.602823
0.672709 0.296071 0.637644
0.190173 0.389029 0.616907
0.355947 0.419486 0.647379
0.501015 0.466575 0.694453
0.673838 0.51133 0.739223
0.823987 0.561028 0.788922
0.333898 0.645731 0.760647
0.511482 0.687999 0.802915
0.662867 0.741405 0.856321
0.836027 0.78648 0.901396
0.976654 0.826673 0.941588
0.476524 0.924514 0.903258
0.640406 0.953079 0.931823
0.762585 0.977279 0.956039
0.902846 0.989471 0.968215
1 1 0.984619
