assets/cube/green_2025.cube
TITLE "Generated by Resolve"
LUT_3D_SIZE 33
0 0 0
0 0 0
0 0 0
0 0 0
0 0 0
0.000686656 0 0
0.00177005 0 0
0.00415045 0.000747692 0.000762951
0.00801099 0.00260929 0.00262455
0.0132143 0.00527962 0.00529488
0.0197757 0.00868238 0.00865187
0.0276951 0.0127108 0.0126192
0.0370336 0.0172885 0.0170901
0.0478065 0.0222934 0.0219577
0.0600595 0.0276799 0.0271611
0.0738384 0.0333104 0.032578
0.0892042 0.0391241 0.0381323
0.106126 0.0450141 0.0437171
0.124666 0.0509194 0.0492714
0.144793 0.0567178 0.0546883
0.166537 0.0623636 0.0599069
0.189868 0.0677501 0.0648508
0.21474 0.0728161 0.0694285
0.241108 0.0775158 0.0736095
0.268864 0.0817426 0.0773327
0.297902 0.0854963 0.0805371
0.328115 0.0886854 0.0832074
0.359319 0.0912947 0.0853132
0.391272 0.0933242 0.0868391
0.423926 0.0946822 0.0877394
0.456962 0.0953994 0.0880293
0.490135 0.0954604 0.0877089
0.52314 0.0948653 0.0868238
0 0 0
0 0 0
3.0518e-05 0 0
0.000900282 0.000442512 0.000442512
0.00317388 0.00192264 0.00189212
0.00675975 0.0043183 0.00419623
0.0115969 0.00749218 0.00727855
0.0177005 0.0113985 0.0110475
0.0250553 0.0159457 0.0153964
0.0337072 0.0210269 0.0202335
0.0436713 0.026566 0.0254826
0.0549783 0.0324559 0.0310521
0.0676585 0.0386358 0.0368353
0.0817578 0.0449989 0.0427405
0.097261 0.0514687 0.0486915
0.114214 0.0579385 0.054612
0.132616 0.0643473 0.0603952
0.152453 0.0706035 0.06598
0.173709 0.0766155 0.0713054
0.196353 0.0823224 0.0762798
0.22034 0.0876631 0.0808576
0.245579 0.0925612 0.0849775
0.271992 0.0969711 0.0886091
0.299428 0.100816 0.0917067
0.327688 0.104128 0.0942702
0.356786 0.106767 0.0962081
0.386419 0.108782 0.0975662
0.416388 0.110124 0.0983139
0.446448 0.110796 0.0984665
0.476356 0.110796 0.0980392
0.505852 0.11014 0.0970321
0.534615 0.108812 0.095491
0.562585 0.106905 0.0934615
0.000900282 0.00108339 0.000915541
0.00292973 0.00309758 0.00280766
0.00621042 0.00601205 0.00553903
0.0106813 0.00970474 0.00901808
0.0163119 0.0140993 0.0131533
0.0231174 0.0191501 0.0178531
0.0310826 0.0247349 0.0230411
0.040238 0.0307774 0.0286259
0.0505837 0.0372015 0.0345312
0.0621653 0.0439002 0.0406348
0.0750134 0.0508125 0.0468605
0.089128 0.0578317 0.0531472
0.104509 0.0648814 0.0593729
0.121187 0.0718547 0.0654917
0.139147 0.078706 0.0714122
0.158389 0.0853285 0.0770581
0.178866 0.0916609 0.0823835
0.200534 0.0976272 0.0873121
0.223316 0.103151 0.0917983
0.24715 0.108186 0.0957961
0.271931 0.112673 0.0992599
0.297444 0.116594 0.102205
0.32369 0.119875 0.10454
0.350408 0.122484 0.106294
0.377432 0.124422 0.107454
0.404532 0.125658 0.108034
0.431479 0.126192 0.108019
0.45803 0.126024 0.107439
0.483925 0.12517 0.106325
0.509544 0.123781 0.104753
0.536171 0.122148 0.102968
0.563897 0.120272 0.100938
0.592737 0.118151 0.0986648
0.0105592 0.011841 0.0104372
0.0157168 0.0167391 0.0149233
0.0219425 0.0222782 0.0199588
0.0292363 0.0283513 0.0254673
0.0375677 0.0348974 0.0313573
0.0469825 0.0418402 0.0375372
0.0574807 0.0490578 0.0439307
0.0690776 0.0565042 0.0504463
0.0818036 0.0640574 0.0570077
0.0956588 0.0716564 0.0635233
0.110643 0.0792096 0.0699168
0.126772 0.0866407 0.076112
0.14403 0.093843 0.0820478
0.162387 0.100771 0.0876631
0.181796 0.107332 0.0928969
0.202228 0.113466 0.0976883
0.22356 0.119097 0.102007
0.245747 0.124193 0.105806
0.26862 0.128695 0.109087
0.292119 0.13254 0.111772
0.31606 0.135729 0.113893
0.340261 0.138201 0.115419
0.364538 0.139956 0.116365
0.388678 0.140978 0.116732
0.412451 0.141268 0.116533
0.435645 0.140841 0.115785
0.459205 0.140002 0.114717
0.483787 0.138949 0.11342
0.509407 0.137667 0.11191
0.53611 0.136156 0.11017
0.563928 0.134401 0.108202
0.592859 0.132403 0.105974
0.622965 0.130144 0.103502
0.0282597 0.0318761 0.027451
0.0357824 0.0389105 0.0336004
0.0442512 0.0463417 0.0400397
0.0536812 0.054078 0.0466773
0.0640726 0.0620432 0.0534371
0.0754406 0.0701305 0.0602274
0.0877852 0.0782635 0.0669718
0.101137 0.0863661 0.0735943
0.11548 0.0943465 0.0800183
0.1308 0.102113 0.0861982
0.147097 0.109606 0.0920577
0.164324 0.116732 0.0975357
0.182452 0.12343 0.102602
0.201404 0.129641 0.107195
0.221057 0.135302 0.111299
0.241398 0.140352 0.114839
0.262287 0.144747 0.117845
0.283558 0.14844 0.120272
0.305074 0.151415 0.122133
0.326665 0.153643 0.1234
0.348135 0.155108 0.124102
0.369284 0.15581 0.124254
0.390112 0.155795 0.123888
0.411704 0.15552 0.123293
0.434256 0.155047 0.122484
0.457816 0.15436 0.121477
0.482414 0.153445 0.120241
0.508064 0.1523 0.118791
0.534798 0.150927 0.117113
0.562646 0.149325 0.11519
0.591623 0.147448 0.113024
0.621759 0.145327 0.110613
0.653101 0.142947 0.107927
0.0509346 0.0589303 0.0488136
0.0601205 0.0673838 0.0557565
0.070161 0.0759899 0.0627298
0.0810559 0.0846418 0.0696574
0.0927901 0.0932631 0.076463
0.105394 0.101778 0.0830854
0.118853 0.110094 0.0894484
0.13315 0.11812 0.0955062
0.148272 0.125795 0.101198
0.164187 0.133028 0.106462
0.180819 0.139773 0.111284
0.198108 0.145968 0.115618
0.215991 0.151522 0.119432
0.234363 0.15642 0.122683
0.253101 0.160601 0.125399
0.272053 0.164034 0.127535
0.291096 0.166674 0.129107
0.310048 0.168536 0.130114
0.328725 0.169589 0.130556
0.347478 0.170047 0.130602
0.367117 0.170336 0.130449
0.387701 0.170428 0.130114
0.409232 0.170306 0.12958
0.431739 0.169986 0.128847
0.455253 0.169451 0.127901
0.479835 0.168704 0.126726
0.50544 0.167712 0.125353
0.532143 0.166491 0.123735
0.559976 0.165042 0.121874
0.588937 0.163317 0.119768
0.619074 0.161349 0.117403
0.650416 0.159106 0.114794
0.682963 0.156603 0.11191
0.0756085 0.0907454 0.0715343
0.0857862 0.0998703 0.0784772
0.0967117 0.108904 0.0852369
0.108354 0.117723 0.0917525
0.120745 0.126268 0.0979477
0.133837 0.134447 0.103792
0.147601 0.142199 0.109239
0.16202 0.149447 0.114244
0.177035 0.156115 0.118761
0.192569 0.162158 0.122774
0.208545 0.167514 0.126253
0.224857 0.172122 0.129198
0.241398 0.175967 0.131579
0.258015 0.178988 0.13341
0.274586 0.181201 0.134691
0.290959 0.182559 0.135424
0.307851 0.183566 0.135882
0.325582 0.18439 0.136172
0.344198 0.185046 0.136294
0.363729 0.185504 0.136217
0.384192 0.185763 0.135943
0.405631 0.185824 0.135485
0.428046 0.185687 0.134829
0.451469 0.185321 0.133944
0.475944 0.184741 0.132845
0.501488 0.183917 0.131518
0.52813 0.182864 0.129976
0.555886 0.181567 0.128176
0.584787 0.180026 0.126131
0.614862 0.17821 0.123842
0.646143 0.176135 0.121294
0.678645 0.1738 0.118486
0.712383 0.17116 0.115404
0.0995041 0.124971 0.093019
0.110033 0.133989 0.0993057
0.121172 0.142657 0.105272
0.132891 0.150881 0.110826
0.14519 0.158587 0.115984
0.158022 0.165713 0.120653
0.171313 0.172198 0.124819
0.185016 0.177966 0.128496
0.199039 0.182971 0.131624
0.213275 0.187167 0.134234
0.227619 0.190539 0.136294
0.241947 0.193042 0.137804
0.256275 0.194781 0.138857
0.271336 0.196307 0.139712
0.28719 0.197681 0.140414
0.303899 0.198871 0.140963
0.321462 0.199893 0.141329
0.33991 0.200748 0.141512
0.359274 0.201389 0.141512
0.379583 0.201846 0.141329
0.40087 0.202106 0.140932
0.423133 0.202152 0.140337
0.446433 0.201968 0.139544
0.470771 0.201572 0.138506
0.496193 0.200931 0.137255
0.522698 0.200061 0.135775
0.550332 0.198947 0.134051
0.579126 0.197574 0.132097
0.609094 0.195956 0.12987
0.640253 0.194049 0.127398
0.672633 0.191882 0.124666
0.706264 0.189441 0.121645
0.741176 0.186709 0.118364
0.120256 0.15903 0.111208
0.130526 0.167163 0.116442
0.141268 0.174701 0.121233
0.152422 0.181582 0.125536
0.163958 0.187716 0.129351
0.175814 0.193088 0.132647
0.187884 0.197604 0.135439
0.200076 0.201266 0.137697
0.212284 0.204013 0.139422
0.224796 0.206195 0.14081
0.238041 0.208255 0.142061
0.252064 0.210147 0.14316
0.26688 0.211887 0.144106
0.282506 0.213474 0.144884
0.298985 0.214878 0.14551
0.31632 0.216114 0.145953
0.334569 0.217166 0.146212
0.353719 0.218021 0.146304
0.373831 0.218692 0.146181
0.394919 0.21915 0.145876
0.416999 0.219394 0.145357
0.440101 0.219409 0.144625
0.464256 0.219211 0.143679
0.489494 0.218784 0.142504
0.515831 0.218097 0.1411
0.543297 0.217182 0.139452
0.571908 0.216007 0.137575
0.601709 0.214572 0.135439
0.6327 0.212863 0.133043
0.664927 0.210895 0.130388
0.69839 0.208637 0.127459
0.73312 0.206104 0.124269
0.769039 0.203296 0.120836
0.13611 0.190265 0.124849
0.145586 0.196735 0.128771
0.155367 0.202411 0.132204
0.165393 0.207218 0.135149
0.175555 0.211109 0.137591
0.185809 0.214115 0.139544
0.196597 0.2168 0.141268
0.208087 0.219364 0.142885
0.220295 0.22179 0.14435
0.233265 0.224063 0.145678
0.246998 0.2262 0.146868
0.261524 0.228168 0.14789
0.276875 0.229969 0.14876
0.29308 0.231601 0.149462
0.31017 0.233066 0.149996
0.328145 0.234333 0.150332
0.347051 0.235416 0.1505
0.366918 0.236286 0.150469
0.387747 0.236957 0.15024
0.409598 0.237415 0.149798
0.432471 0.237659 0.149157
0.456397 0.237675 0.148287
0.481392 0.237446 0.147189
0.5075 0.236988 0.145876
0.534752 0.236271 0.14432
0.563134 0.235309 0.142519
0.592706 0.234089 0.140475
0.623484 0.232593 0.13817
0.655482 0.230823 0.135607
0.688624 0.228809 0.13283
0.72311 0.22649 0.129732
0.758892 0.223865 0.126375
0.795972 0.220951 0.122728
0.145998 0.21593 0.133349
0.154253 0.220035 0.135943
0.162737 0.223362 0.13814
0.171847 0.226551 0.1402
0.181598 0.229618 0.142153
0.192035 0.232547 0.143969
0.203174 0.235355 0.145663
0.215045 0.238025 0.147234
0.227665 0.240558 0.148638
0.241062 0.242924 0.149905
0.255268 0.245136 0.151019
0.270314 0.247181 0.15198
0.286198 0.249042 0.152758
0.302968 0.250736 0.153368
0.320653 0.252247 0.153811
0.339254 0.253559 0.154055
0.358816 0.254673 0.154101
0.37937 0.255573 0.153964
0.400916 0.25626 0.153613
0.423499 0.256733 0.153048
0.44715 0.256962 0.15227
0.47187 0.256977 0.151278
0.497704 0.256733 0.150042
0.524666 0.256245 0.148577
0.552789 0.255512 0.146883
0.582071 0.254505 0.144945
0.612497 0.253254 0.142779
0.64419 0.251728 0.140322
0.677134 0.249912 0.137621
0.711345 0.247807 0.13463
0.746838 0.245411 0.13138
0.783642 0.242725 0.127855
0.821775 0.239734 0.124025
0.150637 0.235416 0.137575
0.158679 0.238972 0.139834
0.167376 0.24242 0.142
0.17673 0.245747 0.14403
0.18677 0.248951 0.145937
0.197528 0.252018 0.147723
0.209003 0.254932 0.149371
0.221256 0.25771 0.150881
0.234272 0.260349 0.152224
0.248112 0.262806 0.153429
0.262791 0.26511 0.154467
0.278309 0.267231 0.155337
0.294728 0.269169 0.156039
0.312062 0.270924 0.156573
0.330312 0.27248 0.156909
0.349538 0.273838 0.157046
0.369741 0.274983 0.157
0.390967 0.275914 0.156741
0.413214 0.276616 0.156268
0.43653 0.277104 0.155596
0.460929 0.277348 0.154696
0.486442 0.277348 0.153552
0.513024 0.277104 0.152239
0.540795 0.276616 0.150652
0.569757 0.275853 0.148821
0.599908 0.27483 0.146731
0.631266 0.273533 0.144396
0.66389 0.271946 0.141802
0.697765 0.270085 0.138933
0.732921 0.267933 0.135805
0.76939 0.265492 0.132387
0.807187 0.262745 0.128695
0.846326 0.259678 0.124727
0.154086 0.255192 0.140734
0.162325 0.258915 0.142977
0.171221 0.262516 0.145098
0.180835 0.26598 0.147112
0.19115 0.269322 0.148974
0.202197 0.272526 0.150713
0.214023 0.275563 0.1523
0.226627 0.278462 0.15375
0.240055 0.281193 0.155047
0.254307 0.283757 0.156176
0.269444 0.286137 0.157137
0.285451 0.288334 0.157931
0.302388 0.290349 0.158556
0.320256 0.292165 0.158984
0.339086 0.293782 0.159228
0.358907 0.295186 0.159274
0.379736 0.296376 0.159106
0.401617 0.297337 0.158755
0.424552 0.29807 0.158175
0.448539 0.298573 0.157427
0.473655 0.298833 0.156405
0.499901 0.298848 0.155169
0.527306 0.298604 0.153689
0.555871 0.2981 0.151965
0.585657 0.297322 0.150011
0.616648 0.296269 0.147799
0.648875 0.294942 0.145327
0.682383 0.293339 0.14258
0.717159 0.291447 0.139574
0.753246 0.28925 0.136309
0.790661 0.286748 0.132753
0.829419 0.28394 0.128908
0.869535 0.280827 0.124773
0.15668 0.27602 0.143084
0.165103 0.279911 0.145296
0.174212 0.283665 0.147387
0.184054 0.287297 0.149355
0.194629 0.290776 0.151186
0.205982 0.294102 0.152865
0.218128 0.297276 0.154406
0.231083 0.300282 0.155795
0.244892 0.303136 0.157031
0.259571 0.305791 0.158083
0.275151 0.308263 0.158984
0.29163 0.310552 0.159701
0.309056 0.312642 0.160235
0.327459 0.314534 0.160571
0.346853 0.316197 0.160723
0.367239 0.317662 0.160723
0.388678 0.318898 0.160479
0.411185 0.31989 0.160021
0.434775 0.320668 0.15935
0.459464 0.321187 0.15845
0.485298 0.321462 0.157336
0.512276 0.321477 0.155978
0.540429 0.321233 0.154391
0.569772 0.320729 0.152544
0.600351 0.319951 0.150469
0.632151 0.318883 0.148119
0.665232 0.31754 0.145525
0.69958 0.315908 0.142657
0.735241 0.313985 0.139513
0.772229 0.311742 0.13611
0.810559 0.309209 0.132403
0.850248 0.306355 0.12842
0.89134 0.303181 0.124147
0.158358 0.297948 0.144549
0.166934 0.302007 0.146731
0.176257 0.305928 0.148791
0.186313 0.309712 0.150713
0.197162 0.313329 0.152499
0.208789 0.316808 0.154147
0.221256 0.320104 0.155627
0.234562 0.323232 0.156954
0.248737 0.326177 0.158129
0.263828 0.328954 0.159121
0.27982 0.331518 0.159945
0.296773 0.333898 0.160586
0.314702 0.336065 0.161089
0.333608 0.338018 0.161364
0.353536 0.339757 0.16144
0.374502 0.341268 0.161318
0.396521 0.34255 0.160983
0.419638 0.343603 0.160433
0.44387 0.344396 0.15967
0.46923 0.344961 0.158679
0.495735 0.345251 0.157458
0.52343 0.345281 0.155993
0.552316 0.345052 0.154299
0.582406 0.344549 0.152346
0.613748 0.343771 0.150149
0.646357 0.342702 0.147692
0.680247 0.341344 0.144976
0.715434 0.339696 0.141985
0.751949 0.337728 0.13872
0.789807 0.33547 0.13518
0.829023 0.332891 0.13135
0.869642 0.330007 0.127214
0.91165 0.326787 0.122805
0.159045 0.321004 0.145068
0.167788 0.325231 0.147219
0.177279 0.32932 0.149248
0.187564 0.333257 0.151141
0.198657 0.337026 0.15288
0.210559 0.340627 0.154467
0.223331 0.34406 0.155917
0.236973 0.347311 0.157183
0.25153 0.350378 0.158297
0.267018 0.353246 0.159289
0.283436 0.355917 0.160052
0.300832 0.358373 0.160632
0.319219 0.360632 0.161028
0.338628 0.362661 0.161242
0.359075 0.364462 0.161242
0.380591 0.366049 0.161044
0.403189 0.367376 0.160616
0.426902 0.368475 0.159991
0.451759 0.369314 0.159136
0.477745 0.369909 0.158053
0.504921 0.37023 0.156741
0.533303 0.370291 0.155184
0.56289 0.370077 0.153384
0.593729 0.369574 0.151339
0.625818 0.368795 0.149035
0.65919 0.367727 0.146471
0.693874 0.366369 0.143633
0.72987 0.364706 0.14052
0.767224 0.362722 0.137133
0.80592 0.360433 0.133471
0.846021 0.357839 0.129503
0.88751 0.35491 0.125246
0.930434 0.351644 0.120699
0.158679 0.345205 0.144579
0.167575 0.349599 0.146715
0.177249 0.353857 0.148714
0.187747 0.357946 0.150561
0.199069 0.361868 0.15227
0.211276 0.365606 0.153872
0.224338 0.369162 0.155276
0.238315 0.372549 0.156512
0.253208 0.375723 0.15758
0.269062 0.378698 0.15848
0.285893 0.381476 0.159182
0.303716 0.384024 0.159716
0.32256 0.386374 0.160052
0.342458 0.388479 0.160189
0.363409 0.390356 0.160128
0.385458 0.392004 0.159854
0.408621 0.393393 0.159365
0.432914 0.394537 0.158663
0.458351 0.395438 0.157733
0.484977 0.396063 0.156573
0.512795 0.396414 0.155169
0.541833 0.396506 0.153521
0.572122 0.396307 0.151629
0.603662 0.395834 0.149477
0.636484 0.395056 0.147066
0.670604 0.394003 0.144396
0.70605 0.39263 0.141451
0.74284 0.390951 0.138231
0.781003 0.388968 0.134737
0.820539 0.386664 0.130938
0.861479 0.384039 0.126848
0.903853 0.381079 0.122469
0.947662 0.377783 0.117784
0.157229 0.37055 0.143038
0.166247 0.375143 0.145159
0.176135 0.379538 0.147173
0.186831 0.383795 0.14902
0.198398 0.387869 0.150698
0.210834 0.391745 0.152224
0.224186 0.395453 0.153597
0.238468 0.398947 0.154803
0.253712 0.402243 0.15584
0.269932 0.405341 0.156695
0.287144 0.408209 0.157366
0.305394 0.410864 0.157839
0.324681 0.413306 0.158129
0.345037 0.415488 0.158206
0.366491 0.417456 0.158083
0.389044 0.419165 0.157748
0.412741 0.420615 0.157198
0.437598 0.42182 0.15642
0.46363 0.422766 0.155413
0.490852 0.423438 0.154177
0.519295 0.423835 0.152682
0.548989 0.423957 0.150958
0.579934 0.423789 0.148974
0.612161 0.423331 0.146731
0.645685 0.422568 0.144228
0.680552 0.421515 0.141451
0.716747 0.420157 0.138415
0.754314 0.418479 0.135073
0.793256 0.41648 0.131456
0.833616 0.41416 0.12755
0.87538 0.411521 0.123339
0.918608 0.40853 0.118822
0.963302 0.405219 0.114
0.154681 0.39707 0.140475
0.163851 0.401831 0.142596
0.173861 0.406424 0.144564
0.184756 0.410834 0.14638
0.196521 0.415045 0.148043
0.209216 0.419089 0.149554
0.222843 0.422919 0.150896
0.23743 0.426551 0.152071
0.252995 0.429969 0.153079
0.269566 0.433173 0.153903
0.287175 0.436164 0.154528
0.305821 0.438911 0.154971
0.325536 0.441444 0.1552
0.346334 0.443717 0.155245
0.368261 0.445762 0.155062
0.391318 0.447547 0.154681
0.415534 0.449073 0.154055
0.440925 0.45034 0.153216
0.467521 0.451331 0.152148
0.495338 0.452049 0.150835
0.524392 0.452491 0.149264
0.554696 0.452644 0.147463
0.586297 0.452522 0.145388
0.619196 0.452079 0.143053
0.653422 0.451347 0.140459
0.688975 0.450309 0.137591
0.725917 0.448951 0.134432
0.764233 0.447288 0.130999
0.803952 0.445289 0.12726
0.845136 0.442954 0.123186
0.887724 0.440299 0.118883
0.931762 0.437293 0.11426
0.97731 0.433951 0.1093
0.150942 0.424781 0.136782
0.160235 0.429725 0.138888
0.170413 0.434485 0.140856
0.181476 0.439048 0.142657
0.193469 0.443427 0.14432
0.206394 0.447608 0.145815
0.220279 0.451591 0.147143
0.235157 0.455344 0.148302
0.251041 0.4589 0.149279
0.267948 0.462226 0.150072
0.285908 0.465324 0.150668
0.304952 0.468177 0.151064
0.325078 0.470802 0.151263
0.346319 0.473167 0.151263
0.368688 0.475288 0.151034
0.392233 0.477165 0.150591
0.416953 0.478752 0.14992
0.442863 0.480095 0.14902
0.469993 0.481147 0.147875
0.498375 0.481926 0.146502
0.528023 0.482414 0.144869
0.558938 0.482612 0.142977
0.591165 0.482521 0.140826
0.62472 0.482124 0.138415
0.659617 0.481407 0.135714
0.695872 0.480385 0.132753
0.733547 0.479042 0.129458
0.772595 0.477378 0.125917
0.813062 0.475395 0.122087
0.854978 0.47306 0.117952
0.89836 0.47039 0.113527
0.943236 0.467384 0.108751
0.989609 0.464012 0.103685
0.146029 0.453696 0.13193
0.155428 0.458808 0.134051
0.165743 0.463752 0.136019
0.176989 0.468482 0.137835
0.189166 0.47303 0.139483
0.202319 0.477348 0.140978
0.216464 0.481468 0.14229
0.231617 0.485374 0.143435
0.247791 0.489052 0.144396
0.265034 0.4925 0.145159
0.28333 0.495705 0.145739
0.302739 0.49868 0.146105
0.323262 0.501396 0.146273
0.344915 0.503868 0.146227
0.367742 0.506081 0.145953
0.391745 0.508034 0.145464
0.416938 0.509712 0.144747
0.443366 0.511116 0.143786
0.471015 0.51223 0.14258
0.499947 0.513069 0.141131
0.530159 0.513619 0.139422
0.561669 0.513863 0.137469
0.594522 0.513817 0.135225
0.628702 0.513451 0.132692
0.664256 0.512764 0.129931
0.701183 0.511772 0.126864
0.739528 0.51046 0.123522
0.779293 0.508797 0.119875
0.820508 0.506813 0.115923
0.863172 0.504494 0.111696
0.907317 0.501823 0.107164
0.952987 0.498802 0.102281
1 0.49543 0.0971389
0.139879 0.483818 0.125933
0.149401 0.489113 0.128069
0.159838 0.494224 0.130037
0.171237 0.499138 0.131868
0.183612 0.503838 0.133516
0.196979 0.508324 0.135012
0.211353 0.512581 0.136324
0.226749 0.516625 0.137453
0.243214 0.520439 0.138399
0.260761 0.52401 0.139147
0.279408 0.527337 0.139696
0.299168 0.530419 0.140047
0.320058 0.533257 0.140169
0.342123 0.535821 0.140093
0.365362 0.538125 0.139788
0.389807 0.540169 0.139254
0.415473 0.541924 0.138476
0.442374 0.543404 0.137453
0.470542 0.54461 0.136202
0.500008 0.54551 0.13463
0.53077 0.54612 0.132876
0.56286 0.54641 0.130846
0.596292 0.54641 0.128542
0.631098 0.54609 0.125963
0.667277 0.545449 0.123095
0.704875 0.544472 0.119951
0.743877 0.543191 0.116533
0.784314 0.541558 0.112825
0.826246 0.53959 0.108766
0.869627 0.53727 0.104463
0.914488 0.534615 0.0998703
0.960845 0.531609 0.0949874
1 0.528237 0.0898146
0.132494 0.51516 0.118746
0.142107 0.520653 0.120882
0.152667 0.525933 0.122881
0.164218 0.531014 0.124727
0.176745 0.535882 0.12639
0.190311 0.54052 0.127886
0.204898 0.544945 0.129183
0.220554 0.549126 0.130312
0.237293 0.553063 0.131243
0.255116 0.556771 0.131991
0.274067 0.560235 0.132509
0.294163 0.563439 0.13283
0.315435 0.566369 0.132937
0.337865 0.569055 0.132815
0.361517 0.571466 0.132479
0.386374 0.573587 0.131899
0.412482 0.575448 0.131029
0.439872 0.577005 0.129976
0.468528 0.578271 0.128664
0.498512 0.579248 0.127092
0.529809 0.579919 0.125246
0.562448 0.580285 0.12314
0.59646 0.580316 0.120775
0.631846 0.580041 0.118135
0.66865 0.579446 0.11519
0.706859 0.578515 0.111986
0.746517 0.577249 0.108507
0.78761 0.575647 0.104753
0.830167 0.573709 0.10074
0.874205 0.57142 0.0964218
0.919707 0.56878 0.0918441
0.966705 0.565789 0.0869917
1 0.562448 0.0818647
0.123842 0.547738 0.110323
0.133516 0.553414 0.11249
0.144198 0.558877 0.114519
0.155856 0.564141 0.116365
0.168551 0.569177 0.118044
0.182284 0.573983 0.119539
0.197086 0.578546 0.120851
0.21297 0.582879 0.121981
0.229953 0.586969 0.122896
0.248066 0.590814 0.123629
0.267308 0.5944 0.124132
0.287724 0.597726 0.124437
0.3093 0.600793 0.124468
0.332113 0.603586 0.124331
0.356146 0.606088 0.123949
0.38143 0.608331 0.123339
0.40798 0.610269 0.122469
0.435813 0.611917 0.121355
0.464942 0.61326 0.119982
0.495415 0.614313 0.118364
0.52723 0.615045 0.116503
0.560403 0.615473 0.114321
0.594965 0.615564 0.11191
0.63093 0.615351 0.109239
0.668315 0.614786 0.10631
0.707118 0.613901 0.10312
0.747356 0.612665 0.0996719
0.789059 0.611109 0.0959487
0.832212 0.609186 0.0919661
0.876829 0.606943 0.0877241
0.922927 0.604334 0.083238
0.970489 0.601373 0.0784924
1 0.598077 0.0735027
0.113863 0.581552 0.100633
0.123613 0.587427 0.102846
0.134371 0.593088 0.104891
0.146151 0.59852 0.106752
0.158984 0.603738 0.108446
0.172885 0.608698 0.109957
0.187869 0.613443 0.111269
0.203952 0.617929 0.112398
0.22118 0.622156 0.113313
0.239506 0.626154 0.113985
0.259052 0.629877 0.114488
0.279774 0.633326 0.114778
0.301701 0.636515 0.114839
0.324849 0.639414 0.114656
0.349248 0.642039 0.114229
0.374929 0.644373 0.113588
0.401892 0.646403 0.112703
0.430167 0.648142 0.111574
0.459754 0.649577 0.11014
0.490715 0.65069 0.108507
0.523018 0.651499 0.10663
0.556725 0.651972 0.104494
0.591821 0.65214 0.102113
0.628321 0.651957 0.0994888
0.666239 0.651453 0.0966201
0.705608 0.650614 0.093492
0.746395 0.649424 0.0901198
0.788647 0.647898 0.0865187
0.832349 0.646036 0.0826734
0.877501 0.643824 0.078584
0.924102 0.64126 0.0742809
0.972152 0.638361 0.0697337
1 0.635111 0.0649729
0.102556 0.616632 0.0896468
0.112337 0.622705 0.0918898
0.123171 0.628565 0.0939651
0.135042 0.63418 0.0958572
0.147997 0.639567 0.0975509
0.162036 0.644709 0.0990768
0.177157 0.649622 0.100359
0.193454 0.654276 0.101488
0.210895 0.658656 0.102419
0.229496 0.662791 0.10312
0.249287 0.666651 0.103609
0.270298 0.670237 0.103868
0.292546 0.673533 0.103914
0.316045 0.676555 0.103746
0.34078 0.679301 0.103288
0.366842 0.681727 0.102632
0.394217 0.683864 0.101747
0.422934 0.685679 0.100633
0.452995 0.68719 0.0992905
0.484413 0.68838 0.0977035
0.517205 0.68925 0.0958724
0.5514 0.689784 0.0938277
0.587015 0.689998 0.0915389
0.624018 0.689876 0.0890211
0.66247 0.689418 0.0862745
0.702327 0.688624 0.0833143
0.743633 0.687495 0.0801251
0.786389 0.686015 0.0767224
0.830564 0.684199 0.0730907
0.876173 0.682033 0.069276
0.923217 0.67953 0.0652323
0.971679 0.676692 0.0610361
1 0.673518 0.0565957
0.0898451 0.652995 0.0773175
0.0996567 0.659281 0.0795911
0.110491 0.665354 0.0816358
0.122469 0.671153 0.0835584
0.135531 0.676722 0.0852979
0.149706 0.682033 0.0868391
0.165026 0.687099 0.0881819
0.181476 0.69192 0.0892958
0.199115 0.696468 0.0902266
0.21796 0.70074 0.0909438
0.238025 0.704723 0.0914626
0.259281 0.708461 0.0916915
0.281834 0.711879 0.0917525
0.305669 0.715023 0.0915999
0.330816 0.717845 0.0912337
0.357259 0.720378 0.0906386
0.385046 0.722591 0.0898299
0.414191 0.724498 0.0887922
0.444694 0.72607 0.087541
0.47657 0.727337 0.0860761
0.50985 0.728267 0.0843977
0.544533 0.728862 0.0825055
0.580606 0.729122 0.0803998
0.618112 0.729061 0.0780804
0.657038 0.728649 0.0755627
0.697383 0.727901 0.0728466
0.739147 0.726818 0.0699321
0.78233 0.725399 0.0668345
0.826932 0.723629 0.0635691
0.872953 0.721538 0.0600748
0.920378 0.719097 0.0563973
0.969192 0.716335 0.0525368
1 0.713237 0.0484932
0.0756695 0.690669 0.0635691
