assets/cube/green_day_01.cube
TITLE "Generated by Resolve"
LUT_3D_SIZE 9
0 0 0
0 0 0
0.0981308 0 0
0.21323 0 0
0.326772 0 0
0.439338 0 0
0.551156 0 0
0.662409 0 0
0.773175 0 0
0 0.00907912 0
0 0.0102998 0
0.113039 0.0119478 0
0.228031 0.0145876 0
0.341527 0.0176394 0
0.454047 0.0209506 0
0.56585 0.0244602 0
0.677073 0.0281376 0
0.787823 0.0319219 0
0 0.128206 0
0.0087892 0.12929 0
0.126955 0.131075 0
0.241856 0.133761 0
0.355291 0.136828 0
0.467765 0.140154 0
0.579538 0.143664 0
0.69073 0.147341 0
0.801465 0.151156 0
0 0.247593 0
0.0223392 0.248615 0
0.140215 0.250477 0
0.255024 0.253178 0
0.368414 0.25626 0
0.480858 0.259586 0
0.592599 0.263127 0
0.703777 0.266804 0
0.814481 0.270619 0
0 0.367117 0
0.0354467 0.368093 0
0.153124 0.370016 0
0.267857 0.372732 0
0.381216 0.37583 0
0.493629 0.379171 0
0.605341 0.382712 0
0.716487 0.386404 0
0.827176 0.390219 0
0 0.486717 0
0.0482948 0.487663 0
0.165789 0.489647 0
0.280476 0.492378 0
0.393774 0.495491 0
0.506157 0.498848 0
0.617838 0.502388 0
0.728969 0.506081 0
0.839643 0.509911 0
0 0.606378 0
0.0609293 0.60734 0
0.178286 0.609339 0
0.292897 0.6121 0
0.406165 0.615213 0
0.518517 0.618585 0
0.630182 0.622141 0
0.741299 0.625849 0
0.851942 0.629679 0
0 0.726116 0
0.0733959 0.727062 0
0.190631 0.729107 0
0.30518 0.731884 0
0.418418 0.735012 0
0.530739 0.738384 0
0.642374 0.741955 0
0.753475 0.745663 0
0.864118 0.749493 0
0 0.845869 0
0.0857252 0.84686 0
0.202853 0.848936 0
0.317357 0.851713 0
0.430549 0.854856 0
0.54284 0.858244 0
0.654459 0.861814 0
0.765545 0.865538 0
0.876158 0.869383 0
0 0 0
0 0 0
0.100389 0 0
0.215457 0 0
0.329015 0 0
0.441581 0 0
0.553414 0 0
0.664668 0 0
0.775433 0 0
0 0.0113222 0
0 0.0125277 0
0.115312 0.0141909 0
0.230304 0.016846 0
0.343801 0.019913 0
0.456336 0.0232395 0
0.568139 0.0267643 0
0.679377 0.0304417 0
0.790143 0.0342565 0
0 0.13048 0
0.0111543 0.131563 0
0.129274 0.133379 0
0.244175 0.136065 0
0.35761 0.139147 0
0.470115 0.142489 0
0.581903 0.146044 0.00106813
0.693111 0.149737 0.00440986
0.803845 0.153552 0.00791943
0 0.249928 0
0.0247349 0.25095 0
0.142596 0.252842 0.00151064
0.25742 0.255558 0.00393683
0.370809 0.258656 0.00674449
0.483268 0.262013 0.00984207
0.59501 0.265553 0.0131228
0.706188 0.269245 0.0165713
0.816907 0.27306 0.0201572
0 0.369512 0.0106203
0.0379187 0.370489 0.0114595
0.155566 0.372427 0.0132296
0.270298 0.375158 0.0157473
0.383642 0.378256 0.0186465
0.496056 0.381613 0.0217899
0.607782 0.385168 0.0251316
0.718929 0.388861 0.0286259
0.829618 0.392676 0.0322576
0 0.489143 0.0222934
0.050782 0.490105 0.0231479
0.168261 0.492088 0.024979
0.282933 0.494835 0.0275578
0.396231 0.497948 0.0305028
0.508614 0.501305 0.0336767
0.620295 0.50486 0.0370642
0.731426 0.508553 0.040589
0.8421 0.512383 0.0442359
0 0.608835 0.0339513
0.0634165 0.609781 0.0348058
0.180758 0.611811 0.0366979
0.295369 0.614557 0.0393072
0.408621 0.617685 0.0422827
0.520974 0.621057 0.0454871
0.632639 0.624613 0.0488899
0.743755 0.628321 0.0524453
0.854398 0.632151 0.0561074
0 0.728573 0.0455329
0.0758984 0.729534 0.0464179
0.193118 0.731579 0.0483558
0.307652 0.734356 0.0509957
0.420874 0.737484 0.0539864
0.533196 0.740856 0.0572213
0.644831 0.744411 0.0606546
0.755917 0.748119 0.06421
0.866545 0.751965 0.0679026
0 0.848325 0.0570687
0.0882124 0.849317 0.0579843
0.205325 0.851392 0.0599527
0.319814 0.85417 0.062623
0.43299 0.857313 0.0656443
0.545281 0.8607 0.0689097
0.656901 0.864271 0.072343
0.767971 0.867979 0.0759289
0.878584 0.871824 0.0796368
0 0 0.0579995
0 0 0.0592203
0.102861 0 0.0607156
0.217929 0 0.0632486
0.331456 0 0.0661784
0.444007 0 0.0693675
0.55584 0 0.0727703
0.667079 0 0.0763104
0.777844 0 0.0800031
0 0.0137484 0.0721447
0 0.0149233 0.0732738
0.117784 0.0166171 0.0748913
0.232746 0.0192721 0.0774548
0.346227 0.0223239 0.080415
0.458747 0.0256504 0.08365
0.570535 0.02916 0.087068
0.681758 0.0328374 0.0906386
0.792508 0.0366217 0.0943313
0 0.132891 0.08542
0.0136263 0.133944 0.0864271
0.131685 0.13576 0.0881666
0.246571 0.138445 0.0907607
0.359991 0.141512 0.0937362
0.472465 0.144854 0.0969863
0.584222 0.148363 0.100404
0.695415 0.152041 0.10399
0.806134 0.155856 0.107698
0 0.252277 0.0981003
0.0271305 0.253285 0.0990463
0.144945 0.255161 0.100862
0.259739 0.257862 0.103487
0.373114 0.260945 0.106493
0.485542 0.264286 0.109743
0.597284 0.267826 0.113176
0.708446 0.271504 0.116777
0.819135 0.275319 0.1205
0 0.371786 0.110491
0.040238 0.372763 0.111406
0.157855 0.374701 0.113283
0.272572 0.377417 0.115923
0.385901 0.380514 0.118944
0.498299 0.383856 0.12221
0.609995 0.387396 0.125658
0.721141 0.391089 0.129274
0.831815 0.394903 0.132998
0 0.491386 0.122667
0.0530556 0.492332 0.123568
0.170504 0.494316 0.12549
0.285161 0.497063 0.128161
0.398444 0.50016 0.131197
0.510811 0.503517 0.134478
0.622492 0.507057 0.137957
0.733608 0.510765 0.141573
0.844266 0.51458 0.145312
0 0.611048 0.134707
0.0656748 0.611994 0.135607
0.182986 0.614008 0.137575
0.297566 0.61677 0.140261
0.410819 0.619883 0.143313
0.523156 0.62324 0.146609
0.634806 0.626795 0.150088
0.745907 0.630503 0.153719
0.85655 0.634318 0.157473
0 0.730755 0.146624
0.0781109 0.731701 0.147539
0.1953 0.733761 0.149538
0.309834 0.736522 0.152239
0.423041 0.739651 0.155306
0.535348 0.743023 0.158618
0.646983 0.746578 0.162112
0.758053 0.750286 0.165743
0.868681 0.754116 0.169512
0 0.850492 0.158419
0.0904097 0.851469 0.159365
0.207492 0.853544 0.16141
0.321981 0.856336 0.164126
0.435142 0.85948 0.167208
0.547417 0.862852 0.170535
0.659022 0.866423 0.174029
0.770092 0.87013 0.177676
0.88069 0.87396 0.181445
0 0 0.157855
0 0 0.159106
0.105165 0 0.160662
0.220203 0 0.163241
0.33373 0 0.166232
0.446281 0 0.169497
0.558083 0 0.172946
0.669322 0 0.176562
0.780072 0 0.180301
0 0.0159915 0.172274
0.00164797 0.0171511 0.173404
0.120058 0.0188602 0.175097
0.235004 0.0215152 0.177722
0.348486 0.024567 0.180728
0.46099 0.0278935 0.184009
0.572778 0.0314031 0.187488
0.683986 0.0350652 0.191119
0.79472 0.0388647 0.194873
0 0.135119 0.185779
0.0159304 0.136172 0.186801
0.133959 0.137987 0.188586
0.248814 0.140673 0.191226
0.362219 0.14374 0.194263
0.474678 0.147066 0.197559
0.586435 0.150591 0.201038
0.697612 0.154269 0.204669
0.808331 0.158068 0.208423
0 0.25449 0.198657
0.0294194 0.255482 0.199619
0.147189 0.257374 0.20148
0.261967 0.260075 0.20415
0.375326 0.263172 0.207202
0.487755 0.266499 0.210498
0.599481 0.270039 0.213977
0.710628 0.273716 0.217624
0.821332 0.277516 0.221393
0 0.373999 0.211215
0.0424964 0.37496 0.212161
0.160067 0.376898 0.214069
0.274784 0.379614 0.216754
0.388098 0.382712 0.219821
0.500496 0.386069 0.223133
0.612192 0.389593 0.226627
0.723323 0.393286 0.230274
0.833997 0.397101 0.234043
0 0.493584 0.22356
0.0552987 0.49453 0.224491
0.172717 0.496513 0.226444
0.287358 0.499245 0.22916
0.400641 0.502358 0.232227
0.512993 0.505714 0.235554
0.624659 0.509255 0.239063
0.735775 0.512947 0.24271
0.846433 0.516762 0.246494
0 0.61323 0.235752
0.0678874 0.614176 0.236667
0.185183 0.61619 0.238666
0.299763 0.618952 0.241398
0.413001 0.622065 0.24448
0.525322 0.625422 0.247822
0.636973 0.628977 0.251331
0.748058 0.63267 0.254994
0.858701 0.6365 0.258793
0 0.732921 0.247791
0.0803082 0.733883 0.248737
0.197482 0.735927 0.250767
0.312016 0.738705 0.253513
0.425208 0.741833 0.256611
0.537514 0.74519 0.259953
0.649134 0.748745 0.263478
0.760204 0.752453 0.267155
0.870817 0.756283 0.270954
0 0.852644 0.259724
0.092607 0.853635 0.2607
0.209674 0.855711 0.26276
0.324132 0.858503 0.265522
0.437293 0.861631 0.268635
0.549569 0.865019 0.271992
0.661173 0.868574 0.275517
0.772229 0.872282 0.27921
0.882826 0.876112 0.283009
0 0 0.258625
0 0 0.259876
0.107393 0 0.261463
0.222431 0 0.264088
0.335943 0 0.267109
0.448478 0 0.270405
0.560281 0 0.273884
0.671504 0 0.277531
0.782254 0 0.281315
0 0.0181888 0.273182
0.00395209 0.0193027 0.274311
0.122286 0.0210422 0.276051
0.237217 0.0236973 0.278691
0.350683 0.0267643 0.281743
0.463172 0.0300755 0.285054
0.57496 0.0335851 0.288563
0.686168 0.0372473 0.292226
0.796887 0.0410468 0.29601
0 0.137301 0.286809
0.0181888 0.138338 0.287831
0.136156 0.140169 0.289662
0.250996 0.142855 0.292332
0.364401 0.145922 0.295399
0.47686 0.149248 0.298711
0.588602 0.152773 0.30222
0.699779 0.156451 0.305882
0.810483 0.16025 0.309682
0 0.256672 0.299794
0.0316472 0.257649 0.300771
0.149386 0.259556 0.302663
0.264149 0.262257 0.305364
0.377493 0.265339 0.308431
0.489921 0.268681 0.311757
0.601633 0.272206 0.315282
0.712795 0.275883 0.318944
0.823468 0.279683 0.322744
0 0.37615 0.312474
0.0447089 0.377111 0.31342
0.162264 0.379065 0.315358
0.276951 0.381781 0.318074
0.390265 0.384878 0.321157
0.502647 0.38822 0.324498
0.614328 0.39176 0.328023
0.72546 0.395453 0.331701
0.836133 0.399252 0.3355
0 0.495735 0.32491
0.057496 0.496681 0.325856
0.174899 0.498665 0.32784
0.289525 0.501411 0.330571
0.402792 0.504509 0.333669
0.515145 0.507866 0.337011
0.62681 0.511406 0.340551
0.737911 0.515099 0.344228
0.848569 0.518914 0.348043
0 0.615366 0.337194
0.0700694 0.616312 0.33814
0.18735 0.618341 0.340154
0.301915 0.621088 0.342901
0.415137 0.624216 0.346014
0.527459 0.627573 0.349371
0.639109 0.631128 0.352911
0.750195 0.634821 0.356603
0.860822 0.638636 0.360418
0 0.735058 0.349325
0.0824903 0.736019 0.350286
0.199649 0.738064 0.352346
0.314153 0.740841 0.355108
0.427344 0.743969 0.358236
0.539635 0.747341 0.361593
0.651255 0.750896 0.365148
0.762325 0.754589 0.368841
0.872938 0.758419 0.372671
0 0.854765 0.361349
0.0947738 0.855772 0.362341
0.211826 0.857847 0.364416
0.326268 0.860639 0.367208
0.439429 0.863767 0.370336
0.55169 0.867155 0.373709
0.663294 0.87071 0.377264
0.774334 0.874418 0.380972
0.884932 0.878248 0.384802
0 0 0.359884
0 0 0.361135
0.10959 0 0.362753
0.224598 0 0.365408
0.338109 0 0.36846
0.450629 0 0.371771
0.562432 0 0.37528
0.673655 0 0.378958
0.784405 0 0.382757
0 0.0203403 0.374563
0.00622568 0.0214389 0.375677
0.124468 0.0231937 0.377447
0.239384 0.0258488 0.380118
0.35285 0.0289158 0.383185
0.465339 0.0322271 0.386526
0.577111 0.0357366 0.390051
0.688304 0.0393988 0.393729
0.799039 0.0431983 0.397543
0 0.139452 0.388266
0.0204166 0.140475 0.389288
0.138338 0.142321 0.391135
0.253162 0.145006 0.393835
0.366552 0.148074 0.396918
0.478996 0.1514 0.400259
0.590738 0.154925 0.403784
0.701915 0.158587 0.407477
0.812619 0.162387 0.411292
0 0.258808 0.401328
0.0338445 0.259785 0.402319
0.151553 0.261692 0.404227
0.2663 0.264393 0.406943
0.379644 0.267475 0.41004
0.492058 0.270817 0.413382
0.603769 0.274342 0.416922
0.714916 0.278019 0.420615
0.825589 0.281834 0.42443
0 0.378286 0.414069
0.046891 0.379248 0.41503
0.164416 0.381201 0.416999
0.279088 0.383917 0.41973
0.392401 0.387015 0.422827
0.504768 0.390356 0.426184
0.616464 0.393896 0.42974
0.727581 0.397589 0.433433
0.838239 0.401389 0.437263
0 0.497856 0.426596
0.0596628 0.498802 0.427543
0.177035 0.500801 0.429541
0.291661 0.503532 0.432288
0.404913 0.506645 0.435416
0.517266 0.510002 0.438788
0.628916 0.513542 0.442329
0.740032 0.517235 0.446036
0.850675 0.52105 0.449866
0 0.617487 0.438941
0.0722362 0.618433 0.439887
0.189487 0.620462 0.441932
0.304036 0.623224 0.444694
0.417258 0.626337 0.447837
0.52958 0.629709 0.451209
0.641215 0.633249 0.454765
0.7523 0.636942 0.458473
0.862928 0.640772 0.462318
0 0.737163 0.451133
0.0846418 0.738125 0.45211
0.201785 0.740185 0.454185
0.316274 0.742962 0.456962
0.429465 0.74609 0.460105
0.541741 0.749462 0.463493
0.653361 0.753017 0.467063
0.764431 0.75671 0.470787
0.875029 0.76054 0.474632
0 0.85687 0.463218
0.09691 0.857877 0.464225
0.213947 0.859968 0.466331
0.328389 0.862745 0.469123
0.441535 0.865888 0.472282
0.553796 0.869261 0.47567
0.665385 0.872831 0.479255
0.776425 0.876539 0.482979
0.887022 0.880369 0.486824
0 0 0.461509
0 0 0.462745
0.111757 0 0.464393
0.226749 0 0.467063
0.340246 0 0.47013
0.452766 0 0.473457
0.564553 0 0.476997
0.675776 0 0.48069
0.786511 0 0.484504
0 0.0224613 0.476249
0.0084535 0.0235447 0.477363
0.126635 0.0253147 0.479149
0.241535 0.027985 0.481849
0.354986 0.0310369 0.484932
0.46746 0.0343481 0.488289
0.579232 0.0378576 0.491829
0.690425 0.0415351 0.495537
0.801144 0.0453193 0.499367
0 0.141573 0.490013
0.0225986 0.14258 0.491051
0.14049 0.144442 0.492927
0.255299 0.147127 0.495628
0.368688 0.150195 0.498726
0.481117 0.153521 0.502083
0.592859 0.157046 0.505638
0.704021 0.160723 0.509346
0.814725 0.164508 0.513176
0 0.260914 0.503151
0.0360266 0.261891 0.504128
0.153689 0.263813 0.506065
0.268421 0.266514 0.508797
0.381765 0.269596 0.51191
0.494163 0.272938 0.515282
0.605875 0.276463 0.518837
0.717021 0.28014 0.522545
0.827695 0.283955 0.526375
0 0.380392 0.515953
0.0490578 0.381353 0.516915
0.166552 0.383307 0.518898
0.281209 0.386038 0.521645
0.394507 0.389136 0.524773
0.506874 0.392477 0.528145
0.618555 0.396017 0.531701
0.729686 0.399695 0.535424
0.840345 0.40351 0.539254
0 0.499962 0.528527
0.0618143 0.500908 0.529488
0.179171 0.502907 0.531502
0.293767 0.505653 0.534264
0.407019 0.508751 0.537408
0.519371 0.512108 0.54078
0.631022 0.515648 0.54435
0.742123 0.519341 0.548074
0.852766 0.523156 0.551919
0 0.619593 0.540917
0.0743877 0.620539 0.541894
0.191608 0.622568 0.543938
0.306157 0.62533 0.546731
0.419364 0.628443 0.549874
0.53167 0.631815 0.553262
0.643305 0.635355 0.556848
0.754391 0.639048 0.560571
0.865003 0.642878 0.564416
0 0.739254 0.553185
0.0867781 0.74023 0.554162
0.203891 0.74229 0.556252
0.318379 0.745068 0.559045
0.431556 0.748196 0.562203
0.543847 0.751568 0.565606
0.655451 0.755123 0.569192
0.766506 0.758816 0.572931
0.877104 0.762646 0.576776
0 0.858961 0.565301
0.0990463 0.859968 0.566339
0.216052 0.862058 0.568444
0.330495 0.864851 0.571267
0.443626 0.867994 0.574426
0.555886 0.871366 0.577844
0.66746 0.874922 0.58143
0.778515 0.87863 0.585168
0.889097 0.88246 0.589029
0 0 0.563394
0 0 0.56463
0.113909 0 0.566293
0.228885 0 0.568978
0.342367 0 0.572061
0.454871 0 0.575418
0.566659 0 0.578958
0.677882 0 0.582666
0.788617 0 0.586496
0 0.024567 0.578195
0.0106508 0.0256352 0.579293
0.128771 0.0274205 0.581125
0.243671 0.0300908 0.583825
0.357092 0.0331426 0.586938
0.469566 0.0364691 0.590295
0.581338 0.0399786 0.593866
0.692515 0.0436408 0.597574
0.803235 0.047425 0.601419
0 0.143664 0.592004
0.0247654 0.144671 0.593042
0.142611 0.146532 0.594934
0.25742 0.149233 0.597665
0.370794 0.1523 0.600778
0.483223 0.155627 0.60415
0.594949 0.159152 0.607706
0.706111 0.162829 0.611429
0.8168 0.166613 0.615274
0 0.26302 0.605188
0.0381781 0.263981 0.60618
0.15581 0.265904 0.608133
0.270527 0.26862 0.61088
0.383871 0.271702 0.614008
0.496269 0.275044 0.61738
0.607965 0.278569 0.620951
0.719097 0.282246 0.624674
0.82977 0.286046 0.628534
0 0.382498 0.618036
0.051194 0.383444 0.619013
0.168658 0.385412 0.621012
0.283314 0.388128 0.623774
0.396612 0.391226 0.626917
0.508965 0.394583 0.630304
0.620645 0.398108 0.633875
0.731762 0.401801 0.637598
0.84242 0.4056 0.641459
0 0.502052 0.630671
0.0639506 0.502998 0.631632
0.181277 0.504997 0.633661
0.295872 0.507744 0.636439
0.40911 0.510857 0.639597
0.521447 0.514214 0.642985
0.633097 0.517754 0.646571
0.744198 0.521431 0.650309
0.854826 0.525246 0.654169
0 0.621668 0.643107
0.0765087 0.622614 0.644083
0.193713 0.624659 0.646159
0.308248 0.62742 0.648951
0.421454 0.630533 0.65211
0.533761 0.633906 0.655512
0.64538 0.637446 0.659098
0.756451 0.641154 0.662837
0.867079 0.644968 0.666712
0 0.741329 0.655406
0.0888991 0.742306 0.656413
0.205997 0.744381 0.658503
0.32047 0.747158 0.661311
0.433646 0.750286 0.664485
0.545922 0.753658 0.667903
0.657511 0.757214 0.671504
0.768582 0.760906 0.675242
0.879179 0.764736 0.679118
0 0.861036 0.667582
0.101152 0.862058 0.66862
0.218158 0.864149 0.670741
0.33257 0.866941 0.673564
0.445701 0.870085 0.676753
0.557961 0.873457 0.680171
0.669535 0.877012 0.683772
0.780575 0.88072 0.687526
0.891157 0.88455 0.691402
0 0 0.665492
0 0 0.666712
0.11603 0 0.668421
0.230991 0 0.671107
0.344472 0 0.674205
0.456977 0 0.677562
0.568765 0 0.681132
0.679973 0 0.68484
0.790692 0 0.688701
0 0.0266575 0.680354
0.0128328 0.0277104 0.681437
0.130907 0.0295109 0.683284
0.245777 0.0321813 0.686015
0.359197 0.0352331 0.689128
0.471672 0.0385595 0.6925
0.583413 0.0420691 0.696086
0.694606 0.0457313 0.699809
0.805325 0.0495155 0.70367
0 0.145754 0.694209
0.0269322 0.146746 0.695232
0.144732 0.148623 0.697154
0.25951 0.151324 0.699886
0.372885 0.154391 0.703014
0.485313 0.157717 0.706401
0.59704 0.161242 0.709972
0.708186 0.16492 0.71371
0.818875 0.168719 0.717571
0 0.265095 0.707424
0.0403143 0.266056 0.708415
0.157916 0.267994 0.710384
0.272633 0.270695 0.713146
0.385946 0.273793 0.716289
0.498344 0.277134 0.719676
0.61004 0.280659 0.723262
0.721172 0.284337 0.727001
0.831846 0.288136 0.730861
0 0.384573 0.720317
0.0533303 0.385519 0.721294
0.170764 0.387488 0.723308
0.285405 0.390219 0.726085
0.398688 0.393317 0.729229
0.511055 0.396658 0.732631
0.622721 0.400198 0.736217
0.733822 0.403876 0.739956
0.84448 0.407691 0.743832
0 0.504128 0.732982
0.0660716 0.505058 0.733959
0.183383 0.507073 0.736004
0.297963 0.509819 0.738796
0.4112 0.512932 0.741955
0.523522 0.516289 0.745357
0.635172 0.519829 0.748959
0.746258 0.523522 0.752712
0.856886 0.527337 0.756573
0 0.623743 0.745464
0.0786145 0.624689 0.746441
0.195804 0.626734 0.748531
0.310323 0.629496 0.751339
0.423529 0.632624 0.754513
0.535821 0.635981 0.757931
0.64744 0.639536 0.761532
0.758511 0.643229 0.765286
0.869123 0.647044 0.769162
0 0.743404 0.757794
0.0910048 0.744381 0.758801
0.208087 0.746456 0.760922
0.322545 0.749233 0.763745
0.435706 0.752361 0.766918
0.547982 0.755734 0.770352
0.659571 0.759289 0.773953
0.770626 0.762982 0.777722
0.881224 0.766812 0.781598
0 0.863096 0.770001
0.103258 0.864118 0.771054
0.220233 0.866224 0.77319
0.334646 0.869017 0.776028
0.447776 0.872145 0.779217
0.560021 0.875532 0.78265
0.671595 0.879088 0.786267
0.78262 0.882795 0.790036
0.893202 0.886625 0.793927
