assets/cube/green_day_01.cube
TITLE "Generated by Resolve"
LUT_3D_SIZE 33
0 0 0
0 0 0
0 0 0
0 0 0
0 0 0
0.00970474 0 0
0.0395514 0 0
0.0689708 0 0
0.0981308 0 0
0.127108 0 0
0.155932 0 0
0.184634 0 0
0.21323 0 0
0.241718 0 0
0.270146 0 0
0.298497 0 0
0.326772 0 0
0.354986 0 0
0.383154 0 0
0.411261 0 0
0.439338 0 0
0.467353 0 0
0.495323 0 0
0.523262 0 0
0.551156 0 0
0.579019 0 0
0.606851 0 0
0.634638 0 0
0.662409 0 0
0.690135 0 0
0.717845 0 0
0.745525 0 0
0.773175 0 0
0 0 0
0 0 0
0 0 0
0 0 0
0 0 0
0.0133211 0 0
0.043122 0 0
0.0725261 0 0
0.101671 0 0
0.130632 0 0
0.159457 0 0
0.188144 0 0
0.216739 0 0
0.245243 0 0
0.273655 0 0
0.301991 0 0
0.330282 0 0
0.358495 0 0
0.386648 0 0
0.414771 0 0
0.442832 0 0
0.470848 0 0
0.498817 0 0
0.526757 0 0
0.55465 0 0
0.582513 0 0
0.61033 0 0
0.638132 0 0
0.665888 0 0
0.693629 0 0
0.721325 0 0
0.749004 0 0
0.776654 0 0
0 0 0
0 0 0
0 0 0
0 0 0
0 0 0
0.0170443 0 0
0.0468147 0 0
0.0762036 0 0
0.105333 0 0
0.134295 0 0
0.163104 0 0
0.191791 0 0
0.220371 0 0
0.248875 0 0
0.277287 0 0
0.305623 0 0
0.333898 0 0
0.362112 0 0
0.39028 0 0
0.418387 0 0
0.446448 0 0
0.474464 0 0
0.502434 0 0
0.530358 0 0
0.558267 0 0
0.586114 0 0
0.613947 0 0
0.641733 0 0
0.669505 0 0
0.69723 0 0
0.724941 0 0
0.752605 0 0
0.780255 0 0
0 0 0
0 0 0
0 0 0
0 0 0
0 0 0
0.0210574 0 0
0.050782 0 0
0.0801404 0 0
0.10927 0 0
0.138216 0 0
0.167025 0 0
0.195712 0 0
0.224292 0 0
0.252781 0 0
0.281193 0 0
0.309529 0 0
0.337804 0 0
0.366018 0 0
0.394171 0 0
0.422278 0 0
0.45034 0 0
0.478355 0 0
0.506325 0 0
0.534264 0 0
0.562158 0 0
0.590021 0 0
0.617838 0 0
0.64564 0 0
0.673396 0 0
0.701137 0 0
0.728847 0.00030518 0
0.756527 0.0012665 0
0.784176 0.00222782 0
0 0.00907912 0
0 0.00959792 0
0 0.0100252 0
0 0.0102846 0
0 0.0102998 0
0.0248722 0.0104829 0
0.0545663 0.0108797 0
0.0839094 0.0113832 0
0.113039 0.0119478 0
0.14197 0.0125582 0
0.170764 0.0131991 0
0.199451 0.0138857 0
0.228031 0.0145876 0
0.256504 0.0153201 0
0.284916 0.016083 0
0.313252 0.016846 0
0.341527 0.0176394 0
0.369726 0.0184482 0
0.397894 0.0192721 0
0.425986 0.0201114 0
0.454047 0.0209506 0
0.482063 0.0218204 0
0.510033 0.0226902 0
0.537957 0.0235752 0
0.56585 0.0244602 0
0.593713 0.0253758 0
0.62153 0.026276 0
0.649317 0.0272068 0
0.677073 0.0281376 0
0.704814 0.0290684 0
0.732509 0.0300145 0
0.760174 0.0309606 0
0.787823 0.0319219 0
0 0.038819 0
0 0.0393225 0
0 0.0397498 0
0 0.0400244 0
0 0.0400092 0
0.0285039 0.0402075 0
0.0581826 0.0406195 0
0.0875105 0.0411231 0
0.116625 0.0416876 0
0.145556 0.042298 0
0.17435 0.0429541 0
0.203021 0.0436255 0
0.231586 0.0443427 0
0.260075 0.0450752 0
0.288472 0.0458228 0
0.316808 0.0466011 0
0.345068 0.0473945 0
0.373281 0.0482032 0
0.401434 0.0490272 0
0.429526 0.0498665 0
0.457588 0.050721 0
0.485588 0.0515755 0
0.513558 0.0524453 0
0.541482 0.0533303 0
0.569375 0.0542306 0
0.597223 0.0551308 0
0.62504 0.0560464 0
0.652842 0.0569619 0
0.680598 0.0578927 0
0.708324 0.0588388 0
0.736019 0.0597848 0
0.763684 0.0607309 0
0.791333 0.0616922 0
0 0.0685893 0
0 0.0691081 0
0 0.0695201 0
0 0.0697795 0
0.00173953 0.0697337 0
0.0320592 0.0699779 0
0.0617075 0.0703899 0
0.0910201 0.0708934 0
0.120119 0.071458 0
0.14905 0.0720836 0
0.177829 0.0727245 0
0.2065 0.0734112 0
0.235065 0.0741283 0
0.263539 0.0748608 0
0.291936 0.0756085 0
0.320272 0.0763867 0
0.348531 0.0771801 0
0.37673 0.0779889 0
0.404883 0.0788128 0
0.432975 0.0796521 0
0.461036 0.0805066 0
0.489036 0.0813611 0
0.517006 0.0822461 0
0.54493 0.0831311 0
0.572808 0.0840162 0
0.600671 0.0849317 0
0.628489 0.085832 0
0.656275 0.0867628 0
0.684031 0.0876936 0
0.711757 0.0886244 0
0.739452 0.0895705 0
0.767117 0.0905318 0
0.794766 0.0914931 0
0 0.0983902 0
0 0.0988937 0
0 0.099321 0
0 0.0995651 0
0.00531014 0.0995041 0
0.0355383 0.0997635 0
0.0651713 0.100191 0
0.0944686 0.100694 0
0.123552 0.101259 0
0.152468 0.101884 0
0.181247 0.102541 0
0.209918 0.103212 0
0.238483 0.103929 0
0.266957 0.104662 0
0.295338 0.105425 0
0.323674 0.106203 0
0.351934 0.106996 0
0.380133 0.107805 0
0.40827 0.108629 0
0.436377 0.109468 0
0.464424 0.110323 0
0.492424 0.111177 0
0.520394 0.112062 0
0.548318 0.112947 0
0.576196 0.113832 0
0.604044 0.114748 0
0.631861 0.115663 0
0.659648 0.116579 0
0.687404 0.11751 0
0.715129 0.118456 0
0.742824 0.119402 0
0.770489 0.120348 0
0.798138 0.121309 0
0 0.128206 0
0 0.12871 0
0 0.129122 0
0 0.129366 0
0.0087892 0.12929 0
0.0389715 0.129564 0
0.068574 0.129992 0
0.0978714 0.13051 0
0.126955 0.131075 0
0.155856 0.131701 0
0.184634 0.132357 0
0.213291 0.133043 0
0.241856 0.133761 0
0.270314 0.134493 0
0.298711 0.135256 0
0.327031 0.136034 0
0.355291 0.136828 0
0.38349 0.137636 0
0.411627 0.13846 0
0.439719 0.1393 0
0.467765 0.140154 0
0.495766 0.141009 0
0.523735 0.141894 0
0.551659 0.142779 0
0.579538 0.143664 0
0.607385 0.144579 0
0.635203 0.145495 0
0.662989 0.14641 0
0.69073 0.147341 0
0.718456 0.148287 0
0.746151 0.149233 0
0.773816 0.150195 0
0.801465 0.151156 0
0 0.158038 0
0 0.158541 0
0 0.158953 0
0 0.159182 0
0.0122377 0.159106 0
0.042359 0.159396 0
0.0719615 0.159823 0
0.101244 0.160342 0
0.130312 0.160906 0
0.159213 0.161532 0
0.187976 0.162188 0
0.216632 0.162875 0
0.245182 0.163592 0
0.273655 0.164324 0
0.302037 0.165087 0
0.330358 0.165866 0
0.358618 0.166659 0
0.386801 0.167483 0
0.414954 0.168307 0
0.443046 0.169146 0
0.471077 0.170001 0
0.499077 0.170855 0
0.527047 0.17174 0
0.554955 0.172625 0
0.582849 0.17351 0
0.610697 0.174426 0
0.638498 0.175341 0
0.666285 0.176257 0
0.694041 0.177188 0
0.721752 0.178134 0
0.749447 0.17908 0
0.777111 0.180041 0
0.804761 0.181003 0
0 0.187884 0
0 0.188373 0
0 0.188785 0
0 0.189014 0
0.0156252 0.188922 0
0.045716 0.189227 0
0.0753033 0.189654 0
0.10457 0.190173 0
0.133639 0.190753 0
0.162524 0.191379 0
0.191287 0.192035 0
0.219944 0.192721 0
0.248493 0.193439 0
0.276951 0.194186 0
0.305333 0.194949 0
0.333654 0.195727 0
0.361898 0.196521 0
0.390097 0.19733 0
0.418235 0.198154 0
0.446326 0.198993 0
0.474372 0.199847 0
0.502373 0.200717 0
0.530327 0.201587 0
0.558236 0.202472 0
0.586114 0.203372 0
0.613962 0.204288 0
0.641779 0.205203 0
0.669551 0.206119 0
0.697307 0.20705 0
0.725032 0.207996 0
0.752712 0.208942 0
0.780377 0.209903 0
0.808026 0.210864 0
0 0.217731 0
0 0.218235 0
0 0.218631 0
0 0.218845 0
0.0189975 0.218769 0
0.0490578 0.219074 0
0.0786145 0.219516 0
0.107881 0.220035 0
0.136934 0.220615 0
0.16582 0.221241 0
0.194583 0.221897 0
0.223224 0.222583 0
0.251774 0.223301 0
0.280232 0.224048 0
0.308614 0.224811 0
0.336919 0.225589 0
0.365164 0.226383 0
0.393362 0.227192 0
0.4215 0.228016 0
0.449592 0.22887 0
0.477623 0.229725 0
0.505623 0.230579 0
0.533578 0.231464 0
0.561486 0.232349 0
0.58938 0.233249 0
0.617212 0.23415 0
0.645029 0.235065 0
0.672801 0.235996 0
0.700557 0.236927 0
0.728267 0.237873 0
0.755962 0.238819 0
0.783627 0.23978 0
0.811261 0.240742 0
0 0.247593 0
0 0.248081 0
0 0.248478 0
0 0.248692 0
0.0223392 0.248615 0
0.052369 0.24892 0
0.0819104 0.249378 0
0.111162 0.249897 0
0.140215 0.250477 0
0.1691 0.251102 0
0.197848 0.251759 0
0.22649 0.252461 0
0.255024 0.253178 0
0.283482 0.25391 0
0.311864 0.254673 0
0.340169 0.255451 0
0.368414 0.25626 0
0.396597 0.257069 0
0.424735 0.257893 0
0.452827 0.258732 0
0.480858 0.259586 0
0.508858 0.260456 0
0.536812 0.261341 0
0.564721 0.262226 0
0.592599 0.263127 0
0.620447 0.264027 0
0.648249 0.264942 0
0.676036 0.265873 0
0.703777 0.266804 0
0.731487 0.26775 0
0.759182 0.268696 0
0.786847 0.269657 0
0.814481 0.270619 0
0 0.27747 0
0 0.277958 0
0 0.27834 0
0 0.278538 0
0.0256504 0.278462 0
0.0556497 0.278782 0
0.0851759 0.27924 0
0.114427 0.279759 0
0.143465 0.280354 0
0.172335 0.28098 0
0.201083 0.281636 0
0.229725 0.282338 0
0.258259 0.283055 0
0.286717 0.283787 0
0.315084 0.28455 0
0.343389 0.285344 0
0.371633 0.286137 0
0.399832 0.286946 0
0.427955 0.287785 0
0.456046 0.288624 0
0.484077 0.289479 0
0.512078 0.290349 0
0.540017 0.291218 0
0.567941 0.292103 0
0.595804 0.293004 0
0.623652 0.293919 0
0.651453 0.294835 0
0.67924 0.295766 0
0.706981 0.296696 0
0.734691 0.297642 0
0.762387 0.298589 0
0.790051 0.29955 0
0.817685 0.300511 0
0 0.307347 0
0 0.30782 0
0 0.308217 0
0 0.308385 0
0.0289311 0.308339 0
0.0589151 0.308659 0
0.088426 0.309117 0
0.117662 0.309651 0
0.1467 0.310231 0
0.17557 0.310857 0
0.204318 0.311528 0
0.232944 0.312215 0
0.261479 0.312932 0
0.289921 0.31368 0
0.318303 0.314443 0
0.346609 0.315221 0
0.374838 0.31603 0
0.403037 0.316838 0
0.431159 0.317678 0
0.459236 0.318517 0
0.487282 0.319371 0
0.515267 0.320241 0
0.543221 0.321111 0
0.57113 0.322011 0
0.599008 0.322896 0
0.626841 0.323812 0
0.654643 0.324727 0
0.682414 0.325658 0
0.71017 0.326589 0
0.737881 0.327535 0
0.76556 0.328481 0
0.793225 0.329442 0
0.820859 0.330404 0
0 0.337224 0
0 0.337713 0
0 0.338094 0
0.000946059 0.338231 0
0.0321965 0.338201 0
0.0621653 0.338537 0
0.0916609 0.338994 0
0.120897 0.339529 0
0.14992 0.340124 0
0.17879 0.340749 0
0.207523 0.341405 0
0.236149 0.342107 0
0.264683 0.342824 0
0.293126 0.343572 0
0.321492 0.344335 0
0.349798 0.345113 0
0.378027 0.345922 0
0.40621 0.346731 0
0.434348 0.34757 0
0.462425 0.348409 0
0.490455 0.349264 0
0.518441 0.350134 0
0.546395 0.351019 0
0.574304 0.351904 0
0.602182 0.352804 0
0.630014 0.353719 0
0.657816 0.354635 0
0.685588 0.35555 0
0.713329 0.356497 0
0.741054 0.357427 0
0.768734 0.358389 0
0.796399 0.35935 0
0.824018 0.360311 0
0 0.367117 0
0 0.36759 0
0 0.367971 0
0.00428778 0.368078 0
0.0354467 0.368093 0
0.0653849 0.368429 0
0.0948806 0.368887 0
0.124102 0.369421 0
0.153124 0.370016 0
0.181979 0.370642 0
0.210712 0.371313 0
0.239338 0.372 0
0.267857 0.372732 0
0.2963 0.37348 0
0.324666 0.374243 0
0.352972 0.375021 0
0.381216 0.37583 0
0.409384 0.376638 0
0.437522 0.377462 0
0.465599 0.378317 0
0.493629 0.379171 0
0.521614 0.380041 0
0.549554 0.380926 0
0.577462 0.381811 0
0.605341 0.382712 0
0.633173 0.383612 0
0.660975 0.384543 0
0.688746 0.385458 0
0.716487 0.386404 0
0.744198 0.38735 0
0.771893 0.388296 0
0.799542 0.389258 0
0.827176 0.390219 0
0 0.397009 0
0 0.397482 0
0 0.397848 0
0.00756847 0.397955 0
0.0386816 0.397971 0
0.0686046 0.398322 0
0.098085 0.398779 0
0.127291 0.399313 0
0.156313 0.399908 0
0.185168 0.400549 0
0.213886 0.401205 0
0.242512 0.401907 0
0.271031 0.402625 0
0.299474 0.403372 0
0.32784 0.40415 0
0.35613 0.404929 0
0.384375 0.405737 0
0.412543 0.406546 0
0.440665 0.407385 0
0.468742 0.408225 0
0.496773 0.409079 0
0.524758 0.409949 0
0.552712 0.410834 0
0.580606 0.411719 0
0.608484 0.412619 0
0.636316 0.413535 0
0.664118 0.41445 0
0.69189 0.415381 0
0.719631 0.416312 0
0.747341 0.417258 0
0.775021 0.418204 0
0.802686 0.419165 0
0.830304 0.420127 0
0 0.426902 0
0 0.427375 0
0 0.427741 0
0.0108339 0.427832 0
0.0419013 0.427863 0
0.071809 0.428214 0
0.101274 0.428687 0
0.13048 0.429221 0
0.159487 0.429816 0
0.188342 0.430442 0
0.21706 0.431113 0
0.24567 0.431815 0
0.274189 0.432547 0
0.302632 0.433295 0
0.330983 0.434058 0
0.359289 0.434836 0
0.387518 0.435645 0
0.415686 0.436454 0
0.443809 0.437293 0
0.471885 0.438132 0
0.499916 0.439002 0
0.527901 0.439872 0
0.55584 0.440742 0
0.583749 0.441642 0
0.611612 0.442542 0
0.639445 0.443442 0
0.667247 0.444373 0
0.695018 0.445289 0
0.722759 0.446235 0
0.750469 0.447181 0
0.778149 0.448127 0
0.805798 0.449088 0
0.833432 0.45005 0
0 0.456809 0
0 0.457282 0
0 0.457633 0
0.0140841 0.457725 0
0.0451057 0.457771 0
0.0749981 0.458122 0
0.104448 0.458595 0
0.133654 0.459129 0
0.162646 0.459724 0
0.191485 0.460365 0
0.220203 0.461036 0
0.248814 0.461738 0
0.277333 0.462455 0
0.305776 0.463203 0
0.334127 0.463966 0
0.362417 0.464759 0
0.390646 0.465568 0
0.41883 0.466377 0
0.446937 0.467216 0
0.475013 0.468055 0
0.503044 0.46891 0
0.531029 0.46978 0
0.558968 0.470665 0
0.586862 0.471565 0
0.61474 0.472465 0
0.642573 0.473365 0
0.670359 0.474296 0
0.698131 0.475227 0
0.725872 0.476158 0
0.753582 0.477104 0
0.781262 0.47805 0
0.808911 0.479011 0
0.836545 0.479973 0
0 0.486717 0
0 0.487175 0
0 0.487526 0
0.0173037 0.487617 0
0.0482948 0.487663 0
0.078172 0.488029 0
0.107622 0.488502 0
0.136797 0.489036 0
0.165789 0.489647 0
0.194629 0.490272 0
0.223346 0.490944 0
0.251957 0.491646 0
0.280476 0.492378 0
0.308904 0.493126 0
0.337255 0.493889 0
0.365545 0.494682 0
0.393774 0.495491 0
0.421942 0.4963 0
0.450065 0.497139 0
0.478126 0.497978 0
0.506157 0.498848 0
0.534142 0.499718 0
0.562081 0.500587 0
0.589975 0.501488 0
0.617838 0.502388 0
0.64567 0.503304 0
0.673472 0.504219 0
0.701244 0.50515 0
0.728969 0.506081 0
0.75668 0.507027 0
0.78436 0.507988 0
0.812024 0.508949 0
0.839643 0.509911 0
0 0.516625 0
0 0.517082 0
0 0.517418 0
0.0205081 0.51751 0
0.0514687 0.517586 0
0.0813306 0.517937 0
0.110765 0.51841 0
0.13994 0.518959 0
0.168933 0.519554 0
0.197772 0.520195 0
0.226474 0.520867 0
0.255085 0.521569 0
0.283589 0.522301 0
0.312016 0.523049 0
0.340368 0.523812 0
0.368658 0.524605 0
0.396887 0.525414 0
0.425055 0.526238 0
0.453178 0.527062 0
0.481239 0.527916 0
0.509255 0.528771 0
0.53724 0.529641 0
0.565179 0.530526 0
0.593072 0.531411 0
0.620935 0.532326 0
0.648768 0.533227 0
0.67657 0.534157 0
0.704341 0.535088 0
0.732067 0.536019 0
0.759777 0.536965 0
0.787457 0.537911 0
0.815106 0.538872 0
0.842741 0.539849 0
0 0.546548 0
0 0.547005 0
0 0.547326 0
0.0236973 0.547417 0
0.0546273 0.547494 0
0.0844739 0.54786 0
0.113909 0.548333 0
0.143084 0.548882 0
0.172061 0.549477 0
0.200885 0.550118 0
0.229603 0.55079 0
0.258198 0.551507 0
0.286702 0.552224 0
0.315129 0.552972 0
0.343481 0.55375 0
0.371771 0.554543 0
0.399985 0.555337 0
0.428153 0.556161 0
0.456275 0.557 0
0.484337 0.557839 0
0.512352 0.558709 0
0.540337 0.559579 0
0.568276 0.560464 0
0.59617 0.561349 0
0.624033 0.562249 0
0.651865 0.563165 0
0.679652 0.564095 0
0.707424 0.565011 0
0.735149 0.565957 0
0.76286 0.566903 0
0.790539 0.567849 0
0.818189 0.568811 0
0.845823 0.569787 0
0 0.576455 0
0 0.576913 0
0 0.577218 0
0.0268711 0.57734 0
0.0577859 0.577417 0
0.0876173 0.577783 0
0.117037 0.578256 0
0.146197 0.578805 0
0.175174 0.579416 0
0.203998 0.580056 0
0.2327 0.580728 0
0.261311 0.58143 0
0.289799 0.582162 0
0.318227 0.58291 0
0.346578 0.583688 0
0.374853 0.584466 0
0.403082 0.585275 0
0.43125 0.586099 0
0.459358 0.586938 0
0.487419 0.587777 0
0.515435 0.588647 0
0.54342 0.589517 0
0.571359 0.590402 0
0.599252 0.591287 0
0.627115 0.592203 0
0.654932 0.593103 0
0.682734 0.594034 0
0.710491 0.594965 0
0.738231 0.595895 0
0.765927 0.596841 0
0.793606 0.597803 0
0.821256 0.598764 0
0.84889 0.599725 0
0 0.606378 0
0 0.606836 0
0 0.607111 0
0.030045 0.607248 0
0.0609293 0.60734 0
0.0907454 0.607706 0
0.120165 0.608194 0
0.14931 0.608743 0
0.178286 0.609339 0
0.207111 0.609979 0
0.235813 0.610666 0
0.264393 0.611368 0
0.292897 0.6121 0
0.321324 0.612848 0
0.34966 0.613626 0
0.377951 0.614404 0
0.406165 0.615213 0
0.434333 0.616037 0
0.46244 0.616876 0
0.490501 0.617731 0
0.518517 0.618585 0
0.546487 0.619455 0
0.574426 0.62034 0
0.602319 0.621241 0
0.630182 0.622141 0
0.658 0.623056 0
0.685802 0.623972 0
0.713558 0.624903 0
0.741299 0.625849 0
0.768994 0.626795 0
0.796674 0.627741 0
0.824323 0.628702 0
0.851942 0.629679 0
0 0.636316 0
0 0.636744 0
0.00263981 0.637003 0
0.0331884 0.637171 0
0.0640574 0.637263 0
0.0938582 0.637644 0
0.123262 0.638117 0
0.152422 0.638682 0
0.181384 0.639277 0
0.210208 0.639918 0
0.238895 0.640604 0
0.267491 0.641306 0
0.295979 0.642039 0
0.324407 0.642786 0
0.352743 0.643565 0
0.381018 0.644358 0
0.409232 0.645167 0
0.4374 0.645975 0
0.465507 0.646815 0
0.493568 0.647669 0
0.521584 0.648524 0
0.549554 0.649409 0
0.577493 0.650294 0
0.605386 0.651179 0
0.633249 0.652079 0
0.661067 0.652995 0
0.688853 0.653925 0
0.716625 0.654856 0
0.74435 0.655787 0
0.772061 0.656733 0
0.799725 0.657694 0
0.827375 0.658656 0
0.854994 0.659617 0
0 0.666239 0
0 0.666682 0
0.00584421 0.666911 0
0.0363317 0.667094 0
0.0671855 0.667185 0
0.0969711 0.667567 0
0.126375 0.668055 0
0.15552 0.66862 0
0.184482 0.669215 0
0.213291 0.669871 0
0.241978 0.670542 0
0.270558 0.671244 0
0.299062 0.671977 0
0.327474 0.67274 0
0.35581 0.673503 0
0.384085 0.674296 0
0.412299 0.675105 0
0.440467 0.675929 0
0.468574 0.676768 0
0.49662 0.677623 0
0.524636 0.678477 0
0.552605 0.679347 0
0.580545 0.680232 0
0.608438 0.681132 0
0.636301 0.682033 0
0.664118 0.682948 0
0.691905 0.683879 0
0.719676 0.68481 0
0.747402 0.68574 0
0.775097 0.686687 0
0.802777 0.687648 0
0.830427 0.688609 0
0.858045 0.689586 0
0 0.696178 0
0 0.696605 0
0.00901808 0.696818 0
0.0394598 0.697032 0
0.0702983 0.697124 0
0.100069 0.697505 0
0.129458 0.697993 0
0.158602 0.698558 0
0.187564 0.699168 0
