assets/cube/green_day_01.cube
TITLE "Generated by Resolve"
LUT_3D_SIZE 5
0 0 0
0.0981308 0 0
0.326772 0 0
0.551156 0 0
0.773175 0 0
0 0.128206 0
0.126955 0.131075 0
0.355291 0.136828 0
0.579538 0.143664 0
0.801465 0.151156 0
0 0.367117 0
0.153124 0.370016 0
0.381216 0.37583 0
0.605341 0.382712 0
0.827176 0.390219 0
0 0.606378 0
0.178286 0.609339 0
0.406165 0.615213 0
0.630182 0.622141 0
0.851942 0.629679 0
0 0.845869 0
0.202853 0.848936 0
0.430549 0.854856 0
0.654459 0.861814 0
0.876158 0.869383 0
0 0 0.0579995
0.102861 0 0.0607156
0.331456 0 0.0661784
0.55584 0 0.0727703
0.777844 0 0.0800031
0 0.132891 0.08542
0.131685 0.13576 0.0881666
0.359991 0.141512 0.0937362
0.584222 0.148363 0.100404
0.806134 0.155856 0.107698
0 0.371786 0.110491
0.157855 0.374701 0.113283
0.385901 0.380514 0.118944
0.609995 0.387396 0.125658
0.831815 0.394903 0.132998
0 0.611048 0.134707
0.182986 0.614008 0.137575
0.410819 0.619883 0.143313
0.634806 0.626795 0.150088
0.85655 0.634318 0.157473
0 0.850492 0.158419
0.207492 0.853544 0.16141
0.435142 0.85948 0.167208
0.659022 0.866423 0.174029
0.88069 0.87396 0.181445
0 0 0.258625
0.107393 0 0.261463
0.335943 0 0.267109
0.560281 0 0.273884
0.782254 0 0.281315
0 0.137301 0.286809
0.136156 0.140169 0.289662
0.364401 0.145922 0.295399
0.588602 0.152773 0.30222
0.810483 0.16025 0.309682
0 0.37615 0.312474
0.162264 0.379065 0.315358
0.390265 0.384878 0.321157
0.614328 0.39176 0.328023
0.836133 0.399252 0.3355
0 0.615366 0.337194
0.18735 0.618341 0.340154
0.415137 0.624216 0.346014
0.639109 0.631128 0.352911
0.860822 0.638636 0.360418
0 0.854765 0.361349
0.211826 0.857847 0.364416
0.439429 0.863767 0.370336
0.663294 0.87071 0.377264
0.884932 0.878248 0.384802
0 0 0.461509
0.111757 0 0.464393
0.340246 0 0.47013
0.564553 0 0.476997
0.786511 0 0.484504
0 0.141573 0.490013
0.14049 0.144442 0.492927
0.368688 0.150195 0.498726
0.592859 0.157046 0.505638
0.814725 0.164508 0.513176
0 0.380392 0.515953
0.166552 0.383307 0.518898
0.394507 0.389136 0.524773
0.618555 0.396017 0.531701
0.840345 0.40351 0.539254
0 0.619593 0.540917
0.191608 0.622568 0.543938
0.419364 0.628443 0.549874
0.643305 0.635355 0.556848
0.865003 0.642878 0.564416
0 0.858961 0.565301
0.216052 0.862058 0.568444
0.443626 0.867994 0.574426
0.66746 0.874922 0.58143
0.889097 0.88246 0.589029
0 0 0.665492
0.11603 0 0.668421
0.344472 0 0.674205
0.568765 0 0.681132
0.790692 0 0.688701
0 0.145754 0.694209
0.144732 0.148623 0.697154
0.372885 0.154391 0.703014
0.59704 0.161242 0.709972
0.818875 0.168719 0.717571
0 0.384573 0.720317
0.170764 0.387488 0.723308
0.398688 0.393317 0.729229
0.622721 0.400198 0.736217
0.84448 0.407691 0.743832
0 0.623743 0.745464
0.195804 0.626734 0.748531
0.423529 0.632624 0.754513
0.64744 0.639536 0.761532
0.869123 0.647044 0.769162
0 0.863096 0.770001
0.220233 0.866224 0.77319
0.447776 0.872145 0.779217
0.671595 0.879088 0.786267
0.893202 0.886625 0.793927
