assets/cube/green_day_02.cube
TITLE "Generated by Resolve"
LUT_3D_SIZE 5
0 0 0
0 0 0
0 0 0
0 0 0
0 0 0
0 0 0
0 0 0
0.0528878 0.0219272 0
0.261524 0.0419776 0
0.627283 0.0294804 0
0 0.163577 0
0.0634928 0.233341 0
0.255497 0.279377 0
0.51725 0.310094 0
0.830701 0.333196 0
0 0.536187 0
0.0957809 0.59794 0
0.326009 0.652491 0
0.608789 0.699123 0
0.941466 0.736873 0.0120699
0 0.950225 0
0.152972 1 0
0.406104 1 0.018967
0.707683 1 0.0641184
1 1 0.100923
0 0 0
0 0 0
0 0 0
0 0 0
0 0 0
0 0 0
0 0 0
0.0900587 0.0346227 0.0359655
0.320974 0.0473487 0.0509957
0.685557 0.0332341 0.0398566
0 0.189349 0.0242161
0.0700236 0.252094 0.0388952
0.269444 0.295689 0.066392
0.532479 0.328817 0.0930343
0.847105 0.353933 0.112734
0 0.55523 0.0239414
0.115526 0.618418 0.0883955
0.346624 0.674769 0.135882
0.630182 0.722835 0.173175
0.964111 0.762417 0.202914
0 0.97499 0.0767071
0.177798 1 0.154833
0.432029 1 0.211566
0.734173 1 0.257191
1 1 0.295079
0 0 0
0 0 0
0 0 0
0 0 0
0.00895705 0 0.000717174
0 0 0
0.016022 0.012665 0.0274662
0.127565 0.0445869 0.1196
0.375174 0.0505531 0.191363
0.733516 0.0373388 0.222675
0 0.211582 0.180743
0.0768749 0.268879 0.226993
0.28368 0.312108 0.264408
0.548516 0.346395 0.294652
0.865507 0.373281 0.318517
0 0.573846 0.236118
0.131579 0.638529 0.295918
0.365454 0.696605 0.345296
0.650828 0.745525 0.385779
0.98677 0.786374 0.41915
0 0.998978 0.300435
0.19791 1 0.373648
0.454643 1 0.431785
0.758709 1 0.480369
1 1 0.52108
0 0 0
0 0 0
0 0 0
0 0 0
0.0789349 0 0.0509651
0 0 0
0.0345617 0.0264591 0.103273
0.16228 0.0506142 0.269917
0.419989 0.0512093 0.39704
0.76643 0.042359 0.45597
0 0.228779 0.398795
0.085008 0.281941 0.458915
0.296635 0.326711 0.498344
0.563897 0.362463 0.531243
0.883162 0.390738 0.557885
0 0.591089 0.478965
0.145937 0.657618 0.53669
0.38265 0.716762 0.587304
0.670329 0.766796 0.630106
1 0.808164 0.665492
0.00875868 1 0.551797
0.215961 1 0.622293
0.475059 1 0.681025
0.781704 1 0.732097
1 1 0.774975
0 0 0
0 0 0
0 0 0
0 0 0.000381476
0.175921 0 0.165591
0.00106813 0.00360113 0.0256199
0.0503243 0.0361944 0.248127
0.191791 0.0523537 0.496208
0.455238 0.0504158 0.665797
0.78323 0.0497292 0.72723
0 0.241047 0.672129
0.093843 0.293156 0.726177
0.308141 0.339361 0.767071
0.577905 0.376776 0.802502
0.898848 0.405997 0.831113
0 0.606226 0.754879
0.158999 0.674861 0.811505
0.398108 0.734676 0.862913
0.688334 0.786252 0.908156
1 0.828641 0.945602
0.0212863 1 0.835462
0.232639 1 0.904036
0.494377 1 0.963699
0.803113 1 1
1 1 1
