assets/cube/green_2025.cube
TITLE "Generated by Resolve"
LUT_3D_SIZE 9
0 0 0
0 0 0
0.00801099 0.00260929 0.00262455
0.0370336 0.0172885 0.0170901
0.0892042 0.0391241 0.0381323
0.166537 0.0623636 0.0599069
0.268864 0.0817426 0.0773327
0.391272 0.0933242 0.0868391
0.52314 0.0948653 0.0868238
0.0282597 0.0318761 0.027451
0.0640726 0.0620432 0.0534371
0.11548 0.0943465 0.0800183
0.182452 0.12343 0.102602
0.262287 0.144747 0.117845
0.348135 0.155108 0.124102
0.434256 0.155047 0.122484
0.534798 0.150927 0.117113
0.653101 0.142947 0.107927
0.120256 0.15903 0.111208
0.163958 0.187716 0.129351
0.212284 0.204013 0.139422
0.26688 0.211887 0.144106
0.334569 0.217166 0.146212
0.416999 0.219394 0.145357
0.515831 0.218097 0.1411
0.6327 0.212863 0.133043
0.769039 0.203296 0.120836
0.154086 0.255192 0.140734
0.19115 0.269322 0.148974
0.240055 0.281193 0.155047
0.302388 0.290349 0.158556
0.379736 0.296376 0.159106
0.473655 0.298833 0.156405
0.585657 0.297322 0.150011
0.717159 0.291447 0.139574
0.869535 0.280827 0.124773
0.158679 0.345205 0.144579
0.199069 0.361868 0.15227
0.253208 0.375723 0.15758
0.32256 0.386374 0.160052
0.408621 0.393393 0.159365
0.512795 0.396414 0.155169
0.636484 0.395056 0.147066
0.781003 0.388968 0.134737
0.947662 0.377783 0.117784
0.146029 0.453696 0.13193
0.189166 0.47303 0.139483
0.247791 0.489052 0.144396
0.323262 0.501396 0.146273
0.416938 0.509712 0.144747
0.530159 0.513619 0.139422
0.664256 0.512764 0.129931
0.820508 0.506813 0.115923
1 0.49543 0.0971389
0.113863 0.581552 0.100633
0.158984 0.603738 0.108446
0.22118 0.622156 0.113313
0.301701 0.636515 0.114839
0.401892 0.646403 0.112703
0.523018 0.651499 0.10663
0.666239 0.651453 0.0966201
0.832349 0.646036 0.0826734
1 0.635111 0.0649729
0.0600748 0.729641 0.0484321
0.106172 0.75494 0.0567178
0.171145 0.775952 0.0620737
0.256245 0.792309 0.0644083
0.3626 0.803693 0.0637522
0.490974 0.809827 0.0602731
0.641733 0.81062 0.0541085
0.814725 0.806088 0.0451972
1 0.796384 0.0330358
0 0.898024 0
0.0328374 0.925765 0
0.102388 0.94844 0
0.193637 0.965866 0.00422675
0.306722 0.978058 0.00999466
0.441215 0.985214 0.0127108
0.596994 0.987503 0.0112001
0.774472 0.984909 0.00421149
0.974868 0.977188 0
0 0 0
0.000518807 0 0.000122072
0.0136873 0.00669871 0.00749218
0.0484016 0.0247807 0.0262608
0.10605 0.0482643 0.0505379
0.188083 0.071519 0.0746471
0.293187 0.089601 0.0936141
0.415015 0.0990311 0.103868
0.541482 0.0982223 0.103685
0.0370642 0.0415198 0.0383764
0.075761 0.0733654 0.0676127
0.12932 0.105714 0.0966354
0.197208 0.133349 0.120775
0.275807 0.152071 0.136538
0.357321 0.159258 0.142031
0.443351 0.158389 0.140414
0.545617 0.154055 0.135363
0.665873 0.145785 0.126421
0.128298 0.170047 0.129839
0.170733 0.19556 0.148272
0.216907 0.208453 0.157549
0.272435 0.216327 0.162799
0.341253 0.22153 0.165423
0.42504 0.223636 0.164981
0.525429 0.222187 0.161074
0.644022 0.216739 0.153262
0.782223 0.206928 0.141238
0.157336 0.260426 0.159411
0.19498 0.274647 0.168322
0.244663 0.286549 0.17499
0.307973 0.295705 0.179004
0.386496 0.301656 0.179995
0.481743 0.304006 0.177646
0.595254 0.302342 0.171496
0.72842 0.296284 0.161212
0.882597 0.285451 0.146471
0.1617 0.351476 0.164645
0.202731 0.368215 0.172976
0.257664 0.382101 0.178759
0.328008 0.392737 0.181659
0.415213 0.39971 0.181292
0.520714 0.402655 0.17731
0.645869 0.401175 0.169329
0.79202 0.394919 0.157015
0.960464 0.383536 0.139971
0.148791 0.461067 0.152758
0.192599 0.480476 0.1608
0.252033 0.496544 0.166094
0.328496 0.508888 0.168261
0.423316 0.517174 0.166903
0.53785 0.521004 0.161654
0.673396 0.520058 0.152132
0.83125 0.51397 0.138033
1 0.502419 0.119066
0.116411 0.590097 0.121431
0.162173 0.61236 0.129595
0.225147 0.630869 0.134661
0.306676 0.645228 0.136355
0.408011 0.6551 0.134249
0.530449 0.660121 0.128237
0.675074 0.659983 0.118242
0.842588 0.654475 0.104326
1 0.643473 0.086717
0.0623026 0.739452 0.0683604
0.109102 0.764843 0.0769207
0.17499 0.785885 0.0825055
0.261219 0.802213 0.085069
0.368811 0.813519 0.0846571
0.498512 0.819562 0.0814527
0.650492 0.820294 0.0754864
0.824628 0.815747 0.0666514
1 0.806058 0.0542458
0 0.908949 0
0.0363928 0.93666 0.00595102
0.107164 0.959243 0.0162051
0.19968 0.976593 0.024506
0.313863 0.988769 0.030396
0.449317 0.995987 0.0328985
0.605966 0.998398 0.0307469
0.784466 0.995926 0.0228275
0.986175 0.988235 0.00830091
0 0 0
0.00164797 0.000579843 0.00239567
0.0207828 0.0120699 0.0159152
0.0607919 0.0329442 0.0398108
0.123323 0.0574655 0.0685588
0.20914 0.0801709 0.0964828
0.31577 0.0965286 0.118334
0.435447 0.103609 0.130144
0.554833 0.10042 0.129824
0.0463417 0.0516823 0.0541543
0.0873732 0.084596 0.088014
0.142412 0.116365 0.120928
0.210346 0.142046 0.147784
0.286732 0.157855 0.164553
0.364019 0.162158 0.169375
0.451408 0.161089 0.168704
0.555276 0.156512 0.164538
0.677333 0.147967 0.15639
0.135088 0.179492 0.157549
0.175769 0.201404 0.176471
0.220813 0.212192 0.185733
0.277165 0.220035 0.192126
0.347005 0.225162 0.195819
0.432013 0.227131 0.196384
0.533791 0.225483 0.193378
0.653956 0.219821 0.186374
0.793851 0.209751 0.175067
0.160037 0.264851 0.188891
0.198138 0.279133 0.199069
0.248493 0.291035 0.206912
0.312642 0.300145 0.212024
0.392187 0.30602 0.214054
0.48864 0.308263 0.212558
0.603494 0.306447 0.207187
0.73814 0.300191 0.197574
0.893935 0.289158 0.183383
0.164141 0.356725 0.197436
0.205676 0.373526 0.206958
0.261295 0.387427 0.213809
0.332494 0.398047 0.21767
0.420722 0.404959 0.218143
0.527382 0.407797 0.214862
0.653834 0.406195 0.207477
0.801419 0.399786 0.195621
0.97145 0.388235 0.178927
0.151064 0.467216 0.188067
0.195377 0.486686 0.197147
0.255512 0.502785 0.203326
0.332799 0.515145 0.206241
0.428626 0.523384 0.205524
0.544289 0.527169 0.200748
0.681117 0.526116 0.191653
0.840375 0.519905 0.177829
1 0.508217 0.159121
0.118563 0.597223 0.158267
0.164828 0.619577 0.167239
0.228473 0.638148 0.173007
0.310811 0.652522 0.17525
0.413138 0.662394 0.173617
0.536706 0.667369 0.168032
0.682521 0.667155 0.158404
0.851209 0.66157 0.144823
1 0.650553 0.12755
0.0643626 0.747646 0.105669
0.111696 0.773129 0.114916
0.178378 0.794202 0.121126
0.265568 0.810529 0.124269
0.374243 0.821775 0.124376
0.505043 0.827771 0.12163
0.658061 0.828489 0.116014
0.833112 0.823987 0.107286
1 0.814374 0.0946212
0 0.918074 0.03122
0.0400092 0.945754 0.0440833
0.111833 0.968277 0.0550088
0.205386 0.98558 0.063798
0.320424 0.997818 0.0698253
0.456565 1 0.0720378
0.613901 1 0.0692454
0.79324 1 0.0604715
0.996078 0.997879 0.0449378
0 0 0.002121
0.00463874 0.00297551 0.00914015
0.0290684 0.0184329 0.0294194
0.0738994 0.0414282 0.0598611
0.140581 0.0663615 0.0948806
0.229175 0.0879988 0.128344
0.335897 0.102281 0.154376
0.451957 0.106798 0.168215
0.564218 0.101457 0.16759
0.0557565 0.0620279 0.0771191
0.0985122 0.0953536 0.117449
0.154314 0.125933 0.155856
0.221439 0.149172 0.186389
0.294652 0.161776 0.204196
0.369589 0.164202 0.209125
0.458244 0.162921 0.210132
0.563561 0.158083 0.207553
0.687266 0.149218 0.200916
0.140368 0.186999 0.197009
0.178805 0.204944 0.216022
0.223789 0.21503 0.226627
0.280858 0.222797 0.234897
0.351598 0.227787 0.240406
0.437675 0.229587 0.242695
0.540703 0.227741 0.241321
0.662226 0.221836 0.235874
0.803677 0.21149 0.225956
0.161898 0.268223 0.23209
0.200381 0.282521 0.244282
0.251255 0.294392 0.254047
0.316136 0.303441 0.261006
0.396567 0.309209 0.264729
0.494057 0.311284 0.264836
0.610086 0.3093 0.260914
0.746059 0.302846 0.252628
0.903288 0.291585 0.239612
0.165713 0.360708 0.246387
0.207645 0.377523 0.257816
0.263798 0.391409 0.266453
0.335714 0.401968 0.271946
0.424796 0.408804 0.273915
0.532464 0.411536 0.271992
0.66006 0.409796 0.265797
0.808927 0.403235 0.254994
0.980407 0.391485 0.239185
0.152468 0.471855 0.241825
0.197162 0.491371 0.252598
0.257832 0.507485 0.260319
0.335821 0.519814 0.264607
0.432471 0.528008 0.26511
0.549096 0.531716 0.261433
0.687037 0.530571 0.253254
0.847532 0.524239 0.240253
1 0.512428 0.222309
0.11989 0.602625 0.215564
0.166522 0.625055 0.225971
0.230686 0.643656 0.233021
0.313695 0.658061 0.236393
0.416831 0.667903 0.235767
0.54136 0.672816 0.231083
0.688182 0.672557 0.222278
0.857862 0.666941 0.2094
1 0.65594 0.192706
0.0656596 0.753933 0.165194
0.113481 0.779477 0.175723
0.180804 0.800565 0.183078
0.268803 0.816861 0.187213
0.378408 0.828077 0.18822
0.510124 0.834043 0.186191
0.663981 0.834791 0.181064
0.839765 0.830381 0.172457
1 0.820905 0.159533
0 0.925002 0.092256
0.043122 0.952636 0.106294
0.115801 0.975143 0.118105
0.210178 0.992477 0.127489
0.325826 1 0.133669
0.462455 1 0.135668
0.620279 1 0.132342
0.800305 1 0.122881
1 1 0.106615
0 0 0.00852979
0.00903334 0.00671397 0.0214694
0.0382086 0.0254215 0.0499886
0.0872358 0.0498817 0.0890669
0.157275 0.0745708 0.13254
0.247547 0.0946059 0.173419
0.35314 0.106447 0.204623
0.463981 0.108339 0.22031
0.572106 0.101518 0.220096
0.0649271 0.0721599 0.110094
0.108736 0.105196 0.15903
0.164569 0.133989 0.204517
0.23006 0.154376 0.239307
0.299199 0.163607 0.257404
0.373846 0.165225 0.264073
0.46363 0.163668 0.267597
0.57026 0.158526 0.267506
0.69543 0.149294 0.263264
0.143816 0.192187 0.250645
0.180224 0.206729 0.269673
0.22562 0.216739 0.283085
0.283268 0.224369 0.294118
0.354772 0.229191 0.302327
0.441779 0.230777 0.30724
0.545907 0.228672 0.308385
0.668605 0.222507 0.305318
0.811444 0.211841 0.297627
0.162722 0.270314 0.292042
0.201434 0.284581 0.307149
0.25272 0.296376 0.319753
0.318181 0.305287 0.329427
0.399344 0.310903 0.335729
0.497719 0.31281 0.338262
0.614771 0.310613 0.336629
0.751873 0.303929 0.330449
0.910369 0.292424 0.319387
0.166171 0.363119 0.315068
0.208316 0.379919 0.329274
0.264881 0.393744 0.340551
0.337362 0.404211 0.348501
0.427146 0.410925 0.352758
0.535653 0.41352 0.352956
0.664225 0.411627 0.348714
0.814176 0.404883 0.339696
0.986862 0.392935 0.325521
0.152651 0.474678 0.318074
0.197604 0.494194 0.331334
0.258656 0.510277 0.341375
0.337179 0.522576 0.347799
0.434501 0.530694 0.350256
0.551934 0.53431 0.348379
0.690806 0.533043 0.341833
0.852308 0.526574 0.330312
1 0.514656 0.31371
0.120012 0.605951 0.297841
0.166812 0.628458 0.310399
0.231388 0.647059 0.319463
0.3149 0.661448 0.324651
0.418708 0.671244 0.325719
0.544015 0.676097 0.322545
0.691661 0.675792 0.315053
0.862119 0.670146 0.303319
1 0.65919 0.287495
0.0658579 0.757885 0.251987
0.113985 0.783475 0.264424
0.181827 0.804562 0.273503
0.270497 0.820829 0.279164
0.38088 0.831998 0.281468
0.513329 0.837995 0.2804
0.667826 0.838788 0.275898
0.84416 0.834531 0.267521
1 0.825208 0.254475
0 0.929381 0.182269
0.0451514 0.957 0.197818
0.118563 0.979492 0.210788
0.213535 0.996902 0.220905
0.329595 1 0.227375
0.466484 1 0.229267
0.624628 1 0.225666
0.805188 1 0.215869
1 1 0.199252
0 0 0.0184634
0.0144808 0.011429 0.0411078
0.0478523 0.0327001 0.0801556
0.100389 0.0578775 0.13051
0.172885 0.0816815 0.184939
0.263691 0.0996414 0.234943
0.366796 0.108797 0.271778
0.471061 0.108049 0.288243
0.578332 0.100389 0.290211
0.0734112 0.081651 0.156313
0.117617 0.113695 0.216129
0.172717 0.140185 0.269932
0.235798 0.157366 0.308888
0.301137 0.163622 0.326863
0.376577 0.164965 0.337118
0.467323 0.163088 0.344213
0.575097 0.157565 0.347616
0.701564 0.147936 0.346792
0.14519 0.194766 0.320546
0.180407 0.207218 0.340825
0.226078 0.217075 0.358068
0.284169 0.224506 0.372915
0.356283 0.229099 0.384863
0.444068 0.230411 0.393439
0.549111 0.228 0.398123
0.672847 0.221515 0.398428
0.816861 0.210498 0.393973
0.162234 0.270893 0.371923
0.201038 0.285039 0.391028
0.252598 0.296696 0.407523
0.318486 0.305425 0.420935
0.400229 0.310826 0.430823
0.499321 0.312505 0.436774
0.617212 0.310048 0.438361
0.755276 0.303105 0.435233
0.914855 0.291325 0.427008
0.165148 0.363714 0.407156
0.207385 0.380423 0.425177
0.264225 0.394125 0.44007
0.337102 0.404456 0.451438
0.427436 0.411017 0.458915
0.536614 0.413428 0.462135
0.665965 0.411337 0.460716
0.816846 0.404379 0.454337
0.990555 0.392203 0.442618
0.151308 0.47538 0.420966
0.196338 0.49485 0.437675
0.257633 0.510857 0.450919
0.336522 0.523064 0.460365
0.434333 0.531075 0.465644
0.552407 0.534554 0.466392
0.692027 0.53315 0.462303
0.854368 0.526543 0.45304
1 0.514488 0.438468
0.118532 0.606882 0.40972
0.165408 0.629374 0.425345
0.230137 0.647959 0.437232
0.314015 0.662303 0.44506
0.418341 0.672023 0.448554
0.544259 0.676814 0.447562
0.692561 0.676432 0.441962
0.863569 0.670802 0.4318
1 0.659922 0.417151
0.0644694 0.759167 0.371054
0.112764 0.784741 0.38616
0.180987 0.805798 0.397604
0.270191 0.822019 0.40531
0.381186 0.833188 0.409277
0.514199 0.8392 0.409491
0.669154 0.840101 0.405814
0.845884 0.836011 0.397818
1 0.826856 0.384848
0 0.9308 0.306493
0.0456703 0.958404 0.323919
0.119631 0.980926 0.338323
0.214969 0.998459 0.34931
0.331197 1 0.356252
0.468162 1 0.358328
0.62649 1 0.354849
0.807431 1 0.34519
1 1 0.328832
0.00129702 0.00128176 0.0360571
0.0206607 0.0168002 0.0704356
0.057557 0.0398413 0.123095
0.112825 0.0650187 0.187778
0.186801 0.0872969 0.25565
0.276936 0.10277 0.315984
0.376303 0.109056 0.358129
0.474235 0.105974 0.374533
0.58265 0.0978408 0.380941
0.0807965 0.0900435 0.219425
0.124697 0.120439 0.292241
0.178378 0.144106 0.355077
0.2383 0.15787 0.397055
0.301442 0.162203 0.416312
0.377523 0.163195 0.431327
0.469078 0.160922 0.443168
0.577829 0.154971 0.451255
0.705409 0.144869 0.455055
0.144289 0.194491 0.408225
0.17911 0.206165 0.432425
0.224918 0.215808 0.454704
0.283299 0.22298 0.474571
0.355871 0.227268 0.491478
0.444251 0.228229 0.504891
0.550042 0.225437 0.51429
0.674632 0.21857 0.519097
0.819623 0.207156 0.518975
0.160174 0.269673 0.47512
0.198932 0.283635 0.499413
0.250614 0.295064 0.521004
0.316762 0.303548 0.5393
0.398917 0.308675 0.553933
0.498543 0.310063 0.564401
0.617105 0.307301 0.570321
0.755947 0.300038 0.571267
0.916411 0.287922 0.566903
0.162371 0.362188 0.526497
0.204562 0.378729 0.549477
0.261494 0.392248 0.569116
0.334615 0.40238 0.584985
0.425315 0.408713 0.59675
0.534981 0.410895 0.604013
0.664958 0.40856 0.606424
0.816602 0.401343 0.603662
0.991135 0.388891 0.595361
0.148074 0.47361 0.554788
0.193027 0.492973 0.575998
0.254383 0.508858 0.593515
0.333486 0.520912 0.606989
0.431617 0.528771 0.616083
0.550149 0.532082 0.620432
0.690349 0.530495 0.619684
0.8533 0.523705 0.61355
1 0.511528 0.601755
0.115068 0.605035 0.555886
0.161822 0.627482 0.57557
0.226596 0.645991 0.591272
0.310658 0.660243 0.602655
0.415335 0.669856 0.609415
0.541695 0.67454 0.611307
0.69044 0.674113 0.608179
0.861845 0.668482 0.600015
1 0.657694 0.586877
0.0610819 0.757351 0.527474
0.109407 0.782895 0.546075
0.177874 0.803891 0.560586
0.267475 0.820066 0.570901
0.378912 0.831205 0.576944
0.512337 0.837263 0.578668
0.667567 0.838315 0.576013
0.844526 0.834409 0.568658
1 0.825437 0.556146
0 0.928878 0.470161
0.0442054 0.956481 0.489845
0.118517 0.979049 0.505898
0.213993 0.99675 0.517998
0.330175 1 0.525689
0.467048 1 0.528405
0.625376 1 0.525612
0.806561 1 0.516762
1 1 0.501366
0.0040589 0.00401312 0.063035
0.0271611 0.0224002 0.112413
0.0668498 0.0464027 0.182361
0.123995 0.0708171 0.264759
0.198444 0.0910201 0.348318
0.286809 0.103639 0.419562
0.381216 0.107012 0.465446
0.47541 0.102342 0.483253
0.584833 0.0936446 0.49543
0.0866255 0.0968338 0.303273
0.129549 0.124971 0.390753
0.181155 0.145434 0.462394
0.237293 0.155688 0.505104
0.299886 0.159106 0.528817
0.37644 0.159655 0.549935
0.468635 0.156924 0.567864
0.578164 0.150439 0.581979
0.706661 0.139788 0.591714
0.141436 0.191943 0.517037
0.176089 0.203357 0.547616
0.221881 0.21268 0.576288
0.2804 0.219501 0.602518
0.353246 0.223377 0.625727
0.442054 0.223926 0.645335
0.548333 0.220722 0.660655
0.673655 0.213367 0.671305
0.819409 0.20148 0.676753
0.156283 0.266407 0.605081
0.194827 0.280095 0.635966
0.246448 0.291203 0.663981
0.312703 0.299367 0.688472
0.395087 0.304143 0.709102
0.495079 0.30515 0.725353
0.614115 0.302022 0.736782
0.753552 0.294377 0.742992
0.914717 0.281865 0.743664
0.157534 0.358206 0.677058
0.199512 0.374502 0.706279
0.256367 0.387778 0.731899
0.329549 0.397635 0.753506
0.420447 0.403677 0.770718
0.530434 0.40557 0.783185
0.660838 0.40293 0.79057
0.813016 0.395392 0.792538
0.988205 0.382635 0.788724
0.14258 0.469047 0.723934
0.187289 0.488228 0.750851
0.248554 0.503929 0.773785
0.327672 0.51577 0.792432
0.425971 0.523415 0.806439
0.544762 0.526497 0.815457
0.685328 0.524681 0.81912
0.848707 0.517693 0.816983
1 0.505348 0.808759
0.109163 0.600061 0.741207
0.155673 0.62237 0.766049
0.220325 0.640757 0.786633
0.304417 0.654856 0.802594
0.409277 0.664332 0.813489
0.535897 0.668894 0.819028
0.684932 0.668391 0.818952
0.85655 0.662776 0.813184
1 0.65211 0.801816
0.0552682 0.752056 0.726436
0.103487 0.777523 0.749371
0.172061 0.798428 0.767681
0.261952 0.814527 0.781125
0.373648 0.825666 0.789609
0.507286 0.831815 0.793133
0.662623 0.833036 0.791745
0.839673 0.829313 0.785397
1 0.820493 0.773877
0 0.923247 0.678462
0.0402991 0.950835 0.700755
0.114748 0.973495 0.718715
0.210147 0.991409 0.73225
0.326055 1 0.741146
0.462654 1 0.745098
0.620844 1 0.743694
0.802106 1 0.736507
1 1 0.723003
0.00747692 0.00738537 0.102129
0.0335241 0.0277867 0.170687
0.0751965 0.0519112 0.262089
0.133333 0.0748455 0.365515
0.207233 0.0924239 0.466453
0.292744 0.101961 0.548074
0.38114 0.10251 0.594827
0.474342 0.0968643 0.617578
0.584604 0.0875257 0.637018
0.090425 0.101579 0.411795
0.131777 0.126894 0.514717
0.180697 0.143908 0.593835
0.233463 0.151141 0.636347
0.296208 0.154086 0.667597
0.373068 0.154116 0.696315
0.465705 0.150805 0.721813
0.57583 0.143709 0.743465
0.705043 0.132433 0.760586
0.136782 0.187488 0.651209
0.171099 0.19852 0.689662
0.216709 0.207431 0.726253
0.275166 0.213779 0.760357
0.348104 0.217182 0.791363
0.437156 0.217197 0.818631
0.543786 0.213474 0.841352
0.669581 0.20557 0.859205
0.8159 0.193149 0.87158
0.150256 0.260792 0.765499
0.188434 0.274098 0.804456
0.239826 0.28481 0.840391
0.306004 0.292546 0.87248
0.388434 0.296895 0.900526
0.488594 0.297459 0.923903
0.607904 0.293873 0.942184
0.747723 0.285771 0.954971
0.909392 0.272801 0.961913
0.150317 0.351476 0.862943
0.191897 0.367437 0.899825
0.248508 0.380377 0.932784
0.321569 0.389868 0.961456
0.412467 0.39556 0.985428
0.522576 0.397086 1
0.653208 0.39408 1
0.805722 0.38616 1
0.981369 0.373007 1
0.134508 0.461341 0.932921
0.17879 0.480262 0.966857
0.239765 0.495689 0.996506
0.3187 0.507256 1
0.416968 0.514611 1
0.535851 0.517403 1
0.676585 0.515312 1
0.840177 0.50808 1
1 0.495567 1
0.100542 0.591546 0.970565
0.146563 0.613687 1
0.21088 0.631876 1
0.294881 0.645762 1
0.399756 0.655039 1
0.526482 0.659464 1
0.675624 0.658885 1
0.847272 0.653315 1
1 0.642786 1
0.0466163 0.742885 0.973144
0.0946059 0.768231 1
0.163134 0.789014 1
0.253117 0.805035 1
0.364965 0.81619 1
0.49865 0.822431 1
0.65391 0.823835 1
0.830884 0.82031 1
1 0.811612 1
0 0.913481 0.936584
0.0335088 0.9411 0.961807
0.107866 0.963882 0.981994
0.202945 0.982025 0.997375
0.318395 0.995605 1
0.45452 1 1
0.612406 1 1
0.793606 1 1
1 1 1
