assets/cube/green_2025.cube
TITLE "Generated by Resolve"
LUT_3D_SIZE 5
0 0 0
0.00801099 0.00260929 0.00262455
0.0892042 0.0391241 0.0381323
0.268864 0.0817426 0.0773327
0.52314 0.0948653 0.0868238
0.120256 0.15903 0.111208
0.212284 0.204013 0.139422
0.334569 0.217166 0.146212
0.515831 0.218097 0.1411
0.769039 0.203296 0.120836
0.158679 0.345205 0.144579
0.253208 0.375723 0.15758
0.408621 0.393393 0.159365
0.636484 0.395056 0.147066
0.947662 0.377783 0.117784
0.113863 0.581552 0.100633
0.22118 0.622156 0.113313
0.401892 0.646403 0.112703
0.666239 0.651453 0.0966201
1 0.635111 0.0649729
0 0.898024 0
0.102388 0.94844 0
0.306722 0.978058 0.00999466
0.596994 0.987503 0.0112001
0.974868 0.977188 0
0 0 0
0.0207828 0.0120699 0.0159152
0.123323 0.0574655 0.0685588
0.31577 0.0965286 0.118334
0.554833 0.10042 0.129824
0.135088 0.179492 0.157549
0.220813 0.212192 0.185733
0.347005 0.225162 0.195819
0.533791 0.225483 0.193378
0.793851 0.209751 0.175067
0.164141 0.356725 0.197436
0.261295 0.387427 0.213809
0.420722 0.404959 0.218143
0.653834 0.406195 0.207477
0.97145 0.388235 0.178927
0.118563 0.597223 0.158267
0.228473 0.638148 0.173007
0.413138 0.662394 0.173617
0.682521 0.667155 0.158404
1 0.650553 0.12755
0 0.918074 0.03122
0.111833 0.968277 0.0550088
0.320424 0.997818 0.0698253
0.613901 1 0.0692454
0.996078 0.997879 0.0449378
0 0 0.00852979
0.0382086 0.0254215 0.0499886
0.157275 0.0745708 0.13254
0.35314 0.106447 0.204623
0.572106 0.101518 0.220096
0.143816 0.192187 0.250645
0.22562 0.216739 0.283085
0.354772 0.229191 0.302327
0.545907 0.228672 0.308385
0.811444 0.211841 0.297627
0.166171 0.363119 0.315068
0.264881 0.393744 0.340551
0.427146 0.410925 0.352758
0.664225 0.411627 0.348714
0.986862 0.392935 0.325521
0.120012 0.605951 0.297841
0.231388 0.647059 0.319463
0.418708 0.671244 0.325719
0.691661 0.675792 0.315053
1 0.65919 0.287495
0 0.929381 0.182269
0.118563 0.979492 0.210788
0.329595 1 0.227375
0.624628 1 0.225666
1 1 0.199252
0.00129702 0.00128176 0.0360571
0.057557 0.0398413 0.123095
0.186801 0.0872969 0.25565
0.376303 0.109056 0.358129
0.58265 0.0978408 0.380941
0.144289 0.194491 0.408225
0.224918 0.215808 0.454704
0.355871 0.227268 0.491478
0.550042 0.225437 0.51429
0.819623 0.207156 0.518975
0.162371 0.362188 0.526497
0.261494 0.392248 0.569116
0.425315 0.408713 0.59675
0.664958 0.40856 0.606424
0.991135 0.388891 0.595361
0.115068 0.605035 0.555886
0.226596 0.645991 0.591272
0.415335 0.669856 0.609415
0.69044 0.674113 0.608179
1 0.657694 0.586877
0 0.928878 0.470161
0.118517 0.979049 0.505898
0.330175 1 0.525689
0.625376 1 0.525612
1 1 0.501366
0.00747692 0.00738537 0.102129
0.0751965 0.0519112 0.262089
0.207233 0.0924239 0.466453
0.38114 0.10251 0.594827
0.584604 0.0875257 0.637018
0.136782 0.187488 0.651209
0.216709 0.207431 0.726253
0.348104 0.217182 0.791363
0.543786 0.213474 0.841352
0.8159 0.193149 0.87158
0.150317 0.351476 0.862943
0.248508 0.380377 0.932784
0.412467 0.39556 0.985428
0.653208 0.39408 1
0.981369 0.373007 1
0.100542 0.591546 0.970565
0.21088 0.631876 1
0.399756 0.655039 1
0.675624 0.658885 1
1 0.642786 1
0 0.913481 0.936584
0.107866 0.963882 0.981994
0.318395 0.995605 1
0.612406 1 1
1 1 1
