assets/cube/green_day_02.cube
TITLE "Generated by Resolve"
LUT_3D_SIZE 9
0 0 0
0 0 0
0 0 0
0 0 0
0 0 0
0 0 0
0 0 0
0 0 0
0 0 0
0 0 0
0 0 0
0 0 0
0 0 0
0 0 0
0 0 0
0.000396735 0 0
0.0686809 0.00434882 0
0.208484 0.000808728 0
0 0 0
0 0 0
0 0 0
0.00447089 0.00190738 0
0.0528878 0.0219272 0
0.136049 0.035996 0
0.261524 0.0419776 0
0.42771 0.0393378 0
0.627283 0.0294804 0
0.00288396 0.0139925 0
0.0238804 0.0440986 0
0.052842 0.0759747 0
0.109575 0.103441 0
0.198901 0.124208 0
0.318593 0.137819 0
0.462715 0.14638 0
0.620417 0.152132 0
0.781064 0.157443 0
0 0.163577 0
0.0185092 0.19707 0
0.0634928 0.233341 0
0.146593 0.259831 0
0.255497 0.279377 0
0.380026 0.29546 0
0.51725 0.310094 0
0.667247 0.32285 0
0.830701 0.333196 0
0 0.355154 0
0 0.378836 0
0.0710765 0.409308 0
0.172198 0.43447 0
0.288808 0.456596 0
0.418967 0.47718 0
0.561318 0.495995 0
0.71603 0.51252 0
0.88455 0.52694 0
0 0.536187 0
0.0131075 0.564004 0
0.0957809 0.59794 0
0.203647 0.626719 0
0.326009 0.652491 0
0.461448 0.676722 0
0.608789 0.699123 0
0.768139 0.718959 0
0.941466 0.736873 0.0120699
0 0.734478 0
0.0327611 0.767651 0
0.123445 0.804318 0
0.2374 0.835676 0
0.365545 0.865125 0
0.506004 0.892576 0.00387579
0.658076 0.918151 0.0235294
0.821973 0.941054 0.0409552
0.999771 0.961975 0.0566262
0 0.950225 0
0.054139 0.988022 0
0.152972 1 0
0.272831 1 0
0.406104 1 0.018967
0.551247 1 0.0426184
0.707683 1 0.0641184
0.875914 1 0.0834211
1 1 0.100923
0 0 0
0 0 0
0 0 0
0 0 0
0 0 0
0 0 0
0 0 0
0 0 0
0 0 0
0 0 0
0 0 0
0 0 0
0 0 0
0 0 0
0 0 0
0.0128176 0 0.00047303
0.105837 0.00564584 0.00900282
0.258091 0 0.00573739
0 0 0
0 0 0
0 0 0
0.0175174 0.0100862 0.00665293
0.07187 0.0284428 0.0173037
0.161471 0.0401465 0.0197147
0.291859 0.0439155 0.0137942
0.46006 0.0399023 0.000976577
0.657023 0.0297856 0
0.00523384 0.0256046 0.00816358
0.028397 0.0547341 0.0133516
0.0585794 0.0857099 0.0160678
0.118013 0.111391 0.0131533
0.209522 0.130114 0.00643931
0.330785 0.142992 0
0.473594 0.151537 0
0.626902 0.158526 0
0.785794 0.16492 0
0 0.176287 0
0.0172732 0.207065 0
0.065507 0.241382 0
0.151202 0.266636 0
0.261036 0.285664 0
0.385946 0.302586 0.00999466
0.52343 0.317861 0.0214389
0.673609 0.331136 0.0310674
0.837461 0.342168 0.03888
0 0.363104 0
0.00323491 0.385565 0
0.0784772 0.416327 0
0.179583 0.442023 0.00881971
0.296391 0.464775 0.0272984
0.426764 0.485939 0.0434424
0.56939 0.505333 0.057557
0.724224 0.522271 0.0695811
0.893172 0.537346 0.079942
0 0.544564 0
0.0220035 0.572503 0
0.10486 0.606683 0.0130617
0.212573 0.63563 0.0383154
0.335317 0.662242 0.0595102
0.470985 0.687007 0.0780346
0.618463 0.709789 0.094316
0.77821 0.730266 0.108507
0.951843 0.748684 0.120912
0 0.744762 0
0.0435035 0.777737 0.00267033
0.134081 0.814649 0.041413
0.248112 0.846403 0.0690776
0.376455 0.876341 0.0925612
0.517174 0.904295 0.11313
0.669154 0.929915 0.131197
0.833707 0.953735 0.147295
1 0.975158 0.16141
0 0.962264 0
0.0666667 0.999557 0.0286717
0.165103 1 0.0704509
0.285069 1 0.100343
0.418555 1 0.125795
0.563973 1 0.148119
0.720317 1 0.167773
0.88925 1 0.185351
1 1 0.200839
0 0 0
0 0 0
0 0 0
0 0 0
0 0 0
0 0 0
0 0 0
0 0 0
0 0 0
0 0 0
0 0 0
0 0 0
0 0 0
0 0 0
0 0 0
0.0377203 0.00387579 0.00933852
0.144518 0.00607309 0.0243229
0.308537 0 0.0298466
0 0 0
0 0 0
0 0 0
0.0304265 0.0176852 0.018204
0.0900587 0.0346227 0.0359655
0.186145 0.044892 0.0472877
0.320974 0.0473487 0.0509957
0.490135 0.04271 0.0477913
0.685557 0.0332341 0.0398566
0.00650034 0.03682 0.0209506
0.0323186 0.0656901 0.0340124
0.0644388 0.0961166 0.0463569
0.127031 0.120806 0.0532998
0.221378 0.138613 0.0557717
0.343832 0.15111 0.0561532
0.485267 0.160113 0.0573892
0.63415 0.168124 0.0625925
0.793698 0.175372 0.0686961
0 0.189349 0.0242161
0.0177462 0.218952 0.0266117
0.0700236 0.252094 0.0388952
0.158572 0.276585 0.0511025
0.269444 0.295689 0.066392
0.39469 0.313085 0.0805524
0.532479 0.328817 0.0930343
0.682689 0.34226 0.103639
0.847105 0.353933 0.112734
0 0.372671 0.00250248
0.0116121 0.39556 0.0277867
0.0877852 0.426795 0.057969
0.188983 0.452583 0.0805371
0.306355 0.476173 0.0999619
0.437034 0.497734 0.117098
0.579934 0.517479 0.132403
0.735042 0.534783 0.145678
0.904234 0.550195 0.157366
0 0.55523 0.0239414
0.0319677 0.583734 0.0547494
0.115526 0.618418 0.0883955
0.223468 0.647623 0.113771
0.346624 0.674769 0.135882
0.482567 0.69987 0.155581
0.630182 0.722835 0.173175
0.790265 0.743725 0.188937
0.964111 0.762417 0.202914
0 0.756558 0.049134
0.0548562 0.78996 0.0846571
0.145876 0.827298 0.121065
0.260288 0.859556 0.148913
0.388922 0.889815 0.173358
0.52987 0.918044 0.195315
0.681987 0.943816 0.214954
0.846815 0.967956 0.232959
1 0.989593 0.249012
0 0.97499 0.0767071
0.0792859 1 0.116213
0.177798 1 0.154833
0.298283 1 0.185
0.432029 1 0.211566
0.577478 1 0.235447
0.734173 1 0.257191
0.903258 1 0.277134
1 1 0.295079
0 0 0
0 0 0
0 0 0
0 0 0
0 0 0
0 0 0
0 0 0
0 0 0
0.00062562 0 0
0 0 0
0 0 0
0 0 0
0 0 0
0 0 0
0.00177005 0 0
0.0663767 0.00663767 0.0265965
0.185626 0.00503548 0.053666
0.360128 0 0.0730907
0 0 0
0 0 0
0.00630198 0.00480659 0.00799573
0.0438392 0.0249027 0.0396887
0.108965 0.0400702 0.0699626
0.210529 0.0483864 0.0950484
0.349004 0.0493324 0.112276
0.518654 0.0440986 0.121172
0.711299 0.0353399 0.123507
0.00643931 0.0480964 0.0457618
0.0352026 0.0759442 0.0717479
0.0691386 0.10544 0.097612
0.134691 0.128649 0.117281
0.23183 0.145556 0.131029
0.355184 0.157641 0.140597
0.494926 0.167239 0.148531
0.641611 0.176287 0.156893
0.801633 0.183948 0.164157
0 0.201129 0.0939193
0.0173037 0.229007 0.106233
0.0734417 0.261036 0.125597
0.164767 0.284443 0.142702
0.276783 0.304204 0.159762
0.402548 0.322011 0.174975
0.540551 0.337835 0.188434
0.691524 0.351919 0.200366
0.856382 0.363928 0.210544
0 0.380652 0.100679
0.0180667 0.404273 0.124605
0.0951705 0.435996 0.153552
0.197009 0.462181 0.176303
0.314946 0.486122 0.19649
0.446128 0.508019 0.214618
0.589075 0.527626 0.230686
0.745052 0.545678 0.245335
0.914687 0.561395 0.258045
0 0.564736 0.125628
0.0396124 0.593851 0.155001
0.124041 0.628946 0.187396
0.232624 0.658488 0.212924
0.356313 0.685939 0.235721
0.492744 0.71133 0.256336
0.640604 0.73431 0.274784
0.801328 0.755703 0.291722
0.975586 0.774655 0.306661
0 0.767407 0.154177
0.0635691 0.801266 0.188174
0.155215 0.83856 0.223087
0.270451 0.871534 0.251316
0.399619 0.902052 0.276417
0.540993 0.930465 0.299199
0.693584 0.956527 0.319783
0.858839 0.980926 0.338781
1 1 0.355749
0 0.987106 0.184848
0.0889906 1 0.222705
0.18822 1 0.259998
0.309392 1 0.290379
0.443641 1 0.31754
0.589456 1 0.342138
0.746685 1 0.364858
0.916182 1 0.385748
1 1 0.404486
0 0 0
0 0 0
0 0 0
0 0 0
0 0 0
0 0 0
0 0 0
0 0 0
0.00895705 0 0.000717174
0 0 0
0 0 0
0 0 0
0 0 0
0 0 0
0.0173037 0.0019379 0.0123903
0.0973831 0.00813306 0.0550698
0.227314 0.00268559 0.0973983
0.411002 0 0.133074
0 0 0
0 0 0
0.016022 0.012665 0.0274662
0.0572671 0.0313878 0.0735485
0.127565 0.0445869 0.1196
0.233875 0.0509346 0.160189
0.375174 0.0505531 0.191363
0.544518 0.0450141 0.211612
0.733516 0.0373388 0.222675
0.00509651 0.0589609 0.0842145
0.0371252 0.085359 0.12578
0.0728618 0.113756 0.16669
0.141344 0.135439 0.199161
0.241062 0.151553 0.223484
0.364996 0.163516 0.240452
0.50248 0.173907 0.25243
0.648951 0.183764 0.262135
0.809537 0.191836 0.270283
0 0.211582 0.180743
0.0168612 0.237858 0.20209
0.0768749 0.268879 0.226993
0.170993 0.29192 0.246693
0.28368 0.312108 0.264408
0.410056 0.330312 0.28043
0.548516 0.346395 0.294652
0.70013 0.360937 0.307515
0.865507 0.373281 0.318517
0 0.38819 0.208438
0.0238956 0.412543 0.231601
0.101717 0.444404 0.259602
0.204456 0.471214 0.28278
0.323049 0.495506 0.303548
0.454795 0.517739 0.322423
0.598276 0.537652 0.339269
0.754772 0.556008 0.354726
0.924895 0.572 0.3682
0 0.573846 0.236118
0.0465095 0.603571 0.264652
0.131579 0.638529 0.295918
0.241138 0.668864 0.32195
0.365454 0.696605 0.345296
0.502129 0.721874 0.366308
0.650828 0.745525 0.385779
0.812039 0.767178 0.403479
0.98677 0.786374 0.41915
0 0.777935 0.267292
0.0714427 0.812284 0.300359
0.163989 0.849867 0.334432
0.279942 0.883085 0.362829
0.40972 0.913863 0.388418
0.551278 0.942031 0.411521
0.704738 0.968811 0.433127
0.870481 0.993423 0.452873
1 1 0.470527
0 0.998978 0.300435
0.0977188 1 0.337194
0.19791 1 0.373648
0.319799 1 0.40415
0.454643 1 0.431785
0.600839 1 0.45684
0.758709 1 0.480369
0.928679 1 0.501976
1 1 0.52108
0 0 0
0 0 0
0 0 0
0 0 0
0 0 0
0 0 0
0 0 0
0 0 0
0.0374456 0 0.0189212
0 0 0
0 0 0
0 0 0
0 0 0
0 0 0
0.0392004 0.00575265 0.0375219
0.130297 0.00816358 0.0975967
0.270115 0 0.157778
0.460197 0 0.210285
0 0 0
0 0 0.00434882
0.0255741 0.0199893 0.0584421
0.0701457 0.0368811 0.121736
0.145434 0.0481117 0.185916
0.255818 0.0525978 0.242435
0.398352 0.0510414 0.286198
0.56759 0.0457618 0.316808
0.751934 0.0395972 0.334173
0.00250248 0.0691539 0.138369
0.0380865 0.0938125 0.196796
0.0757305 0.121035 0.25272
0.14725 0.141482 0.297108
0.249165 0.156878 0.330022
0.373358 0.169024 0.351858
0.508812 0.180301 0.364981
0.656138 0.190799 0.375708
0.817304 0.199283 0.384619
0 0.220783 0.28275
0.0167544 0.245655 0.311147
0.0806592 0.275837 0.338949
0.176913 0.299001 0.359213
0.290288 0.3196 0.377508
0.417288 0.33817 0.394217
0.556313 0.354604 0.409125
0.708522 0.369528 0.422766
0.874449 0.382208 0.43447
0 0.395361 0.323919
0.0293278 0.420432 0.346593
0.107927 0.452537 0.373922
0.211536 0.479866 0.397467
0.330785 0.504494 0.418753
0.462959 0.526818 0.438056
0.607187 0.547265 0.455756
0.764233 0.565911 0.471916
0.934798 0.582132 0.486
0 0.582635 0.353979
0.0529335 0.612879 0.381872
0.138918 0.648249 0.412619
0.249256 0.678859 0.438849
0.374228 0.706889 0.462638
0.511391 0.732326 0.484154
0.660731 0.756344 0.504326
0.822477 0.778256 0.522698
0.99736 0.79736 0.53872
0 0.788159 0.387472
0.0786603 0.822568 0.419562
0.172305 0.860822 0.453285
0.289006 0.894286 0.481834
0.419425 0.925292 0.507851
0.561547 0.953704 0.531472
0.715557 0.980713 0.553704
0.881804 1 0.57406
1 1 0.591913
0.00198367 1 0.422797
0.105714 1 0.458289
0.207126 1 0.494469
0.329747 1 0.525109
0.464866 1 0.552758
0.611994 1 0.578698
0.770382 1 0.602808
0.940841 1 0.62501
1 1 0.644663
0 0 0
0 0 0
0 0 0
0 0 0
0 0 0
0 0 0
0 0 0
0.00247196 0 1.5259e-05
0.0789349 0 0.0509651
0 0 0
0 0 0
0 0 0
0 0 0
0.00447089 0 0.00802625
0.0631266 0.00814832 0.0761425
0.16347 0.00674449 0.155947
0.312276 0 0.235981
0.507012 0 0.305196
0 0 0
0.00782788 0.00750744 0.0294499
0.0345617 0.0264591 0.103273
0.0827039 0.0414893 0.187213
0.16228 0.0506142 0.269917
0.276112 0.0534676 0.341802
0.419989 0.0512093 0.39704
0.587488 0.046479 0.435187
0.76643 0.042359 0.45597
0 0.0784161 0.209934
0.0381476 0.101183 0.285435
0.0776684 0.12697 0.354681
0.1523 0.146654 0.409903
0.256245 0.161639 0.448859
0.380377 0.174365 0.472511
0.515206 0.186542 0.485481
0.663127 0.197452 0.496925
0.824887 0.206332 0.506523
0 0.228779 0.398795
0.0172274 0.252522 0.43151
0.085008 0.281941 0.458915
0.182559 0.305715 0.47953
0.296635 0.326711 0.498344
0.42388 0.345266 0.515297
0.563897 0.362463 0.531243
0.71667 0.377722 0.545556
0.883162 0.390738 0.557885
0 0.402228 0.446708
0.0345006 0.428 0.469047
0.113909 0.460502 0.495949
0.218311 0.488167 0.519738
0.338247 0.513115 0.541497
0.470817 0.5355 0.561151
0.615824 0.556497 0.579675
0.773419 0.575448 0.596445
0.944396 0.591836 0.611017
0 0.591089 0.478965
0.0590066 0.621805 0.50631
0.145937 0.657618 0.53669
0.257053 0.688502 0.563104
0.38265 0.716762 0.587304
0.520439 0.742504 0.609339
0.670329 0.766796 0.630106
0.832609 0.788968 0.649058
1 0.808164 0.665492
0 0.798032 0.514549
0.0855879 0.832792 0.545983
0.180255 0.871443 0.579309
0.297734 0.905119 0.608026
0.428565 0.936049 0.634165
0.571496 0.965011 0.658518
0.726055 0.992264 0.6813
0.892683 1 0.702113
1 1 0.720577
0.00875868 1 0.551797
0.113481 1 0.586679
0.215961 1 0.622293
0.33933 1 0.653071
0.475059 1 0.681025
0.622782 1 0.707454
0.781704 1 0.732097
0.95227 1 0.754482
1 1 0.774975
0 0 0
0 0 0
0 0 0
0 0 0
0 0 0
0 0 0
0 0 0
0.0153964 0 0.0145724
0.12575 0 0.0988632
0 0 0
0 0 0
0 0 0
0 0 0
0.0208743 0.00392157 0.039765
0.0881666 0.00910964 0.13106
0.19733 0.00387579 0.233463
0.353079 0 0.333623
0.550744 0 0.418647
0 0 0.00367742
0.0151827 0.0144656 0.0688487
0.0429236 0.0319524 0.165606
0.0943923 0.0449378 0.271687
0.177813 0.0520485 0.372885
0.29427 0.0534981 0.458579
0.439017 0.0509804 0.523491
0.604074 0.047303 0.566369
0.776898 0.0457313 0.587213
0 0.0865339 0.300725
0.0373693 0.107362 0.392767
0.0790112 0.132128 0.474311
0.156573 0.150988 0.537377
0.262303 0.165911 0.57937
0.385748 0.179309 0.601022
0.521263 0.19237 0.614588
0.669779 0.203693 0.626719
0.831861 0.212772 0.636744
0 0.235538 0.528588
0.0184176 0.258213 0.562173
0.0895705 0.287816 0.587518
0.187915 0.312001 0.608454
0.302663 0.333394 0.627802
0.430533 0.352316 0.645304
0.57113 0.369879 0.661875
0.724468 0.385489 0.676814
0.891005 0.398413 0.689326
0 0.408667 0.577859
0.0392309 0.434653 0.599496
0.119585 0.468009 0.626505
0.224781 0.49601 0.650538
0.345357 0.521279 0.67274
0.478538 0.543984 0.692912
0.624109 0.565286 0.712016
0.782223 0.584527 0.729366
0.953429 0.600931 0.744228
0 0.599115 0.612177
0.064744 0.630106 0.638926
0.152636 0.666529 0.669154
0.264515 0.697688 0.695781
0.390417 0.725765 0.719966
0.529122 0.752239 0.742885
0.679561 0.776791 0.764202
0.842359 0.799222 0.783703
1 0.818677 0.800641
0 0.807492 0.649744
0.0922713 0.84271 0.68072
0.1879 0.88159 0.713619
0.306127 0.915526 0.742489
0.43743 0.946471 0.768826
0.581079 0.975875 0.793805
0.736171 1 0.817105
0.903197 1 0.838315
1 1 0.857374
0.0149691 1 0.688914
0.120928 1 0.723156
0.224475 1 0.758282
0.348516 1 0.789105
0.484916 1 0.817472
0.633204 1 0.844343
0.79266 1 0.86949
0.963623 1 0.892256
1 1 0.913314
0 0 0
0 0 0
0 0 0
0 0 0
0 0 0
0 0 0
0 0 0.000381476
0.0480354 0 0.0545205
0.175921 0 0.165591
0 0 0
0 0 0
0 0 0
0 0 0.00677501
0.0386358 0.00701915 0.0880446
0.114 0.00836194 0.206088
0.230838 0 0.33254
0.391806 0 0.452338
0.590799 0 0.551659
0.00106813 0.00360113 0.0256199
0.0217594 0.0204929 0.125704
0.0503243 0.0361944 0.248127
0.104936 0.0470893 0.377279
0.191791 0.0523537 0.496208
0.310109 0.0526741 0.593423
0.455238 0.0504158 0.665797
0.617166 0.0482795 0.710109
0.78323 0.0497292 0.72723
0 0.0933089 0.412634
0.0358282 0.112139 0.519661
0.0796674 0.136156 0.611658
0.160098 0.154467 0.679622
0.267384 0.169726 0.721157
0.390738 0.184146 0.739452
0.526879 0.197681 0.753719
0.675975 0.20943 0.766522
0.838483 0.218799 0.777035
0 0.241047 0.672129
0.0205997 0.263142 0.703029
0.093843 0.293156 0.726177
0.19292 0.317754 0.747433
0.308141 0.339361 0.767071
0.436759 0.358846 0.785336
0.577905 0.376776 0.802502
0.731777 0.392721 0.818051
0.898848 0.405997 0.831113
0 0.414572 0.718868
0.0438697 0.441199 0.740276
0.124956 0.474952 0.76701
0.230869 0.503288 0.791302
0.35172 0.528435 0.813489
0.485817 0.551919 0.834623
0.631922 0.573541 0.854276
0.790265 0.592767 0.8719
0.962264 0.609766 0.887572
0 0.606226 0.754879
0.0703136 0.638132 0.781613
0.158999 0.674861 0.811505
0.271595 0.706325 0.838346
0.398108 0.734676 0.862913
0.537377 0.761425 0.88632
0.688334 0.786252 0.908156
0.851148 0.808423 0.927718
1 0.828641 0.945602
0 0.815824 0.794217
0.0986801 0.852033 0.825223
0.195193 0.891157 0.85774
0.314122 0.925338 0.886793
0.446021 0.956527 0.913466
0.590219 0.986191 0.938903
0.74583 1 0.962692
0.913085 1 0.984161
1 1 1
0.0212863 1 0.835462
0.128069 1 0.869337
0.232639 1 0.904036
0.357076 1 0.934615
0.494377 1 0.963699
0.643198 1 0.990997
0.803113 1 1
0.974578 1 1
1 1 1
