assets/cube/green_day_02.cube
TITLE "Generated by Resolve"
LUT_3D_SIZE 33
0 0 0
0 0 0
0 0 0
0 0 0
0 0 0
0 0 0
0 0 0
0 0 0
0 0 0
0 0 0
0 0 0
0 0 0
0 0 0
0 0 0
0 0 0
0 0 0
0 0 0
0 0 0
0 0 0
0 0 0
0 0 0
0 0 0
0 0 0
0 0 0
0 0 0
0 0 0
0 0 0
0 0 0
0 0 0
0 0 0
0 0 0
0 0 0
0 0 0
0 0 0
0 0 0
0 0 0
0 0 0
0 0 0
0 0 0
0 0 0
0 0 0
0 0 0
0 0 0
0 0 0
0 0 0
0 0 0
0 0 0
0 0 0
0 0 0
0 0 0
0 0 0
0 0 0
0 0 0
0 0 0
0 0 0
0 0 0
0 0 0
0 0 0
0 0 0
0 0 0
0 0 0
0 0 0
0 0 0
0 0 0
0 0 0
0 0 0
0 0 0
0 0 0
0 0 0
0 0 0
0 0 0
0 0 0
0 0 0
0 0 0
0 0 0
0 0 0
0 0 0
0 0 0
0 0 0
0 0 0
0 0 0
0 0 0
0 0 0
0 0 0
0 0 0
0 0 0
0 0 0
0 0 0
0 0 0
0 0 0
0 0 0
0 0 0
0 0 0
0 0 0
0 0 0
0 0 0
0 0 0
0.00572213 0 0
0.0138247 0 0
0 0 0
0 0 0
0 0 0
0 0 0
0 0 0
0 0 0
0 0 0
0 0 0
0 0 0
0 0 0
0 0 0
0 0 0
0 0 0
0 0 0
0 0 0
0 0 0
0 0 0
0 0 0
0 0 0
0 0 0
0 0 0
0 0 0
0 0 0
0 0 0
0 0 0
0 0 0
0 0 0
0 0 0
0.00605783 0 0
0.0190433 0 0
0.0419776 0.000579843 0
0.0691386 0.0010071 0
0.10074 0.000457771 0
0 0 0
0 0 0
0 0 0
0 0 0
0 0 0
0 0 0
0 0 0
0 0 0
0 0 0
0 0 0
0 0 0
0 0 0
0 0 0
0 0 0
0 0 0
0 0 0
0 0 0
0 0 0
0 0 0
0 0 0
0 0 0
0 0 0
0 0 0
0 0 0
0.000396735 0 0
0.00634775 0 0
0.022858 0.00108339 0
0.0439002 0.00311284 0
0.0686809 0.00434882 0
0.0973983 0.00476081 0
0.129732 0.0043946 0
0.166476 0.00306706 0
0.208484 0.000808728 0
0 0 0
0 0 0
0 0 0
0 0 0
0 0 0
0 0 0
0 0 0
0 0 0
0 0 0
0 0 0
0 0 0
0 0 0
0 0 0
0 0 0
0 0 0
0 0 0
0 0 0
0 0 0
0 0 0
0 0 0
0 0 0
0.00108339 0 0
0.00883497 0 0
0.0248264 0.00325017 0
0.0438849 0.00595102 0
0.0670481 0.00810254 0
0.0928511 0.00946059 0
0.121981 0.0101167 0
0.154925 0.00996414 0
0.191562 0.00898756 0
0.231891 0.00721752 0
0.277272 0.00459297 0
0.324788 0.00120546 0
0 0 0
0 0 0
0 0 0
0 0 0
0 0 0
0 0 0
0 0 0
0 0 0
0 0 0
0 0 0
0 0 0
0 0 0
0 0 0
0 0 0
0 0 0
0 0 0
0 0 0
0 0 0
0.0019379 0 0
0.011902 0.00205997 0
0.0263981 0.00588998 0
0.0435645 0.00926223 0
0.0635843 0.0121004 0
0.0863813 0.0144045 0
0.113313 0.016144 0
0.142611 0.0171206 0
0.175204 0.0174105 0
0.211063 0.0169833 0
0.250202 0.0158541 0
0.293751 0.0140383 0
0.339452 0.0115053 0
0.388067 0.00830091 0
0.439399 0.00450141 0
0 0 0
0 0 0
0 0 0
0 0 0
0 0 0
0 0 0
0 0 0
0 0 0
0 0 0
0 0 0
0 0 0
0 0 0
0 0 0
0 0 0
0 0 0
0.00271611 0 0
0.0133822 0.00444038 0
0.0264286 0.00898756 0
0.0414893 0.0130922 0
0.0590219 0.0167697 0
0.0789349 0.0200046 0
0.101732 0.0227054 0
0.127855 0.0249485 0
0.156695 0.0265354 0
0.188174 0.0274815 0
0.222553 0.0278172 0
0.259861 0.0275273 0
0.300023 0.0266117 0
0.343969 0.0251469 0
0.389899 0.0230564 0
0.438132 0.0203861 0
0.488777 0.0171969 0
0.541421 0.0135958 0
0 0 0
0 0 0
0 0 0
0 0 0
0 0 0
0 0 0
0 0 0
0 0 0
0 0 0
0 0 0
0 0 0
0 0 0
0.00447089 0.00190738 0
0.0137942 0.007187 0
0.0247501 0.0122988 0
0.0377356 0.0172427 0
0.0528878 0.0219272 0
0.0699931 0.0261234 0
0.0894942 0.0298924 0
0.111482 0.0331884 0
0.136049 0.035996 0
0.163699 0.0383612 0
0.193927 0.0401617 0
0.226413 0.0413519 0
0.261524 0.0419776 0
0.299168 0.0420691 0
0.339284 0.0416419 0
0.382879 0.0408026 0
0.42771 0.0393378 0
0.474723 0.0374151 0
0.523644 0.0350958 0
0.574395 0.0323644 0
0.627283 0.0294804 0
0 0 0
0 0 0
0 0 0
0 0 0
0 0 0
0 0 0
0 0 0
0 0 0
0 0 0
0.0055848 0.00448615 0
0.0134127 0.0103456 0
0.0225071 0.0161288 0
0.0331121 0.0217746 0
0.0453651 0.0272068 0
0.0599832 0.0326085 0
0.0762341 0.0374304 0
0.094667 0.041886 0
0.115389 0.0459144 0
0.13846 0.049485 0
0.164126 0.0526436 0
0.192599 0.055375 0
0.22298 0.0574655 0
0.255695 0.0590677 0
0.290715 0.0601816 0
0.327962 0.0608072 0
0.367773 0.0610666 0
0.409689 0.0608835 0
0.453025 0.0602121 0
0.498177 0.059144 0
0.544945 0.0577401 0
0.593088 0.0560464 0
0.643107 0.0542153 0
0.693523 0.0522469 0
0 0 0
0 0 0
0 0 0
0 0 0
0 0 0
0.000198367 0.000747692 0
0.00582895 0.00704967 0
0.0123445 0.0137484 0
0.0196078 0.0202182 0
0.0280156 0.026627 0
0.0377356 0.0329442 0
0.0489815 0.0390784 0
0.0620127 0.0449683 0
0.0773327 0.0507973 0
0.094316 0.0560311 0
0.11342 0.060853 0
0.134722 0.0652628 0
0.158251 0.0692302 0
0.184146 0.0727855 0
0.212696 0.0760052 0
0.242985 0.0785534 0
0.275425 0.0806592 0
0.30985 0.0823224 0
0.346227 0.0835737 0
0.384756 0.0844892 0
0.425223 0.0851148 0
0.466743 0.0852522 0
0.509697 0.0850843 0
0.553994 0.0846265 0
0.599405 0.0839551 0
0.646433 0.0833753 0
0.693339 0.0824292 0
0.740307 0.0815442 0
0 0 0
0 0 0
0.000900282 0.00340276 0
0.00579843 0.0100557 0
0.0112459 0.0168765 0
0.016907 0.0239567 0
0.0228733 0.0315404 0
0.0299229 0.0387884 0
0.0383764 0.0458839 0
0.0482948 0.0527962 0
0.0597391 0.0595102 0
0.0729381 0.0659342 0
0.0884413 0.0723125 0
0.105669 0.0780041 0
0.124956 0.083299 0
0.146365 0.0881514 0
0.169924 0.0925612 0
0.196094 0.0968032 0
0.223865 0.100328 0
0.253635 0.10341 0
0.285389 0.10605 0
0.31899 0.108293 0
0.354299 0.110185 0
0.391745 0.111955 0
0.43003 0.113176 0
0.469612 0.114107 0
0.510307 0.114809 0
0.55198 0.115312 0
0.59469 0.115709 0
0.63827 0.116152 0
0.681651 0.116381 0
0.72517 0.116594 0
0.76817 0.117021 0
0.00288396 0.0139925 0
0.00688182 0.0213779 0
0.0118563 0.0287938 0
0.0176699 0.0362402 0
0.0238804 0.0440986 0
0.0298009 0.0522011 0
0.035523 0.0604562 0
0.0432441 0.0683757 0
0.052842 0.0759747 0
0.0641947 0.0832685 0
0.0774701 0.0905623 0
0.0925002 0.0972457 0
0.109575 0.103441 0
0.12874 0.109224 0
0.149935 0.114549 0
0.17319 0.119448 0
0.198901 0.124208 0
0.226139 0.128206 0
0.255222 0.131807 0
0.286061 0.135012 0
0.318593 0.137819 0
0.352667 0.140291 0
0.388571 0.142779 0
0.425116 0.144686 0
0.462715 0.14638 0
0.501167 0.147906 0
0.540276 0.149279 0
0.579995 0.150637 0
0.620417 0.152132 0
0.660441 0.153414 0
0.700221 0.154788 0
0.740383 0.15613 0
0.781064 0.157443 0
0.00541695 0.0433967 0
0.0105135 0.0514992 0
0.0167849 0.0595102 0
0.0238346 0.0677806 0
0.030808 0.0762188 0
0.0369268 0.084947 0
0.0426184 0.0939956 0
0.0511177 0.102419 0
0.0619669 0.110353 0
0.0749218 0.118166 0
0.0896315 0.125414 0
0.106279 0.132143 0
0.125078 0.138399 0
0.145937 0.144183 0
0.16875 0.149523 0
0.193881 0.154772 0
0.220493 0.159243 0
0.248814 0.163302 0
0.278752 0.166995 0
0.310155 0.170352 0
0.343389 0.173678 0
0.377401 0.176471 0
0.412268 0.179019 0
0.447944 0.181399 0
0.484245 0.183658 0
0.520974 0.185824 0
0.558328 0.188327 0
0.595346 0.190494 0
0.633158 0.192523 0
0.67187 0.19443 0
0.711391 0.196231 0
0.751904 0.19791 0
0.793317 0.199863 0
0 0.078584 0
0.00689708 0.0870375 0
0.0150607 0.0957656 0
0.0236973 0.104128 0
0.0315862 0.112871 0
0.0382086 0.122133 0
0.0440986 0.131731 0
0.0536812 0.140642 0
0.066041 0.148928 0
0.0804761 0.156497 0
0.0967422 0.163684 0
0.115023 0.170397 0
0.135439 0.176593 0
0.158038 0.182559 0
0.182391 0.187976 0
0.208392 0.192828 0
0.236027 0.197299 0
0.265126 0.201404 0
0.295537 0.205203 0
0.327443 0.209033 0
0.360159 0.212345 0
0.393591 0.215427 0
0.427527 0.218387 0
0.46186 0.221271 0
0.496574 0.224094 0
0.532494 0.227192 0
0.568826 0.229801 0
0.605982 0.232288 0
0.644114 0.234623 0
0.683131 0.236835 0
0.722972 0.238926 0
0.764218 0.24123 0
0.805493 0.243137 0
0 0.118944 0
0 0.127764 0
0.00735485 0.136065 0
0.0179599 0.144488 0
0.0269017 0.15349 0
0.0344549 0.162997 0
0.0409705 0.173068 0
0.0519265 0.182101 0
0.0659037 0.190112 0
0.082063 0.197574 0
0.100023 0.204623 0
0.119936 0.2112 0
0.142046 0.217472 0
0.166033 0.223209 0
0.191531 0.228382 0
0.21857 0.233158 0
0.246983 0.237598 0
0.27657 0.241733 0
0.30753 0.245991 0
0.338933 0.249683 0
0.371054 0.253178 0
0.40383 0.256596 0
0.437293 0.259922 0
0.471824 0.263432 0
0.506966 0.266651 0
0.542794 0.269673 0
0.579431 0.272572 0
0.616907 0.275349 0
0.65536 0.277974 0
0.695094 0.280812 0
0.735286 0.283207 0
0.776379 0.28542 0
0.81796 0.287587 0
0 0.163577 0
0 0.171756 0
0 0.179782 0
0.00825513 0.188037 0
0.0185092 0.19707 0
0.0272984 0.207065 0
0.0349432 0.216983 0
0.0476234 0.225574 0
0.0634928 0.233341 0
0.081529 0.240528 0
0.101305 0.24744 0
0.123049 0.254047 0
0.146593 0.259831 0
0.171817 0.265187 0
0.198444 0.270161 0
0.226352 0.274815 0
0.255497 0.279377 0
0.285527 0.283711 0
0.316213 0.287739 0
0.347692 0.291661 0
0.380026 0.29546 0
0.413138 0.299153 0
0.447181 0.303029 0
0.481895 0.306676 0
0.51725 0.310094 0
0.553384 0.31339 0
0.590341 0.316564 0
0.628122 0.319631 0
0.667247 0.32285 0
0.706966 0.325673 0
0.747417 0.328298 0
0.788815 0.33077 0
0.830701 0.333196 0
0 0.21059 0
0 0.218219 0
0 0.225772 0
0 0.233677 0
0.00860609 0.243 0
0.019028 0.252323 0
0.0282902 0.262013 0
0.043061 0.270207 0
0.0610208 0.277562 0
0.081117 0.284428 0
0.102876 0.291142 0
0.126192 0.297078 0
0.151247 0.302525 0
0.177752 0.307576 0
0.205341 0.312383 0
0.233982 0.317189 0
0.263569 0.321981 0
0.293782 0.32639 0
0.324804 0.330709 0
0.356619 0.33492 0
0.389288 0.338994 0
0.423117 0.343374 0
0.457237 0.347265 0
0.492134 0.351049 0
0.527794 0.354742 0
0.564263 0.358312 0
0.601755 0.361975 0
0.640055 0.365484 0
0.679133 0.368627 0
0.719066 0.371633 0
0.759823 0.374517 0
0.801526 0.377234 0
0.844068 0.380224 0
0 0.259007 0
0 0.265919 0
0 0.272831 0
0 0.280674 0
0 0.289158 0
0.0121309 0.29807 0
0.0235752 0.307271 0
0.0407111 0.314885 0
0.0611582 0.322087 0
0.0834058 0.328313 0
0.106966 0.334173 0
0.131746 0.339788 0
0.157763 0.345174 0
0.184863 0.350439 0
0.213107 0.355871 0
0.241993 0.360815 0
0.271748 0.365637 0
0.302312 0.370321 0
0.333684 0.374914 0
0.365927 0.379522 0
0.399207 0.384146 0
0.43299 0.388388 0
0.46743 0.392554 0
0.502647 0.396612 0
0.538628 0.400549 0
0.575601 0.404562 0
0.613397 0.408484 0
0.651804 0.41207 0
0.691188 0.415457 0
0.731441 0.418708 0
0.772488 0.421836 0
0.814801 0.425071 0
0.857466 0.428153 0
0 0.3075 0
0 0.313954 0
0 0.320165 0
0 0.326894 0
0 0.334783 0
0.00935378 0.34313 0
0.0234989 0.351568 0
0.0434119 0.358907 0
0.0655833 0.365255 0
0.0889906 0.371389 0
0.113146 0.377447 0
0.138338 0.383322 0
0.164752 0.388983 0
0.192493 0.394888 0
0.220844 0.400229 0
0.250095 0.405432 0
0.280201 0.410513 0
0.311116 0.415473 0
0.342885 0.420401 0
0.375662 0.425483 0
0.409018 0.430076 0
0.443122 0.434577 0
0.477882 0.438987 0
0.513405 0.44329 0
0.550118 0.447913 0
0.587213 0.451987 0
0.625101 0.455924 0
0.663813 0.459739 0
0.703487 0.463386 0
0.744213 0.467033 0
0.78587 0.470665 0
0.828168 0.473854 0
0.870954 0.477012 0
0 0.355154 0
0 0.360342 0
0 0.365621 0
0 0.371603 0
0 0.378836 0
0.012192 0.386908 0
0.0279545 0.395651 0
0.0483711 0.402731 0
0.0710765 0.409308 0
0.0949416 0.415686 0
0.119524 0.421988 0
0.145357 0.428534 0
0.172198 0.43447 0
0.200046 0.440208 0
0.228763 0.445808 0
0.258366 0.45127 0
0.288808 0.456596 0
0.320409 0.462242 0
0.352468 0.467353 0
0.38529 0.472328 0
0.418967 0.47718 0
0.453391 0.481926 0
0.488502 0.486625 0
0.524712 0.491569 0
0.561318 0.495995 0
0.598718 0.500298 0
0.636912 0.504479 0
0.675914 0.508522 0
0.71603 0.51252 0
0.757214 0.516564 0
0.798871 0.52015 0
0.841474 0.523552 0
0.88455 0.52694 0
0 0.400076 0
0 0.404425 0
0 0.409445 0
0 0.415641 0
0.00015259 0.423484 0
0.0160372 0.43212 0
0.0325933 0.440513 0
0.0536049 0.447807 0
0.0768139 0.454597 0
0.101137 0.461204 0
0.12636 0.468132 0
0.152407 0.474586 0
0.179614 0.480735 0
0.207828 0.486717 0
0.236912 0.492561 0
0.266865 0.498253 0
0.298009 0.50428 0
0.32961 0.509728 0
0.36199 0.515068 0
0.395148 0.520302 0
0.429129 0.525383 0
0.46389 0.530373 0
0.499672 0.535698 0
0.535821 0.540475 0
0.572747 0.545144 0
0.610437 0.549676 0
0.64892 0.55407 0
0.688685 0.558816 0
0.728969 0.562905 0
0.770123 0.566842 0
0.81207 0.570642 0
0.854963 0.574273 0
0.898421 0.577951 0
0 0.44416 0
0 0.44889 0
0 0.454292 0
0 0.461265 0
0.00428778 0.46923 0
0.0200961 0.47808 0
0.0375067 0.486595 0
0.0591135 0.494057 0
0.0828412 0.50106 0
0.107881 0.508354 0
0.133318 0.515129 0
0.159731 0.521737 0
0.18732 0.528115 0
0.215915 0.534325 0
0.245609 0.540764 0
0.276005 0.546807 0
0.307164 0.552605 0
0.339101 0.558297 0
0.371817 0.563867 0
0.405295 0.569314 0
0.439963 0.575067 0
0.475059 0.580285 0
0.510781 0.585412 0
0.547234 0.590402 0
0.584451 0.595285 0
0.622461 0.600046 0
0.661692 0.605142 0
0.701305 0.609628 0
0.741878 0.613931 0
0.783322 0.618082 0
0.825574 0.622095 0
0.868803 0.625986 0
0.912902 0.630213 0
0 0.489509 0
0 0.494743 0
0 0.500862 0
0 0.50811 0
0.00860609 0.51603 0
0.0244297 0.525216 0
0.0426642 0.533852 0
0.0649577 0.541741 0
0.0893263 0.549172 0
0.114595 0.556207 0
0.140459 0.563195 0
0.167269 0.570031 0
0.195239 0.576623 0
0.224414 0.583383 0
0.254337 0.589837 0
0.285008 0.595987 0
0.316503 0.602029 0
0.348775 0.607919 0
0.381826 0.613718 0
0.415946 0.619791 0
0.450645 0.625391 0
0.48603 0.630823 0
0.522042 0.636149 0
0.558816 0.641367 0
0.596338 0.646464 0
0.635065 0.651911 0
0.674159 0.656748 0
0.714076 0.661448 0
0.75494 0.665965 0
0.796674 0.670314 0
0.839704 0.675029 0
0.883177 0.679057 0
0.927123 0.68307 0.00102235
0 0.536187 0
0 0.542 0
0 0.54818 0
0 0.555886 0
0.0131075 0.564004 0
0.0290227 0.57351 0
0.0480964 0.582452 0
0.0710155 0.590555 0
0.0957809 0.59794 0
0.121508 0.605173 0
0.147784 0.612375 0
0.17499 0.61941 0
0.203647 0.626719 0
0.23299 0.633356 0
0.263157 0.639887 0
0.294179 0.64625 0
0.326009 0.652491 0
0.358831 0.658885 0
0.39237 0.665095 0
0.42649 0.670985 0
0.461448 0.676722 0
0.497139 0.682368 0
0.533471 0.687907 0
0.570855 0.693706 0
0.608789 0.699123 0
0.647395 0.704311 0
0.686778 0.709346 0
0.72697 0.714244 0
0.768139 0.718959 0
0.810605 0.72398 0.00216678
0.853468 0.728435 0.00560006
0.897246 0.732677 0.00886549
0.941466 0.736873 0.0120699
0 0.584314 0
0 0.590127 0
0 0.596704 0
0 0.604761 0
0.017792 0.613199 0
0.0339971 0.623423 0
0.0537728 0.632273 0
0.0771649 0.640253 0
0.102434 0.647807 0
0.128588 0.655238 0
0.155383 0.662791 0
0.183169 0.670375 0
0.211902 0.677394 0
0.241627 0.684245 0
0.272145 0.690974 0
0.303502 0.697551 0
0.335851 0.70425 0
0.368978 0.710826 0
0.40267 0.717037 0
0.43711 0.723125 0
0.472374 0.729076 0
0.508385 0.734905 0
0.545296 0.740993 0
0.582803 0.746792 0
0.62092 0.7523 0
0.659815 0.757671 0
0.699489 0.762905 0.00122072
0.739986 0.768017 0.00514229
0.781903 0.773434 0.00923171
0.824216 0.77818 0.0128786
0.867338 0.782803 0.0164187
0.911391 0.787228 0.0198215
0.955886 0.791623 0.0231479
0 0.633234 0
0 0.639399 0
0 0.646372 0
0.00164797 0.65478 0
0.0227665 0.66389 0
0.0390326 0.67393 0
0.0595254 0.682902 0
0.0834669 0.69102 0
0.109239 0.698756 0
0.135897 0.706477 0
0.163226 0.714458 0
0.191211 0.721904 0
0.220325 0.729122 0
0.250385 0.736171 0
0.281254 0.743099 0
0.313298 0.750378 0
0.345815 0.757031 0
0.37908 0.763561 0
0.413092 0.76997 0
0.447852 0.776272 0
0.483574 0.78262 0
0.520134 0.788952 0
0.557076 0.794903 0
0.594736 0.800732 0
0.633143 0.806439 0.00309758
0.672328 0.812009 0.00738537
0.712551 0.817731 0.0117342
0.753536 0.823255 0.0159152
0.79527 0.828351 0.0198215
0.837873 0.833295 0.0236057
0.881254 0.838102 0.0272679
0.925597 0.842725 0.0307927
0.970764 0.847684 0.0344701
0 0.683284 0
0 0.689799 0
0 0.697704 0
0.00660716 0.706355 0
0.0277256 0.715236 0
0.0442512 0.725505 0
0.0654459 0.734569 0
0.0899367 0.74284 0
0.116442 0.751263 0
