assets/cube/harsh_day.cube
TITLE "Generated by Resolve"
LUT_3D_SIZE 9
0 0 0
0.00363165 0 0
0.0145418 0 0
0.0327153 0 0
0.0581521 0 0
0.0908675 0 0
0.130846 0 0
0.178103 0 0
0.232624 0 0
0.000122072 0.0108797 0.000122072
0.0158999 0.0137331 0
0.0389563 0.0164034 0
0.0692912 0.0188754 0
0.106874 0.021149 0
0.151736 0.0232395 0
0.203876 0.0251469 0
0.263279 0.0268406 0
0.329946 0.0283665 0
0.000488289 0.0435492 0.000488289
0.0284276 0.0493477 0
0.0636301 0.054963 0
0.106111 0.0603799 0
0.155856 0.0656138 0
0.212879 0.0706493 0
0.277165 0.0755016 0
0.348714 0.0801556 0
0.427543 0.0846113 0
0.00109865 0.0979934 0.00109865
0.0411841 0.106737 0.000167849
0.0885481 0.115297 0
0.143175 0.123674 0
0.205081 0.131853 0
0.27425 0.139834 0
0.350683 0.147631 0
0.434394 0.15523 0
0.525368 0.162646 0
0.00195315 0.174212 0.00195315
0.0542 0.185916 0.000732433
0.11371 0.197421 0
0.180499 0.208743 0
0.254551 0.219867 0
0.335866 0.230793 0
0.42446 0.241535 0
0.520317 0.252094 0
0.623453 0.262455 0
0.00306706 0.272221 0.00306706
0.0674449 0.286854 0.00155642
0.139116 0.30132 0
0.218051 0.315587 0
0.30425 0.329656 0
0.397726 0.343542 0
0.498466 0.357229 0
0.606485 0.370733 0
0.721767 0.384039 0
0.00440986 0.391989 0.00440986
0.0809491 0.409583 0.00262455
0.164767 0.426993 0.000656138
0.255848 0.444205 0
0.354208 0.461234 0
0.459846 0.478065 0
0.572732 0.494697 0
0.692897 0.511147 0
0.82034 0.527413 0
0.0059968 0.533547 0.0059968
0.0946975 0.554086 0.00393683
0.190661 0.574441 0.00167849
0.293904 0.594598 0
0.40441 0.614572 0
0.522194 0.634363 0
0.647242 0.653941 0
0.779568 0.67335 0
0.919142 0.692561 0
0.00784314 0.69688 0.00784314
0.108675 0.720363 0.00549325
0.2168 0.743679 0.00296025
0.332189 0.766781 0.000228885
0.454856 0.7897 0
0.584787 0.812436 0
0.721996 0.834974 0
0.866468 0.857328 0
1 0.879484 0
3.0518e-05 3.0518e-05 0.00108339
0.00527962 0 0.0034638
0.017792 0 0.0056611
0.037583 0 0.00766003
0.0646525 0 0.00947585
0.09897 0 0.0110933
0.140566 0 0.0125277
0.189441 0 0.0137636
0.245579 0 0.0148165
0.000366217 0.0125124 0.00961318
0.0177615 0.0153811 0.0117189
0.0424353 0.0180667 0.0136416
0.0743725 0.0205539 0.0153506
0.113588 0.0228428 0.0168917
0.160067 0.0249485 0.0182193
0.213809 0.0268711 0.019379
0.27483 0.0285954 0.0203403
0.34313 0.0301366 0.0211032
0.000946059 0.0467689 0.0184024
0.0304875 0.0525826 0.0202335
0.0673228 0.0582132 0.0218509
0.111406 0.0636606 0.0233005
0.162768 0.0689097 0.0245518
0.221408 0.0739605 0.0256046
0.287312 0.0788281 0.0264744
0.360479 0.0834974 0.0271458
0.440925 0.0879835 0.0276341
0.00177005 0.102815 0.0274357
0.043473 0.111574 0.0289769
0.0924392 0.12015 0.0303197
0.148699 0.128542 0.0314794
0.212207 0.136736 0.0324559
0.282994 0.144747 0.0332341
0.361044 0.15256 0.033814
0.446372 0.160174 0.0342107
0.538964 0.167605 0.0344091
0.00283818 0.180621 0.0367132
0.0566873 0.19234 0.0379644
0.117815 0.203876 0.0390326
0.186221 0.215198 0.0399176
0.261891 0.226352 0.0406043
0.344823 0.237308 0.0410925
0.435035 0.248066 0.0413977
0.532509 0.25864 0.0415198
0.637263 0.269017 0.0414435
0.00415045 0.280217 0.0462348
0.070161 0.294881 0.0472114
0.143435 0.309361 0.0479896
0.223987 0.323644 0.0485847
0.311818 0.337743 0.0489967
0.406897 0.351644 0.0492103
0.50927 0.365347 0.0492409
0.618891 0.378866 0.049073
0.73579 0.392203 0.0487068
0.00570687 0.401602 0.0560006
0.0838636 0.419211 0.0566873
0.169299 0.436637 0.0572061
0.262013 0.453864 0.0575113
0.361975 0.470909 0.0576333
0.46923 0.487755 0.0575723
0.583734 0.504417 0.0573129
0.705516 0.520882 0.0568704
0.834577 0.537163 0.0562295
0.0075227 0.544747 0.0660105
0.0978256 0.565316 0.0664225
0.195407 0.585687 0.0666514
0.300267 0.605859 0.0666819
0.41239 0.625849 0.0665293
0.531792 0.645655 0.0661784
0.658457 0.665263 0.0656291
0.792401 0.684672 0.0648966
0.933593 0.703899 0.0639811
0.00956741 0.709682 0.0762646
0.112032 0.733196 0.0764019
0.221759 0.756512 0.0763409
0.338781 0.779644 0.0760967
0.46305 0.802579 0.0756542
0.594598 0.82533 0.0750286
0.733425 0.847883 0.0742046
0.879515 0.870253 0.0731823
1 0.892424 0.0719921
0.000106813 0.000106813 0.0043183
0.00697337 4.57771e-05 0.00918593
0.0211032 0 0.0138552
0.0425116 0 0.0183413
0.0711833 0 0.0226291
0.107134 0 0.0267338
0.150347 0 0.0306401
0.200839 0 0.0343633
0.258595 0 0.0378882
0.000656138 0.0141756 0.0212863
0.0196689 0.0170748 0.025864
0.0459602 0.0197757 0.0302586
0.0795148 0.0222782 0.0344549
0.120348 0.0245975 0.038468
0.168444 0.0267185 0.0422827
0.223804 0.0286564 0.0459144
0.286442 0.030396 0.0493477
0.356344 0.0319524 0.0525978
0.00144961 0.0500343 0.0384833
0.0326085 0.0558785 0.0427863
0.071046 0.0615244 0.046891
0.116762 0.0669871 0.0508125
0.169741 0.0722515 0.054551
0.229999 0.0773175 0.0580911
0.297505 0.0822003 0.0614328
0.372305 0.0869001 0.0645914
0.454353 0.0914015 0.0675517
0.00248722 0.107683 0.0559396
0.0458076 0.116457 0.0599527
0.0963912 0.125063 0.0637827
0.154253 0.133471 0.0674296
0.219394 0.14168 0.0708782
0.291798 0.149706 0.0741283
0.371466 0.157534 0.0771954
0.458412 0.165179 0.0800641
0.552621 0.172625 0.0827497
0.00376898 0.187091 0.0736248
0.0592355 0.198825 0.0773632
0.121981 0.210376 0.0809186
0.192004 0.221729 0.0842756
0.269276 0.232883 0.0874342
0.353841 0.243854 0.0904097
0.44567 0.254643 0.0932021
0.544762 0.265232 0.0957961
0.651118 0.275624 0.0981918
0.00529488 0.288289 0.0915694
0.0729076 0.302968 0.0950332
0.147814 0.317464 0.0982986
0.229984 0.331762 0.101366
0.319417 0.345876 0.10425
0.416129 0.359792 0.10695
0.520104 0.373526 0.109453
0.631357 0.38706 0.111772
0.749874 0.400412 0.113893
0.00706493 0.411261 0.109758
0.0868391 0.428885 0.112932
0.173892 0.446326 0.115908
0.268208 0.463584 0.118715
0.369802 0.480644 0.121309
0.47866 0.497505 0.12372
0.594797 0.514183 0.125948
0.718196 0.530678 0.127977
0.848859 0.546975 0.129824
0.00907912 0.556008 0.128176
0.100999 0.576593 0.131075
0.200214 0.596979 0.133776
0.306691 0.617182 0.136294
0.420432 0.637186 0.138613
0.541436 0.657008 0.140749
0.669734 0.676631 0.142687
0.80528 0.696071 0.144442
0.948104 0.715312 0.145998
0.0113375 0.72253 0.146853
0.115419 0.746059 0.149477
0.22678 0.769406 0.151888
0.345403 0.792554 0.154131
0.471305 0.815503 0.156161
0.604471 0.83827 0.158022
0.7449 0.860853 0.15967
0.892607 0.883238 0.161151
1 0.905425 0.162417
0.000228885 0.000228885 0.00972
0.0087129 0.000183108 0.0170748
0.0244602 0 0.0242161
0.0474861 0 0.0311894
0.0777905 0 0.0379492
0.115343 0 0.0445411
0.160174 0 0.0509346
0.212284 0 0.0571298
0.271656 0 0.0631418
0.000991836 0.0158999 0.0350958
0.021622 0.0188144 0.0421607
0.0495308 0.0215305 0.0490425
0.0847028 0.0240482 0.0557107
0.127153 0.0263981 0.062211
0.176867 0.0285344 0.068513
0.233845 0.0304875 0.0746166
0.2981 0.0322576 0.0805371
0.369619 0.0338293 0.0862593
0.00199893 0.0533608 0.0607309
0.0347753 0.0592203 0.0675059
0.0748455 0.0648814 0.0740978
0.122164 0.0703593 0.0804913
0.176761 0.075639 0.0867018
0.238636 0.0807355 0.0927291
0.307759 0.0856336 0.098558
0.384176 0.0903487 0.104189
0.467842 0.0948653 0.109636
0.00325017 0.112596 0.0865949
0.048188 0.121401 0.0930953
0.100389 0.130007 0.0993973
0.159869 0.13843 0.105516
0.226627 0.14667 0.111452
0.300649 0.154711 0.117189
0.381933 0.162554 0.122728
0.470497 0.170214 0.128084
0.566323 0.177691 0.133257
0.00474556 0.193606 0.112703
0.0618296 0.205356 0.118929
0.126192 0.216922 0.124956
0.197833 0.22829 0.130785
0.276722 0.239475 0.136446
0.362905 0.250462 0.141894
0.456336 0.261265 0.147158
0.557061 0.27187 0.152239
0.665034 0.282292 0.157122
0.00648508 0.296391 0.139071
0.0757153 0.311101 0.145006
0.152239 0.325612 0.150744
0.236027 0.339925 0.156313
0.327077 0.354055 0.161669
0.425406 0.368002 0.166842
0.530999 0.38175 0.171832
0.64387 0.3953 0.176623
0.764004 0.408667 0.181231
0.00846876 0.420966 0.165667
0.0898604 0.438621 0.171328
0.178531 0.456077 0.176791
0.274464 0.47335 0.182071
0.377676 0.490425 0.187152
0.488151 0.507317 0.19205
0.605905 0.52401 0.19675
0.730922 0.540505 0.201251
0.863203 0.556832 0.205585
0.0106966 0.567315 0.192523
0.104234 0.587915 0.197894
0.205066 0.608316 0.203082
0.313161 0.628534 0.208072
0.428519 0.648569 0.212879
0.551141 0.668406 0.217487
0.681041 0.688045 0.221912
0.818219 0.7075 0.226139
0.962661 0.726757 0.230182
0.0131685 0.735439 0.219608
0.118868 0.758984 0.224704
0.231846 0.782345 0.229603
0.352087 0.805508 0.234318
0.479606 0.828489 0.238849
0.614389 0.85127 0.243168
0.756436 0.873854 0.247318
0.90576 0.896269 0.251255
1 0.918471 0.255024
0.000411994 0.000411994 0.0172885
0.0105135 0.000381476 0.0271153
0.0278782 0.000167849 0.0367437
0.0525216 0 0.0461891
0.0844282 0 0.055436
0.123613 0 0.0644999
0.170062 0 0.0733654
0.223774 0 0.0820478
0.284764 0 0.090547
0.00137331 0.0176852 0.0510872
0.0236362 0.0205997 0.0606241
0.0531472 0.0233463 0.0699779
0.0899367 0.0258793 0.0791333
0.134005 0.0282444 0.0881056
0.185336 0.030396 0.0968948
0.243931 0.0323796 0.105486
0.309804 0.0341497 0.113878
0.38294 0.0357366 0.122087
0.00259403 0.056733 0.0851301
0.0370031 0.0626078 0.0943923
0.0786755 0.0682841 0.103456
0.127626 0.0737774 0.112337
0.183841 0.0790875 0.121035
0.247318 0.0841993 0.129534
0.318074 0.0891127 0.137835
0.396094 0.093843 0.145953
0.481392 0.0983902 0.153872
0.0040589 0.117571 0.119417
0.0506142 0.12639 0.128389
0.104448 0.135012 0.137179
0.165545 0.143465 0.145785
0.233906 0.151705 0.154192
0.309545 0.159777 0.162402
0.392447 0.167636 0.170428
0.482628 0.175311 0.178271
0.580072 0.182803 0.185916
0.00576791 0.200168 0.153948
0.0644694 0.211948 0.162646
0.130449 0.223529 0.17116
0.203708 0.234913 0.179477
0.28423 0.246113 0.187594
0.372015 0.25713 0.195529
0.467079 0.267933 0.203281
0.569406 0.278569 0.210834
0.678996 0.289006 0.218204
0.00772107 0.304555 0.188724
0.078584 0.31928 0.197147
0.15671 0.333806 0.205371
0.242115 0.34815 0.213413
0.334783 0.362295 0.221256
0.43473 0.376257 0.228901
0.541939 0.390021 0.236378
0.656428 0.403601 0.243641
0.77818 0.416983 0.250721
0.00991836 0.430732 0.223743
0.0929274 0.448402 0.231891
0.183215 0.465873 0.239826
0.280766 0.483162 0.247593
0.385595 0.500252 0.255146
0.497688 0.517159 0.262516
0.61706 0.533883 0.269703
0.743694 0.550408 0.276692
0.877592 0.566735 0.283497
0.0123751 0.578668 0.259022
0.10753 0.599283 0.266865
0.209964 0.619715 0.27454
0.319677 0.639948 0.282017
0.436652 0.659998 0.289296
0.560891 0.67985 0.296391
0.692409 0.699519 0.303288
0.831205 0.71899 0.310002
0.977264 0.738262 0.316518
0.0150607 0.748394 0.29453
0.122362 0.771954 0.302098
0.236957 0.795331 0.309483
0.358816 0.818524 0.316686
0.487953 0.841505 0.323674
0.624353 0.864317 0.330495
0.768017 0.886931 0.337118
0.918959 0.909346 0.343542
1 0.931579 0.349783
0.000640879 0.000640879 0.0270085
0.0123445 0.00062562 0.0393072
0.031342 0.000427253 0.0514229
0.0576028 4.57771e-05 0.0633555
0.0911269 0 0.0750896
0.131914 0 0.0866255
0.17998 0 0.0979782
0.235325 0 0.109133
0.297932 0 0.120104
0.00181582 0.019501 0.0692302
0.0256809 0.022446 0.081239
0.0568246 0.0252079 0.09308
0.0952316 0.0277714 0.104723
0.140917 0.0301366 0.116167
0.193866 0.0323186 0.127428
0.254078 0.0343023 0.138506
0.321569 0.0361028 0.149386
0.396323 0.0377203 0.160067
0.00325017 0.0601511 0.111681
0.0392767 0.066041 0.12343
0.0825666 0.0717479 0.134981
0.13312 0.0772564 0.146334
0.190951 0.0825818 0.157504
0.256062 0.0877089 0.16849
0.32842 0.0926528 0.179278
0.408072 0.0973983 0.189868
0.494972 0.101961 0.200275
0.00492866 0.122591 0.154391
0.0531014 0.131426 0.16585
0.108537 0.140078 0.177127
0.171252 0.148531 0.188205
0.241245 0.156802 0.1991
0.318502 0.164889 0.209796
0.403021 0.172763 0.220295
0.494804 0.180468 0.23061
0.593866 0.187976 0.240742
0.0068513 0.20679 0.197345
0.0671702 0.218585 0.20853
0.134768 0.230182 0.219516
0.209644 0.241581 0.23032
0.291768 0.252811 0.240925
0.381186 0.263828 0.251331
0.477852 0.274662 0.261555
0.581796 0.285313 0.271595
0.693019 0.295766 0.281437
0.00901808 0.312779 0.240543
0.0814832 0.32752 0.251438
0.161242 0.342061 0.26215
0.248264 0.35642 0.272663
0.34255 0.370581 0.282994
0.444114 0.384558 0.293126
0.552941 0.398337 0.303075
0.669032 0.411933 0.312825
0.792401 0.425345 0.322393
0.011429 0.440543 0.283986
0.0960555 0.458228 0.294606
0.187961 0.475715 0.305028
0.287129 0.493019 0.315267
0.393576 0.51014 0.325307
0.507286 0.527062 0.335164
0.62826 0.543801 0.344823
0.756512 0.560342 0.354299
0.892027 0.576684 0.363577
0.0140841 0.590082 0.327672
0.110857 0.610712 0.338003
0.214923 0.631159 0.34815
0.326238 0.651408 0.358114
0.444831 0.671473 0.367864
0.570703 0.691356 0.377447
0.703838 0.711025 0.386831
0.844236 0.730526 0.396017
0.991913 0.749828 0.40502
0.0169833 0.761395 0.371603
0.125917 0.784985 0.381659
0.242115 0.808377 0.391531
0.365606 0.831571 0.40119
0.496345 0.854597 0.410681
0.634363 0.877409 0.419974
0.779644 0.900038 0.429068
0.932204 0.922484 0.43798
1 0.944732 0.446693
0.000915541 0.000915541 0.0388952
0.0142519 0.0009308 0.0536812
0.0348516 0.000747692 0.0682689
0.0627298 0.000381476 0.0826734
0.0978714 0 0.0968948
0.140291 0 0.110918
0.189975 0 0.124743
0.246921 0 0.138384
0.311147 0 0.151827
0.00231937 0.0213779 0.0895247
0.0278019 0.0243381 0.104036
0.0605478 0.0271153 0.118349
0.100572 0.0296941 0.132464
0.147875 0.0320897 0.146395
0.202441 0.034287 0.160143
0.264271 0.036286 0.173693
0.333379 0.038117 0.187045
0.409751 0.0397345 0.200214
0.00395209 0.0636301 0.140414
0.0415961 0.0695354 0.154635
0.0865034 0.0752575 0.168658
0.138674 0.0807813 0.182498
0.198123 0.0861219 0.196155
0.264851 0.0912795 0.209613
0.338827 0.0962387 0.222873
0.420096 0.100999 0.23595
0.508614 0.105577 0.248844
0.00584421 0.127657 0.191531
0.0556344 0.136507 0.205478
0.112703 0.14519 0.219226
0.17702 0.153658 0.232792
0.248631 0.161944 0.246159
0.327504 0.170047 0.259327
0.413642 0.177951 0.272312
0.507042 0.185657 0.285115
0.607721 0.193194 0.297719
0.00798047 0.213458 0.242908
0.0699168 0.225269 0.256565
0.139132 0.236881 0.270039
0.215625 0.24831 0.283314
0.299367 0.259541 0.296407
0.390402 0.270588 0.3093
0.488685 0.281437 0.321996
0.594247 0.292103 0.334524
0.707088 0.302586 0.346838
0.0103609 0.321035 0.29453
0.0844434 0.33579 0.307897
0.16582 0.350362 0.321096
0.254459 0.364736 0.334081
0.350362 0.378927 0.346899
0.453544 0.39292 0.359503
0.563989 0.406714 0.371939
0.681697 0.420325 0.384161
0.806683 0.433753 0.396216
0.0129854 0.450401 0.346395
0.0992294 0.468101 0.359487
0.192752 0.485618 0.372396
0.293538 0.502937 0.385107
0.401602 0.520073 0.397635
0.51693 0.537011 0.409964
0.639521 0.553765 0.42211
0.76939 0.570336 0.434058
0.906523 0.586694 0.445823
0.0158541 0.601541 0.398489
0.114244 0.622187 0.411307
0.219913 0.642649 0.423926
0.33286 0.662928 0.436362
0.453071 0.683009 0.448615
0.58056 0.702907 0.46067
0.715312 0.722606 0.472526
0.857328 0.742107 0.484199
1 0.761425 0.495674
0.018967 0.774456 0.450843
0.129519 0.798062 0.463386
0.247333 0.821469 0.475715
0.372427 0.844694 0.487877
0.504799 0.86772 0.49984
0.644434 0.890562 0.511604
0.791333 0.913207 0.523186
0.94551 0.935668 0.534585
1 0.957931 0.545769
0.00123598 0.00123598 0.0529335
0.0161898 0.00128176 0.0702068
0.0384222 0.00111391 0.0872816
0.0679026 0.000762951 0.104158
0.104662 0.000228885 0.120851
0.148699 0 0.137362
0.2 0 0.153674
0.258564 0 0.169787
0.324407 0 0.185718
0.00285344 0.0233005 0.111986
0.0299535 0.0262913 0.128969
0.064332 0.0290837 0.145769
0.105974 0.0316777 0.162371
0.154879 0.0340887 0.178775
0.211063 0.0363012 0.194995
0.27451 0.0383307 0.211032
0.345235 0.0401617 0.226871
0.423224 0.0418097 0.242512
0.00471504 0.067155 0.171298
0.0439612 0.0730755 0.187991
0.090486 0.0788128 0.204501
0.144289 0.0843671 0.220829
0.205356 0.0897231 0.236957
0.273686 0.0948959 0.252903
0.349294 0.0998703 0.26865
0.432166 0.104646 0.284199
0.522301 0.109239 0.299565
0.00682078 0.132769 0.230838
0.0582132 0.141649 0.247257
0.116899 0.150347 0.263493
0.182849 0.158831 0.27953
0.256062 0.167147 0.295384
0.336553 0.17525 0.31104
0.424308 0.183185 0.326497
0.519341 0.190906 0.341787
0.621637 0.198459 0.356863
0.00917067 0.220172 0.290623
0.0727245 0.231998 0.306767
0.143557 0.243641 0.322713
0.221653 0.255085 0.338476
0.307027 0.266331 0.35404
0.399664 0.277394 0.369421
0.499565 0.288273 0.384604
0.606744 0.298955 0.399603
0.721202 0.309438 0.414405
0.0117494 0.329351 0.350668
0.0874647 0.344137 0.366522
0.170443 0.358709 0.382193
0.2607 0.373114 0.397665
0.358221 0.387304 0.412955
0.46302 0.401328 0.428046
0.575082 0.415137 0.442954
0.694408 0.428779 0.457664
0.821012 0.442206 0.47219
0.0145876 0.460319 0.410941
0.102449 0.478035 0.42652
0.197589 0.495567 0.441917
0.299992 0.512917 0.457099
0.409674 0.530068 0.472114
0.526619 0.547021 0.486931
0.650828 0.56379 0.501549
0.782315 0.580377 0.515984
0.921065 0.596765 0.530221
0.0176699 0.613046 0.471473
0.117678 0.633722 0.486763
0.224979 0.6542 0.501869
0.339529 0.674495 0.516793
0.461357 0.694591 0.531518
0.590463 0.714504 0.546044
0.726833 0.734218 0.560388
0.870466 0.75375 0.574533
1 0.773083 0.588495
0.0210117 0.787564 0.53225
0.133165 0.811185 0.547265
0.252598 0.834607 0.562081
0.379324 0.857847 0.576715
0.513298 0.880903 0.59115
0.654551 0.903761 0.605402
0.803067 0.926421 0.619471
0.958862 0.948898 0.633341
1 0.971191 0.647013
0.00161746 0.00161746 0.0691539
0.0181888 0.00167849 0.0888838
0.0420233 0.0015259 0.108446
0.0731365 0.00120546 0.12781
0.111513 0.000686656 0.14699
0.157168 0 0.165972
0.210086 0 0.184756
0.270268 0 0.203357
0.337728 0 0.221775
0.00344854 0.0252842 0.136614
0.032166 0.0282902 0.156085
0.0681621 0.0310979 0.175357
0.111421 0.0337072 0.19443
0.161944 0.0361334 0.213321
0.219745 0.0383764 0.232029
0.28481 0.0404212 0.250538
0.357153 0.0422675 0.268849
0.436759 0.0439307 0.286992
0.00552377 0.0707256 0.204334
0.0463874 0.0766766 0.223514
0.0945296 0.0824292 0.242512
0.14995 0.0879988 0.261311
0.212619 0.09337 0.279927
0.282582 0.098558 0.298344
0.359792 0.103548 0.316564
0.444282 0.108354 0.334615
0.536049 0.112963 0.352453
0.00782788 0.137942 0.272297
0.060853 0.146838 0.291203
0.121157 0.15555 0.309911
0.188708 0.164065 0.328435
0.263554 0.172381 0.346761
0.345647 0.180514 0.364904
0.435035 0.188464 0.382849
0.53167 0.196216 0.40061
0.635584 0.203769 0.418173
0.0103914 0.226947 0.34052
0.0755627 0.238788 0.359136
0.148013 0.250446 0.377554
0.227726 0.261906 0.395804
0.314717 0.273182 0.41384
0.408972 0.28426 0.431708
0.510506 0.295155 0.449363
0.619303 0.305852 0.46685
0.735363 0.316365 0.484123
0.0131991 0.337728 0.408972
0.0905165 0.352514 0.427298
0.175128 0.367117 0.445457
0.267002 0.381537 0.463416
0.36614 0.395743 0.481178
0.472541 0.409781 0.498756
0.586221 0.423621 0.516136
0.707179 0.437263 0.533333
0.835386 0.450721 0.550332
0.0162509 0.470283 0.477668
0.10573 0.488014 0.49572
0.202472 0.505562 0.513588
0.306508 0.522927 0.531273
0.417792 0.540093 0.54876
0.536355 0.557076 0.566049
0.662196 0.573861 0.583154
0.795285 0.590463 0.600061
0.935668 0.606867 0.616785
0.0195468 0.624613 0.546609
0.121172 0.645304 0.564385
0.230076 0.665797 0.581979
0.346258 0.686107 0.599374
0.469703 0.706233 0.616571
0.600412 0.726146 0.633585
0.738399 0.745892 0.650401
0.88365 0.765438 0.667033
1 0.784787 0.683482
0.0230869 0.800717 0.615808
0.136858 0.824353 0.633295
0.257923 0.847807 0.650599
0.386252 0.871061 0.66772
0.521843 0.894133 0.684642
0.664714 0.917006 0.701366
0.814862 0.939696 0.717906
0.972259 0.962188 0.734264
1 0.984482 0.750423
