assets/cube/harsh_day.cube
TITLE "Generated by Resolve"
LUT_3D_SIZE 33
0 0 0
0.000228885 0 0
0.000915541 0 0
0.00204471 0 0
0.00363165 0 0
0.00567636 0 0
0.00817884 0 0
0.0111238 0 0
0.0145418 0 0
0.0184024 0 0
0.0227207 0 0
0.0274815 0 0
0.0327153 0 0
0.0383917 0 0
0.0445258 0 0
0.0511177 0 0
0.0581521 0 0
0.0656443 0 0
0.0735943 0 0
0.082002 0 0
0.0908675 0 0
0.100175 0 0
0.109941 0 0
0.120165 0 0
0.130846 0 0
0.141985 0 0
0.153567 0 0
0.165606 0 0
0.178103 0 0
0.191043 0 0
0.204456 0 0
0.218311 0 0
0.232624 0 0
1.5259e-05 0.000686656 1.5259e-05
0.000991836 0.000854505 0
0.00244144 0.00102235 0
0.00433356 0.00117494 0
0.00668345 0.00132753 0
0.00947585 0.00144961 0
0.0127413 0.00157168 0
0.0164492 0.00167849 0
0.0206149 0.00177005 0
0.0252384 0.0018616 0
0.0303197 0.00192264 0
0.0358434 0.00198367 0
0.041825 0.00202945 0
0.0482643 0.00205997 0
0.0551614 0.00209049 0
0.062501 0.00210575 0
0.0703136 0.00210575 0
0.0785687 0.00209049 0
0.0872663 0.00205997 0
0.096437 0.00202945 0
0.10605 0.00198367 0
0.116136 0.00192264 0
0.12665 0.00184634 0
0.137636 0.00175479 0
0.149081 0.00166323 0
0.160967 0.00155642 0
0.173312 0.00143435 0
0.186114 0.00131228 0
0.199359 0.00115969 0
0.213077 0.0010071 0
0.227237 0.000839246 0
0.241856 0.000656138 0
0.256916 0.00047303 0
3.0518e-05 0.00271611 3.0518e-05
0.00177005 0.00308232 0
0.0039826 0.00343328 0
0.00662242 0.00376898 0
0.00973526 0.00410468 0
0.0133059 0.00440986 0
0.017319 0.00471504 0
0.0217899 0.00500496 0
0.0267185 0.00527962 0
0.032105 0.00555428 0
0.0379339 0.00581369 0
0.0442206 0.00605783 0
0.0509651 0.00628672 0
0.0581674 0.00650034 0
0.0658122 0.00671397 0
0.0739147 0.00691234 0
0.082475 0.00709544 0
0.0914931 0.00726329 0
0.100969 0.00741588 0
0.110887 0.00756847 0
0.121263 0.00770581 0
0.132097 0.00782788 0
0.143389 0.00793469 0
0.155123 0.0080415 0
0.16733 0.00813306 0
0.17998 0.00820935 0
0.193088 0.00827039 0
0.206638 0.00831617 0
0.220645 0.00836194 0
0.235126 0.00839246 0
0.250034 0.00840772 0
0.265415 0.00840772 0
0.281254 0.00840772 0
7.62951e-05 0.00611887 7.62951e-05
0.00257877 0.00666819 1.5259e-05
0.00553903 0.00720226 0
0.00894179 0.00772107 0
0.0128176 0.00823987 0
0.0171359 0.00874342 0
0.021912 0.00923171 0
0.0271458 0.00970474 0
0.0328374 0.0101625 0
0.0389715 0.0106203 0
0.0455634 0.0110475 0
0.0526131 0.0114748 0
0.0601205 0.011902 0
0.0680705 0.0122988 0
0.0764935 0.0126955 0
0.085359 0.013077 0
0.094667 0.0134432 0
0.104448 0.0137942 0
0.114672 0.0141451 0
0.125368 0.0144656 0
0.136492 0.014786 0
0.148089 0.0151064 0
0.160143 0.0153964 0
0.172641 0.0156863 0
0.185595 0.0159609 0
0.199008 0.0162203 0
0.212863 0.0164645 0
0.227192 0.0166934 0
0.241962 0.0169223 0
0.257191 0.0171359 0
0.272862 0.0173342 0
0.289006 0.0175326 0
0.305592 0.0177005 0
0.000122072 0.0108797 0.000122072
0.0033875 0.0116121 4.57771e-05
0.0071107 0.0123293 0
0.0112764 0.0130465 0
0.0158999 0.0137331 0
0.0209812 0.0144198 0
0.0265202 0.0150912 0
0.032517 0.0157473 0
0.0389563 0.0164034 0
0.0458534 0.0170291 0
0.0532082 0.0176547 0
0.0610208 0.018265 0
0.0692912 0.0188754 0
0.0780041 0.0194553 0
0.0871748 0.0200351 0
0.0968032 0.0205997 0
0.106874 0.021149 0
0.117418 0.0216983 0
0.128405 0.0222171 0
0.139849 0.0227359 0
0.151736 0.0232395 0
0.164096 0.0237278 0
0.176898 0.0242161 0
0.190158 0.0246891 0
0.203876 0.0251469 0
0.218051 0.0255894 0
0.23267 0.0260166 0
0.247745 0.0264439 0
0.263279 0.0268406 0
0.279271 0.0272526 0
0.295705 0.0276341 0
0.312596 0.0280003 0
0.329946 0.0283665 0
0.000198367 0.0170138 0.000198367
0.00421149 0.0179294 9.15541e-05
0.00869764 0.0188296 0
0.0136263 0.0197147 0
0.0190127 0.0205997 0
0.0248569 0.0214694 0
0.0311437 0.0223239 0
0.0379034 0.0231632 0
0.0451057 0.0240024 0
0.0527657 0.0248264 0
0.0608835 0.0256352 0
0.0694438 0.0264286 0
0.0784619 0.0272068 0
0.0879377 0.027985 0
0.0978714 0.028748 0
0.108263 0.0294957 0
0.119097 0.0302281 0
0.130388 0.0309453 0
0.142138 0.0316625 0
0.154345 0.0323644 0
0.166995 0.033051 0
0.180117 0.0337224 0
0.193683 0.0343938 0
0.207706 0.03505 0
0.222171 0.0356909 0
0.237095 0.0363165 0
0.252491 0.0369268 0
0.26833 0.0375372 0
0.284611 0.0381323 0
0.301366 0.0387121 0
0.318563 0.0392767 0
0.336217 0.0398413 0
0.35433 0.0403906 0
0.000274662 0.0244907 0.000274662
0.00505074 0.0255894 0.000167849
0.0102998 0.026688 4.57771e-05
0.0159915 0.0277562 0
0.0221408 0.0288243 0
0.0287327 0.0298772 0
0.0357977 0.0309148 0
0.0433051 0.0319371 0
0.0512703 0.0329595 0
0.059678 0.0339666 0
0.0685588 0.0349584 0
0.0778821 0.035935 0
0.0876631 0.0369116 0
0.0979019 0.0378576 0
0.108598 0.0388037 0
0.119738 0.0397345 0
0.131334 0.0406653 0
0.143389 0.0415656 0
0.155901 0.0424659 0
0.168856 0.0433509 0
0.182269 0.0442206 0
0.196155 0.0450904 0
0.210468 0.0459297 0
0.225254 0.0467689 0
0.240482 0.0475929 0
0.256168 0.0484169 0
0.272312 0.0492103 0
0.288914 0.0500038 0
0.305959 0.050782 0
0.323476 0.051545 0
0.341436 0.0522927 0
0.359838 0.0530404 0
0.378714 0.0537728 0
0.000381476 0.033341 0.000381476
0.0059205 0.0346227 0.000244144
0.0119173 0.0359045 0.000106813
0.0183719 0.0371557 0
0.0252689 0.038407 0
0.032639 0.0396429 0
0.0404517 0.0408637 0
0.0487221 0.0420844 0
0.057435 0.0432746 0
0.0666209 0.0444648 0
0.0762493 0.0456397 0
0.0863355 0.0468147 0
0.0968795 0.0479591 0
0.107881 0.0491035 0
0.119326 0.0502327 0
0.131228 0.0513466 0
0.143587 0.0524605 0
0.156405 0.0535439 0
0.169665 0.0546273 0
0.183398 0.0556954 0
0.197574 0.0567483 0
0.212192 0.0578012 0
0.227283 0.0588388 0
0.242817 0.0598611 0
0.258808 0.0608682 0
0.275257 0.0618601 0
0.292165 0.0628519 0
0.309514 0.0638285 0
0.327337 0.0647898 0
0.345602 0.0657359 0
0.364309 0.0666667 0
0.38349 0.0675975 0
0.403113 0.068513 0
0.000488289 0.0435492 0.000488289
0.00679026 0.0450141 0.000335698
0.01355 0.046479 0.000183108
0.0207523 0.0479133 1.5259e-05
0.0284276 0.0493477 0
0.0365454 0.0507668 0
0.0451209 0.0521859 0
0.0541543 0.0535744 0
0.0636301 0.054963 0
0.0735637 0.0563363 0
0.0839551 0.0576944 0
0.0948043 0.0590524 0
0.106111 0.0603799 0
0.117861 0.0617075 0
0.130068 0.0630198 0
0.142733 0.0643168 0
0.155856 0.0656138 0
0.169421 0.0668956 0
0.183459 0.0681468 0
0.19794 0.0694133 0
0.212879 0.0706493 0
0.22826 0.0718853 0
0.244099 0.0730907 0
0.26041 0.0742962 0
0.277165 0.0755016 0
0.294362 0.0766766 0
0.312032 0.0778515 0
0.330144 0.0790112 0
0.348714 0.0801556 0
0.367742 0.0812848 0
0.387213 0.082414 0
0.407156 0.0835126 0
0.427543 0.0846113 0
0.00062562 0.0551156 0.00062562
0.00767529 0.0567788 0.000457771
0.015198 0.0584115 0.000274662
0.0231632 0.0600443 9.15541e-05
0.0315862 0.0616617 0
0.0404669 0.0632639 0
0.0498054 0.0648508 0
0.0596017 0.0664378 0
0.0698405 0.0680095 0
0.0805371 0.0695659 0
0.0916915 0.071107 0
0.103288 0.0726482 0
0.115358 0.0741588 0
0.127871 0.0756695 0
0.140841 0.0771649 0
0.154253 0.0786603 0
0.168139 0.0801251 0
0.182467 0.08159 0
0.197253 0.0830396 0
0.212497 0.0844739 0
0.228199 0.0859083 0
0.244343 0.0873121 0
0.260945 0.088716 0
0.278004 0.0901045 0
0.295521 0.0914931 0
0.313481 0.0928511 0
0.331899 0.0942092 0
0.350774 0.095552 0
0.370108 0.0968795 0
0.389899 0.0982071 0
0.410132 0.0995041 0
0.430823 0.100801 0
0.451972 0.102083 0
0.000762951 0.0680552 0.000762951
0.00859083 0.0698863 0.000579843
0.0168612 0.0717174 0.000396735
0.0255894 0.073518 0.000183108
0.0347753 0.0753185 0
0.044419 0.0771191 0
0.0545052 0.0788891 0
0.0650645 0.0806592 0
0.0760662 0.082414 0
0.0875105 0.0841535 0
0.0994278 0.0858778 0
0.111788 0.087602 0
0.12462 0.0893111 0
0.137881 0.0910048 0
0.151614 0.0926833 0
0.165805 0.0943465 0
0.180438 0.0960098 0
0.195529 0.0976577 0
0.211078 0.0992905 0
0.22707 0.100908 0
0.243534 0.102525 0
0.260441 0.104112 0
0.277806 0.105699 0
0.295613 0.107271 0
0.313893 0.108843 0
0.332616 0.110399 0
0.351797 0.111925 0
0.371435 0.113451 0
0.391516 0.114977 0
0.41207 0.116472 0
0.433066 0.117968 0
0.45452 0.119448 0
0.476417 0.120912 0
0.0009308 0.0823377 0.0009308
0.00950637 0.0843671 0.000732433
0.0185397 0.0863661 0.000518807
0.0280308 0.088365 0.000289921
0.0379797 0.0903487 6.10361e-05
0.0483711 0.0923323 0
0.0592203 0.0942855 0
0.0705272 0.0962387 0
0.0822919 0.0981765 0
0.0945144 0.100099 0
0.107179 0.102022 0
0.120302 0.103914 0
0.133883 0.105806 0
0.147921 0.107683 0
0.162417 0.109545 0
0.177356 0.111406 0
0.192752 0.113252 0
0.208606 0.115084 0
0.224903 0.116899 0
0.241672 0.1187 0
0.258885 0.1205 0
0.276555 0.122286 0
0.294667 0.124056 0
0.313252 0.125811 0
0.33228 0.12755 0
0.351766 0.12929 0
0.37171 0.131014 0
0.392096 0.132723 0
0.412955 0.134417 0
0.434256 0.13611 0
0.456016 0.137789 0
0.478218 0.139452 0
0.500893 0.1411 0
0.00109865 0.0979934 0.00109865
0.0104372 0.100191 0.000885023
0.0202335 0.102388 0.000656138
0.0304875 0.10457 0.000411994
0.0411841 0.106737 0.000167849
0.0523537 0.108904 0
0.0639658 0.11104 0
0.0760204 0.113176 0
0.0885481 0.115297 0
0.101518 0.117418 0
0.114961 0.119509 0
0.128832 0.121599 0
0.143175 0.123674 0
0.157977 0.125734 0
0.17322 0.127779 0
0.188922 0.129824 0
0.205081 0.131853 0
0.221683 0.133867 0
0.238758 0.135866 0
0.256275 0.13785 0
0.27425 0.139834 0
0.292668 0.141802 0
0.311559 0.143755 0
0.330892 0.145693 0
0.350683 0.147631 0
0.370932 0.149554 0
0.391623 0.151461 0
0.412787 0.153353 0
0.434394 0.15523 0
0.456458 0.157107 0
0.478965 0.158968 0
0.501945 0.160815 0
0.525368 0.162646 0
0.00129702 0.115007 0.00129702
0.0113832 0.117403 0.00105287
0.0219425 0.119768 0.000808728
0.0329595 0.122133 0.000549325
0.044419 0.124498 0.000289921
0.0563363 0.126833 0
0.0687114 0.129168 0
0.081529 0.131487 0
0.0948196 0.133791 0
0.108553 0.13608 0
0.122744 0.138369 0
0.137392 0.140642 0
0.152483 0.142901 0
0.168032 0.145144 0
0.184039 0.147372 0
0.200504 0.149599 0
0.217426 0.151812 0
0.234791 0.154009 0
0.252613 0.156191 0
0.270893 0.158373 0
0.289631 0.16054 0
0.308812 0.162692 0
0.32845 0.164828 0
0.348547 0.166949 0
0.3691 0.16907 0
0.390112 0.171176 0
0.411566 0.173266 0
0.433478 0.175341 0
0.455848 0.177401 0
0.478676 0.179461 0
0.501945 0.181506 0
0.525689 0.183536 0
0.549874 0.185565 0
0.00149538 0.133379 0.00149538
0.0123598 0.135958 0.00125124
0.0236667 0.138521 0.000976577
0.0354314 0.14107 0.000701915
0.0476692 0.143603 0.000427253
0.0603342 0.146136 0.000122072
0.0734722 0.148638 0
0.0870527 0.151141 0
0.101091 0.153643 0
0.115587 0.156115 0
0.130541 0.158587 0
0.145953 0.161044 0
0.161807 0.163485 0
0.178119 0.165911 0
0.194888 0.168338 0
0.2121 0.170733 0
0.229786 0.173129 0
0.247913 0.175509 0
0.266499 0.17789 0
0.285527 0.18024 0
0.305028 0.182589 0
0.324971 0.184924 0
0.345373 0.187259 0
0.366232 0.189563 0
0.387533 0.191867 0
0.409308 0.194156 0
0.431525 0.196429 0
0.4542 0.198688 0
0.477317 0.200946 0
0.500908 0.203189 0
0.524941 0.205417 0
0.549432 0.20763 0
0.57438 0.209827 0
0.00172427 0.153124 0.00172427
0.0133364 0.155871 0.00144961
0.0254063 0.158618 0.00117494
0.0379339 0.161349 0.000869764
0.0509194 0.16408 0.000564584
0.0643626 0.166781 0.000259403
0.0782483 0.169482 0
0.0925917 0.172168 0
0.107393 0.174853 0
0.122652 0.177508 0
0.138354 0.180163 0
0.154528 0.182803 0
0.171145 0.185428 0
0.188205 0.188037 0
0.205737 0.190646 0
0.223713 0.19324 0
0.242161 0.195819 0
0.261036 0.198383 0
0.280385 0.200946 0
0.300191 0.203479 0
0.320439 0.206012 0
0.341146 0.20853 0
0.36231 0.211048 0
0.383917 0.213535 0
0.405997 0.216022 0
0.428519 0.218494 0
0.451499 0.220951 0
0.474922 0.223407 0
0.498817 0.225834 0
0.523156 0.22826 0
0.547951 0.230671 0
0.573205 0.233082 0
0.598901 0.235462 0
0.00195315 0.174212 0.00195315
0.0143282 0.177157 0.00167849
0.0271611 0.180087 0.00137331
0.0404517 0.183001 0.00106813
0.0542 0.185916 0.000732433
0.0683909 0.1888 0.000396735
0.0830396 0.191684 6.10361e-05
0.098146 0.194568 0
0.11371 0.197421 0
0.129717 0.200259 0
0.146197 0.203098 0
0.163119 0.205921 0
0.180499 0.208743 0
0.198322 0.211536 0
0.216602 0.214328 0
0.235355 0.217105 0
0.254551 0.219867 0
0.274189 0.222614 0
0.294301 0.22536 0
0.314855 0.228077 0
0.335866 0.230793 0
0.357336 0.233509 0
0.379248 0.236194 0
0.401633 0.23888 0
0.42446 0.241535 0
0.447745 0.244205 0
0.471473 0.246845 0
0.495674 0.24947 0
0.520317 0.252094 0
0.545419 0.254704 0
0.570977 0.257298 0
0.596979 0.259892 0
0.623453 0.262455 0
0.00221256 0.196674 0.00221256
0.0153506 0.199802 0.00190738
0.0289311 0.202914 0.00158694
0.0429847 0.206012 0.0012665
0.0574807 0.20911 0.000915541
0.0724498 0.212192 0.000564584
0.0878462 0.215259 0.000198367
0.103716 0.218311 0
0.120043 0.221347 0
0.136812 0.224384 0
0.15404 0.227405 0
0.171725 0.230411 0
0.189853 0.233402 0
0.208453 0.236393 0
0.227497 0.239368 0
0.246998 0.242329 0
0.266941 0.245274 0
0.287358 0.248203 0
0.308217 0.251133 0
0.329534 0.254047 0
0.351308 0.256947 0
0.373541 0.259831 0
0.396216 0.262699 0
0.419348 0.265568 0
0.442939 0.268421 0
0.466987 0.27126 0
0.491478 0.274098 0
0.516426 0.276905 0
0.541833 0.279713 0
0.567697 0.282506 0
0.594018 0.285283 0
0.620783 0.28806 0
0.648005 0.290806 0
0.00247196 0.220493 0.00247196
0.0163729 0.223804 0.00215152
0.0307164 0.2271 0.00181582
0.0455329 0.230381 0.00148013
0.0607919 0.233661 0.00111391
0.0765087 0.236927 0.000747692
0.0926833 0.240177 0.000366217
0.1093 0.243412 0
0.126375 0.246647 0
0.143908 0.249866 0
0.161898 0.253071 0
0.180346 0.25626 0
0.199237 0.259434 0
0.218585 0.262608 0
0.238392 0.265766 0
0.258656 0.26891 0
0.279362 0.272038 0
0.300542 0.275151 0
0.322164 0.278264 0
0.344244 0.281361 0
0.366766 0.284443 0
0.389746 0.287526 0
0.413199 0.290578 0
0.437079 0.293629 0
0.461433 0.296666 0
0.486244 0.299687 0
0.511498 0.302708 0
0.537209 0.305699 0
0.563378 0.30869 0
0.58999 0.311666 0
0.61706 0.314641 0
0.644602 0.317586 0
0.672572 0.320531 0
0.00276188 0.24567 0.00276188
0.0174105 0.249165 0.00242618
0.0325322 0.252644 0.00207523
0.0480964 0.256123 0.00170901
0.0641184 0.259586 0.00132753
0.0805829 0.263035 0.000946059
0.0975204 0.266468 0.000549325
0.1149 0.269886 0.000137331
0.132738 0.273304 0
0.151034 0.276707 0
0.169787 0.280095 0
0.188983 0.283467 0
0.208637 0.286824 0
0.228748 0.290181 0
0.249317 0.293523 0
0.270329 0.296849 0
0.291798 0.30016 0
0.313726 0.303471 0
0.33611 0.306767 0
0.358953 0.310048 0
0.382239 0.313313 0
0.405982 0.316564 0
0.430182 0.319814 0
0.454841 0.323049 0
0.479942 0.326268 0
0.505516 0.329473 0
0.531533 0.332677 0
0.557992 0.335866 0
0.584924 0.33904 0
0.612299 0.342199 0
0.640131 0.345342 0
0.668421 0.348486 0
0.697169 0.351614 0
0.00306706 0.272221 0.00306706
0.0184787 0.275898 0.00270085
0.0343481 0.279561 0.00233463
0.0506752 0.283223 0.00195315
0.0674449 0.286854 0.00155642
0.0846876 0.290486 0.00115969
0.102373 0.294118 0.000732433
0.120516 0.297719 0.00030518
0.139116 0.30132 0
0.158175 0.304906 0
0.177676 0.308476 0
0.197635 0.312032 0
0.218051 0.315587 0
0.238926 0.319112 0
0.260243 0.322637 0
0.282017 0.326162 0
0.30425 0.329656 0
0.32694 0.33315 0
0.350088 0.336629 0
0.373678 0.340093 0
0.397726 0.343542 0
0.422232 0.346975 0
0.447196 0.350408 0
0.472602 0.353826 0
0.498466 0.357229 0
0.524788 0.360632 0
0.551568 0.364004 0
0.578805 0.367376 0
0.606485 0.370733 0
0.634623 0.374075 0
0.663218 0.377417 0
0.692271 0.380743 0
0.721767 0.384039 0
0.00337224 0.300114 0.00337224
0.0195468 0.303975 0.00300603
0.0361791 0.307836 0.00260929
0.053254 0.311666 0.00221256
0.0708019 0.315496 0.00180056
0.0887922 0.31931 0.00137331
0.10724 0.323125 0.000946059
0.126146 0.326909 0.000503548
0.14551 0.330694 4.57771e-05
0.165316 0.334462 0
0.18558 0.338216 0
0.206302 0.341955 0
0.227481 0.345693 0
0.249104 0.349416 0
0.271199 0.353124 0
0.293736 0.356817 0
0.316716 0.36051 0
0.340169 0.364187 0
0.364065 0.367834 0
0.388418 0.371496 0
0.41323 0.375128 0
0.438499 0.378759 0
0.46421 0.382361 0
0.490394 0.385962 0
0.517021 0.389563 0
0.544091 0.393133 0
0.571633 0.396704 0
0.599619 0.400259 0
0.628061 0.4038 0
0.656962 0.407324 0
0.68632 0.410849 0
0.716121 0.414359 0
0.746395 0.417853 0
0.00370794 0.329381 0.00370794
0.0206302 0.333425 0.00331121
0.0380255 0.337469 0.00289921
0.0558633 0.341482 0.00248722
0.0741741 0.345495 0.00205997
0.0929274 0.349493 0.00161746
0.112123 0.353491 0.00117494
0.131792 0.357458 0.000701915
0.151904 0.361425 0.000228885
0.172488 0.365377 0
0.1935 0.369329 0
0.214984 0.373251 0
0.236927 0.377172 0
0.259312 0.381079 0
0.282155 0.38497 0
0.305455 0.388846 0
0.329198 0.392721 0
0.353414 0.396582 0
0.378073 0.400427 0
0.403189 0.404257 0
0.428748 0.408072 0
0.45478 0.411887 0
0.481254 0.415686 0
0.508186 0.419471 0
0.535576 0.423239 0
0.563409 0.427008 0
0.591714 0.430762 0
0.620462 0.434501 0
0.649668 0.438224 0
0.679316 0.441932 0
0.709438 0.44564 0
0.740001 0.449332 0
0.771023 0.45301 0
0.00404364 0.360006 0.00404364
0.0217288 0.364233 0.00363165
0.0398871 0.36846 0.00321965
0.0584878 0.372671 0.00277714
0.0775464 0.376867 0.00233463
0.0970626 0.381048 0.00187686
0.117037 0.385214 0.00140383
0.137453 0.38938 0.0009308
0.158328 0.39353 0.000427253
0.17966 0.397665 0
0.20145 0.401785 0
0.223682 0.405905 0
0.246387 0.41001 0
0.269535 0.414099 0
0.293126 0.418173 0
0.317189 0.422232 0
0.341695 0.426291 0
0.366659 0.430335 0
0.392081 0.434363 0
0.41796 0.438376 0
0.444282 0.44239 0
0.471077 0.446387 0
0.498314 0.45037 0
0.525994 0.454337 0
0.554147 0.458289 0
0.582742 0.462242 0
0.611795 0.466178 0
0.641306 0.4701 0
0.671275 0.474006 0
0.701686 0.477897 0
0.73257 0.481788 0
0.763897 0.485664 0
0.795666 0.489525 0
0.00440986 0.391989 0.00440986
0.022858 0.396399 0.0039826
0.0417639 0.400809 0.00354009
0.0611276 0.405203 0.00308232
0.0809491 0.409583 0.00262455
0.101228 0.413947 0.00215152
0.12195 0.418311 0.00166323
0.14313 0.42266 0.00115969
0.164767 0.426993 0.000656138
0.186862 0.431312 0.000122072
0.2094 0.435615 0
0.232395 0.439918 0
0.255848 0.444205 0
0.279759 0.448478 0
0.304128 0.452735 0
0.328939 0.456992 0
0.354208 0.461234 0
0.379934 0.465446 0
0.406119 0.469673 0
0.432746 0.473869 0
0.459846 0.478065 0
0.487388 0.482231 0
0.515373 0.486397 0
0.543832 0.490562 0
0.572732 0.494697 0
0.60209 0.498833 0
0.631907 0.502953 0
0.662181 0.507057 0
0.692897 0.511147 0
0.724086 0.515236 0
0.755718 0.51931 0
0.787793 0.523369 0
0.82034 0.527413 0
0.00477607 0.425345 0.00477607
0.0239872 0.429938 0.00433356
0.0436561 0.434531 0.00387579
0.0637827 0.439109 0.00341802
0.0843671 0.443671 0.00292973
0.105394 0.448218 0.00244144
0.126879 0.452766 0.0019379
0.148821 0.457298 0.00141909
0.171221 0.461814 0.000885023
0.194064 0.466316 0.000350958
0.217365 0.470817 0
0.241123 0.475288 0
0.265339 0.479759 0
0.290013 0.484215 0
0.315129 0.48867 0
0.340703 0.493095 0
0.366735 0.49752 0
0.393225 0.50193 0
0.420157 0.506325 0
0.447562 0.510719 0
0.47541 0.515099 0
0.5037 0.519448 0
0.532464 0.523812 0
0.561669 0.528145 0
0.591333 0.532479 0
0.621454 0.536782 0
0.652033 0.541085 0
0.683055 0.545373 0
0.714549 0.549661 0
0.746487 0.553933 0
0.778866 0.558175 0
0.811719 0.562432 0
0.845014 0.566659 0
0.00517281 0.460044 0.00517281
0.0251316 0.464836 0.00471504
0.0455634 0.469596 0.00424201
0.066453 0.474357 0.00375372
0.0877852 0.479118 0.00325017
0.109575 0.483848 0.00273136
0.131823 0.488579 0.00221256
0.154528 0.493294 0.00167849
0.177676 0.497993 0.00112917
0.201297 0.502678 0.000579843
0.22536 0.507362 0
0.249882 0.512032 0
0.274846 0.516686 0
0.300282 0.521324 0
0.326162 0.525948 0
0.352499 0.530571 0
0.379278 0.53518 0
0.406531 0.539773 0
0.434226 0.54435 0
0.462379 0.548928 0
0.49099 0.553491 0
0.520043 0.558038 0
0.549569 0.56257 0
0.579538 0.567086 0
0.609964 0.571603 0
0.640833 0.576104 0
0.672175 0.580591 0
0.70396 0.585061 0
0.736202 0.589532 0
0.768902 0.593973 0
0.802045 0.598413 0
0.83566 0.602853 0
0.869718 0.607263 0
0.0055848 0.496117 0.0055848
0.0263066 0.501076 0.00509651
0.0474861 0.506035 0.00460822
0.0691386 0.510979 0.00410468
0.0912337 0.515923 0.00358587
0.113787 0.520836 0.0030518
0.136797 0.52575 0.00251774
0.16025 0.530648 0.00196841
0.184161 0.535531 0.00140383
