assets/cube/harsh_day.cube
TITLE "Generated by Resolve"
LUT_3D_SIZE 5
0 0 0
0.0145418 0 0
0.0581521 0 0
0.130846 0 0
0.232624 0 0
0.000488289 0.0435492 0.000488289
0.0636301 0.054963 0
0.155856 0.0656138 0
0.277165 0.0755016 0
0.427543 0.0846113 0
0.00195315 0.174212 0.00195315
0.11371 0.197421 0
0.254551 0.219867 0
0.42446 0.241535 0
0.623453 0.262455 0
0.00440986 0.391989 0.00440986
0.164767 0.426993 0.000656138
0.354208 0.461234 0
0.572732 0.494697 0
0.82034 0.527413 0
0.00784314 0.69688 0.00784314
0.2168 0.743679 0.00296025
0.454856 0.7897 0
0.721996 0.834974 0
1 0.879484 0
0.000106813 0.000106813 0.0043183
0.0211032 0 0.0138552
0.0711833 0 0.0226291
0.150347 0 0.0306401
0.258595 0 0.0378882
0.00144961 0.0500343 0.0384833
0.071046 0.0615244 0.046891
0.169741 0.0722515 0.054551
0.297505 0.0822003 0.0614328
0.454353 0.0914015 0.0675517
0.00376898 0.187091 0.0736248
0.121981 0.210376 0.0809186
0.269276 0.232883 0.0874342
0.44567 0.254643 0.0932021
0.651118 0.275624 0.0981918
0.00706493 0.411261 0.109758
0.173892 0.446326 0.115908
0.369802 0.480644 0.121309
0.594797 0.514183 0.125948
0.848859 0.546975 0.129824
0.0113375 0.72253 0.146853
0.22678 0.769406 0.151888
0.471305 0.815503 0.156161
0.7449 0.860853 0.15967
1 0.905425 0.162417
0.000411994 0.000411994 0.0172885
0.0278782 0.000167849 0.0367437
0.0844282 0 0.055436
0.170062 0 0.0733654
0.284764 0 0.090547
0.00259403 0.056733 0.0851301
0.0786755 0.0682841 0.103456
0.183841 0.0790875 0.121035
0.318074 0.0891127 0.137835
0.481392 0.0983902 0.153872
0.00576791 0.200168 0.153948
0.130449 0.223529 0.17116
0.28423 0.246113 0.187594
0.467079 0.267933 0.203281
0.678996 0.289006 0.218204
0.00991836 0.430732 0.223743
0.183215 0.465873 0.239826
0.385595 0.500252 0.255146
0.61706 0.533883 0.269703
0.877592 0.566735 0.283497
0.0150607 0.748394 0.29453
0.236957 0.795331 0.309483
0.487953 0.841505 0.323674
0.768017 0.886931 0.337118
1 0.931579 0.349783
0.000915541 0.000915541 0.0388952
0.0348516 0.000747692 0.0682689
0.0978714 0 0.0968948
0.189975 0 0.124743
0.311147 0 0.151827
0.00395209 0.0636301 0.140414
0.0865034 0.0752575 0.168658
0.198123 0.0861219 0.196155
0.338827 0.0962387 0.222873
0.508614 0.105577 0.248844
0.00798047 0.213458 0.242908
0.139132 0.236881 0.270039
0.299367 0.259541 0.296407
0.488685 0.281437 0.321996
0.707088 0.302586 0.346838
0.0129854 0.450401 0.346395
0.192752 0.485618 0.372396
0.401602 0.520073 0.397635
0.639521 0.553765 0.42211
0.906523 0.586694 0.445823
0.018967 0.774456 0.450843
0.247333 0.821469 0.475715
0.504799 0.86772 0.49984
0.791333 0.913207 0.523186
1 0.957931 0.545769
0.00161746 0.00161746 0.0691539
0.0420233 0.0015259 0.108446
0.111513 0.000686656 0.14699
0.210086 0 0.184756
0.337728 0 0.221775
0.00552377 0.0707256 0.204334
0.0945296 0.0824292 0.242512
0.212619 0.09337 0.279927
0.359792 0.103548 0.316564
0.536049 0.112963 0.352453
0.0103914 0.226947 0.34052
0.148013 0.250446 0.377554
0.314717 0.273182 0.41384
0.510506 0.295155 0.449363
0.735363 0.316365 0.484123
0.0162509 0.470283 0.477668
0.202472 0.505562 0.513588
0.417792 0.540093 0.54876
0.662196 0.573861 0.583154
0.935668 0.606867 0.616785
0.0230869 0.800717 0.615808
0.257923 0.847807 0.650599
0.521843 0.894133 0.684642
0.814862 0.939696 0.717906
1 0.984482 0.750423
