assets/cube/indoor_blue.cube
TITLE "Generated by Resolve"
LUT_3D_SIZE 9
0 0 0
0.00988785 0 0
0.141131 0 0
0.272389 0 0
0.403632 0 0
0.53489 0 0
0.666148 0 0
0.797391 0 0
0.928649 0 0
0 0.0129854 0
0.013901 0.0129854 0
0.145159 0.0129854 0
0.276402 0.0129854 0
0.40766 0.0129854 0
0.538918 0.0129854 0
0.670161 0.0129854 0
0.801419 0.0129854 0
0.932662 0.0129854 0
0 0.142641 0
0.0179294 0.142641 0
0.149172 0.142641 0
0.28043 0.142641 0
0.411688 0.142641 0
0.542931 0.142641 0
0.674189 0.142641 0
0.805432 0.142641 0
0.93669 0.142641 0
0 0.272297 0.00170901
0.0219425 0.272297 0.00170901
0.153201 0.272297 0.00170901
0.284459 0.272297 0.00170901
0.415702 0.272297 0.00170901
0.54696 0.272297 0.00170901
0.678203 0.272297 0.00170901
0.809461 0.272297 0.00170901
0.940719 0.272297 0.00170901
0 0.401938 0.00573739
0.0259709 0.401938 0.00573739
0.157229 0.401938 0.00573739
0.288472 0.401938 0.00573739
0.41973 0.401938 0.00573739
0.550988 0.401938 0.00573739
0.682231 0.401938 0.00573739
0.813489 0.401938 0.00573739
0.944732 0.401938 0.00573739
0 0.531594 0.00975052
0.0299992 0.531594 0.00975052
0.161242 0.531594 0.00975052
0.2925 0.531594 0.00975052
0.423758 0.531594 0.00975052
0.555001 0.531594 0.00975052
0.686259 0.531594 0.00975052
0.817502 0.531594 0.00975052
0.94876 0.531594 0.00975052
0 0.661234 0.0137789
0.0340124 0.661234 0.0137789
0.16527 0.661234 0.0137789
0.296529 0.661234 0.0137789
0.427771 0.661234 0.0137789
0.55903 0.661234 0.0137789
0.690272 0.661234 0.0137789
0.82153 0.661234 0.0137789
0.952789 0.661234 0.0137789
0 0.79089 0.0178073
0.0380407 0.79089 0.0178073
0.169299 0.79089 0.0178073
0.300542 0.79089 0.0178073
0.4318 0.79089 0.0178073
0.563043 0.79089 0.0178073
0.694301 0.79089 0.0178073
0.825559 0.79089 0.0178073
0.956802 0.79089 0.0178073
0 0.920546 0.0218204
0.0420691 0.920546 0.0218204
0.173312 0.920546 0.0218204
0.30457 0.920546 0.0218204
0.435828 0.920546 0.0218204
0.567071 0.920546 0.0218204
0.698329 0.920546 0.0218204
0.829572 0.920546 0.0218204
0.96083 0.920546 0.0218204
0 0 0.108705
0.0108339 0 0.108705
0.142077 0 0.108705
0.273335 0 0.108705
0.404578 0 0.108705
0.535836 0 0.108705
0.667094 0 0.108705
0.798337 0 0.108705
0.929595 0 0.108705
0 0.0139467 0.112718
0.014847 0.0139467 0.112718
0.146105 0.0139467 0.112718
0.277348 0.0139467 0.112718
0.408606 0.0139467 0.112718
0.539864 0.0139467 0.112718
0.671107 0.0139467 0.112718
0.802365 0.0139467 0.112718
0.933608 0.0139467 0.112718
0 0.143587 0.116747
0.0188754 0.143587 0.116747
0.150118 0.143587 0.116747
0.281376 0.143587 0.116747
0.412634 0.143587 0.116747
0.543877 0.143587 0.116747
0.675135 0.143587 0.116747
0.806378 0.143587 0.116747
0.937636 0.143587 0.116747
0 0.273243 0.120775
0.0229038 0.273243 0.120775
0.154147 0.273243 0.120775
0.285405 0.273243 0.120775
0.416648 0.273243 0.120775
0.547906 0.273243 0.120775
0.679164 0.273243 0.120775
0.810407 0.273243 0.120775
0.941665 0.273243 0.120775
0 0.402884 0.124788
0.0269169 0.402884 0.124788
0.158175 0.402884 0.124788
0.289418 0.402884 0.124788
0.420676 0.402884 0.124788
0.551934 0.402884 0.124788
0.683177 0.402884 0.124788
0.814435 0.402884 0.124788
0.945678 0.402884 0.124788
0 0.53254 0.128817
0.0309453 0.53254 0.128817
0.162188 0.53254 0.128817
0.293446 0.53254 0.128817
0.424704 0.53254 0.128817
0.555947 0.53254 0.128817
0.687205 0.53254 0.128817
0.818448 0.53254 0.128817
0.949706 0.53254 0.128817
0 0.662196 0.132845
0.0349584 0.662196 0.132845
0.166217 0.662196 0.132845
0.297475 0.662196 0.132845
0.428717 0.662196 0.132845
0.559976 0.662196 0.132845
0.691234 0.662196 0.132845
0.822477 0.662196 0.132845
0.953735 0.662196 0.132845
0 0.791836 0.136858
0.0389868 0.791836 0.136858
0.170245 0.791836 0.136858
0.301488 0.791836 0.136858
0.432746 0.791836 0.136858
0.564004 0.791836 0.136858
0.695247 0.791836 0.136858
0.826505 0.791836 0.136858
0.957748 0.791836 0.136858
0 0.921492 0.140887
0.0430152 0.921492 0.140887
0.174258 0.921492 0.140887
0.305516 0.921492 0.140887
0.436774 0.921492 0.140887
0.568017 0.921492 0.140887
0.699275 0.921492 0.140887
0.830518 0.921492 0.140887
0.961776 0.921492 0.140887
0 0 0.227771
0.01178 0 0.227771
0.143023 0 0.227771
0.274281 0 0.227771
0.405539 0 0.227771
0.536782 0 0.227771
0.66804 0 0.227771
0.799283 0 0.227771
0.930541 0 0.227771
0 0.0148928 0.2318
0.0157931 0.0148928 0.2318
0.147051 0.0148928 0.2318
0.278309 0.0148928 0.2318
0.409552 0.0148928 0.2318
0.54081 0.0148928 0.2318
0.672053 0.0148928 0.2318
0.803311 0.0148928 0.2318
0.934569 0.0148928 0.2318
0 0.144533 0.235828
0.0198215 0.144533 0.235828
0.15108 0.144533 0.235828
0.282322 0.144533 0.235828
0.413581 0.144533 0.235828
0.544823 0.144533 0.235828
0.676081 0.144533 0.235828
0.80734 0.144533 0.235828
0.938582 0.144533 0.235828
0 0.274189 0.239841
0.0238499 0.274189 0.239841
0.155093 0.274189 0.239841
0.286351 0.274189 0.239841
0.417594 0.274189 0.239841
0.548852 0.274189 0.239841
0.68011 0.274189 0.239841
0.811353 0.274189 0.239841
0.942611 0.274189 0.239841
0 0.40383 0.24387
0.027863 0.40383 0.24387
0.159121 0.40383 0.24387
0.290379 0.40383 0.24387
0.421622 0.40383 0.24387
0.55288 0.40383 0.24387
0.684123 0.40383 0.24387
0.815381 0.40383 0.24387
0.946639 0.40383 0.24387
0 0.533486 0.247898
0.0318914 0.533486 0.247898
0.163149 0.533486 0.247898
0.294392 0.533486 0.247898
0.42565 0.533486 0.247898
0.556893 0.533486 0.247898
0.688151 0.533486 0.247898
0.819409 0.533486 0.247898
0.950652 0.533486 0.247898
0 0.663142 0.251911
0.0359197 0.663142 0.251911
0.167163 0.663142 0.251911
0.298421 0.663142 0.251911
0.429664 0.663142 0.251911
0.560922 0.663142 0.251911
0.69218 0.663142 0.251911
0.823423 0.663142 0.251911
0.954681 0.663142 0.251911
0 0.792782 0.25594
0.0399329 0.792782 0.25594
0.171191 0.792782 0.25594
0.302434 0.792782 0.25594
0.433692 0.792782 0.25594
0.56495 0.792782 0.25594
0.696193 0.792782 0.25594
0.827451 0.792782 0.25594
0.958694 0.792782 0.25594
0 0.922438 0.259953
0.0439612 0.922438 0.259953
0.175219 0.922438 0.259953
0.306462 0.922438 0.259953
0.43772 0.922438 0.259953
0.568963 0.922438 0.259953
0.700221 0.922438 0.259953
0.831479 0.922438 0.259953
0.962722 0.922438 0.259953
0 0 0.346853
0.012726 0 0.346853
0.143969 0 0.346853
0.275227 0 0.346853
0.406485 0 0.346853
0.537728 0 0.346853
0.668986 0 0.346853
0.800229 0 0.346853
0.931487 0 0.346853
0 0.0158389 0.350866
0.0167391 0.0158389 0.350866
0.147997 0.0158389 0.350866
0.279255 0.0158389 0.350866
0.410498 0.0158389 0.350866
0.541756 0.0158389 0.350866
0.672999 0.0158389 0.350866
0.804257 0.0158389 0.350866
0.935515 0.0158389 0.350866
0 0.14548 0.354894
0.0207675 0.14548 0.354894
0.152026 0.14548 0.354894
0.283268 0.14548 0.354894
0.414527 0.14548 0.354894
0.545769 0.14548 0.354894
0.677028 0.14548 0.354894
0.808286 0.14548 0.354894
0.939529 0.14548 0.354894
0 0.275135 0.358923
0.0247959 0.275135 0.358923
0.156039 0.275135 0.358923
0.287297 0.275135 0.358923
0.418555 0.275135 0.358923
0.549798 0.275135 0.358923
0.681056 0.275135 0.358923
0.812299 0.275135 0.358923
0.943557 0.275135 0.358923
0 0.404791 0.362936
0.028809 0.404791 0.362936
0.160067 0.404791 0.362936
0.291325 0.404791 0.362936
0.422568 0.404791 0.362936
0.553826 0.404791 0.362936
0.685069 0.404791 0.362936
0.816327 0.404791 0.362936
0.947585 0.404791 0.362936
0 0.534432 0.366964
0.0328374 0.534432 0.366964
0.164096 0.534432 0.366964
0.295338 0.534432 0.366964
0.426596 0.534432 0.366964
0.557839 0.534432 0.366964
0.689097 0.534432 0.366964
0.820356 0.534432 0.366964
0.951598 0.534432 0.366964
0 0.664088 0.370993
0.0368658 0.664088 0.370993
0.168109 0.664088 0.370993
0.299367 0.664088 0.370993
0.430625 0.664088 0.370993
0.561868 0.664088 0.370993
0.693126 0.664088 0.370993
0.824369 0.664088 0.370993
0.955627 0.664088 0.370993
0 0.793729 0.375006
0.0408789 0.793729 0.375006
0.172137 0.793729 0.375006
0.303395 0.793729 0.375006
0.434638 0.793729 0.375006
0.565896 0.793729 0.375006
0.697139 0.793729 0.375006
0.828397 0.793729 0.375006
0.959655 0.793729 0.375006
0 0.923384 0.379034
0.0449073 0.923384 0.379034
0.176165 0.923384 0.379034
0.307408 0.923384 0.379034
0.438666 0.923384 0.379034
0.569909 0.923384 0.379034
0.701167 0.923384 0.379034
0.832425 0.923384 0.379034
0.963668 0.923384 0.379034
0 0 0.465919
0.0136721 0 0.465919
0.14493 0 0.465919
0.276173 0 0.465919
0.407431 0 0.465919
0.538674 0 0.465919
0.669932 0 0.465919
0.80119 0 0.465919
0.932433 0 0.465919
0 0.0167849 0.469947
0.0177005 0.0167849 0.469947
0.148943 0.0167849 0.469947
0.280201 0.0167849 0.469947
0.411444 0.0167849 0.469947
0.542702 0.0167849 0.469947
0.673961 0.0167849 0.469947
0.805203 0.0167849 0.469947
0.936461 0.0167849 0.469947
0 0.146426 0.473976
0.0217136 0.146426 0.473976
0.152972 0.146426 0.473976
0.284215 0.146426 0.473976
0.415473 0.146426 0.473976
0.546731 0.146426 0.473976
0.677974 0.146426 0.473976
0.809232 0.146426 0.473976
0.940475 0.146426 0.473976
0 0.276081 0.477989
0.025742 0.276081 0.477989
0.156985 0.276081 0.477989
0.288243 0.276081 0.477989
0.419501 0.276081 0.477989
0.550744 0.276081 0.477989
0.682002 0.276081 0.477989
0.813245 0.276081 0.477989
0.944503 0.276081 0.477989
0 0.405737 0.482017
0.0297704 0.405737 0.482017
0.161013 0.405737 0.482017
0.292271 0.405737 0.482017
0.423514 0.405737 0.482017
0.554772 0.405737 0.482017
0.68603 0.405737 0.482017
0.817273 0.405737 0.482017
0.948531 0.405737 0.482017
0 0.535378 0.486046
0.0337835 0.535378 0.486046
0.165042 0.535378 0.486046
0.296284 0.535378 0.486046
0.427543 0.535378 0.486046
0.558801 0.535378 0.486046
0.690044 0.535378 0.486046
0.821302 0.535378 0.486046
0.952544 0.535378 0.486046
0 0.665034 0.490059
0.0378119 0.665034 0.490059
0.169055 0.665034 0.490059
0.300313 0.665034 0.490059
0.431571 0.665034 0.490059
0.562814 0.665034 0.490059
0.694072 0.665034 0.490059
0.825315 0.665034 0.490059
0.956573 0.665034 0.490059
0 0.794675 0.494087
0.041825 0.794675 0.494087
0.173083 0.794675 0.494087
0.304341 0.794675 0.494087
0.435584 0.794675 0.494087
0.566842 0.794675 0.494087
0.698085 0.794675 0.494087
0.829343 0.794675 0.494087
0.960601 0.794675 0.494087
0 0.924331 0.498116
0.0458534 0.924331 0.498116
0.177111 0.924331 0.498116
0.308354 0.924331 0.498116
0.439612 0.924331 0.498116
0.570871 0.924331 0.498116
0.702113 0.924331 0.498116
0.833371 0.924331 0.498116
0.964614 0.924331 0.498116
0 0 0.585
0.0146181 0 0.585
0.145876 0 0.585
0.277119 0 0.585
0.408377 0 0.585
0.53962 0 0.585
0.670878 0 0.585
0.802136 0 0.585
0.933379 0 0.585
0 0.017731 0.589029
0.0186465 0.017731 0.589029
0.149889 0.017731 0.589029
0.281147 0.017731 0.589029
0.41239 0.017731 0.589029
0.543648 0.017731 0.589029
0.674907 0.017731 0.589029
0.806149 0.017731 0.589029
0.937407 0.017731 0.589029
0 0.147387 0.593042
0.0226596 0.147387 0.593042
0.153918 0.147387 0.593042
0.285176 0.147387 0.593042
0.416419 0.147387 0.593042
0.547677 0.147387 0.593042
0.67892 0.147387 0.593042
0.810178 0.147387 0.593042
0.941436 0.147387 0.593042
0 0.277028 0.59707
0.026688 0.277028 0.59707
0.157946 0.277028 0.59707
0.289189 0.277028 0.59707
0.420447 0.277028 0.59707
0.55169 0.277028 0.59707
0.682948 0.277028 0.59707
0.814206 0.277028 0.59707
0.945449 0.277028 0.59707
0 0.406683 0.601099
0.0307164 0.406683 0.601099
0.161959 0.406683 0.601099
0.293217 0.406683 0.601099
0.42446 0.406683 0.601099
0.555718 0.406683 0.601099
0.686976 0.406683 0.601083
0.818219 0.406683 0.601099
0.949477 0.406683 0.601099
0 0.536324 0.605112
0.0347295 0.536324 0.605112
0.165988 0.536324 0.605112
0.29723 0.536324 0.605112
0.428489 0.536324 0.605112
0.559747 0.536324 0.605112
0.69099 0.536324 0.605112
0.822248 0.536324 0.605112
0.95349 0.536324 0.605112
0 0.66598 0.60914
0.0387579 0.66598 0.60914
0.170016 0.66598 0.60914
0.301259 0.66598 0.60914
0.432517 0.66598 0.60914
0.56376 0.66598 0.60914
0.695018 0.66598 0.60914
0.826276 0.66598 0.60914
0.957519 0.66598 0.60914
0 0.795636 0.613153
0.0427863 0.795636 0.613153
0.174029 0.795636 0.613153
0.305287 0.795636 0.613153
0.43653 0.795636 0.613153
0.567788 0.795636 0.613153
0.699046 0.795636 0.613153
0.830289 0.795636 0.613153
0.961547 0.795636 0.613153
0 0.925277 0.617182
0.0467994 0.925277 0.617182
0.178058 0.925277 0.617182
0.3093 0.925277 0.617182
0.440558 0.925277 0.617182
0.571817 0.925277 0.617182
0.703059 0.925277 0.617182
0.834318 0.925277 0.617182
0.96556 0.925277 0.617182
0 0 0.704067
0.0155642 0 0.704067
0.146822 0 0.704067
0.278065 0 0.704067
0.409323 0 0.704067
0.540581 0 0.704067
0.671824 0 0.704067
0.803082 0 0.704067
0.934325 0 0.704067
0 0.018677 0.708095
0.0195926 0.018677 0.708095
0.150835 0.018677 0.708095
0.282094 0.018677 0.708095
0.413352 0.018677 0.708095
0.544594 0.018677 0.708095
0.675853 0.018677 0.708095
0.807095 0.018677 0.708095
0.938354 0.018677 0.708095
0 0.148333 0.712123
0.0236057 0.148333 0.712123
0.154864 0.148333 0.712123
0.286122 0.148333 0.712123
0.417365 0.148333 0.712123
0.548623 0.148333 0.712123
0.679866 0.148333 0.712123
0.811124 0.148333 0.712123
0.942382 0.148333 0.712123
0 0.277974 0.716136
0.0276341 0.277974 0.716136
0.158892 0.277974 0.716136
0.290135 0.277974 0.716136
0.421393 0.277974 0.716136
0.552636 0.277974 0.716136
0.683894 0.277974 0.716136
0.815152 0.277974 0.716136
0.946395 0.277974 0.716136
0 0.40763 0.720165
0.0316625 0.40763 0.720165
0.162905 0.40763 0.720165
0.294163 0.40763 0.720165
0.425422 0.40763 0.720165
0.556664 0.40763 0.720165
0.687922 0.40763 0.720165
0.819165 0.40763 0.720165
0.950423 0.40763 0.720165
0 0.53727 0.724193
0.0356756 0.53727 0.724193
0.166934 0.53727 0.724193
0.298192 0.53727 0.724193
0.429435 0.53727 0.724193
0.560693 0.53727 0.724193
0.691936 0.53727 0.724193
0.823194 0.53727 0.724193
0.954452 0.53727 0.724193
0 0.666926 0.728206
0.039704 0.666926 0.728206
0.170962 0.666926 0.728206
0.302205 0.666926 0.728206
0.433463 0.666926 0.728206
0.564706 0.666926 0.728206
0.695964 0.666926 0.728206
0.827222 0.666926 0.728206
0.958465 0.666926 0.728206
0 0.796582 0.732235
0.0437324 0.796582 0.732235
0.174975 0.796582 0.732235
0.306233 0.796582 0.732235
0.437476 0.796582 0.732235
0.568734 0.796582 0.732235
0.699992 0.796582 0.732235
0.831235 0.796582 0.732235
0.962493 0.796582 0.732235
0 0.926223 0.736263
0.0477455 0.926223 0.736263
0.179004 0.926223 0.736263
0.310262 0.926223 0.736263
0.441505 0.926223 0.736263
0.572763 0.926223 0.736263
0.704005 0.926223 0.736263
0.835264 0.926223 0.736263
0.966522 0.926223 0.736263
0 0 0.823148
0.0165103 0 0.823148
0.147768 0 0.823148
0.279011 0 0.823148
0.410269 0 0.823148
0.541527 0 0.823148
0.67277 0 0.823148
0.804028 0 0.823148
0.935271 0 0.823148
0 0.0196231 0.827176
0.0205386 0.0196231 0.827176
0.151781 0.0196231 0.827176
0.28304 0.0196231 0.827176
0.414298 0.0196231 0.827176
0.545541 0.0196231 0.827176
0.676799 0.0196231 0.827176
0.808042 0.0196231 0.827176
0.9393 0.0196231 0.827176
0 0.149279 0.831189
0.024567 0.149279 0.831189
0.15581 0.149279 0.831189
0.287068 0.149279 0.831189
0.418311 0.149279 0.831189
0.549569 0.149279 0.831189
0.680827 0.149279 0.831189
0.81207 0.149279 0.831189
0.943328 0.149279 0.831189
0 0.27892 0.835218
0.0285801 0.27892 0.835218
0.159838 0.27892 0.835218
0.291081 0.27892 0.835218
0.422339 0.27892 0.835218
0.553597 0.27892 0.835218
0.68484 0.27892 0.835218
0.816098 0.27892 0.835218
0.947341 0.27892 0.835218
0 0.408576 0.839246
0.0326085 0.408576 0.839246
0.163851 0.408576 0.839246
0.295109 0.408576 0.839246
0.426368 0.408576 0.839246
0.55761 0.408576 0.839246
0.688869 0.408576 0.839246
0.820111 0.408576 0.839246
0.95137 0.408576 0.839246
0 0.538231 0.843259
0.0366217 0.538231 0.843259
0.16788 0.538231 0.843259
0.299138 0.538231 0.843259
0.430381 0.538231 0.843259
0.561639 0.538231 0.843259
0.692882 0.538231 0.843259
0.82414 0.538231 0.843259
0.955398 0.538231 0.843259
0 0.667872 0.847288
0.04065 0.667872 0.847288
0.171908 0.667872 0.847288
0.303151 0.667872 0.847288
0.434409 0.667872 0.847288
0.565667 0.667872 0.847288
0.69691 0.667872 0.847288
0.828168 0.667872 0.847288
0.959411 0.667872 0.847288
0 0.797528 0.851316
0.0446784 0.797528 0.851316
0.175921 0.797528 0.851316
0.307179 0.797528 0.851316
0.438437 0.797528 0.851316
0.56968 0.797528 0.851316
0.700938 0.797528 0.851316
0.832181 0.797528 0.851316
0.963439 0.797528 0.851316
0 0.927169 0.855329
0.0486915 0.927169 0.855329
0.17995 0.927169 0.855329
0.311208 0.927169 0.855329
0.442451 0.927169 0.855329
0.573709 0.927169 0.855329
0.704952 0.927169 0.855329
0.83621 0.927169 0.855329
0.967468 0.927169 0.855329
0 0 0.942229
0.0174563 0 0.942229
0.148714 0 0.942229
0.279973 0 0.942229
0.411215 0 0.942229
0.542473 0 0.942229
0.673716 0 0.942229
0.804974 0 0.942229
0.936233 0 0.942229
0 0.0205692 0.946242
0.0214847 0.0205692 0.946242
0.152743 0.0205692 0.946242
0.283986 0.0205692 0.946242
0.415244 0.0205692 0.946242
0.546487 0.0205692 0.946242
0.677745 0.0205692 0.946242
0.809003 0.0205692 0.946242
0.940246 0.0205692 0.946242
0 0.150225 0.950271
0.0255131 0.150225 0.950271
0.156756 0.150225 0.950271
0.288014 0.150225 0.950271
0.419257 0.150225 0.950271
0.550515 0.150225 0.950271
0.681773 0.150225 0.950271
0.813016 0.150225 0.950271
0.944274 0.150225 0.950271
0 0.279866 0.954284
0.0295262 0.279866 0.954284
0.160784 0.279866 0.954284
0.292027 0.279866 0.954284
0.423285 0.279866 0.954284
0.554543 0.279866 0.954284
0.685786 0.279866 0.954284
0.817044 0.279866 0.954284
0.948287 0.279866 0.954284
0 0.409522 0.958312
0.0335546 0.409522 0.958312
0.164813 0.409522 0.958312
0.296056 0.409522 0.958312
0.427314 0.409522 0.958312
0.558556 0.409522 0.958312
0.689815 0.409522 0.958312
0.821073 0.409522 0.958312
0.952316 0.409522 0.958312
0 0.539178 0.962341
0.037583 0.539178 0.962341
0.168826 0.539178 0.962341
0.300084 0.539178 0.962341
0.431327 0.539178 0.962341
0.562585 0.539178 0.962341
0.693843 0.539178 0.962341
0.825086 0.539178 0.962341
0.956344 0.539178 0.962341
0 0.668818 0.966354
0.0415961 0.668818 0.966354
0.172854 0.668818 0.966354
0.304097 0.668818 0.966354
0.435355 0.668818 0.966354
0.566613 0.668818 0.966354
0.697856 0.668818 0.966354
0.829114 0.668818 0.966354
0.960357 0.668818 0.966354
0 0.798474 0.970382
0.0456245 0.798474 0.970382
0.176867 0.798474 0.970382
0.308125 0.798474 0.970382
0.439384 0.798474 0.970382
0.570626 0.798474 0.970382
0.701885 0.798474 0.970382
0.833127 0.798474 0.970382
0.964385 0.798474 0.970382
0 0.92813 0.974411
0.0496529 0.92813 0.974411
0.180896 0.92813 0.974411
0.312154 0.92813 0.974411
0.443397 0.92813 0.974411
0.574655 0.92813 0.974411
0.705913 0.92813 0.974411
0.837156 0.92813 0.974411
0.968414 0.92813 0.974411
