assets/cube/indoor_blue.cube
TITLE "Generated by Resolve"
LUT_3D_SIZE 5
0 0 0
0.141131 0 0
0.403632 0 0
0.666148 0 0
0.928649 0 0
0 0.142641 0
0.149172 0.142641 0
0.411688 0.142641 0
0.674189 0.142641 0
0.93669 0.142641 0
0 0.401938 0.00573739
0.157229 0.401938 0.00573739
0.41973 0.401938 0.00573739
0.682231 0.401938 0.00573739
0.944732 0.401938 0.00573739
0 0.661234 0.0137789
0.16527 0.661234 0.0137789
0.427771 0.661234 0.0137789
0.690272 0.661234 0.0137789
0.952789 0.661234 0.0137789
0 0.920546 0.0218204
0.173312 0.920546 0.0218204
0.435828 0.920546 0.0218204
0.698329 0.920546 0.0218204
0.96083 0.920546 0.0218204
0 0 0.227771
0.143023 0 0.227771
0.405539 0 0.227771
0.66804 0 0.227771
0.930541 0 0.227771
0 0.144533 0.235828
0.15108 0.144533 0.235828
0.413581 0.144533 0.235828
0.676081 0.144533 0.235828
0.938582 0.144533 0.235828
0 0.40383 0.24387
0.159121 0.40383 0.24387
0.421622 0.40383 0.24387
0.684123 0.40383 0.24387
0.946639 0.40383 0.24387
0 0.663142 0.251911
0.167163 0.663142 0.251911
0.429664 0.663142 0.251911
0.69218 0.663142 0.251911
0.954681 0.663142 0.251911
0 0.922438 0.259953
0.175219 0.922438 0.259953
0.43772 0.922438 0.259953
0.700221 0.922438 0.259953
0.962722 0.922438 0.259953
0 0 0.465919
0.14493 0 0.465919
0.407431 0 0.465919
0.669932 0 0.465919
0.932433 0 0.465919
0 0.146426 0.473976
0.152972 0.146426 0.473976
0.415473 0.146426 0.473976
0.677974 0.146426 0.473976
0.940475 0.146426 0.473976
0 0.405737 0.482017
0.161013 0.405737 0.482017
0.423514 0.405737 0.482017
0.68603 0.405737 0.482017
0.948531 0.405737 0.482017
0 0.665034 0.490059
0.169055 0.665034 0.490059
0.431571 0.665034 0.490059
0.694072 0.665034 0.490059
0.956573 0.665034 0.490059
0 0.924331 0.498116
0.177111 0.924331 0.498116
0.439612 0.924331 0.498116
0.702113 0.924331 0.498116
0.964614 0.924331 0.498116
0 0 0.704067
0.146822 0 0.704067
0.409323 0 0.704067
0.671824 0 0.704067
0.934325 0 0.704067
0 0.148333 0.712123
0.154864 0.148333 0.712123
0.417365 0.148333 0.712123
0.679866 0.148333 0.712123
0.942382 0.148333 0.712123
0 0.40763 0.720165
0.162905 0.40763 0.720165
0.425422 0.40763 0.720165
0.687922 0.40763 0.720165
0.950423 0.40763 0.720165
0 0.666926 0.728206
0.170962 0.666926 0.728206
0.433463 0.666926 0.728206
0.695964 0.666926 0.728206
0.958465 0.666926 0.728206
0 0.926223 0.736263
0.179004 0.926223 0.736263
0.441505 0.926223 0.736263
0.704005 0.926223 0.736263
0.966522 0.926223 0.736263
0 0 0.942229
0.148714 0 0.942229
0.411215 0 0.942229
0.673716 0 0.942229
0.936233 0 0.942229
0 0.150225 0.950271
0.156756 0.150225 0.950271
0.419257 0.150225 0.950271
0.681773 0.150225 0.950271
0.944274 0.150225 0.950271
0 0.409522 0.958312
0.164813 0.409522 0.958312
0.427314 0.409522 0.958312
0.689815 0.409522 0.958312
0.952316 0.409522 0.958312
0 0.668818 0.966354
0.172854 0.668818 0.966354
0.435355 0.668818 0.966354
0.697856 0.668818 0.966354
0.960357 0.668818 0.966354
0 0.92813 0.974411
0.180896 0.92813 0.974411
0.443397 0.92813 0.974411
0.705913 0.92813 0.974411
0.968414 0.92813 0.974411
