assets/cube/indoor_blue.cube
TITLE "Generated by Resolve"
LUT_3D_SIZE 33
0 0 0
0 0 0
0 0 0
0 0 0
0.00988785 0 0
0.0426947 0 0
0.0755016 0 0
0.108324 0 0
0.141131 0 0
0.173953 0 0
0.20676 0 0
0.239567 0 0
0.272389 0 0
0.305196 0 0
0.338018 0 0
0.370825 0 0
0.403632 0 0
0.436454 0 0
0.469261 0 0
0.502083 0 0
0.53489 0 0
0.567697 0 0
0.600519 0 0
0.633326 0 0
0.666148 0 0
0.698955 0 0
0.731762 0 0
0.764584 0 0
0.797391 0 0
0.830213 0 0
0.86302 0 0
0.895827 0 0
0.928649 0 0
0 0 0
0 0 0
0 0 0
0 0 0
0.0108797 0 0
0.0437018 0 0
0.0765087 0 0
0.109331 0 0
0.142138 0 0
0.174945 0 0
0.207767 0 0
0.240574 0 0
0.273396 0 0
0.306203 0 0
0.33901 0 0
0.371832 0 0
0.404639 0 0
0.437461 0 0
0.470268 0 0
0.503075 0 0
0.535897 0 0
0.568704 0 0
0.601526 0 0
0.634333 0 0
0.66714 0 0
0.699962 0 0
0.732769 0 0
0.765591 0 0
0.798398 0 0
0.831205 0 0
0.864027 0 0
0.896834 0 0
0.929656 0 0
0 0 0
0 0 0
0 0 0
0 0 0
0.0118868 0 0
0.0447089 0 0
0.0775158 0 0
0.110338 0 0
0.143145 0 0
0.175952 0 0
0.208774 0 0
0.241581 0 0
0.274403 0 0
0.30721 0 0
0.340017 0 0
0.372839 0 0
0.405646 0 0
0.438468 0 0
0.471275 0 0
0.504082 0 0
0.536904 0 0
0.569711 0 0
0.602533 0 0
0.63534 0 0
0.668147 0 0
0.700969 0 0
0.733776 0 0
0.766598 0 0
0.799405 0 0
0.832212 0 0
0.865034 0 0
0.897841 0 0
0.930663 0 0
0 0 0
0 0 0
0 0 0
0 0 0
0.0128939 0 0
0.045716 0 0
0.0785229 0 0
0.11133 0 0
0.144152 0 0
0.176959 0 0
0.209781 0 0
0.242588 0 0
0.275395 0 0
0.308217 0 0
0.341024 0 0
0.373846 0 0
0.406653 0 0
0.43946 0 0
0.472282 0 0
0.505089 0 0
0.537911 0 0
0.570718 0 0
0.603525 0 0
0.636347 0 0
0.669154 0 0
0.701976 0 0
0.734783 0 0
0.76759 0 0
0.800412 0 0
0.833219 0 0
0.866041 0 0
0.898848 0 0
0.931655 0 0
0 0.0129854 0
0 0.0129854 0
0 0.0129854 0
0 0.0129854 0
0.013901 0.0129854 0
0.0467231 0.0129854 0
0.07953 0.0129854 0
0.112337 0.0129854 0
0.145159 0.0129854 0
0.177966 0.0129854 0
0.210788 0.0129854 0
0.243595 0.0129854 0
0.276402 0.0129854 0
0.309224 0.0129854 0
0.342031 0.0129854 0
0.374853 0.0129854 0
0.40766 0.0129854 0
0.440467 0.0129854 0
0.473289 0.0129854 0
0.506096 0.0129854 0
0.538918 0.0129854 0
0.571725 0.0129854 0
0.604532 0.0129854 0
0.637354 0.0129854 0
0.670161 0.0129854 0
0.702983 0.0129854 0
0.73579 0.0129854 0
0.768597 0.0129854 0
0.801419 0.0129854 0
0.834226 0.0129854 0
0.867048 0.0129854 0
0.899855 0.0129854 0
0.932662 0.0129854 0
0 0.0454108 0
0 0.0454108 0
0 0.0454108 0
0 0.0454108 0
0.0149081 0.0454108 0
0.047715 0.0454108 0
0.0805371 0.0454108 0
0.113344 0.0454108 0
0.146166 0.0454108 0
0.178973 0.0454108 0
0.21178 0.0454108 0
0.244602 0.0454108 0
0.277409 0.0454108 0
0.310231 0.0454108 0
0.343038 0.0454108 0
0.375845 0.0454108 0
0.408667 0.0454108 0
0.441474 0.0454108 0
0.474296 0.0454108 0
0.507103 0.0454108 0
0.53991 0.0454108 0
0.572732 0.0454108 0
0.605539 0.0454108 0
0.638361 0.0454108 0
0.671168 0.0454108 0
0.703975 0.0454108 0
0.736797 0.0454108 0
0.769604 0.0454108 0
0.802426 0.0454108 0
0.835233 0.0454108 0
0.86804 0.0454108 0
0.900862 0.0454108 0
0.933669 0.0454108 0
0 0.077821 0
0 0.077821 0
0 0.077821 0
0 0.077821 0
0.0159152 0.077821 0
0.0487221 0.077821 0
0.0815442 0.077821 0
0.114351 0.077821 0
0.147173 0.077821 0
0.17998 0.077821 0
0.212787 0.077821 0
0.245609 0.077821 0
0.278416 0.077821 0
0.311238 0.077821 0
0.344045 0.077821 0
0.376852 0.077821 0
0.409674 0.077821 0
0.442481 0.077821 0
0.475303 0.077821 0
0.50811 0.077821 0
0.540917 0.077821 0
0.573739 0.077821 0
0.606546 0.077821 0
0.639368 0.077821 0
0.672175 0.077821 0
0.704982 0.077821 0
0.737804 0.077821 0
0.770611 0.077821 0
0.803433 0.077821 0
0.83624 0.077821 0
0.869047 0.077821 0
0.901869 0.077821 0
0.934676 0.077821 0
0 0.110231 0
0 0.110231 0
0 0.110231 0
0 0.110231 0
0.0169223 0.110231 0
0.0497292 0.110231 0
0.0825513 0.110231 0
0.115358 0.110231 0
0.148165 0.110231 0
0.180987 0.110231 0
0.213794 0.110231 0
0.246616 0.110231 0
0.279423 0.110231 0
0.31223 0.110231 0
0.345052 0.110231 0
0.377859 0.110231 0
0.410681 0.110231 0
0.443488 0.110231 0
0.476295 0.110231 0
0.509117 0.110231 0
0.541924 0.110231 0
0.574746 0.110231 0
0.607553 0.110231 0
0.64036 0.110231 0
0.673182 0.110231 0
0.705989 0.110231 0
0.738811 0.110231 0
0.771618 0.110231 0
0.804425 0.110231 0
0.837247 0.110231 0
0.870054 0.110231 0
0.902876 0.110231 0
0.935683 0.110231 0
0 0.142641 0
0 0.142641 0
0 0.142641 0
0 0.142641 0
0.0179294 0.142641 0
0.0507362 0.142641 0
0.0835584 0.142641 0
0.116365 0.142641 0
0.149172 0.142641 0
0.181994 0.142641 0
0.214801 0.142641 0
0.247623 0.142641 0
0.28043 0.142641 0
0.313237 0.142641 0
0.346059 0.142641 0
0.378866 0.142641 0
0.411688 0.142641 0
0.444495 0.142641 0
0.477302 0.142641 0
0.510124 0.142641 0
0.542931 0.142641 0
0.575753 0.142641 0
0.60856 0.142641 0
0.641367 0.142641 0
0.674189 0.142641 0
0.706996 0.142641 0
0.739818 0.142641 0
0.772625 0.142641 0
0.805432 0.142641 0
0.838254 0.142641 0
0.871061 0.142641 0
0.903883 0.142641 0
0.93669 0.142641 0
0 0.175051 0
0 0.175051 0
0 0.175051 0
0 0.175051 0
0.0189364 0.175051 0
0.0517433 0.175051 0
0.0845655 0.175051 0
0.117372 0.175051 0
0.150179 0.175051 0
0.183001 0.175051 0
0.215808 0.175051 0
0.248631 0.175051 0
0.281437 0.175051 0
0.314244 0.175051 0
0.347066 0.175051 0
0.379873 0.175051 0
0.412695 0.175051 0
0.445502 0.175051 0
0.478309 0.175051 0
0.511131 0.175051 0
0.543938 0.175051 0
0.576761 0.175051 0
0.609567 0.175051 0
0.642374 0.175051 0
0.675196 0.175051 0
0.708003 0.175051 0
0.740826 0.175051 0
0.773632 0.175051 0
0.806439 0.175051 0
0.839261 0.175051 0
0.872068 0.175051 0
0.904891 0.175051 0
0.937697 0.175051 0
0 0.207462 0
0 0.207462 0
0 0.207462 0
0 0.207462 0
0.0199435 0.207462 0
0.0527504 0.207462 0
0.0855573 0.207462 0
0.118379 0.207462 0
0.151186 0.207462 0
0.184009 0.207462 0
0.216815 0.207462 0
0.249622 0.207462 0
0.282445 0.207462 0
0.315251 0.207462 0
0.348074 0.207462 0
0.38088 0.207462 0
0.413687 0.207462 0
0.44651 0.207462 0
0.479316 0.207462 0
0.512139 0.207462 0
0.544945 0.207462 0
0.577752 0.207462 0
0.610574 0.207462 0
0.643381 0.207462 0
0.676204 0.207462 0
0.70901 0.207462 0
0.741817 0.207462 0
0.774639 0.207462 0
0.807446 0.207462 0
0.840269 0.207462 0
0.873075 0.207462 0
0.905882 0.207462 0
0.938704 0.207462 0
0 0.239872 0.000701915
0 0.239872 0.000701915
0 0.239872 0.000701915
0 0.239872 0.000701915
0.0209506 0.239872 0.000701915
0.0537575 0.239872 0.000701915
0.0865644 0.239872 0.000701915
0.119387 0.239872 0.000701915
0.152193 0.239872 0.000701915
0.185016 0.239872 0.000701915
0.217823 0.239872 0.000701915
0.250629 0.239872 0.000701915
0.283452 0.239872 0.000701915
0.316258 0.239872 0.000701915
0.349081 0.239872 0.000701915
0.381888 0.239872 0.000701915
0.414694 0.239872 0.000701915
0.447517 0.239872 0.000701915
0.480323 0.239872 0.000701915
0.513146 0.239872 0.000701915
0.545953 0.239872 0.000701915
0.578759 0.239872 0.000701915
0.611582 0.239872 0.000701915
0.644388 0.239872 0.000701915
0.677211 0.239872 0.000701915
0.710018 0.239872 0.000701915
0.742824 0.239872 0.000701915
0.775647 0.239872 0.000701915
0.808454 0.239872 0.000701915
0.841276 0.239872 0.000701915
0.874083 0.239872 0.000701915
0.906889 0.239872 0.000701915
0.939712 0.239872 0.000701915
0 0.272297 0.00170901
0 0.272297 0.00170901
0 0.272297 0.00170901
0 0.272297 0.00170901
0.0219425 0.272297 0.00170901
0.0547646 0.272297 0.00170901
0.0875715 0.272297 0.00170901
0.120394 0.272297 0.00170901
0.153201 0.272297 0.00170901
0.186007 0.272297 0.00170901
0.21883 0.272297 0.00170901
0.251637 0.272297 0.00170901
0.284459 0.272297 0.00170901
0.317266 0.272297 0.00170901
0.350072 0.272297 0.00170901
0.382895 0.272297 0.00170901
0.415702 0.272297 0.00170901
0.448524 0.272297 0.00170901
0.481331 0.272297 0.00170901
0.514138 0.272297 0.00170901
0.54696 0.272297 0.00170901
0.579767 0.272297 0.00170901
0.612589 0.272297 0.00170901
0.645396 0.272297 0.00170901
0.678203 0.272297 0.00170901
0.711025 0.272297 0.00170901
0.743832 0.272297 0.00170901
0.776654 0.272297 0.00170901
0.809461 0.272297 0.00170901
0.842268 0.272297 0.00170901
0.87509 0.272297 0.00170901
0.907897 0.272297 0.00170901
0.940719 0.272297 0.00170901
0 0.304707 0.00271611
0 0.304707 0.00271611
0 0.304707 0.00271611
0 0.304707 0.00271611
0.0229496 0.304707 0.00271611
0.0557717 0.304707 0.00271611
0.0885786 0.304707 0.00271611
0.121401 0.304707 0.00271611
0.154208 0.304707 0.00271611
0.187015 0.304707 0.00271611
0.219837 0.304707 0.00271611
0.252644 0.304707 0.00271611
0.285466 0.304707 0.00271611
0.318273 0.304707 0.00271611
0.35108 0.304707 0.00271611
0.383902 0.304707 0.00271611
0.416709 0.304707 0.00271611
0.449531 0.304707 0.00271611
0.482338 0.304707 0.00271611
0.515145 0.304707 0.00271611
0.547967 0.304707 0.00271611
0.580774 0.304707 0.00271611
0.613596 0.304707 0.00271611
0.646403 0.304707 0.00271611
0.67921 0.304707 0.00271611
0.712032 0.304707 0.00271611
0.744839 0.304707 0.00271611
0.777661 0.304707 0.00271611
0.810468 0.304707 0.00271611
0.843275 0.304707 0.00271611
0.876097 0.304707 0.00271611
0.908904 0.304707 0.00271611
0.941726 0.304707 0.00271611
0 0.337118 0.0037232
0 0.337118 0.0037232
0 0.337118 0.0037232
0 0.337118 0.0037232
0.0239567 0.337118 0.0037232
0.0567788 0.337118 0.0037232
0.0895857 0.337118 0.0037232
0.122393 0.337118 0.0037232
0.155215 0.337118 0.0037232
0.188022 0.337118 0.0037232
0.220844 0.337118 0.0037232
0.253651 0.337118 0.0037232
0.286458 0.337118 0.0037232
0.31928 0.337118 0.0037232
0.352087 0.337118 0.0037232
0.384909 0.337118 0.0037232
0.417716 0.337118 0.0037232
0.450523 0.337118 0.0037232
0.483345 0.337118 0.0037232
0.516152 0.337118 0.0037232
0.548974 0.337118 0.0037232
0.581781 0.337118 0.0037232
0.614588 0.337118 0.0037232
0.64741 0.337118 0.0037232
0.680217 0.337118 0.0037232
0.713039 0.337118 0.0037232
0.745846 0.337118 0.0037232
0.778653 0.337118 0.0037232
0.811475 0.337118 0.0037232
0.844282 0.337118 0.0037232
0.877104 0.337118 0.0037232
0.909911 0.337118 0.0037232
0.942718 0.337118 0.0037232
0 0.369528 0.0047303
0 0.369528 0.0047303
0 0.369528 0.0047303
0 0.369528 0.0047303
0.0249638 0.369528 0.0047303
0.0577859 0.369528 0.0047303
0.0905928 0.369528 0.0047303
0.1234 0.369528 0.0047303
0.156222 0.369528 0.0047303
0.189029 0.369528 0.0047303
0.221851 0.369528 0.0047303
0.254658 0.369528 0.0047303
0.287465 0.369528 0.0047303
0.320287 0.369528 0.0047303
0.353094 0.369528 0.0047303
0.385916 0.369528 0.0047303
0.418723 0.369528 0.0047303
0.45153 0.369528 0.0047303
0.484352 0.369528 0.0047303
0.517159 0.369528 0.0047303
0.549981 0.369528 0.0047303
0.582788 0.369528 0.0047303
0.615595 0.369528 0.0047303
0.648417 0.369528 0.0047303
0.681224 0.369528 0.0047303
0.714046 0.369528 0.0047303
0.746853 0.369528 0.0047303
0.77966 0.369528 0.0047303
0.812482 0.369528 0.0047303
0.845289 0.369528 0.0047303
0.878111 0.369528 0.0047303
0.910918 0.369528 0.0047303
0.943725 0.369528 0.0047303
0 0.401938 0.00573739
0 0.401938 0.00573739
0 0.401938 0.00573739
0 0.401938 0.00573739
0.0259709 0.401938 0.00573739
0.058793 0.401938 0.00573739
0.0915999 0.401938 0.00573739
0.124407 0.401938 0.00573739
0.157229 0.401938 0.00573739
0.190036 0.401938 0.00573739
0.222858 0.401938 0.00573739
0.255665 0.401938 0.00573739
0.288472 0.401938 0.00573739
0.321294 0.401938 0.00573739
0.354101 0.401938 0.00573739
0.386908 0.401938 0.00573739
0.41973 0.401938 0.00573739
0.452537 0.401938 0.00573739
0.485359 0.401938 0.00573739
0.518166 0.401938 0.00573739
0.550988 0.401938 0.00573739
0.583795 0.401938 0.00573739
0.616602 0.401938 0.00573739
0.649424 0.401938 0.00573739
0.682231 0.401938 0.00573739
0.715053 0.401938 0.00573739
0.74786 0.401938 0.00573739
0.780667 0.401938 0.00573739
0.813489 0.401938 0.00573739
0.846296 0.401938 0.00573739
0.879118 0.401938 0.00573739
0.911925 0.401938 0.00573739
0.944732 0.401938 0.00573739
0 0.434348 0.00674449
0 0.434348 0.00674449
0 0.434348 0.00674449
0 0.434348 0.00674449
0.026978 0.434348 0.00674449
0.0597848 0.434348 0.00674449
0.092607 0.434348 0.00674449
0.125414 0.434348 0.00674449
0.158236 0.434348 0.00674449
0.191043 0.434348 0.00674449
0.22385 0.434348 0.00674449
0.256672 0.434348 0.00674449
0.289479 0.434348 0.00674449
0.322301 0.434348 0.00674449
0.355108 0.434348 0.00674449
0.387915 0.434348 0.00674449
0.420737 0.434348 0.00674449
0.453544 0.434348 0.00674449
0.486366 0.434348 0.00674449
0.519173 0.434348 0.00674449
0.55198 0.434348 0.00674449
0.584802 0.434348 0.00674449
0.617609 0.434348 0.00674449
0.650431 0.434348 0.00674449
0.683238 0.434348 0.00674449
0.716045 0.434348 0.00674449
0.748867 0.434348 0.00674449
0.781674 0.434348 0.00674449
0.814496 0.434348 0.00674449
0.847303 0.434348 0.00674449
0.88011 0.434348 0.00674449
0.912932 0.434348 0.00674449
0.945739 0.434348 0.00674449
0 0.466773 0.00775158
0 0.466773 0.00775158
0 0.466773 0.00775158
0 0.466773 0.00775158
0.027985 0.466773 0.00775158
0.0607919 0.466773 0.00775158
0.0936141 0.466773 0.00775158
0.126421 0.466773 0.00775158
0.159243 0.466773 0.00775158
0.19205 0.466773 0.00775158
0.224857 0.466773 0.00775158
0.257679 0.466773 0.00775158
0.290486 0.466773 0.00775158
0.323308 0.466773 0.00775158
0.356115 0.466773 0.00775158
0.388922 0.466773 0.00775158
0.421744 0.466773 0.00775158
0.454551 0.466773 0.00775158
0.487373 0.466773 0.00775158
0.52018 0.466773 0.00775158
0.552987 0.466773 0.00775158
0.585809 0.466773 0.00775158
0.618616 0.466773 0.00775158
0.651438 0.466773 0.00775158
0.684245 0.466773 0.00775158
0.717052 0.466773 0.00775158
0.749874 0.466773 0.00775158
0.782681 0.466773 0.00775158
0.815503 0.466773 0.00775158
0.84831 0.466773 0.00775158
0.881117 0.466773 0.00775158
0.913939 0.466773 0.00775158
0.946746 0.466773 0.00775158
0 0.499184 0.00874342
0 0.499184 0.00874342
0 0.499184 0.00874342
0 0.499184 0.00874342
0.0289921 0.499184 0.00874342
0.061799 0.499184 0.00874342
0.0946212 0.499184 0.00874342
0.127428 0.499184 0.00874342
0.160235 0.499184 0.00874342
0.193057 0.499184 0.00874342
0.225864 0.499184 0.00874342
0.258686 0.499184 0.00874342
0.291493 0.499184 0.00874342
0.3243 0.499184 0.00874342
0.357122 0.499184 0.00874342
0.389929 0.499184 0.00874342
0.422751 0.499184 0.00874342
0.455558 0.499184 0.00874342
0.488365 0.499184 0.00874342
0.521187 0.499184 0.00874342
0.553994 0.499184 0.00874342
0.586816 0.499184 0.00874342
0.619623 0.499184 0.00874342
0.65243 0.499184 0.00874342
0.685252 0.499184 0.00874342
0.718059 0.499184 0.00874342
0.750881 0.499184 0.00874342
0.783688 0.499184 0.00874342
0.816495 0.499184 0.00874342
0.849317 0.499184 0.00874342
0.882124 0.499184 0.00874342
0.914946 0.499184 0.00874342
0.947753 0.499184 0.00874342
0 0.531594 0.00975052
0 0.531594 0.00975052
0 0.531594 0.00975052
0 0.531594 0.00975052
0.0299992 0.531594 0.00975052
0.0628061 0.531594 0.00975052
0.0956283 0.531594 0.00975052
0.128435 0.531594 0.00975052
0.161242 0.531594 0.00975052
0.194064 0.531594 0.00975052
0.226871 0.531594 0.00975052
0.259693 0.531594 0.00975052
0.2925 0.531594 0.00975052
0.325307 0.531594 0.00975052
0.358129 0.531594 0.00975052
0.390936 0.531594 0.00975052
0.423758 0.531594 0.00975052
0.456565 0.531594 0.00975052
0.489372 0.531594 0.00975052
0.522194 0.531594 0.00975052
0.555001 0.531594 0.00975052
0.587823 0.531594 0.00975052
0.62063 0.531594 0.00975052
0.653437 0.531594 0.00975052
0.686259 0.531594 0.00975052
0.719066 0.531594 0.00975052
0.751888 0.531594 0.00975052
0.784695 0.531594 0.00975052
0.817502 0.531594 0.00975052
0.850324 0.531594 0.00975052
0.883131 0.531594 0.00975052
0.915953 0.531594 0.00975052
0.94876 0.531594 0.00975052
0 0.564004 0.0107576
0 0.564004 0.0107576
0 0.564004 0.0107576
0 0.564004 0.0107576
0.0310063 0.564004 0.0107576
0.0638132 0.564004 0.0107576
0.0966201 0.564004 0.0107576
0.129442 0.564004 0.0107576
0.162249 0.564004 0.0107576
0.195071 0.564004 0.0107576
0.227878 0.564004 0.0107576
0.260685 0.564004 0.0107576
0.293507 0.564004 0.0107576
0.326314 0.564004 0.0107576
0.359136 0.564004 0.0107576
0.391943 0.564004 0.0107576
0.42475 0.564004 0.0107576
0.457572 0.564004 0.0107576
0.490379 0.564004 0.0107576
0.523201 0.564004 0.0107576
0.556008 0.564004 0.0107576
0.588815 0.564004 0.0107576
0.621637 0.564004 0.0107576
0.654444 0.564004 0.0107576
0.687266 0.564004 0.0107576
0.720073 0.564004 0.0107576
0.75288 0.564004 0.0107576
0.785702 0.564004 0.0107576
0.818509 0.564004 0.0107576
0.851331 0.564004 0.0107576
0.884138 0.564004 0.0107576
0.916945 0.564004 0.0107576
0.949767 0.564004 0.0107576
0 0.596414 0.0117647
0 0.596414 0.0117647
0 0.596414 0.0117647
0 0.596414 0.0117647
0.0320134 0.596414 0.0117647
0.0648203 0.596414 0.0117647
0.0976272 0.596414 0.0117647
0.130449 0.596414 0.0117647
0.163256 0.596414 0.0117647
0.196078 0.596414 0.0117647
0.228885 0.596414 0.0117647
0.261692 0.596414 0.0117647
0.294514 0.596414 0.0117647
0.327321 0.596414 0.0117647
0.360143 0.596414 0.0117647
0.39295 0.596414 0.0117647
0.425757 0.596414 0.0117647
0.458579 0.596414 0.0117647
0.491386 0.596414 0.0117647
0.524208 0.596414 0.0117647
0.557015 0.596414 0.0117647
0.589822 0.596414 0.0117647
0.622644 0.596414 0.0117647
0.655451 0.596414 0.0117647
0.688273 0.596414 0.0117647
0.72108 0.596414 0.0117647
0.753887 0.596414 0.0117647
0.786709 0.596414 0.0117647
0.819516 0.596414 0.0117647
0.852338 0.596414 0.0117647
0.885145 0.596414 0.0117647
0.917952 0.596414 0.0117647
0.950774 0.596414 0.0117647
0 0.628824 0.0127718
0 0.628824 0.0127718
0 0.628824 0.0127718
0.000198367 0.628824 0.0127718
0.0330053 0.628824 0.0127718
0.0658274 0.628824 0.0127718
0.0986343 0.628824 0.0127718
0.131456 0.628824 0.0127718
0.164263 0.628824 0.0127718
0.19707 0.628824 0.0127718
0.229892 0.628824 0.0127718
0.262699 0.628824 0.0127718
0.295521 0.628824 0.0127718
0.328328 0.628824 0.0127718
0.361135 0.628824 0.0127718
0.393957 0.628824 0.0127718
0.426764 0.628824 0.0127718
0.459586 0.628824 0.0127718
0.492393 0.628824 0.0127718
0.5252 0.628824 0.0127718
0.558022 0.628824 0.0127718
0.590829 0.628824 0.0127718
0.623652 0.628824 0.0127718
0.656458 0.628824 0.0127718
0.689265 0.628824 0.0127718
0.722087 0.628824 0.0127718
0.754894 0.628824 0.0127718
0.787717 0.628824 0.0127718
0.820523 0.628824 0.0127718
0.85333 0.628824 0.0127718
0.886152 0.628824 0.0127718
0.918959 0.628824 0.0127718
0.951782 0.628824 0.0127718
0 0.661234 0.0137789
0 0.661234 0.0137789
0 0.661234 0.0137789
0.00120546 0.661234 0.0137789
0.0340124 0.661234 0.0137789
0.0668345 0.661234 0.0137789
0.0996414 0.661234 0.0137789
0.132464 0.661234 0.0137789
0.16527 0.661234 0.0137789
0.198077 0.661234 0.0137789
0.2309 0.661234 0.0137789
0.263706 0.661234 0.0137789
0.296529 0.661234 0.0137789
0.329335 0.661234 0.0137789
0.362142 0.661234 0.0137789
0.394965 0.661234 0.0137789
0.427771 0.661234 0.0137789
0.460594 0.661234 0.0137789
0.4934 0.661234 0.0137789
0.526207 0.661234 0.0137789
0.55903 0.661234 0.0137789
0.591836 0.661234 0.0137789
0.624659 0.661234 0.0137789
0.657465 0.661234 0.0137789
0.690272 0.661234 0.0137789
0.723095 0.661234 0.0137789
0.755901 0.661234 0.0137789
0.788724 0.661234 0.0137789
0.82153 0.661234 0.0137789
0.854337 0.661234 0.0137789
0.88716 0.661234 0.0137789
0.919966 0.661234 0.0137789
0.952789 0.661234 0.0137789
0 0.69366 0.014786
0 0.69366 0.014786
0 0.69366 0.014786
0.00221256 0.69366 0.014786
0.0350195 0.69366 0.014786
0.0678416 0.69366 0.014786
0.100649 0.69366 0.014786
0.133471 0.69366 0.014786
0.166278 0.69366 0.014786
0.199084 0.69366 0.014786
0.231907 0.69366 0.014786
0.264714 0.69366 0.014786
0.297536 0.69366 0.014786
0.330343 0.69366 0.014786
0.363149 0.69366 0.014786
0.395972 0.69366 0.014786
0.428779 0.69366 0.014786
0.461601 0.69366 0.014786
0.494408 0.69366 0.014786
0.527214 0.69366 0.014786
0.560037 0.69366 0.014786
0.592844 0.69366 0.014786
0.625666 0.69366 0.014786
0.658473 0.69366 0.014786
0.691279 0.69366 0.014786
0.724102 0.69366 0.014786
0.756909 0.69366 0.014786
0.789731 0.69366 0.014786
0.822538 0.69366 0.014786
0.855344 0.69366 0.014786
0.888167 0.69366 0.014786
0.920974 0.69366 0.014786
0.953796 0.69366 0.014786
0 0.72607 0.0157931
0 0.72607 0.0157931
0 0.72607 0.0157931
0.00321965 0.72607 0.0157931
0.0360266 0.72607 0.0157931
0.0688487 0.72607 0.0157931
0.101656 0.72607 0.0157931
0.134463 0.72607 0.0157931
0.167285 0.72607 0.0157931
0.200092 0.72607 0.0157931
0.232914 0.72607 0.0157931
0.265721 0.72607 0.0157931
0.298528 0.72607 0.0157931
0.33135 0.72607 0.0157931
0.364157 0.72607 0.0157931
0.396979 0.72607 0.0157931
0.429786 0.72607 0.0157931
0.462593 0.72607 0.0157931
0.495415 0.72607 0.0157931
0.528222 0.72607 0.0157931
0.561044 0.72607 0.0157931
0.593851 0.72607 0.0157931
0.626657 0.72607 0.0157931
0.65948 0.72607 0.0157931
0.692287 0.72607 0.0157931
0.725109 0.72607 0.0157931
0.757916 0.72607 0.0157931
0.790722 0.72607 0.0157931
0.823545 0.72607 0.0157931
0.856352 0.72607 0.0157931
0.889174 0.72607 0.0157931
0.921981 0.72607 0.0157931
0.954787 0.72607 0.0157931
0 0.75848 0.0168002
0 0.75848 0.0168002
0 0.75848 0.0168002
0.00422675 0.75848 0.0168002
0.0370336 0.75848 0.0168002
0.0698558 0.75848 0.0168002
0.102663 0.75848 0.0168002
0.13547 0.75848 0.0168002
0.168292 0.75848 0.0168002
