assets/cube/invert.cube
LUT_3D_SIZE 16
1.0000 1.0000 1.0000
0.93333 1.0000 1.0000
0.86667 1.0000 1.0000
0.80000 1.0000 1.0000
0.73333 1.0000 1.0000
0.66667 1.0000 1.0000
0.60000 1.0000 1.0000
0.53333 1.0000 1.0000
0.46667 1.0000 1.0000
0.40000 1.0000 1.0000
0.33333 1.0000 1.0000
0.26667 1.0000 1.0000
0.20000 1.0000 1.0000
0.13333 1.0000 1.0000
0.066667 1.0000 1.0000
0.0000 1.0000 1.0000
1.0000 0.93333 1.0000
0.93333 0.93333 1.0000
0.86667 0.93333 1.0000
0.80000 0.93333 1.0000
0.73333 0.93333 1.0000
0.66667 0.93333 1.0000
0.60000 0.93333 1.0000
0.53333 0.93333 1.0000
0.46667 0.93333 1.0000
0.40000 0.93333 1.0000
0.33333 0.93333 1.0000
0.26667 0.93333 1.0000
0.20000 0.93333 1.0000
0.13333 0.93333 1.0000
0.066667 0.93333 1.0000
0.0000 0.93333 1.0000
1.0000 0.86667 1.0000
0.93333 0.86667 1.0000
0.86667 0.86667 1.0000
0.80000 0.86667 1.0000
0.73333 0.86667 1.0000
0.66667 0.86667 1.0000
0.60000 0.86667 1.0000
0.53333 0.86667 1.0000
0.46667 0.86667 1.0000
0.40000 0.86667 1.0000
0.33333 0.86667 1.0000
0.26667 0.86667 1.0000
0.20000 0.86667 1.0000
0.13333 0.86667 1.0000
0.066667 0.86667 1.0000
0.0000 0.86667 1.0000
1.0000 0.80000 1.0000
0.93333 0.80000 1.0000
0.86667 0.80000 1.0000
0.80000 0.80000 1.0000
0.73333 0.80000 1.0000
0.66667 0.80000 1.0000
0.60000 0.80000 1.0000
0.53333 0.80000 1.0000
0.46667 0.80000 1.0000
0.40000 0.80000 1.0000
0.33333 0.80000 1.0000
0.26667 0.80000 1.0000
0.20000 0.80000 1.0000
0.13333 0.80000 1.0000
0.066667 0.80000 1.0000
0.0000 0.80000 1.0000
1.0000 0.73333 1.0000
0.93333 0.73333 1.0000
0.86667 0.73333 1.0000
0.80000 0.73333 1.0000
0.73333 0.73333 1.0000
0.66667 0.73333 1.0000
0.60000 0.73333 1.0000
0.53333 0.73333 1.0000
0.46667 0.73333 1.0000
0.40000 0.73333 1.0000
0.33333 0.73333 1.0000
0.26667 0.73333 1.0000
0.20000 0.73333 1.0000
0.13333 0.73333 1.0000
0.066667 0.73333 1.0000
0.0000 0.73333 1.0000
1.0000 0.66667 1.0000
0.93333 0.66667 1.0000
0.86667 0.66667 1.0000
0.80000 0.66667 1.0000
0.73333 0.66667 1.0000
0.66667 0.66667 1.0000
0.60000 0.66667 1.0000
0.53333 0.66667 1.0000
0.46667 0.66667 1.0000
0.40000 0.66667 1.0000
0.33333 0.66667 1.0000
0.26667 0.66667 1.0000
0.20000 0.66667 1.0000
0.13333 0.66667 1.0000
0.066667 0.66667 1.0000
0.0000 0.66667 1.0000
1.0000 0.60000 1.0000
0.93333 0.60000 1.0000
0.86667 0.60000 1.0000
0.80000 0.60000 1.0000
0.73333 0.60000 1.0000
0.66667 0.60000 1.0000
0.60000 0.60000 1.0000
0.53333 0.60000 1.0000
0.46667 0.60000 1.0000
0.40000 0.60000 1.0000
0.33333 0.60000 1.0000
0.26667 0.60000 1.0000
0.20000 0.60000 1.0000
0.13333 0.60000 1.0000
0.066667 0.60000 1.0000
0.0000 0.60000 1.0000
1.0000 0.53333 1.0000
0.93333 0.53333 1.0000
0.86667 0.53333 1.0000
0.80000 0.53333 1.0000
0.73333 0.53333 1.0000
0.66667 0.53333 1.0000
0.60000 0.53333 1.0000
0.53333 0.53333 1.0000
0.46667 0.53333 1.0000
0.40000 0.53333 1.0000
0.33333 0.53333 1.0000
0.26667 0.53333 1.0000
0.20000 0.53333 1.0000
0.13333 0.53333 1.0000
0.066667 0.53333 1.0000
0.0000 0.53333 1.0000
1.0000 0.46667 1.0000
0.93333 0.46667 1.0000
0.86667 0.46667 1.0000
0.80000 0.46667 1.0000
0.73333 0.46667 1.0000
0.66667 0.46667 1.0000
0.60000 0.46667 1.0000
0.53333 0.46667 1.0000
0.46667 0.46667 1.0000
0.40000 0.46667 1.0000
0.33333 0.46667 1.0000
0.26667 0.46667 1.0000
0.20000 0.46667 1.0000
0.13333 0.46667 1.0000
0.066667 0.46667 1.0000
0.0000 0.46667 1.0000
1.0000 0.40000 1.0000
0.93333 0.40000 1.0000
0.86667 0.40000 1.0000
0.80000 0.40000 1.0000
0.73333 0.40000 1.0000
0.66667 0.40000 1.0000
0.60000 0.40000 1.0000
0.53333 0.40000 1.0000
0.46667 0.40000 1.0000
0.40000 0.40000 1.0000
0.33333 0.40000 1.0000
0.26667 0.40000 1.0000
0.20000 0.40000 1.0000
0.13333 0.40000 1.0000
0.066667 0.40000 1.0000
0.0000 0.40000 1.0000
1.0000 0.33333 1.0000
0.93333 0.33333 1.0000
0.86667 0.33333 1.0000
0.80000 0.33333 1.0000
0.73333 0.33333 1.0000
0.66667 0.33333 1.0000
0.60000 0.33333 1.0000
0.53333 0.33333 1.0000
0.46667 0.33333 1.0000
0.40000 0.33333 1.0000
0.33333 0.33333 1.0000
0.26667 0.33333 1.0000
0.20000 0.33333 1.0000
0.13333 0.33333 1.0000
0.066667 0.33333 1.0000
0.0000 0.33333 1.0000
1.0000 0.26667 1.0000
0.93333 0.26667 1.0000
0.86667 0.26667 1.0000
0.80000 0.26667 1.0000
0.73333 0.26667 1.0000
0.66667 0.26667 1.0000
0.60000 0.26667 1.0000
0.53333 0.26667 1.0000
0.46667 0.26667 1.0000
0.40000 0.26667 1.0000
0.33333 0.26667 1.0000
0.26667 0.26667 1.0000
0.20000 0.26667 1.0000
0.13333 0.26667 1.0000
0.066667 0.26667 1.0000
0.0000 0.26667 1.0000
1.0000 0.20000 1.0000
0.93333 0.20000 1.0000
0.86667 0.20000 1.0000
0.80000 0.20000 1.0000
0.73333 0.20000 1.0000
0.66667 0.20000 1.0000
0.60000 0.20000 1.0000
0.53333 0.20000 1.0000
0.46667 0.20000 1.0000
0.40000 0.20000 1.0000
0.33333 0.20000 1.0000
0.26667 0.20000 1.0000
0.20000 0.20000 1.0000
0.13333 0.20000 1.0000
0.066667 0.20000 1.0000
0.0000 0.20000 1.0000
1.0000 0.13333 1.0000
0.93333 0.13333 1.0000
0.86667 0.13333 1.0000
0.80000 0.13333 1.0000
0.73333 0.13333 1.0000
0.66667 0.13333 1.0000
0.60000 0.13333 1.0000
0.53333 0.13333 1.0000
0.46667 0.13333 1.0000
0.40000 0.13333 1.0000
0.33333 0.13333 1.0000
0.26667 0.13333 1.0000
0.20000 0.13333 1.0000
0.13333 0.13333 1.0000
0.066667 0.13333 1.0000
0.0000 0.13333 1.0000
1.0000 0.066667 1.0000
0.93333 0.066667 1.0000
0.86667 0.066667 1.0000
0.80000 0.066667 1.0000
0.73333 0.066667 1.0000
0.66667 0.066667 1.0000
0.60000 0.066667 1.0000
0.53333 0.066667 1.0000
0.46667 0.066667 1.0000
0.40000 0.066667 1.0000
0.33333 0.066667 1.0000
0.26667 0.066667 1.0000
0.20000 0.066667 1.0000
0.13333 0.066667 1.0000
0.066667 0.066667 1.0000
0.0000 0.066667 1.0000
1.0000 0.0000 1.0000
0.93333 0.0000 1.0000
0.86667 0.0000 1.0000
0.80000 0.0000 1.0000
0.73333 0.0000 1.0000
0.66667 0.0000 1.0000
0.60000 0.0000 1.0000
0.53333 0.0000 1.0000
0.46667 0.0000 1.0000
0.40000 0.0000 1.0000
0.33333 0.0000 1.0000
0.26667 0.0000 1.0000
0.20000 0.0000 1.0000
0.13333 0.0000 1.0000
0.066667 0.0000 1.0000
0.0000 0.0000 1.0000
1.0000 1.0000 0.93333
0.93333 1.0000 0.93333
0.86667 1.0000 0.93333
0.80000 1.0000 0.93333
0.73333 1.0000 0.93333
0.66667 1.0000 0.93333
0.60000 1.0000 0.93333
0.53333 1.0000 0.93333
0.46667 1.0000 0.93333
0.40000 1.0000 0.93333
0.33333 1.0000 0.93333
0.26667 1.0000 0.93333
0.20000 1.0000 0.93333
0.13333 1.0000 0.93333
0.066667 1.0000 0.93333
0.0000 1.0000 0.93333
1.0000 0.93333 0.93333
0.93333 0.93333 0.93333
0.86667 0.93333 0.93333
0.80000 0.93333 0.93333
0.73333 0.93333 0.93333
0.66667 0.93333 0.93333
0.60000 0.93333 0.93333
0.53333 0.93333 0.93333
0.46667 0.93333 0.93333
0.40000 0.93333 0.93333
0.33333 0.93333 0.93333
0.26667 0.93333 0.93333
0.20000 0.93333 0.93333
0.13333 0.93333 0.93333
0.066667 0.93333 0.93333
0.0000 0.93333 0.93333
1.0000 0.86667 0.93333
0.93333 0.86667 0.93333
0.86667 0.86667 0.93333
0.80000 0.86667 0.93333
0.73333 0.86667 0.93333
0.66667 0.86667 0.93333
0.60000 0.86667 0.93333
0.53333 0.86667 0.93333
0.46667 0.86667 0.93333
0.40000 0.86667 0.93333
0.33333 0.86667 0.93333
0.26667 0.86667 0.93333
0.20000 0.86667 0.93333
0.13333 0.86667 0.93333
0.066667 0.86667 0.93333
0.0000 0.86667 0.93333
1.0000 0.80000 0.93333
0.93333 0.80000 0.93333
0.86667 0.80000 0.93333
0.80000 0.80000 0.93333
0.73333 0.80000 0.93333
0.66667 0.80000 0.93333
0.60000 0.80000 0.93333
0.53333 0.80000 0.93333
0.46667 0.80000 0.93333
0.40000 0.80000 0.93333
0.33333 0.80000 0.93333
0.26667 0.80000 0.93333
0.20000 0.80000 0.93333
0.13333 0.80000 0.93333
0.066667 0.80000 0.93333
0.0000 0.80000 0.93333
1.0000 0.73333 0.93333
0.93333 0.73333 0.93333
0.86667 0.73333 0.93333
0.80000 0.73333 0.93333
0.73333 0.73333 0.93333
0.66667 0.73333 0.93333
0.60000 0.73333 0.93333
0.53333 0.73333 0.93333
0.46667 0.73333 0.93333
0.40000 0.73333 0.93333
0.33333 0.73333 0.93333
0.26667 0.73333 0.93333
0.20000 0.73333 0.93333
0.13333 0.73333 0.93333
0.066667 0.73333 0.93333
0.0000 0.73333 0.93333
1.0000 0.66667 0.93333
0.93333 0.66667 0.93333
0.86667 0.66667 0.93333
0.80000 0.66667 0.93333
0.73333 0.66667 0.93333
0.66667 0.66667 0.93333
0.60000 0.66667 0.93333
0.53333 0.66667 0.93333
0.46667 0.66667 0.93333
0.40000 0.66667 0.93333
0.33333 0.66667 0.93333
0.26667 0.66667 0.93333
0.20000 0.66667 0.93333
0.13333 0.66667 0.93333
0.066667 0.66667 0.93333
0.0000 0.66667 0.93333
1.0000 0.60000 0.93333
0.93333 0.60000 0.93333
0.86667 0.60000 0.93333
0.80000 0.60000 0.93333
0.73333 0.60000 0.93333
0.66667 0.60000 0.93333
0.60000 0.60000 0.93333
0.53333 0.60000 0.93333
0.46667 0.60000 0.93333
0.40000 0.60000 0.93333
0.33333 0.60000 0.93333
0.26667 0.60000 0.93333
0.20000 0.60000 0.93333
0.13333 0.60000 0.93333
0.066667 0.60000 0.93333
0.0000 0.60000 0.93333
1.0000 0.53333 0.93333
0.93333 0.53333 0.93333
0.86667 0.53333 0.93333
0.80000 0.53333 0.93333
0.73333 0.53333 0.93333
0.66667 0.53333 0.93333
0.60000 0.53333 0.93333
0.53333 0.53333 0.93333
0.46667 0.53333 0.93333
0.40000 0.53333 0.93333
0.33333 0.53333 0.93333
0.26667 0.53333 0.93333
0.20000 0.53333 0.93333
0.13333 0.53333 0.93333
0.066667 0.53333 0.93333
0.0000 0.53333 0.93333
1.0000 0.46667 0.93333
0.93333 0.46667 0.93333
0.86667 0.46667 0.93333
0.80000 0.46667 0.93333
0.73333 0.46667 0.93333
0.66667 0.46667 0.93333
0.60000 0.46667 0.93333
0.53333 0.46667 0.93333
0.46667 0.46667 0.93333
0.40000 0.46667 0.93333
0.33333 0.46667 0.93333
0.26667 0.46667 0.93333
0.20000 0.46667 0.93333
0.13333 0.46667 0.93333
0.066667 0.46667 0.93333
0.0000 0.46667 0.93333
1.0000 0.40000 0.93333
0.93333 0.40000 0.93333
0.86667 0.40000 0.93333
0.80000 0.40000 0.93333
0.73333 0.40000 0.93333
0.66667 0.40000 0.93333
0.60000 0.40000 0.93333
0.53333 0.40000 0.93333
0.46667 0.40000 0.93333
0.40000 0.40000 0.93333
0.33333 0.40000 0.93333
0.26667 0.40000 0.93333
0.20000 0.40000 0.93333
0.13333 0.40000 0.93333
0.066667 0.40000 0.93333
0.0000 0.40000 0.93333
1.0000 0.33333 0.93333
0.93333 0.33333 0.93333
0.86667 0.33333 0.93333
0.80000 0.33333 0.93333
0.73333 0.33333 0.93333
0.66667 0.33333 0.93333
0.60000 0.33333 0.93333
0.53333 0.33333 0.93333
0.46667 0.33333 0.93333
0.40000 0.33333 0.93333
0.33333 0.33333 0.93333
0.26667 0.33333 0.93333
0.20000 0.33333 0.93333
0.13333 0.33333 0.93333
0.066667 0.33333 0.93333
0.0000 0.33333 0.93333
1.0000 0.26667 0.93333
0.93333 0.26667 0.93333
0.86667 0.26667 0.93333
0.80000 0.26667 0.93333
0.73333 0.26667 0.93333
0.66667 0.26667 0.93333
0.60000 0.26667 0.93333
0.53333 0.26667 0.93333
0.46667 0.26667 0.93333
0.40000 0.26667 0.93333
0.33333 0.26667 0.93333
0.26667 0.26667 0.93333
0.20000 0.26667 0.93333
0.13333 0.26667 0.93333
0.066667 0.26667 0.93333
0.0000 0.26667 0.93333
1.0000 0.20000 0.93333
0.93333 0.20000 0.93333
0.86667 0.20000 0.93333
0.80000 0.20000 0.93333
0.73333 0.20000 0.93333
0.66667 0.20000 0.93333
0.60000 0.20000 0.93333
0.53333 0.20000 0.93333
0.46667 0.20000 0.93333
0.40000 0.20000 0.93333
0.33333 0.20000 0.93333
0.26667 0.20000 0.93333
0.20000 0.20000 0.93333
0.13333 0.20000 0.93333
0.066667 0.20000 0.93333
0.0000 0.20000 0.93333
1.0000 0.13333 0.93333
0.93333 0.13333 0.93333
0.86667 0.13333 0.93333
0.80000 0.13333 0.93333
0.73333 0.13333 0.93333
0.66667 0.13333 0.93333
0.60000 0.13333 0.93333
0.53333 0.13333 0.93333
0.46667 0.13333 0.93333
0.40000 0.13333 0.93333
0.33333 0.13333 0.93333
0.26667 0.13333 0.93333
0.20000 0.13333 0.93333
0.13333 0.13333 0.93333
0.066667 0.13333 0.93333
0.0000 0.13333 0.93333
1.0000 0.066667 0.93333
0.93333 0.066667 0.93333
0.86667 0.066667 0.93333
0.80000 0.066667 0.93333
0.73333 0.066667 0.93333
0.66667 0.066667 0.93333
0.60000 0.066667 0.93333
0.53333 0.066667 0.93333
0.46667 0.066667 0.93333
0.40000 0.066667 0.93333
0.33333 0.066667 0.93333
0.26667 0.066667 0.93333
0.20000 0.066667 0.93333
0.13333 0.066667 0.93333
0.066667 0.066667 0.93333
0.0000 0.066667 0.93333
1.0000 0.0000 0.93333
0.93333 0.0000 0.93333
0.86667 0.0000 0.93333
0.80000 0.0000 0.93333
0.73333 0.0000 0.93333
0.66667 0.0000 0.93333
0.60000 0.0000 0.93333
0.53333 0.0000 0.93333
0.46667 0.0000 0.93333
0.40000 0.0000 0.93333
0.33333 0.0000 0.93333
0.26667 0.0000 0.93333
0.20000 0.0000 0.93333
0.13333 0.0000 0.93333
0.066667 0.0000 0.93333
0.0000 0.0000 0.93333
1.0000 1.0000 0.86667
0.93333 1.0000 0.86667
0.86667 1.0000 0.86667
0.80000 1.0000 0.86667
0.73333 1.0000 0.86667
0.66667 1.0000 0.86667
0.60000 1.0000 0.86667
0.53333 1.0000 0.86667
0.46667 1.0000 0.86667
0.40000 1.0000 0.86667
0.33333 1.0000 0.86667
0.26667 1.0000 0.86667
0.20000 1.0000 0.86667
0.13333 1.0000 0.86667
0.066667 1.0000 0.86667
0.0000 1.0000 0.86667
1.0000 0.93333 0.86667
0.93333 0.93333 0.86667
0.86667 0.93333 0.86667
0.80000 0.93333 0.86667
0.73333 0.93333 0.86667
0.66667 0.93333 0.86667
0.60000 0.93333 0.86667
0.53333 0.93333 0.86667
0.46667 0.93333 0.86667
0.40000 0.93333 0.86667
0.33333 0.93333 0.86667
0.26667 0.93333 0.86667
0.20000 0.93333 0.86667
0.13333 0.93333 0.86667
0.066667 0.93333 0.86667
0.0000 0.93333 0.86667
1.0000 0.86667 0.86667
0.93333 0.86667 0.86667
0.86667 0.86667 0.86667
0.80000 0.86667 0.86667
0.73333 0.86667 0.86667
0.66667 0.86667 0.86667
0.60000 0.86667 0.86667
0.53333 0.86667 0.86667
0.46667 0.86667 0.86667
0.40000 0.86667 0.86667
0.33333 0.86667 0.86667
0.26667 0.86667 0.86667
0.20000 0.86667 0.86667
0.13333 0.86667 0.86667
0.066667 0.86667 0.86667
0.0000 0.86667 0.86667
1.0000 0.80000 0.86667
0.93333 0.80000 0.86667
0.86667 0.80000 0.86667
0.80000 0.80000 0.86667
0.73333 0.80000 0.86667
0.66667 0.80000 0.86667
0.60000 0.80000 0.86667
0.53333 0.80000 0.86667
0.46667 0.80000 0.86667
0.40000 0.80000 0.86667
0.33333 0.80000 0.86667
0.26667 0.80000 0.86667
0.20000 0.80000 0.86667
0.13333 0.80000 0.86667
0.066667 0.80000 0.86667
0.0000 0.80000 0.86667
1.0000 0.73333 0.86667
0.93333 0.73333 0.86667
0.86667 0.73333 0.86667
0.80000 0.73333 0.86667
0.73333 0.73333 0.86667
0.66667 0.73333 0.86667
0.60000 0.73333 0.86667
0.53333 0.73333 0.86667
0.46667 0.73333 0.86667
0.40000 0.73333 0.86667
0.33333 0.73333 0.86667
0.26667 0.73333 0.86667
0.20000 0.73333 0.86667
0.13333 0.73333 0.86667
0.066667 0.73333 0.86667
0.0000 0.73333 0.86667
1.0000 0.66667 0.86667
0.93333 0.66667 0.86667
0.86667 0.66667 0.86667
0.80000 0.66667 0.86667
0.73333 0.66667 0.86667
0.66667 0.66667 0.86667
0.60000 0.66667 0.86667
0.53333 0.66667 0.86667
0.46667 0.66667 0.86667
0.40000 0.66667 0.86667
0.33333 0.66667 0.86667
0.26667 0.66667 0.86667
0.20000 0.66667 0.86667
0.13333 0.66667 0.86667
0.066667 0.66667 0.86667
0.0000 0.66667 0.86667
1.0000 0.60000 0.86667
0.93333 0.60000 0.86667
0.86667 0.60000 0.86667
0.80000 0.60000 0.86667
0.73333 0.60000 0.86667
0.66667 0.60000 0.86667
0.60000 0.60000 0.86667
0.53333 0.60000 0.86667
0.46667 0.60000 0.86667
0.40000 0.60000 0.86667
0.33333 0.60000 0.86667
0.26667 0.60000 0.86667
0.20000 0.60000 0.86667
0.13333 0.60000 0.86667
0.066667 0.60000 0.86667
0.0000 0.60000 0.86667
1.0000 0.53333 0.86667
0.93333 0.53333 0.86667
0.86667 0.53333 0.86667
0.80000 0.53333 0.86667
0.73333 0.53333 0.86667
0.66667 0.53333 0.86667
0.60000 0.53333 0.86667
0.53333 0.53333 0.86667
0.46667 0.53333 0.86667
0.40000 0.53333 0.86667
0.33333 0.53333 0.86667
0.26667 0.53333 0.86667
0.20000 0.53333 0.86667
0.13333 0.53333 0.86667
0.066667 0.53333 0.86667
0.0000 0.53333 0.86667
1.0000 0.46667 0.86667
0.93333 0.46667 0.86667
0.86667 0.46667 0.86667
0.80000 0.46667 0.86667
0.73333 0.46667 0.86667
0.66667 0.46667 0.86667
0.60000 0.46667 0.86667
0.53333 0.46667 0.86667
0.46667 0.46667 0.86667
0.40000 0.46667 0.86667
0.33333 0.46667 0.86667
0.26667 0.46667 0.86667
0.20000 0.46667 0.86667
0.13333 0.46667 0.86667
0.066667 0.46667 0.86667
0.0000 0.46667 0.86667
1.0000 0.40000 0.86667
0.93333 0.40000 0.86667
0.86667 0.40000 0.86667
0.80000 0.40000 0.86667
0.73333 0.40000 0.86667
0.66667 0.40000 0.86667
0.60000 0.40000 0.86667
0.53333 0.40000 0.86667
0.46667 0.40000 0.86667
0.40000 0.40000 0.86667
0.33333 0.40000 0.86667
0.26667 0.40000 0.86667
0.20000 0.40000 0.86667
0.13333 0.40000 0.86667
0.066667 0.40000 0.86667
0.0000 0.40000 0.86667
1.0000 0.33333 0.86667
0.93333 0.33333 0.86667
0.86667 0.33333 0.86667
0.80000 0.33333 0.86667
0.73333 0.33333 0.86667
0.66667 0.33333 0.86667
0.60000 0.33333 0.86667
0.53333 0.33333 0.86667
0.46667 0.33333 0.86667
0.40000 0.33333 0.86667
0.33333 0.33333 0.86667
0.26667 0.33333 0.86667
0.20000 0.33333 0.86667
0.13333 0.33333 0.86667
0.066667 0.33333 0.86667
0.0000 0.33333 0.86667
1.0000 0.26667 0.86667
0.93333 0.26667 0.86667
0.86667 0.26667 0.86667
0.80000 0.26667 0.86667
0.73333 0.26667 0.86667
0.66667 0.26667 0.86667
0.60000 0.26667 0.86667
0.53333 0.26667 0.86667
0.46667 0.26667 0.86667
0.40000 0.26667 0.86667
0.33333 0.26667 0.86667
0.26667 0.26667 0.86667
0.20000 0.26667 0.86667
0.13333 0.26667 0.86667
0.066667 0.26667 0.86667
0.0000 0.26667 0.86667
1.0000 0.20000 0.86667
0.93333 0.20000 0.86667
0.86667 0.20000 0.86667
0.80000 0.20000 0.86667
0.73333 0.20000 0.86667
0.66667 0.20000 0.86667
0.60000 0.20000 0.86667
0.53333 0.20000 0.86667
0.46667 0.20000 0.86667
0.40000 0.20000 0.86667
0.33333 0.20000 0.86667
0.26667 0.20000 0.86667
0.20000 0.20000 0.86667
0.13333 0.20000 0.86667
0.066667 0.20000 0.86667
0.0000 0.20000 0.86667
1.0000 0.13333 0.86667
0.93333 0.13333 0.86667
0.86667 0.13333 0.86667
0.80000 0.13333 0.86667
0.73333 0.13333 0.86667
0.66667 0.13333 0.86667
0.60000 0.13333 0.86667
0.53333 0.13333 0.86667
0.46667 0.13333 0.86667
0.40000 0.13333 0.86667
0.33333 0.13333 0.86667
0.26667 0.13333 0.86667
0.20000 0.13333 0.86667
0.13333 0.13333 0.86667
0.066667 0.13333 0.86667
0.0000 0.13333 0.86667
1.0000 0.066667 0.86667
0.93333 0.066667 0.86667
0.86667 0.066667 0.86667
0.80000 0.066667 0.86667
0.73333 0.066667 0.86667
0.66667 0.066667 0.86667
0.60000 0.066667 0.86667
0.53333 0.066667 0.86667
0.46667 0.066667 0.86667
0.40000 0.066667 0.86667
0.33333 0.066667 0.86667
0.26667 0.066667 0.86667
0.20000 0.066667 0.86667
0.13333 0.066667 0.86667
0.066667 0.066667 0.86667
0.0000 0.066667 0.86667
1.0000 0.0000 0.86667
0.93333 0.0000 0.86667
0.86667 0.0000 0.86667
0.80000 0.0000 0.86667
0.73333 0.0000 0.86667
0.66667 0.0000 0.86667
0.60000 0.0000 0.86667
0.53333 0.0000 0.86667
0.46667 0.0000 0.86667
0.40000 0.0000 0.86667
0.33333 0.0000 0.86667
0.26667 0.0000 0.86667
0.20000 0.0000 0.86667
0.13333 0.0000 0.86667
0.066667 0.0000 0.86667
0.0000 0.0000 0.86667
1.0000 1.0000 0.80000
0.93333 1.0000 0.80000
0.86667 1.0000 0.80000
0.80000 1.0000 0.80000
0.73333 1.0000 0.80000
0.66667 1.0000 0.80000
0.60000 1.0000 0.80000
0.53333 1.0000 0.80000
0.46667 1.0000 0.80000
0.40000 1.0000 0.80000
0.33333 1.0000 0.80000
0.26667 1.0000 0.80000
0.20000 1.0000 0.80000
0.13333 1.0000 0.80000
0.066667 1.0000 0.80000
0.0000 1.0000 0.80000
1.0000 0.93333 0.80000
0.93333 0.93333 0.80000
0.86667 0.93333 0.80000
0.80000 0.93333 0.80000
0.73333 0.93333 0.80000
0.66667 0.93333 0.80000
0.60000 0.93333 0.80000
0.53333 0.93333 0.80000
0.46667 0.93333 0.80000
0.40000 0.93333 0.80000
0.33333 0.93333 0.80000
0.26667 0.93333 0.80000
0.20000 0.93333 0.80000
0.13333 0.93333 0.80000
0.066667 0.93333 0.80000
0.0000 0.93333 0.80000
1.0000 0.86667 0.80000
0.93333 0.86667 0.80000
0.86667 0.86667 0.80000
0.80000 0.86667 0.80000
0.73333 0.86667 0.80000
0.66667 0.86667 0.80000
0.60000 0.86667 0.80000
0.53333 0.86667 0.80000
0.46667 0.86667 0.80000
0.40000 0.86667 0.80000
0.33333 0.86667 0.80000
0.26667 0.86667 0.80000
0.20000 0.86667 0.80000
0.13333 0.86667 0.80000
0.066667 0.86667 0.80000
0.0000 0.86667 0.80000
1.0000 0.80000 0.80000
0.93333 0.80000 0.80000
0.86667 0.80000 0.80000
0.80000 0.80000 0.80000
0.73333 0.80000 0.80000
0.66667 0.80000 0.80000
0.60000 0.80000 0.80000
0.53333 0.80000 0.80000
0.46667 0.80000 0.80000
0.40000 0.80000 0.80000
0.33333 0.80000 0.80000
0.26667 0.80000 0.80000
0.20000 0.80000 0.80000
0.13333 0.80000 0.80000
0.066667 0.80000 0.80000
0.0000 0.80000 0.80000
1.0000 0.73333 0.80000
0.93333 0.73333 0.80000
0.86667 0.73333 0.80000
0.80000 0.73333 0.80000
0.73333 0.73333 0.80000
0.66667 0.73333 0.80000
0.60000 0.73333 0.80000
0.53333 0.73333 0.80000
0.46667 0.73333 0.80000
0.40000 0.73333 0.80000
0.33333 0.73333 0.80000
0.26667 0.73333 0.80000
0.20000 0.73333 0.80000
0.13333 0.73333 0.80000
0.066667 0.73333 0.80000
0.0000 0.73333 0.80000
1.0000 0.66667 0.80000
0.93333 0.66667 0.80000
0.86667 0.66667 0.80000
0.80000 0.66667 0.80000
0.73333 0.66667 0.80000
0.66667 0.66667 0.80000
0.60000 0.66667 0.80000
0.53333 0.66667 0.80000
0.46667 0.66667 0.80000
0.40000 0.66667 0.80000
0.33333 0.66667 0.80000
0.26667 0.66667 0.80000
0.20000 0.66667 0.80000
0.13333 0.66667 0.80000
0.066667 0.66667 0.80000
0.0000 0.66667 0.80000
1.0000 0.60000 0.80000
0.93333 0.60000 0.80000
0.86667 0.60000 0.80000
0.80000 0.60000 0.80000
0.73333 0.60000 0.80000
0.66667 0.60000 0.80000
0.60000 0.60000 0.80000
0.53333 0.60000 0.80000
0.46667 0.60000 0.80000
0.40000 0.60000 0.80000
0.33333 0.60000 0.80000
0.26667 0.60000 0.80000
0.20000 0.60000 0.80000
0.13333 0.60000 0.80000
0.066667 0.60000 0.80000
0.0000 0.60000 0.80000
1.0000 0.53333 0.80000
0.93333 0.53333 0.80000
0.86667 0.53333 0.80000
0.80000 0.53333 0.80000
0.73333 0.53333 0.80000
0.66667 0.53333 0.80000
0.60000 0.53333 0.80000
0.53333 0.53333 0.80000
0.46667 0.53333 0.80000
0.40000 0.53333 0.80000
0.33333 0.53333 0.80000
0.26667 0.53333 0.80000
0.20000 0.53333 0.80000
0.13333 0.53333 0.80000
0.066667 0.53333 0.80000
0.0000 0.53333 0.80000
1.0000 0.46667 0.80000
0.93333 0.46667 0.80000
0.86667 0.46667 0.80000
0.80000 0.46667 0.80000
