assets/cube/invert.cube
LUT_3D_SIZE 6
1.0000 1.0000 1.0000
0.80000 1.0000 1.0000
0.60000 1.0000 1.0000
0.40000 1.0000 1.0000
0.20000 1.0000 1.0000
0.0000 1.0000 1.0000
1.0000 0.80000 1.0000
0.80000 0.80000 1.0000
0.60000 0.80000 1.0000
0.40000 0.80000 1.0000
0.20000 0.80000 1.0000
0.0000 0.80000 1.0000
1.0000 0.60000 1.0000
0.80000 0.60000 1.0000
0.60000 0.60000 1.0000
0.40000 0.60000 1.0000
0.20000 0.60000 1.0000
0.0000 0.60000 1.0000
1.0000 0.40000 1.0000
0.80000 0.40000 1.0000
0.60000 0.40000 1.0000
0.40000 0.40000 1.0000
0.20000 0.40000 1.0000
0.0000 0.40000 1.0000
1.0000 0.20000 1.0000
0.80000 0.20000 1.0000
0.60000 0.20000 1.0000
0.40000 0.20000 1.0000
0.20000 0.20000 1.0000
0.0000 0.20000 1.0000
1.0000 0.0000 1.0000
0.80000 0.0000 1.0000
0.60000 0.0000 1.0000
0.40000 0.0000 1.0000
0.20000 0.0000 1.0000
0.0000 0.0000 1.0000
1.0000 1.0000 0.80000
0.80000 1.0000 0.80000
0.60000 1.0000 0.80000
0.40000 1.0000 0.80000
0.20000 1.0000 0.80000
0.0000 1.0000 0.80000
1.0000 0.80000 0.80000
0.80000 0.80000 0.80000
0.60000 0.80000 0.80000
0.40000 0.80000 0.80000
0.20000 0.80000 0.80000
0.0000 0.80000 0.80000
1.0000 0.60000 0.80000
0.80000 0.60000 0.80000
0.60000 0.60000 0.80000
0.40000 0.60000 0.80000
0.20000 0.60000 0.80000
0.0000 0.60000 0.80000
1.0000 0.40000 0.80000
0.80000 0.40000 0.80000
0.60000 0.40000 0.80000
0.40000 0.40000 0.80000
0.20000 0.40000 0.80000
0.0000 0.40000 0.80000
1.0000 0.20000 0.80000
0.80000 0.20000 0.80000
0.60000 0.20000 0.80000
0.40000 0.20000 0.80000
0.20000 0.20000 0.80000
0.0000 0.20000 0.80000
1.0000 0.0000 0.80000
0.80000 0.0000 0.80000
0.60000 0.0000 0.80000
0.40000 0.0000 0.80000
0.20000 0.0000 0.80000
0.0000 0.0000 0.80000
1.0000 1.0000 0.60000
0.80000 1.0000 0.60000
0.60000 1.0000 0.60000
0.40000 1.0000 0.60000
0.20000 1.0000 0.60000
0.0000 1.0000 0.60000
1.0000 0.80000 0.60000
0.80000 0.80000 0.60000
0.60000 0.80000 0.60000
0.40000 0.80000 0.60000
0.20000 0.80000 0.60000
0.0000 0.80000 0.60000
1.0000 0.60000 0.60000
0.80000 0.60000 0.60000
0.60000 0.60000 0.60000
0.40000 0.60000 0.60000
0.20000 0.60000 0.60000
0.0000 0.60000 0.60000
1.0000 0.40000 0.60000
0.80000 0.40000 0.60000
0.60000 0.40000 0.60000
0.40000 0.40000 0.60000
0.20000 0.40000 0.60000
0.0000 0.40000 0.60000
1.0000 0.20000 0.60000
0.80000 0.20000 0.60000
0.60000 0.20000 0.60000
0.40000 0.20000 0.60000
0.20000 0.20000 0.60000
0.0000 0.20000 0.60000
1.0000 0.0000 0.60000
0.80000 0.0000 0.60000
0.60000 0.0000 0.60000
0.40000 0.0000 0.60000
0.20000 0.0000 0.60000
0.0000 0.0000 0.60000
1.0000 1.0000 0.40000
0.80000 1.0000 0.40000
0.60000 1.0000 0.40000
0.40000 1.0000 0.40000
0.20000 1.0000 0.40000
0.0000 1.0000 0.40000
1.0000 0.80000 0.40000
0.80000 0.80000 0.40000
0.60000 0.80000 0.40000
0.40000 0.80000 0.40000
0.20000 0.80000 0.40000
0.0000 0.80000 0.40000
1.0000 0.60000 0.40000
0.80000 0.60000 0.40000
0.60000 0.60000 0.40000
0.40000 0.60000 0.40000
0.20000 0.60000 0.40000
0.0000 0.60000 0.40000
1.0000 0.40000 0.40000
0.80000 0.40000 0.40000
0.60000 0.40000 0.40000
0.40000 0.40000 0.40000
0.20000 0.40000 0.40000
0.0000 0.40000 0.40000
1.0000 0.20000 0.40000
0.80000 0.20000 0.40000
0.60000 0.20000 0.40000
0.40000 0.20000 0.40000
0.20000 0.20000 0.40000
0.0000 0.20000 0.40000
1.0000 0.0000 0.40000
0.80000 0.0000 0.40000
0.60000 0.0000 0.40000
0.40000 0.0000 0.40000
0.20000 0.0000 0.40000
0.0000 0.0000 0.40000
1.0000 1.0000 0.20000
0.80000 1.0000 0.20000
0.60000 1.0000 0.20000
0.40000 1.0000 0.20000
0.20000 1.0000 0.20000
0.0000 1.0000 0.20000
1.0000 0.80000 0.20000
0.80000 0.80000 0.20000
0.60000 0.80000 0.20000
0.40000 0.80000 0.20000
0.20000 0.80000 0.20000
0.0000 0.80000 0.20000
1.0000 0.60000 0.20000
0.80000 0.60000 0.20000
0.60000 0.60000 0.20000
0.40000 0.60000 0.20000
0.20000 0.60000 0.20000
0.0000 0.60000 0.20000
1.0000 0.40000 0.20000
0.80000 0.40000 0.20000
0.60000 0.40000 0.20000
0.40000 0.40000 0.20000
0.20000 0.40000 0.20000
0.0000 0.40000 0.20000
1.0000 0.20000 0.20000
0.80000 0.20000 0.20000
0.60000 0.20000 0.20000
0.40000 0.20000 0.20000
0.20000 0.20000 0.20000
0.0000 0.20000 0.20000
1.0000 0.0000 0.20000
0.80000 0.0000 0.20000
0.60000 0.0000 0.20000
0.40000 0.0000 0.20000
0.20000 0.0000 0.20000
0.0000 0.0000 0.20000
1.0000 1.0000 0.0000
0.80000 1.0000 0.0000
0.60000 1.0000 0.0000
0.40000 1.0000 0.0000
0.20000 1.0000 0.0000
0.0000 1.0000 0.0000
1.0000 0.80000 0.0000
0.80000 0.80000 0.0000
0.60000 0.80000 0.0000
0.40000 0.80000 0.0000
0.20000 0.80000 0.0000
0.0000 0.80000 0.0000
1.0000 0.60000 0.0000
0.80000 0.60000 0.0000
0.60000 0.60000 0.0000
0.40000 0.60000 0.0000
0.20000 0.60000 0.0000
0.0000 0.60000 0.0000
1.0000 0.40000 0.0000
0.80000 0.40000 0.0000
0.60000 0.40000 0.0000
0.40000 0.40000 0.0000
0.20000 0.40000 0.0000
0.0000 0.40000 0.0000
1.0000 0.20000 0.0000
0.80000 0.20000 0.0000
0.60000 0.20000 0.0000
0.40000 0.20000 0.0000
0.20000 0.20000 0.0000
0.0000 0.20000 0.0000
1.0000 0.0000 0.0000
0.80000 0.0000 0.0000
0.60000 0.0000 0.0000
0.40000 0.0000 0.0000
0.20000 0.0000 0.0000
0.0000 0.0000 0.0000
