assets/cube/magenta_day.cube
TITLE "Generated by Resolve"
LUT_3D_SIZE 9
0 0 0
0.014023 0 0
0.0617838 0 0
0.115419 0 0
0.178332 0 0
0.247242 0 0
0.320668 0 0
0.398306 0 0
0.479194 0 0
0 0.0187533 0
0.0288548 0.0243534 0
0.0831769 0.028397 0.00390631
0.146288 0.0322728 0.0077821
0.215412 0.0362249 0.0117342
0.289036 0.0402075 0.0157168
0.366903 0.0445716 0.0200809
0.448249 0.0491798 0.0246891
0.532479 0.0541085 0.0296025
0.00733959 0.0817884 0.0118105
0.0525826 0.0928206 0.0228122
0.111879 0.101213 0.0312505
0.179141 0.108934 0.038941
0.251911 0.116304 0.0462959
0.328817 0.123323 0.0533608
0.409674 0.130541 0.0605631
0.493797 0.137789 0.0677806
0.580514 0.145113 0.0750896
0.0312352 0.163516 0.0351263
0.0799725 0.177768 0.0493324
0.142748 0.189105 0.0607156
0.213062 0.199542 0.0711223
0.288609 0.209461 0.0810254
0.368093 0.218845 0.0904555
0.451362 0.228305 0.0999008
0.537758 0.23769 0.109255
0.626413 0.24686 0.118456
0.0582132 0.257969 0.0616159
0.109575 0.27451 0.078172
0.175204 0.288289 0.0919203
0.247959 0.300908 0.104509
0.325643 0.312764 0.116396
0.407401 0.324254 0.127901
0.492699 0.335622 0.139239
0.580987 0.346777 0.150378
0.671534 0.357733 0.161349
0.0869306 0.36257 0.0900435
0.140597 0.38117 0.108659
0.208408 0.396887 0.124331
0.283192 0.411368 0.138781
0.362661 0.424887 0.152377
0.446357 0.438224 0.165682
0.53341 0.451255 0.178683
0.623224 0.463859 0.191348
0.715541 0.476524 0.203952
0.11603 0.475975 0.119234
0.171527 0.496529 0.139727
0.241001 0.513985 0.157137
0.317418 0.530144 0.173266
0.398459 0.545251 0.188464
0.48368 0.560143 0.203326
0.572229 0.574701 0.217838
0.663401 0.588678 0.231907
0.757198 0.602838 0.245975
0.143053 0.598108 0.147173
0.19971 0.620462 0.169421
0.270069 0.639628 0.188556
0.347326 0.657084 0.206104
0.42977 0.674006 0.22298
0.516152 0.690379 0.239322
0.605859 0.70634 0.255253
0.698177 0.721691 0.270695
0.793118 0.737209 0.286107
0.170031 0.727398 0.175296
0.227787 0.751263 0.199069
0.29865 0.772076 0.219821
0.37673 0.790997 0.238849
0.460105 0.809354 0.257176
0.547463 0.8271 0.274876
0.638132 0.844358 0.292119
0.731487 0.861036 0.308873
0.827405 0.877806 0.325536
0 0 0.0033875
0.0164645 0 0.00758373
0.0623026 0 0.00363165
0.11812 0 0.000488289
0.181979 0 0
0.251377 0 0
0.325505 0 7.62951e-05
0.403586 0 0.00154116
0.484764 0 0.00355535
0 0.0217136 0.0167697
0.0325475 0.0280156 0.0230716
0.0875868 0.0327001 0.0277409
0.151217 0.0370489 0.032105
0.220768 0.041413 0.0364538
0.294789 0.0457465 0.0408026
0.372992 0.0504311 0.0454871
0.454658 0.0553445 0.0504005
0.538903 0.0603647 0.0554055
0.0122225 0.0867628 0.0363622
0.0577249 0.0980087 0.0476234
0.117586 0.10692 0.0565194
0.185199 0.114946 0.0645304
0.258289 0.122606 0.0721752
0.335485 0.1299 0.0794995
0.416617 0.137346 0.0869459
0.500984 0.144823 0.0944076
0.587747 0.152209 0.101808
0.0372168 0.16968 0.0610513
0.0861524 0.184054 0.0754406
0.149371 0.195789 0.0871595
0.219974 0.20647 0.0978103
0.295521 0.216373 0.107759
0.375479 0.2262 0.117586
0.458976 0.235874 0.12723
0.545586 0.245441 0.136782
0.634455 0.25481 0.146166
0.0650187 0.265019 0.0886702
0.116655 0.281758 0.10544
0.182544 0.295735 0.119387
0.255543 0.308553 0.132174
0.333333 0.320485 0.144167
0.415412 0.332265 0.155932
0.500908 0.343816 0.167452
0.589319 0.355077 0.178714
0.68011 0.366247 0.189883
0.0943618 0.37026 0.117952
0.148318 0.389105 0.136782
0.216358 0.40499 0.152636
0.291325 0.419608 0.167239
0.371023 0.43331 0.181003
0.454902 0.446815 0.194476
0.542123 0.459998 0.207645
0.632029 0.472679 0.220386
0.72459 0.485573 0.233204
0.124056 0.484291 0.147662
0.179812 0.505074 0.168368
0.2495 0.522667 0.185931
0.325948 0.538796 0.20209
0.407324 0.554238 0.217533
0.492714 0.569284 0.232547
0.581338 0.583886 0.24715
0.67274 0.598077 0.261387
0.766705 0.612375 0.275608
0.15169 0.60708 0.175631
0.20853 0.629572 0.198032
0.279088 0.648875 0.217288
0.356512 0.666453 0.234943
0.439124 0.683513 0.251972
0.525658 0.700023 0.268452
0.61529 0.715846 0.284352
0.707973 0.731579 0.300069
0.803052 0.747219 0.315618
0.179156 0.736889 0.203937
0.237079 0.760891 0.227848
0.308125 0.781811 0.248722
0.386374 0.800855 0.267872
0.469902 0.819333 0.286305
0.557412 0.837201 0.304128
0.647959 0.854292 0.321324
0.741695 0.871366 0.338354
0.837751 0.888258 0.355138
0 0 0.0403601
0.0174868 0 0.0433509
0.0630655 0 0.0390326
0.120302 0 0.0372778
0.18497 0 0.0369573
0.254948 0 0.0374151
0.329625 0 0.0387121
0.408133 0 0.040589
0.489616 0 0.0429236
0 0.024033 0.054551
0.0355535 0.0309911 0.0615244
0.091249 0.0362249 0.0667582
0.155367 0.0410315 0.0715648
0.225254 0.0457313 0.0762493
0.299733 0.0504616 0.0809949
0.378271 0.0554665 0.0859998
0.460243 0.0606699 0.0912032
0.544762 0.0659342 0.0964675
0.0162814 0.0909285 0.0766308
0.0621805 0.102541 0.0882429
0.122438 0.111772 0.0974746
0.190402 0.120089 0.105791
0.263584 0.12784 0.113542
0.341283 0.135576 0.121279
0.422675 0.143267 0.128969
0.507149 0.150851 0.136568
0.594278 0.158587 0.144274
0.0422065 0.174807 0.102937
0.0915389 0.189578 0.117693
0.155077 0.201556 0.129671
0.225956 0.212467 0.140566
0.301762 0.222599 0.150713
0.381964 0.232639 0.160754
0.465675 0.242512 0.170596
0.552224 0.252033 0.180148
0.641566 0.261814 0.189914
0.0706951 0.270878 0.131823
0.122789 0.288075 0.148989
0.188937 0.302251 0.163149
0.262181 0.315267 0.17615
0.340185 0.327367 0.188296
0.422461 0.339345 0.200244
0.508156 0.351049 0.211948
0.596582 0.362325 0.223255
0.687739 0.373831 0.234714
0.100771 0.376928 0.162188
0.155062 0.396094 0.181308
0.223346 0.412131 0.19733
0.298314 0.426688 0.211933
0.378424 0.440803 0.226017
0.46247 0.454459 0.239658
0.549874 0.467796 0.252979
0.639948 0.480613 0.265858
0.732677 0.493645 0.278828
0.131151 0.491737 0.192477
0.187121 0.512673 0.213367
0.257038 0.530404 0.231083
0.333577 0.546563 0.247303
0.415229 0.562264 0.262959
0.500786 0.577447 0.278126
0.589502 0.592111 0.292805
0.681132 0.606516 0.307225
0.775235 0.620951 0.321599
0.159365 0.615137 0.219944
0.216388 0.637766 0.242512
0.287098 0.657115 0.26186
0.364767 0.674891 0.279683
0.447532 0.692088 0.296849
0.534234 0.708721 0.313451
0.623957 0.72462 0.329427
0.716838 0.740536 0.345312
0.812055 0.756298 0.360998
0.187396 0.74551 0.247333
0.245472 0.76965 0.271397
0.316533 0.790417 0.292226
0.395132 0.809842 0.311635
0.478813 0.828443 0.330205
0.566354 0.846296 0.348074
0.657145 0.86363 0.365438
0.751019 0.880827 0.382605
0.847211 0.897826 0.399527
0 0 0.0877394
0.0170291 0 0.0890059
0.0637675 0 0.085771
0.122118 0 0.0850996
0.187503 0 0.085481
0.258061 0 0.0864576
0.333211 0 0.0882124
0.412146 0 0.0905013
0.493904 0 0.0931106
0 0.0259556 0.10309
0.0381018 0.0335088 0.110643
0.0944076 0.0392767 0.116426
0.158999 0.0445106 0.12166
0.229145 0.0494545 0.126589
0.304128 0.0546426 0.131777
0.383001 0.0599527 0.137102
0.465202 0.0653849 0.142535
0.550057 0.0709544 0.148104
0.0197757 0.0945296 0.127214
0.0661173 0.106538 0.139223
0.126757 0.116091 0.148775
0.195056 0.124697 0.157382
0.268513 0.132692 0.165377
0.346517 0.140703 0.173388
0.428168 0.148638 0.181323
0.512825 0.15639 0.189075
0.600244 0.16437 0.19707
0.0467079 0.179492 0.154986
0.0964065 0.194568 0.170062
0.16025 0.20679 0.182269
0.231281 0.217823 0.193301
0.307454 0.228275 0.203754
0.387884 0.238529 0.214008
0.471824 0.248585 0.224063
0.558572 0.258289 0.233783
0.648112 0.268269 0.243732
0.0760204 0.276448 0.185092
0.128374 0.293858 0.202472
0.194797 0.308217 0.216831
0.268025 0.321172 0.229801
0.346487 0.333715 0.242329
0.428977 0.345861 0.254475
0.514672 0.357565 0.266194
0.603479 0.369177 0.277806
0.694789 0.380835 0.289433
0.106752 0.3832 0.216327
0.161273 0.402533 0.23563
0.229786 0.418738 0.251835
0.304967 0.433448 0.266575
0.38526 0.44773 0.280827
0.469505 0.46154 0.294636
0.556802 0.474739 0.307866
0.647318 0.487999 0.321111
0.7402 0.501167 0.334249
0.137697 0.498619 0.247135
0.193881 0.519692 0.268177
0.264012 0.537591 0.286046
0.340749 0.553887 0.302403
0.422568 0.569726 0.318212
0.508293 0.585046 0.333516
0.59704 0.59971 0.348226
0.688945 0.614389 0.36289
0.7832 0.628946 0.377401
0.166476 0.622599 0.274434
0.223682 0.645365 0.297139
0.294408 0.664607 0.316426
0.372427 0.682765 0.334569
0.45536 0.700084 0.351858
0.542184 0.716808 0.368582
0.632074 0.73286 0.38468
0.725109 0.748898 0.400702
0.820462 0.764782 0.416526
0.195041 0.753521 0.301381
0.253254 0.777783 0.325582
0.324453 0.798596 0.346456
0.403265 0.818219 0.366049
0.487098 0.836942 0.384741
0.574716 0.854826 0.40267
0.665721 0.872358 0.420203
0.759731 0.889662 0.437476
0.855955 0.906661 0.454444
0 0 0.143099
0.0154421 0 0.142458
0.0643626 0 0.141344
0.123659 0 0.141558
0.189517 0 0.142412
0.260792 0 0.14406
0.3364 0 0.146258
0.415473 0 0.148714
0.497841 0 0.151873
0 0.0274662 0.159976
0.0403449 0.0357366 0.168276
0.0972 0.0419776 0.174533
0.162234 0.0476081 0.180179
0.232761 0.0529183 0.185458
0.30808 0.0584115 0.190967
0.387274 0.0640269 0.196597
0.469566 0.0695811 0.202121
0.554894 0.0755627 0.208133
0.0228428 0.0976577 0.186023
0.0696574 0.110155 0.198535
0.130663 0.119997 0.208392
0.199252 0.128847 0.217243
0.273045 0.137148 0.225544
0.351308 0.145403 0.233799
0.433219 0.153582 0.241978
0.518059 0.161501 0.249882
0.605753 0.169741 0.258137
0.0508431 0.18378 0.21529
0.100862 0.199145 0.23064
0.164996 0.211597 0.243091
0.236179 0.222721 0.254215
0.312703 0.233509 0.265003
0.393362 0.243977 0.275471
0.477424 0.254139 0.285634
0.564477 0.264118 0.295613
0.6542 0.274266 0.30576
0.0809491 0.28159 0.246494
0.133562 0.299199 0.264088
0.200214 0.313741 0.27863
0.273686 0.326879 0.291783
0.352361 0.33962 0.304509
0.435035 0.351934 0.316823
0.520867 0.363745 0.328649
0.609903 0.375586 0.34049
0.701396 0.387396 0.352285
0.112306 0.389013 0.278569
0.167071 0.40853 0.298054
0.235676 0.424735 0.31426
0.311177 0.439765 0.329305
0.391669 0.4542 0.343725
0.476081 0.468177 0.357687
0.563561 0.481529 0.371069
0.654231 0.494942 0.384466
0.74728 0.508247 0.397757
0.143832 0.505043 0.309895
0.200229 0.526268 0.33109
0.270329 0.544015 0.348867
0.347478 0.560754 0.365591
0.42948 0.57673 0.381552
0.515145 0.591959 0.396811
0.604257 0.606989 0.411826
0.696315 0.621805 0.426642
0.790707 0.6365 0.441291
0.173159 0.629587 0.337148
0.230549 0.652491 0.360006
0.301472 0.67187 0.379416
0.37966 0.69015 0.397681
0.462745 0.707607 0.415122
0.549477 0.724178 0.431724
0.63975 0.740642 0.448173
0.732921 0.756802 0.464317
0.828412 0.772778 0.480262
0.202243 0.761044 0.363836
0.260578 0.785412 0.388174
0.331975 0.806363 0.409171
0.410956 0.826108 0.428885
0.494942 0.844938 0.4477
0.582589 0.862837 0.465629
0.673838 0.880598 0.483375
0.767971 0.898009 0.500771
0.864103 0.914885 0.517662
0 0 0.205875
0.0144656 0 0.205051
0.0647898 0 0.205295
0.124834 0 0.206226
0.191363 0 0.207706
0.263127 0 0.209842
0.339147 0 0.212467
0.418585 0 0.215259
0.501305 0 0.218753
0 0.0288243 0.225208
0.0422675 0.037644 0.234073
0.0996109 0.0443275 0.240772
0.164858 0.0501869 0.246601
0.23595 0.0560006 0.25243
0.311604 0.0618143 0.258259
0.391089 0.0677195 0.264179
0.473671 0.0735332 0.269963
0.559258 0.0797589 0.276234
0.0256657 0.100542 0.253056
0.0728313 0.113375 0.265904
0.134188 0.123522 0.276066
0.202899 0.132479 0.285008
0.27715 0.141207 0.293751
0.355673 0.149706 0.302251
0.437552 0.157885 0.310414
0.522881 0.166247 0.318776
0.610803 0.174701 0.327245
0.0546426 0.187686 0.283604
0.104936 0.203311 0.299229
0.16936 0.215991 0.311925
0.240772 0.227329 0.323262
0.31754 0.238331 0.334264
0.398413 0.248997 0.34493
0.482506 0.259205 0.355123
0.569924 0.26952 0.365454
0.659846 0.27985 0.375784
0.0855116 0.28629 0.315847
0.138369 0.304112 0.333654
0.205203 0.318776 0.348333
0.278935 0.332174 0.36173
0.357809 0.345083 0.37464
0.440665 0.35758 0.387137
0.526665 0.369528 0.3991
0.6159 0.381567 0.411124
0.707561 0.39353 0.423087
0.11751 0.394385 0.34873
0.172488 0.414084 0.368399
0.241215 0.43035 0.38468
0.316991 0.445655 0.399985
0.397665 0.460243 0.414572
0.482124 0.47422 0.42855
0.569879 0.487877 0.442206
0.660716 0.501427 0.455756
0.753872 0.514839 0.469154
0.149615 0.511009 0.380591
0.206165 0.532341 0.401907
0.276493 0.550286 0.419867
0.353811 0.567163 0.436744
0.435966 0.583291 0.452857
0.521737 0.598596 0.468177
0.611048 0.613825 0.483391
0.703258 0.628779 0.498344
0.797574 0.643381 0.512947
0.179492 0.636118 0.407874
0.236866 0.65893 0.430686
0.308125 0.67866 0.450416
0.386465 0.697078 0.468818
0.469718 0.714656 0.486397
0.556588 0.73135 0.50312
0.646998 0.747951 0.519707
0.740307 0.764233 0.535973
0.835615 0.780011 0.551766
0.209064 0.768078 0.434424
0.267338 0.792264 0.458625
0.339117 0.813657 0.480003
0.418235 0.833509 0.49984
0.502113 0.852171 0.518532
0.590143 0.870481 0.536828
0.681514 0.88835 0.554696
0.775769 0.905882 0.572198
0.872038 0.922866 0.589212
0 0 0.27718
0.013489 0 0.277531
0.0648814 0 0.278843
0.125566 0 0.28043
0.192691 0 0.282506
0.264912 0 0.2851
0.341268 0 0.28806
0.421118 0 0.291249
0.504143 0.0012665 0.295079
0.000320439 0.0298161 0.299931
0.0437629 0.0391241 0.3093
0.101534 0.0462501 0.316442
0.167132 0.0524758 0.322606
0.23859 0.0586404 0.328801
0.314549 0.0647593 0.334951
0.394125 0.0708019 0.340948
0.47715 0.0770275 0.347189
0.562997 0.0835126 0.353719
0.0280766 0.102953 0.329503
0.0755779 0.116106 0.342687
0.137133 0.126467 0.353033
0.20621 0.13579 0.362356
0.28072 0.144778 0.371359
0.359487 0.153521 0.380102
0.441596 0.161913 0.388479
0.527123 0.170504 0.39707
0.615259 0.179156 0.405753
0.0580453 0.191073 0.361334
0.108583 0.206943 0.377203
0.173022 0.219638 0.389883
0.244877 0.231434 0.401694
0.321843 0.242649 0.412909
0.40293 0.253513 0.423774
0.487205 0.263905 0.434165
0.574807 0.274418 0.444678
0.664912 0.284916 0.455192
0.0896773 0.290455 0.394583
0.142733 0.308476 0.412604
0.209613 0.323171 0.427298
0.283696 0.336934 0.441062
0.362753 0.350027 0.454154
0.445533 0.362432 0.46656
0.531945 0.374823 0.47895
0.621347 0.387015 0.491142
0.713161 0.399145 0.503273
0.122347 0.399207 0.42826
0.177493 0.419074 0.448127
0.246387 0.435508 0.464561
0.322332 0.45098 0.480034
0.403159 0.465751 0.494789
0.487633 0.479728 0.508782
0.575692 0.493675 0.522728
0.666667 0.507378 0.536431
0.759884 0.520867 0.549905
0.155016 0.516411 0.46067
0.211688 0.537835 0.482078
0.2822 0.555993 0.500252
0.35967 0.573037 0.517281
0.441962 0.589288 0.533532
0.527886 0.604746 0.549004
0.617334 0.620111 0.56437
0.709682 0.635203 0.579446
0.804044 0.649836 0.594079
0.185428 0.642054 0.488045
0.242908 0.664927 0.510918
0.314366 0.684886 0.530877
0.392844 0.703441 0.549416
0.476051 0.720958 0.566949
0.56321 0.737972 0.583963
0.653758 0.754696 0.600687
0.747112 0.771023 0.616999
0.842618 0.787015 0.63299
0.215442 0.774426 0.514412
0.27393 0.79884 0.538842
0.34583 0.820371 0.560342
0.425071 0.840345 0.580316
0.509041 0.859098 0.599084
0.597223 0.877546 0.617533
0.688701 0.895552 0.635523
0.782849 0.912917 0.652918
0.879454 0.930297 0.670268
0 0 0.363378
0.0119326 0 0.36585
0.0641031 0 0.368078
0.125307 0 0.37023
0.192966 0 0.372915
0.265599 0 0.375952
0.342123 0 0.379095
0.422477 0 0.382834
0.505791 0.00337224 0.386984
0.000518807 0.0300145 0.390249
0.0444038 0.039826 0.400122
0.102464 0.0473487 0.40766
0.168414 0.0539864 0.414237
0.240162 0.0604868 0.420768
0.316381 0.0669261 0.427237
0.396139 0.0731975 0.433448
0.479469 0.0797436 0.440009
0.565545 0.0864576 0.446799
0.0297551 0.104479 0.421592
0.0775311 0.117952 0.435126
0.139239 0.128573 0.445716
0.208576 0.138247 0.45539
0.283299 0.147494 0.464652
0.362188 0.15639 0.473548
0.444587 0.165103 0.482246
0.530312 0.173907 0.491051
0.618616 0.182773 0.499962
0.0607614 0.193515 0.454734
0.111498 0.209659 0.470893
0.176074 0.222599 0.483803
0.248096 0.234623 0.495857
0.325246 0.246067 0.507301
0.406256 0.256916 0.51812
0.490929 0.26772 0.528939
0.578698 0.278416 0.539651
0.668788 0.288975 0.55021
0.0932326 0.293629 0.489036
0.146304 0.311742 0.507149
0.213413 0.326787 0.52221
0.287633 0.340749 0.536171
0.366812 0.35404 0.549462
0.449744 0.366629 0.562036
0.536294 0.379187 0.574609
0.625834 0.391546 0.586969
0.717494 0.403571 0.598978
0.126589 0.403006 0.523568
0.181628 0.422797 0.543359
0.250828 0.439704 0.560265
0.326879 0.45536 0.575921
0.407828 0.470283 0.590845
0.492424 0.484443 0.60499
0.580606 0.498543 0.619089
0.671702 0.512383 0.632944
0.764858 0.525841 0.646387
0.159884 0.520775 0.556542
0.216495 0.542199 0.577981
0.287221 0.560708 0.59649
0.364782 0.577905 0.613687
0.446921 0.594034 0.629816
0.533211 0.609918 0.645701
0.622766 0.625437 0.661204
0.715221 0.64065 0.676432
0.809689 0.655436 0.691203
0.19086 0.646937 0.584054
0.248417 0.669978 0.60708
0.319921 0.690089 0.627192
0.398489 0.708797 0.645884
0.481682 0.726345 0.663447
0.569039 0.743618 0.68072
0.659693 0.760464 0.697566
0.753079 0.776837 0.713954
0.848753 0.793027 0.730129
0.221332 0.779721 0.6103
0.279973 0.804364 0.634928
0.351904 0.826032 0.656596
0.431174 0.846082 0.676646
0.515282 0.865034 0.695613
0.60354 0.883619 0.714183
0.695109 0.901732 0.732296
0.789288 0.919173 0.749752
0.886046 0.936721 0.767269
0 0 0.460868
0.0100557 0 0.464698
0.0627451 0 0.467552
0.12459 0 0.470481
0.192691 0 0.473671
0.26569 0 0.477134
0.342535 0 0.480644
0.423178 0.000564584 0.484718
0.506767 0.00495918 0.489189
0.000244144 0.0297704 0.490898
0.0445563 0.0400397 0.501244
0.102708 0.0478523 0.50898
0.1691 0.0549935 0.516152
0.241108 0.0618296 0.523018
0.317571 0.0685588 0.529778
0.397574 0.0751202 0.536278
0.481117 0.0819257 0.543099
0.567391 0.0888991 0.550149
0.0309606 0.105455 0.52398
0.0789807 0.119265 0.537835
0.140795 0.130129 0.548669
0.210391 0.140154 0.558694
0.285298 0.149645 0.568215
0.364202 0.158663 0.577188
0.446952 0.167742 0.586282
0.53286 0.176761 0.595315
0.621271 0.185779 0.604379
0.0630045 0.195392 0.558419
0.113848 0.211719 0.574777
0.178592 0.224979 0.588022
0.250767 0.237247 0.60029
0.328054 0.248905 0.611963
0.409201 0.259937 0.622965
0.494057 0.27097 0.634012
0.581964 0.281849 0.644907
0.672145 0.292531 0.655573
0.0963149 0.296208 0.593774
0.149447 0.314488 0.612039
0.216678 0.329824 0.62739
0.291005 0.343999 0.641566
0.370214 0.357351 0.654917
0.453376 0.370245 0.667796
0.540063 0.382971 0.680537
0.629725 0.395499 0.69308
0.721523 0.407675 0.705242
0.130388 0.406195 0.629129
0.185489 0.4262 0.649119
0.254734 0.443305 0.666224
0.330892 0.459144 0.682078
0.411688 0.47396 0.69688
0.496651 0.488548 0.711482
0.584939 0.502815 0.72575
0.675975 0.516625 0.739559
0.769436 0.530404 0.753338
0.164172 0.5243 0.662486
0.220966 0.54612 0.684321
0.291722 0.564813 0.703014
0.36936 0.582177 0.720378
0.451606 0.598459 0.73666
0.537972 0.614496 0.752697
0.627634 0.630152 0.768353
0.71989 0.645212 0.783398
0.814755 0.660426 0.798627
0.195636 0.650889 0.690074
0.253468 0.674388 0.713573
0.324987 0.694667 0.733852
0.403616 0.713527 0.752697
0.4869 0.731212 0.770397
0.574334 0.748638 0.787808
0.665064 0.765621 0.804807
0.758389 0.781964 0.821149
0.854307 0.798444 0.837629
0.226734 0.784314 0.716487
0.285557 0.809232 0.74139
0.357504 0.831067 0.763226
0.436606 0.850996 0.783169
0.520989 0.870344 0.802502
0.609323 0.889052 0.82121
0.700954 0.907271 0.839429
0.795224 0.924849 0.857023
0.891463 0.941848 0.874052
