assets/cube/magenta_day.cube
TITLE "Generated by Resolve"
LUT_3D_SIZE 33
0 0 0
0 0 0
0 0 0
0.00332647 0 0
0.014023 0 0
0.0254978 0 0
0.0373999 0 0
0.0495766 0 0
0.0617838 0 0
0.0738842 0 0
0.0870069 0 0
0.100893 0 0
0.115419 0 0
0.13048 0 0
0.145998 0 0
0.16202 0 0
0.178332 0 0
0.194995 0 0
0.212009 0 0
0.229343 0 0
0.247242 0 0
0.265232 0 0
0.283452 0 0
0.30193 0 0
0.320668 0 0
0.339757 0 0
0.359106 0 0
0.378576 0 0
0.398306 0 0
0.41825 0 0
0.438361 0 0
0.458808 0 0
0.479194 0 0
0 0 0
0 0 0
0 0 0
0.00674449 0 0
0.0165866 0 0
0.0267796 0 0
0.0375525 0 0
0.0496834 0 0
0.062562 0 0
0.0761273 0 0
0.0902876 0 0
0.104982 0 0
0.120195 0 0
0.136034 0 0
0.152056 0 0
0.168444 0 0
0.185199 0 0
0.202274 0 0
0.219715 0 0
0.237598 0 0
0.25565 0 0
0.27396 0 0
0.2925 0 0
0.311284 0 0
0.330388 0 0
0.349813 0 0
0.369314 0 0
0.389029 0 0
0.409003 0 0
0.429191 0 0
0.449683 0 0
0.470344 0 0
0.490852 0 0
0 0.00144961 0
0 0.00122072 0
0.00106813 0.000854505 0
0.00892653 0.000686656 0
0.0189212 0.000564584 0
0.0301976 0.000488289 0
0.0425269 0.000564584 0
0.0555123 0.00062562 0
0.0691539 0.000732433 0
0.08336 0.000869764 0
0.0981003 0.00106813 0
0.113298 0.00129702 0
0.129198 0.00167849 0
0.145281 0.00198367 0
0.161715 0.00233463 0
0.178485 0.00271611 0
0.19559 0.0031281 0
0.213031 0.00358587 0
0.230976 0.00418097 0
0.248997 0.00469978 0
0.267338 0.00521859 0
0.285939 0.00578317 0
0.304738 0.00637827 0
0.324041 0.00714122 0
0.343328 0.00779736 0
0.362844 0.00846876 0
0.382574 0.00917067 0
0.402518 0.00988785 0
0.422797 0.0106661 0.000366217
0.443412 0.0115511 0.00125124
0.463966 0.0123445 0.00205997
0.484718 0.0131685 0.0028687
0.505425 0.0140688 0.00376898
0 0.0081178 0
0 0.00831617 0
0.00366217 0.00939956 0
0.0127565 0.0103456 0
0.0236667 0.0110475 0
0.0358282 0.01178 0
0.048661 0.0123751 0
0.0621958 0.0129549 0
0.0763409 0.0135348 0
0.0910201 0.0141299 0
0.10634 0.014847 0
0.121996 0.0154726 0
0.138064 0.0160983 0
0.154513 0.0167391 0.000549325
0.171283 0.0174105 0.00122072
0.188373 0.0180972 0.00190738
0.206027 0.0189517 0.00276188
0.223743 0.0196841 0.00349432
0.241764 0.0204318 0.00424201
0.260044 0.02121 0.00500496
0.27866 0.0219883 0.00578317
0.297505 0.0227817 0.0065919
0.316808 0.0237736 0.00758373
0.33611 0.0246281 0.00842298
0.355627 0.0254978 0.009308
0.375357 0.0263828 0.010193
0.395315 0.0272984 0.0111086
0.415534 0.0282597 0.0120546
0.436164 0.0293431 0.013138
0.456794 0.0302892 0.0140993
0.477546 0.031281 0.0150759
0.498482 0.0322881 0.016083
0.519387 0.0333715 0.0171664
0 0.0187533 0
0 0.0197452 0
0.0074464 0.0215152 0
0.0173037 0.0230869 0
0.0288548 0.0243534 0
0.0413825 0.0254368 0.000946059
0.0546731 0.0264591 0.00196841
0.0686351 0.0274357 0.00294499
0.0831769 0.028397 0.00390631
0.0983749 0.0294347 0.00494392
0.113954 0.0304112 0.0059205
0.1299 0.031342 0.0068513
0.146288 0.0322728 0.0077821
0.163058 0.0332036 0.0087129
0.180102 0.0341497 0.00965896
0.197696 0.0352483 0.0107576
0.215412 0.0362249 0.0117342
0.233387 0.0372015 0.0127108
0.251667 0.0381933 0.0137026
0.270191 0.0392004 0.0147097
0.289036 0.0402075 0.0157168
0.30837 0.0413977 0.0168917
0.327657 0.0424353 0.0179446
0.347158 0.0435035 0.0190127
0.366903 0.0445716 0.0200809
0.386847 0.045655 0.0211795
0.407263 0.046952 0.022446
0.427634 0.0480659 0.0235752
0.448249 0.0491798 0.0246891
0.469062 0.0503243 0.0258335
0.489998 0.0514839 0.0270085
0.511131 0.0526741 0.0281987
0.532479 0.0541085 0.0296025
0 0.0320287 0
0.00341802 0.0335393 0
0.0119478 0.0358587 0.00155642
0.0223392 0.0378271 0.00350958
0.0342718 0.0394141 0.00511177
0.0472114 0.0408484 0.00656138
0.0608835 0.0422065 0.00791943
0.0751965 0.0435187 0.00923171
0.0902571 0.0449378 0.0106355
0.105638 0.0461738 0.0118715
0.121477 0.0473945 0.0131075
0.137713 0.0486 0.014313
0.154391 0.0497902 0.0155032
0.171557 0.0510719 0.0167849
0.188952 0.0523384 0.0180209
0.206592 0.0535286 0.0192264
0.224537 0.0547341 0.0204318
0.242756 0.0559243 0.0216373
0.26125 0.0571298 0.0228428
0.280201 0.0585031 0.0241855
0.299306 0.0597391 0.0254368
0.318624 0.0609598 0.0266575
0.338109 0.0621958 0.0279088
0.357824 0.063447 0.02916
0.377752 0.0647135 0.0304265
0.398154 0.0661784 0.0318608
0.418509 0.0674601 0.0331579
0.439048 0.0687572 0.0344549
0.459846 0.0700389 0.0357519
0.480842 0.0713512 0.0370642
0.501961 0.0726787 0.038407
0.523522 0.0742199 0.0399176
0.544762 0.075639 0.0413214
0 0.0471809 0.00195315
0.00817884 0.0492256 0.00395209
0.016968 0.0518502 0.00657664
0.0277409 0.0540475 0.0087892
0.0400397 0.0559396 0.0106966
0.0533303 0.0576791 0.0124514
0.0673991 0.0594034 0.0141604
0.0821393 0.0610819 0.0158236
0.097322 0.062623 0.0173648
0.112978 0.0641184 0.0188602
0.129091 0.0655833 0.0203403
0.145586 0.0670329 0.0217899
0.162631 0.0685435 0.0233005
0.179995 0.0700389 0.0247807
0.197559 0.0714427 0.0261997
0.215427 0.0728618 0.0276188
0.2336 0.0742657 0.0290227
0.252033 0.0756695 0.0304417
0.270924 0.0772106 0.0319677
0.289952 0.0786755 0.0334173
0.309224 0.0800793 0.0348211
0.328725 0.0814832 0.0362402
0.348409 0.0829023 0.0376745
0.368307 0.0843366 0.0391089
0.388678 0.0859693 0.0407111
0.409003 0.0874037 0.0421454
0.429541 0.0888533 0.0436103
0.450263 0.0903182 0.0450752
0.471229 0.0917678 0.04654
0.492638 0.0934157 0.0481575
0.513939 0.0949264 0.0496681
0.535409 0.0964218 0.0511788
0.556802 0.0979934 0.0527352
0.002121 0.06392 0.00672923
0.0132448 0.0661784 0.0089723
0.0223087 0.0691081 0.0119173
0.033463 0.0715801 0.0143893
0.0461128 0.0737316 0.0165713
0.0597543 0.0757916 0.018616
0.0741588 0.077821 0.0206149
0.0890822 0.0796521 0.0224613
0.104524 0.0814221 0.0242313
0.120439 0.0831464 0.0259709
0.136782 0.0848402 0.0276646
0.153735 0.0866865 0.0294804
0.170901 0.0883192 0.0311131
0.188403 0.0899367 0.0327459
0.20618 0.0915389 0.0343633
0.224262 0.0931563 0.0359808
0.242741 0.0948348 0.0376593
0.261509 0.0965438 0.0393378
0.280415 0.0981308 0.04094
0.29958 0.0997177 0.0425269
0.319036 0.101289 0.0441138
0.338735 0.102876 0.0457008
0.358755 0.104601 0.0474098
0.378927 0.106264 0.049073
0.399222 0.107866 0.0506752
0.419715 0.109468 0.0522774
0.440421 0.111086 0.0538949
0.461311 0.112703 0.0555276
0.482658 0.114473 0.0572824
0.504021 0.116121 0.0589303
0.525475 0.117769 0.0605783
0.547082 0.119402 0.0622263
0.568627 0.121126 0.06392
0.00733959 0.0817884 0.0118105
0.0186618 0.0843366 0.0143587
0.027985 0.087541 0.0175631
0.0394903 0.0902419 0.0202792
0.0525826 0.0928206 0.0228122
0.0664683 0.0950637 0.0250553
0.0810254 0.0971847 0.0271916
0.0961929 0.0992294 0.0292515
0.111879 0.101213 0.0312505
0.128054 0.103182 0.0332036
0.144808 0.105241 0.0352331
0.161761 0.107103 0.0370947
0.179141 0.108934 0.038941
0.196857 0.110735 0.0407568
0.214832 0.112535 0.0425727
0.233204 0.114397 0.044419
0.251911 0.116304 0.0462959
0.270741 0.118074 0.0480659
0.289845 0.119829 0.049836
0.309178 0.121584 0.051606
0.328817 0.123323 0.0533608
0.348821 0.125185 0.0552071
0.368978 0.127031 0.0570382
0.389227 0.128786 0.058793
0.409674 0.130541 0.0605631
0.430335 0.132296 0.0623178
0.451194 0.134051 0.0640879
0.472511 0.136034 0.0660258
0.493797 0.137789 0.0677806
0.515267 0.139544 0.0695506
0.536858 0.141314 0.0713359
0.558618 0.143099 0.0731212
0.580514 0.145113 0.0750896
0.0128939 0.100755 0.0172274
0.0243687 0.103578 0.0200351
0.0339361 0.107027 0.0234836
0.0459144 0.110124 0.0265354
0.0591287 0.112734 0.0291447
0.0732586 0.115175 0.0316014
0.0880598 0.117494 0.0339513
0.103456 0.119753 0.0361944
0.119387 0.12195 0.038407
0.135927 0.124254 0.0406653
0.152728 0.126329 0.0427558
0.169894 0.128374 0.0448157
0.187472 0.130388 0.0468299
0.205371 0.132372 0.0488289
0.223758 0.134554 0.0509651
0.242237 0.136507 0.0529335
0.260975 0.13846 0.0548867
0.279988 0.140383 0.0568246
0.29926 0.142306 0.0587625
0.318853 0.144289 0.0607156
0.338827 0.146334 0.0627451
0.358862 0.148226 0.0646525
0.379065 0.150134 0.0665751
0.399466 0.152026 0.0684825
0.420096 0.153933 0.0703899
0.441016 0.155932 0.0723735
0.462165 0.157961 0.0743725
0.483375 0.159854 0.0762798
0.504814 0.161746 0.0781872
0.526436 0.163638 0.0800946
0.548165 0.165545 0.0820172
0.570245 0.167605 0.0840314
0.592172 0.16968 0.0860761
0.0187381 0.120714 0.0229191
0.030457 0.123964 0.0260929
0.0402686 0.127657 0.0297704
0.0523995 0.130739 0.0328679
0.0658732 0.133532 0.0356909
0.0802472 0.136172 0.0383307
0.0952621 0.138689 0.0408637
0.11107 0.141329 0.0434424
0.127184 0.143679 0.0458076
0.143755 0.145983 0.048127
0.160739 0.148241 0.0503853
0.178103 0.150454 0.0526131
0.195865 0.152636 0.0548104
0.214176 0.155001 0.0571145
0.232532 0.157122 0.059266
0.251179 0.159243 0.061387
0.270085 0.161349 0.063508
0.289265 0.163439 0.0655985
0.308751 0.165545 0.0677195
0.328634 0.167803 0.0699168
0.348592 0.169833 0.0719768
0.36878 0.171878 0.0740368
0.389136 0.173922 0.0760815
0.409705 0.175967 0.0781415
0.430564 0.178088 0.0802472
0.451698 0.18027 0.0823987
0.472847 0.182315 0.0844434
0.494179 0.184344 0.0864881
0.51577 0.186358 0.0885176
0.53753 0.188388 0.0905623
0.55967 0.190661 0.0927749
0.581704 0.192691 0.0948348
0.603677 0.194812 0.0969253
0.0249332 0.141741 0.0289616
0.0366674 0.145098 0.0322728
0.0466926 0.148943 0.0361334
0.0590982 0.152209 0.0393988
0.0728008 0.155184 0.0423896
0.0873884 0.157992 0.0452125
0.1028 0.160876 0.0480507
0.118624 0.1635 0.0506752
0.134936 0.166018 0.0532235
0.15169 0.16849 0.0556954
0.168872 0.170916 0.0581216
0.186404 0.173281 0.0605173
0.204562 0.175845 0.0630045
0.222827 0.178149 0.0653391
0.241352 0.180423 0.067628
0.260151 0.182696 0.0699168
0.27924 0.184955 0.0721752
0.298817 0.187411 0.0745708
0.31841 0.189624 0.0767987
0.338247 0.191836 0.0790265
0.358358 0.194018 0.0812238
0.378698 0.196185 0.0834058
0.399222 0.198398 0.0856184
0.420172 0.200778 0.087953
0.441077 0.20296 0.090135
0.462181 0.205127 0.0923171
0.483482 0.207294 0.0944991
0.504952 0.209461 0.0966659
0.526741 0.211658 0.0988785
0.548836 0.213977 0.101167
0.57084 0.216144 0.103334
0.593011 0.218311 0.105501
0.615106 0.220539 0.107713
0.0312352 0.163516 0.0351263
0.0430304 0.167041 0.0386206
0.0532692 0.171054 0.042649
0.065919 0.174472 0.0460822
0.0799725 0.177768 0.0493324
0.0948196 0.180804 0.052369
0.110246 0.183658 0.0552377
0.126253 0.186419 0.0580148
0.142748 0.189105 0.0607156
0.159686 0.19173 0.0633555
0.177218 0.194491 0.0660563
0.194949 0.19707 0.0686198
0.213062 0.199542 0.0711223
0.231495 0.201999 0.0735943
0.250172 0.204425 0.0760357
0.269139 0.206836 0.0784619
0.288609 0.209461 0.0810254
0.308095 0.211826 0.0834058
0.32784 0.214191 0.085771
0.347829 0.216541 0.0881208
0.368093 0.218845 0.0904555
0.388571 0.221149 0.0927901
0.409476 0.223713 0.0952773
0.43032 0.226017 0.0975967
0.451362 0.228305 0.0999008
0.472602 0.23061 0.102205
0.494026 0.232898 0.104509
0.515679 0.235218 0.106844
0.537758 0.23769 0.109255
0.559777 0.239948 0.111543
0.581903 0.242237 0.113832
0.604196 0.244511 0.116121
0.626413 0.24686 0.118456
0.0376898 0.186023 0.0414588
0.0495766 0.189746 0.0451514
0.060029 0.193912 0.0493324
0.0729992 0.19762 0.0530098
0.0872206 0.201007 0.0563821
0.102205 0.204135 0.0595254
0.117815 0.207141 0.0625467
0.133989 0.210056 0.0654765
0.150668 0.212894 0.0683299
0.167926 0.215839 0.0712139
0.185489 0.218616 0.073991
0.203357 0.221286 0.0766766
0.221622 0.223911 0.0793164
0.240208 0.226505 0.0819257
0.259037 0.229068 0.0845045
0.278386 0.231861 0.0872206
0.29778 0.234379 0.0897688
0.317418 0.236881 0.0922713
0.337301 0.239368 0.0947738
0.357412 0.24184 0.097261
0.378058 0.244511 0.0998703
0.398688 0.246967 0.102342
0.419471 0.249409 0.104799
0.440452 0.251835 0.10724
0.461631 0.254246 0.109667
0.482994 0.256672 0.112093
0.504814 0.259327 0.114687
0.526558 0.261723 0.117098
0.548531 0.264103 0.119509
0.570672 0.266484 0.121904
0.59292 0.268879 0.124315
0.615366 0.271305 0.126726
0.637949 0.273991 0.12932
0.0443275 0.209247 0.0479744
0.0562905 0.213153 0.0518654
0.0671244 0.217716 0.0563363
0.0802319 0.221424 0.0600748
0.0945754 0.224857 0.0635386
0.109743 0.228138 0.0668193
0.125521 0.231281 0.0699931
0.14197 0.234455 0.0731365
0.158923 0.237552 0.0762036
0.176181 0.240467 0.079118
0.193851 0.24332 0.082002
0.211872 0.246143 0.0848249
0.230289 0.24889 0.087602
0.24918 0.251774 0.0904402
0.268223 0.254566 0.0932174
0.287495 0.257237 0.0959029
0.307012 0.259892 0.0985733
0.326787 0.262516 0.101213
0.346807 0.265141 0.103838
0.367269 0.267948 0.106584
0.387854 0.270542 0.109194
0.408606 0.273106 0.111772
0.429511 0.275654 0.114351
0.450614 0.278202 0.116915
0.471916 0.280751 0.119463
0.49369 0.283528 0.122164
0.515358 0.286046 0.124712
0.537224 0.288563 0.127245
0.559319 0.291066 0.129747
0.581582 0.293553 0.132265
0.603952 0.296056 0.134783
0.626764 0.298817 0.137469
0.64921 0.301396 0.140017
0.0511635 0.233204 0.0546883
0.0632944 0.237491 0.0588693
0.0742046 0.241947 0.0633402
0.0875105 0.245792 0.0672007
0.102022 0.249378 0.0708019
0.117372 0.252781 0.0742351
0.133394 0.256168 0.0775921
0.150042 0.25951 0.0808881
0.167025 0.262623 0.0840162
0.184451 0.26566 0.0870832
0.202258 0.26865 0.0900893
0.220432 0.271595 0.0930343
0.239124 0.274617 0.0960403
0.258106 0.277577 0.09897
0.277211 0.2804 0.101823
0.296605 0.283207 0.104631
0.316274 0.285985 0.107424
0.336172 0.288731 0.110185
0.356588 0.291722 0.1131
0.376974 0.294438 0.115831
0.397635 0.297124 0.118532
0.418509 0.299794 0.121233
0.439536 0.302464 0.123919
0.46096 0.305318 0.126711
0.48246 0.308049 0.129427
0.504082 0.310689 0.132082
0.525872 0.313313 0.134737
0.547845 0.315953 0.137377
0.570062 0.318547 0.140002
0.592691 0.321386 0.142779
0.615198 0.324025 0.145418
0.637842 0.326635 0.148043
0.66041 0.329305 0.150683
0.0582132 0.257969 0.0616159
0.0702678 0.262242 0.0658579
0.0813916 0.266819 0.0704509
0.0948959 0.270802 0.0744488
0.109575 0.27451 0.078172
0.125292 0.278294 0.0818952
0.141405 0.281712 0.0853285
0.158068 0.285039 0.0886702
0.175204 0.288289 0.0919203
0.192767 0.291463 0.0951095
0.210788 0.294652 0.0982834
0.229267 0.297902 0.101472
0.247959 0.300908 0.104509
0.266972 0.303883 0.107515
0.286213 0.306828 0.110475
0.305745 0.309743 0.113405
0.325643 0.312764 0.116396
0.345815 0.31577 0.119371
0.366094 0.318624 0.122225
0.386603 0.321462 0.125078
0.407401 0.324254 0.127901
0.428397 0.327031 0.130709
0.449714 0.329992 0.133608
0.471153 0.33286 0.136461
0.492699 0.335622 0.139239
0.514427 0.338369 0.142
0.536339 0.341115 0.144762
0.558434 0.343847 0.147509
0.580987 0.346777 0.150378
0.603525 0.349523 0.15314
0.626123 0.352239 0.155871
0.648875 0.35494 0.158587
0.671534 0.357733 0.161349
0.0652323 0.283192 0.0685435
0.0773632 0.287617 0.0729534
0.0886702 0.292317 0.0776684
0.102373 0.296422 0.0817884
0.117403 0.300511 0.0858015
0.133074 0.304173 0.0894942
0.14934 0.307713 0.0930495
0.16614 0.311177 0.0965133
0.183429 0.314534 0.0999008
0.201175 0.317891 0.103243
0.21944 0.321324 0.106615
0.237888 0.324514 0.109819
0.256718 0.327642 0.112978
0.275853 0.330739 0.116091
0.295232 0.333806 0.119173
0.314977 0.336934 0.122286
0.335042 0.340108 0.125414
0.3552 0.343099 0.12842
0.375601 0.346059 0.131395
0.396231 0.349004 0.134356
0.417136 0.351904 0.137285
0.438514 0.355062 0.140368
0.459785 0.357961 0.143282
0.481254 0.360845 0.146166
0.502907 0.363714 0.14905
0.524742 0.366567 0.151919
0.546914 0.369558 0.154879
0.569238 0.372519 0.157809
0.591684 0.375326 0.160647
0.614282 0.378134 0.16347
0.636973 0.380957 0.166308
0.659831 0.383764 0.169131
0.682811 0.386847 0.172107
0.0723583 0.308995 0.0755932
0.084535 0.313588 0.0801556
0.0960555 0.318395 0.0849775
0.110094 0.322881 0.0893721
0.125109 0.326833 0.0933547
0.140917 0.330617 0.0971695
0.157321 0.334295 0.100862
0.174258 0.337865 0.104448
0.191897 0.341619 0.108095
0.209735 0.345022 0.111528
0.227955 0.348379 0.1149
0.24654 0.35169 0.118227
0.265492 0.354925 0.121492
0.284779 0.35816 0.124743
0.304494 0.361578 0.128084
0.324269 0.364721 0.131243
0.344305 0.367849 0.134386
0.364569 0.370947 0.137499
0.385092 0.374014 0.140581
0.405905 0.377142 0.143694
0.427115 0.380346 0.146853
0.448341 0.383352 0.149874
0.469718 0.386343 0.152895
0.491295 0.389334 0.155886
0.513069 0.392294 0.158877
0.535134 0.395392 0.161929
0.557412 0.398474 0.164981
0.579721 0.401419 0.167941
0.602258 0.404334 0.170871
0.624964 0.407233 0.1738
0.647761 0.410147 0.17673
0.670909 0.41323 0.179767
0.693889 0.416312 0.182773
0.0795605 0.335393 0.0827344
0.0919356 0.340352 0.0875715
0.103685 0.345312 0.0925307
0.117693 0.349645 0.0968795
0.13286 0.353735 0.100984
0.148806 0.357626 0.104921
0.165331 0.36141 0.108721
0.18262 0.365377 0.112581
0.200168 0.368978 0.116197
0.218128 0.372503 0.119753
0.236484 0.375967 0.123232
0.255177 0.379385 0.126665
0.27425 0.382757 0.130053
0.293873 0.386328 0.133547
0.313497 0.389609 0.136858
0.333379 0.392874 0.140139
0.353521 0.396109 0.143374
0.373922 0.399298 0.146593
0.394598 0.402533 0.149828
0.415656 0.405921 0.153124
0.43679 0.409033 0.156268
0.458122 0.412131 0.159396
0.479622 0.415229 0.162524
0.501289 0.418311 0.165621
0.52343 0.421668 0.168872
0.545495 0.42472 0.171954
0.567727 0.427771 0.175006
0.590127 0.430808 0.178058
0.612772 0.433814 0.181094
0.635676 0.436912 0.184192
0.658763 0.440101 0.18732
0.681819 0.443107 0.190341
0.704784 0.446174 0.193378
0.0869306 0.36257 0.0900435
0.0992752 0.367498 0.0949264
0.111162 0.372534 0.0999619
0.125307 0.376989 0.104433
0.140597 0.38117 0.108659
0.156664 0.385199 0.112703
0.173541 0.389364 0.116777
0.190738 0.393164 0.120592
0.208408 0.396887 0.124331
0.22649 0.400519 0.127993
0.244953 0.404105 0.131594
0.263981 0.407889 0.135286
0.283192 0.411368 0.138781
0.302678 0.414786 0.142229
0.322408 0.418189 0.145647
0.342412 0.421546 0.14902
0.362661 0.424887 0.152377
0.383413 0.428458 0.155856
0.40415 0.431739 0.159152
0.425116 0.435004 0.162432
0.446357 0.438224 0.165682
0.467796 0.441413 0.168917
0.489418 0.444648 0.172137
0.511437 0.448081 0.175494
0.53341 0.451255 0.178683
0.555566 0.454414 0.181857
0.57789 0.457542 0.185016
0.600397 0.460685 0.188159
0.623224 0.463859 0.191348
0.646326 0.467155 0.194583
0.669322 0.470268 0.197711
0.692485 0.47335 0.200809
0.715541 0.476524 0.203952
0.094255 0.390143 0.0973373
0.106645 0.395148 0.102312
0.118669 0.40029 0.107469
0.132952 0.404852 0.112047
0.148501 0.409339 0.116487
0.164767 0.413565 0.120699
0.181537 0.417578 0.124727
0.198856 0.421485 0.128664
0.216632 0.425315 0.132494
0.234821 0.429053 0.136263
0.253605 0.43299 0.140108
0.272557 0.436652 0.143786
0.291859 0.440223 0.147387
0.311467 0.443748 0.150942
0.331304 0.447257 0.154452
0.3514 0.450721 0.157931
0.372015 0.454429 0.161563
0.392615 0.457832 0.164981
0.413458 0.461219 0.168383
0.434516 0.464576 0.171756
0.455848 0.467887 0.175097
0.477409 0.471199 0.178424
0.499352 0.474769 0.181903
0.521233 0.47805 0.185199
0.543297 0.481315 0.188479
0.56556 0.484565 0.191745
0.587976 0.4878 0.19501
0.610864 0.49131 0.198413
0.633707 0.494514 0.201648
0.656687 0.497688 0.204852
0.679789 0.500877 0.208072
0.703029 0.504067 0.211276
0.726238 0.507378 0.214527
0.101595 0.418173 0.104677
0.114092 0.423301 0.109758
0.126238 0.42855 0.115023
0.140749 0.433387 0.119814
0.156359 0.437919 0.124331
0.172671 0.442161 0.128603
0.189563 0.446281 0.132738
0.206989 0.450294 0.136767
0.224872 0.454231 0.140719
0.243397 0.458366 0.144747
0.262089 0.46215 0.148562
0.281117 0.465888 0.152316
0.300526 0.469566 0.156024
0.320226 0.473182 0.15967
0.340352 0.477012 0.163424
0.360616 0.480644 0.167041
0.381079 0.484184 0.170596
0.401785 0.487678 0.174121
0.422721 0.491157 0.177615
0.443885 0.494606 0.181079
0.465568 0.498299 0.184695
0.487221 0.501701 0.188128
0.50901 0.505089 0.191531
0.530983 0.508461 0.194919
0.55314 0.511818 0.198291
0.575494 0.51516 0.201663
0.598291 0.518791 0.205173
0.620981 0.522103 0.208515
0.643915 0.525383 0.211826
0.667002 0.528664 0.215122
0.690181 0.531945 0.218433
0.713542 0.535241 0.221729
0.737041 0.538857 0.225208
0.108888 0.446754 0.111986
0.121569 0.452064 0.11722
0.133928 0.457633 0.122728
0.14844 0.462425 0.127535
0.164065 0.466941 0.132082
0.180468 0.47129 0.136461
0.197452 0.475517 0.140703
0.215091 0.479789 0.14493
0.233204 0.48397 0.149065
0.251606 0.487922 0.153048
0.270375 0.491814 0.156954
0.289509 0.495659 0.160815
0.30901 0.499428 0.164614
0.328984 0.503349 0.16849
0.349096 0.507149 0.172259
0.369406 0.510796 0.175937
0.38996 0.514427 0.179599
0.410758 0.518029 0.183215
0.431785 0.521614 0.186801
0.453269 0.525414 0.190509
0.47483 0.528954 0.19408
0.496559 0.532448 0.197589
0.518441 0.535927 0.201099
0.540505 0.539391 0.204578
0.562753 0.54284 0.208042
0.585473 0.546563 0.211673
0.608072 0.549981 0.215106
0.630854 0.553384 0.218524
0.65388 0.556756 0.221927
0.677043 0.560113 0.22533
0.700603 0.56379 0.228885
0.724025 0.567147 0.232273
0.747356 0.570581 0.23566
0.11603 0.475975 0.119234
0.129 0.481498 0.12462
0.141253 0.486992 0.130144
0.155825 0.491905 0.135058
0.171527 0.496529 0.139727
0.188022 0.500999 0.144213
0.205188 0.50544 0.148638
0.222919 0.50985 0.152987
0.241001 0.513985 0.157137
0.259495 0.518044 0.161227
0.278355 0.522042 0.16524
0.297581 0.525979 0.169192
0.317418 0.530144 0.173266
0.337301 0.533959 0.177127
0.357427 0.537774 0.180941
0.377813 0.541527 0.18471
0.398459 0.545251 0.188464
0.419501 0.549111 0.192279
0.440726 0.552911 0.196033
0.462074 0.556558 0.199695
0.48368 0.560143 0.203326
0.505501 0.563729 0.206928
0.527459 0.5673 0.210529
0.549813 0.571084 0.214237
0.572229 0.574701 0.217838
0.594751 0.578225 0.221378
0.617441 0.58172 0.224903
0.640299 0.585214 0.228412
0.663401 0.588678 0.231907
0.686915 0.592416 0.235554
0.710292 0.59588 0.239033
0.733806 0.599329 0.242496
0.757198 0.602838 0.245975
0.123095 0.505898 0.126452
0.136187 0.511269 0.131777
0.148409 0.516899 0.137423
0.162997 0.521935 0.142473
0.17879 0.526711 0.14728
0.195529 0.531548 0.152026
0.21268 0.535973 0.156481
0.230365 0.540307 0.16083
0.248524 0.544549 0.165087
0.267094 0.548714 0.169268
0.286107 0.552911 0.173449
0.305577 0.557153 0.177615
0.325246 0.56112 0.181613
0.34522 0.565042 0.18558
0.365423 0.568933 0.189487
0.385901 0.572793 0.193362
0.406744 0.576761 0.197284
0.427848 0.580697 0.20119
0.449042 0.584466 0.204959
0.470466 0.588205 0.208713
0.492164 0.591882 0.212436
0.514061 0.59556 0.216144
0.536278 0.59942 0.219944
0.558602 0.603174 0.223667
0.581018 0.60679 0.227314
0.603616 0.610407 0.230945
0.626383 0.613993 0.234546
0.649332 0.617578 0.238148
0.672786 0.621439 0.241917
0.696117 0.624964 0.245472
0.719554 0.628504 0.249042
0.74313 0.632044 0.252583
0.766613 0.63563 0.256138
0.12987 0.536141 0.13344
0.143236 0.541558 0.138811
0.155428 0.547326 0.14461
0.170031 0.552499 0.149783
0.186023 0.557641 0.154849
0.202625 0.562325 0.159548
0.219837 0.566873 0.164126
0.237583 0.571313 0.168582
0.255802 0.575647 0.172946
0.274495 0.57998 0.177264
0.293706 0.584421 0.181613
0.313069 0.588556 0.185763
0.332815 0.592615 0.189868
0.352865 0.596628 0.193927
0.373144 0.600626 0.197925
0.393942 0.604883 0.202075
0.41474 0.608789 0.206012
0.435782 0.61268 0.209903
0.457053 0.616526 0.213779
0.478553 0.620356 0.217624
0.50042 0.624262 0.221515
0.52256 0.628199 0.225406
0.544686 0.631952 0.229191
0.566979 0.635691 0.232929
0.589471 0.639399 0.236667
0.612146 0.643107 0.240391
0.635142 0.646952 0.24419
0.658289 0.650752 0.247944
0.681529 0.654383 0.251621
0.704936 0.658 0.255268
0.728435 0.661631 0.258915
0.752102 0.665248 0.262547
0.77586 0.669154 0.266316
0.136522 0.566873 0.140337
0.150179 0.572335 0.145769
0.162539 0.578546 0.151858
0.177111 0.583825 0.157168
0.192935 0.588815 0.162188
0.209583 0.593591 0.166995
0.226825 0.598245 0.171679
0.244633 0.602792 0.176242
0.263142 0.607553 0.18088
