assets/cube/magenta_dream.cube
TITLE "Generated by Resolve"
LUT_3D_SIZE 33
0 0 0
0 0 0
0 0 0
0.0211185 0 0
0.0454108 0 0
0.0682536 0 0
0.0894484 0 0
0.109163 0 0
0.12755 0 0
0.144747 0 0
0.160861 0 0
0.176028 0 0
0.190448 0 0
0.204105 0 0
0.216983 0 0
0.229129 0 0
0.240864 0 0
0.252064 0 0
0.262821 0 0
0.273136 0 0
0.28278 0 0
0.292363 0 0
0.301549 0 0
0.310384 0 0
0.318914 0 0
0.326955 0 0
0.334829 0 0
0.342794 0 0
0.350683 0 0
0.358572 0 0
0.366293 0 0
0.373739 0 0
0.380957 0 0
0 0 0.0037995
0 0 0.005066
0.00608835 0 0.00726329
0.0240787 0 0.00511177
0.0419013 0 0.00157168
0.0600443 0 0
0.0782483 0 0
0.0962997 0 0
0.113695 0 0
0.130556 0 0
0.146868 0 0
0.162646 0 0
0.177951 0 0
0.193149 0 0
0.207538 0 0
0.221515 0 0
0.235126 0 0
0.248356 0 0
0.261357 0 0
0.274357 0 0
0.286671 0 0
0.29868 0 0
0.31043 0 0
0.32192 0 0
0.33341 0 0
0.344854 0 0
0.355718 0 0
0.366339 0 0
0.376761 0 0
0.386969 0 0
0.397452 0 0
0.407721 0 0
0.41767 0 0
0 0.00895705 0.0128939
0 0.00408942 0.0091249
0.00852979 0.00595102 0.0109102
0.0297551 0.0056611 0.0108644
0.052781 0.00459297 0.0100557
0.0757916 0.00315862 0.00888075
0.098558 0.00177005 0.00791943
0.120317 0.000122072 0.00646983
0.141283 0 0.00486763
0.161471 0 0.00317388
0.18085 0 0.00131228
0.19968 0 0
0.21857 0 0
0.236393 0 0
0.253742 0 0
0.270634 0 0
0.287098 0 0
0.303197 0 0
0.319524 0 0
0.334859 0 0
0.349844 0 0
0.364492 0 0
0.378882 0 0
0.393744 0 0
0.407599 0 0
0.421149 0 0
0.43447 0 0
0.447562 0 0
0.460578 0 0
0.473854 0 0
0.48632 0 0
0.498558 0 0
0.510842 0 0
0 0.0224613 0.0108644
0 0.0241855 0.0125429
0.0131685 0.0298619 0.0170901
0.0380255 0.0318914 0.0187991
0.0647135 0.0323491 0.0191958
0.091722 0.0322423 0.0192721
0.1178 0.0313878 0.0185245
0.143114 0.0301823 0.0174563
0.167636 0.028748 0.0162051
0.191394 0.0271458 0.014786
0.214801 0.0256657 0.013611
0.237201 0.0238956 0.0120546
0.2589 0.0219577 0.0103304
0.279942 0.0200046 0.00856031
0.300359 0.0180362 0.00679026
0.320241 0.0160525 0.0049897
0.34023 0.0143282 0.00360113
0.359091 0.0122988 0.00177005
0.377493 0.0102846 0
0.395453 0.00827039 0
0.412985 0.00622568 0
0.430106 0.00419623 0
0.447608 0.0024567 0
0.463981 0.00047303 0
0.480034 0 0
0.49572 0 0
0.511086 0 0
0.526314 0 0
0.541756 0 0
0.556207 0 0
0.570443 0 0
0.584375 0 0
0.59823 0 0
0 0.0442664 0.0129397
0 0.0499428 0.0167544
0.0167239 0.0582284 0.0222629
0.0442664 0.0620432 0.0246738
0.07393 0.0636606 0.025391
0.103563 0.0639658 0.024979
0.132586 0.0635538 0.0240787
0.16083 0.0626535 0.0227665
0.188251 0.061387 0.0211948
0.215137 0.0601053 0.0197604
0.240986 0.0584878 0.0179904
0.265904 0.056672 0.0160372
0.290105 0.0547189 0.0139773
0.313558 0.0527047 0.0119173
0.336248 0.0506752 0.00985733
0.35877 0.0488899 0.00814832
0.380224 0.0468299 0.00613413
0.401022 0.0447395 0.00408942
0.421271 0.0426642 0.00207523
0.440864 0.0406195 9.15541e-05
0.460014 0.0385138 0
0.479255 0.0367132 0
0.497429 0.0346838 0
0.51516 0.0326848 0
0.532448 0.0306859 0
0.549325 0.0287022 0
0.56643 0.0270695 0
0.582544 0.0251469 0
0.598291 0.023209 0
0.613687 0.0213016 0
0.628763 0.0194553 0
0.643549 0.0176547 0
0.658625 0.0163119 0
0 0.0692454 0.0152895
0 0.0780041 0.0196841
0.0179751 0.0884565 0.025391
0.0475013 0.0934768 0.0275425
0.0793774 0.0957351 0.0276799
0.111467 0.0965438 0.0268559
0.142901 0.0964523 0.0254978
0.173541 0.0957809 0.0237583
0.203571 0.0949721 0.0222171
0.232242 0.0935836 0.0201267
0.259876 0.0919814 0.0180209
0.286549 0.0902266 0.0158389
0.312398 0.0883497 0.0135958
0.337621 0.0866102 0.0116121
0.361807 0.0847486 0.00958267
0.385077 0.0827802 0.0074464
0.407568 0.0807813 0.0053254
0.429358 0.0787823 0.00325017
0.450492 0.0767987 0.00122072
0.471351 0.0750896 0
0.491325 0.0731365 0
0.510674 0.0711528 0
0.529442 0.0692302 0
0.547707 0.0673381 0
0.565469 0.0654765 0
0.58323 0.0639506 0
0.600092 0.0621347 0
0.616556 0.0603494 0
0.632593 0.0585336 0
0.648295 0.0567636 0
0.663569 0.0550546 0
0.678965 0.0537118 0
0.693538 0.0522316 0
0 0.0958724 0.0167697
0 0.107591 0.021149
0.0166476 0.119417 0.0261387
0.0477607 0.125185 0.0275883
0.0816358 0.128008 0.0272374
0.115755 0.129198 0.0260166
0.149264 0.129473 0.0245365
0.181842 0.129198 0.0228275
0.213092 0.128252 0.020737
0.243153 0.127016 0.018616
0.272053 0.125566 0.016434
0.299855 0.123964 0.0142519
0.326863 0.122393 0.0122988
0.352804 0.120745 0.0102998
0.377569 0.118929 0.00822461
0.40145 0.117113 0.00622568
0.424506 0.115267 0.00424201
0.446754 0.113436 0.00233463
0.468544 0.111849 0.000747692
0.489464 0.110124 0
0.509667 0.108278 0
0.529259 0.106462 0
0.548226 0.104707 0
0.566644 0.102998 0
0.584863 0.10161 0
0.602274 0.0999466 0
0.619196 0.0982986 0
0.635691 0.0966812 0
0.651789 0.0950332 0
0.667765 0.0937362 0
0.68307 0.0922255 0
0.697978 0.0907149 0
0.712444 0.0894026 0
0 0.123568 0.0167086
0 0.13724 0.0200809
0.0130465 0.150195 0.0244907
0.0457771 0.156634 0.0255741
0.0814832 0.159869 0.0250248
0.117372 0.16141 0.0237888
0.152453 0.162051 0.0224002
0.18613 0.161746 0.0205234
0.218463 0.160998 0.0185855
0.24947 0.15993 0.0165866
0.279164 0.158648 0.0146181
0.307942 0.157534 0.0130465
0.335302 0.155962 0.0110781
0.361563 0.154345 0.00917067
0.386709 0.152712 0.00733959
0.410895 0.15108 0.00555428
0.434333 0.149569 0.00404364
0.456947 0.148089 0.00257877
0.478614 0.146456 0.000976577
0.499535 0.144808 0
0.519844 0.143145 0
0.539483 0.141512 0
0.558633 0.140154 0
0.577127 0.13872 0
0.594995 0.137194 0
0.612329 0.135698 0
0.629206 0.134218 0
0.645609 0.132769 0
0.66183 0.131579 0
0.677455 0.130205 0
0.692607 0.128832 0
0.707393 0.127474 0
0.721691 0.126329 0
0 0.151339 0.014725
0 0.166873 0.0175174
0.00827039 0.180484 0.0216373
0.0426642 0.18735 0.0226749
0.0802472 0.191196 0.0225986
0.117433 0.192859 0.0214847
0.153445 0.193454 0.0200656
0.188067 0.193332 0.0184634
0.22118 0.192767 0.0168307
0.252888 0.191928 0.0152132
0.283345 0.191089 0.013901
0.3122 0.189837 0.0122683
0.339879 0.188479 0.0106203
0.366384 0.18703 0.00903334
0.391714 0.185595 0.00750744
0.416144 0.184253 0.00622568
0.439689 0.182971 0.00508125
0.462196 0.181491 0.00370794
0.483879 0.180041 0.00241093
0.504799 0.178576 0.00111391
0.525063 0.177096 0
0.544778 0.175814 0
0.56379 0.174563 0
0.582086 0.173175 0
0.599832 0.171832 0
0.61706 0.170489 0
0.633844 0.169177 0
0.650385 0.1682 0
0.666331 0.166888 0
0.68188 0.165576 0
0.697002 0.16434 0
0.711772 0.163088 0
0.726223 0.16228 0
0 0.179004 0.011429
0 0.195834 0.0141146
0.00323491 0.209857 0.0183108
0.0395361 0.217334 0.0200198
0.0782177 0.221012 0.019913
0.116533 0.222873 0.0191958
0.153429 0.223621 0.0181888
0.188739 0.223697 0.0170443
0.222461 0.223331 0.0158389
0.25478 0.222904 0.0149386
0.285313 0.221973 0.0136568
0.314412 0.22092 0.0124361
0.342245 0.21973 0.0111543
0.368872 0.218479 0.00993362
0.394537 0.217502 0.00918593
0.418891 0.216236 0.00810254
0.442267 0.214939 0.00704967
0.464714 0.213657 0.00601205
0.486366 0.212345 0.00497444
0.507347 0.211139 0.0040589
0.527764 0.210025 0.00331121
0.547372 0.208728 0.00227359
0.566308 0.207446 0.00128176
0.58468 0.206195 0.000289921
0.602518 0.204944 0
0.619959 0.203861 0
0.636942 0.202808 0
0.653376 0.201602 0
0.669413 0.200366 0
0.685054 0.199161 0
0.700282 0.197986 0
0.715282 0.19704 0
0.729732 0.196185 0
0 0.206104 0.00746166
0 0.224247 0.0107576
0 0.238453 0.0154879
0.0363622 0.245731 0.0173648
0.0762341 0.249561 0.017792
0.11545 0.251575 0.0175937
0.153033 0.252491 0.0170901
0.189181 0.253025 0.0168154
0.223239 0.252796 0.0160678
0.255558 0.252277 0.0152438
0.28629 0.25153 0.0144045
0.315511 0.250645 0.0135958
0.343435 0.249638 0.0127108
0.370382 0.248844 0.012253
0.395819 0.247745 0.0113527
0.420233 0.246632 0.0104677
0.443687 0.245472 0.00953689
0.466255 0.244327 0.00863661
0.48806 0.243198 0.00776684
0.50927 0.242283 0.00720226
0.529625 0.241062 0.00621042
0.549325 0.239857 0.0052491
0.568368 0.238682 0.00434882
0.586831 0.237522 0.00341802
0.604837 0.2365 0.00267033
0.6224 0.235538 0.00204471
0.639353 0.234394 0.00114443
0.655863 0.23328 0.000274662
0.671992 0.23212 0
0.687709 0.230991 0
0.703227 0.230228 0
0.718166 0.229129 0
0.732631 0.228229 0
0 0.232731 0.00354009
0 0.251255 0.00743114
0 0.265461 0.0127871
0.0337377 0.272831 0.0153048
0.0745861 0.276799 0.0163729
0.114534 0.27895 0.0167697
0.152972 0.280278 0.0171817
0.189197 0.280705 0.0170901
0.223514 0.280644 0.0168154
0.256001 0.280293 0.016434
0.286839 0.279728 0.0159457
0.316167 0.279026 0.0153201
0.344488 0.278462 0.0149996
0.371267 0.277546 0.0142367
0.396811 0.276585 0.0134585
0.421332 0.275608 0.0126802
0.444877 0.274586 0.011841
0.467811 0.273838 0.011429
0.489647 0.27277 0.0105745
0.51075 0.271717 0.00975052
0.531197 0.270588 0.00883497
0.550988 0.26949 0.00794995
0.570123 0.268437 0.00714122
0.588876 0.267643 0.00666819
0.606882 0.26656 0.00582895
0.624384 0.265522 0.00500496
0.641413 0.264454 0.00416571
0.658 0.263416 0.00335698
0.67425 0.262425 0.00260929
0.690196 0.26157 0.00204471
0.705562 0.260548 0.00123598
0.720562 0.259541 0.000457771
0.735073 0.258686 0
0 0.258091 0
0 0.276967 0.0043183
0 0.291188 0.0104677
0.0316167 0.298634 0.0137331
0.0735637 0.302907 0.0157473
0.114214 0.305287 0.0168917
0.152712 0.306508 0.0175174
0.189151 0.307088 0.0178073
0.223606 0.307225 0.0177768
0.256214 0.307073 0.0175631
0.287434 0.30692 0.0175174
0.316899 0.306416 0.0170901
0.345037 0.30573 0.0164645
0.371923 0.304967 0.0157931
0.397559 0.304143 0.0151217
0.422156 0.303273 0.0144198
0.446067 0.302647 0.0140993
0.468803 0.301701 0.0133364
0.49073 0.300755 0.0125734
0.51191 0.299794 0.0118105
0.532433 0.298772 0.0109865
0.5523 0.297765 0.0101625
0.571725 0.297047 0.00979629
0.590341 0.296071 0.00900282
0.608423 0.295079 0.00820935
0.625986 0.294102 0.00746166
0.643076 0.293111 0.00666819
0.65977 0.292195 0.0059968
0.676188 0.291417 0.00549325
0.692042 0.290425 0.00469978
0.707485 0.289464 0.00396735
0.722545 0.288502 0.00321965
0.737118 0.287694 0.00267033
0 0.282322 0
0 0.301534 0.00178531
0 0.315709 0.00883497
0.0304112 0.323384 0.0130922
0.0729839 0.327672 0.0157168
0.113878 0.330129 0.0172274
0.15256 0.331579 0.0181125
0.189105 0.332372 0.0185245
0.223667 0.332723 0.0186618
0.256611 0.332937 0.0188296
0.287739 0.332784 0.018677
0.31725 0.332403 0.0182956
0.34548 0.331838 0.017792
0.372442 0.331197 0.0171969
0.398169 0.330495 0.0166323
0.423117 0.330022 0.0163882
0.44683 0.329213 0.0157473
0.469642 0.328389 0.0150607
0.491661 0.327535 0.0143893
0.512901 0.32665 0.0136721
0.533715 0.325978 0.0132753
0.553658 0.325063 0.0125429
0.572915 0.324163 0.011841
0.591592 0.323247 0.0111086
0.609735 0.322332 0.0103914
0.627359 0.321416 0.00965896
0.644739 0.320775 0.00935378
0.661433 0.319875 0.00862135
0.677745 0.318914 0.00787366
0.69366 0.317983 0.0071107
0.709133 0.317082 0.00640879
0.724285 0.316213 0.00575265
0.739086 0.315724 0.0055848
0 0.305562 0
0 0.324956 0
0 0.339406 0.00833143
0.0299535 0.346914 0.0131228
0.0726787 0.351293 0.0159457
0.11371 0.353994 0.0176394
0.152468 0.355673 0.0186618
0.189288 0.356786 0.0194095
0.224094 0.357458 0.019852
0.25687 0.357626 0.019852
0.287999 0.357565 0.0196994
0.317601 0.357321 0.01944
0.345892 0.356878 0.0190127
0.373114 0.356527 0.0187686
0.399008 0.356023 0.0183871
0.423743 0.355383 0.0178683
0.447532 0.354696 0.0173037
0.47042 0.353948 0.0166934
0.492485 0.35317 0.0160525
0.514 0.352605 0.0157321
0.534691 0.351797 0.0150912
0.554681 0.350958 0.0144045
0.573999 0.350118 0.0137484
0.592721 0.349264 0.013077
0.61091 0.348409 0.0124056
0.628824 0.347845 0.0121004
0.646021 0.346975 0.011429
0.662776 0.346136 0.0107729
0.679133 0.345251 0.0100557
0.695094 0.344366 0.00935378
0.710628 0.343526 0.00869764
0.725994 0.342962 0.00839246
0.740673 0.34226 0.00791943
0 0.32781 0
0 0.347662 0
0 0.361669 0.00794995
0.0294499 0.369406 0.0130312
0.0723278 0.37406 0.0160372
0.113451 0.376974 0.0178988
0.152453 0.378958 0.0191958
0.189395 0.380301 0.0201114
0.224094 0.380972 0.0204623
0.256977 0.381292 0.0205692
0.288167 0.381384 0.0205386
0.31783 0.381247 0.0203403
0.346365 0.381094 0.0202335
0.373571 0.380789 0.0199893
0.399435 0.380301 0.0195621
0.424247 0.379767 0.0191043
0.448081 0.379141 0.0185855
0.471031 0.378485 0.0180362
0.493416 0.378073 0.0178378
0.514778 0.377356 0.0172732
0.53547 0.376577 0.0166323
0.55552 0.375799 0.0159915
0.574868 0.375021 0.0153811
0.59382 0.374441 0.0150149
0.612131 0.373724 0.0144961
0.629862 0.372946 0.0138857
0.647105 0.372137 0.0132448
0.663905 0.371344 0.0126192
0.680323 0.370504 0.0119478
0.696513 0.369924 0.0116121
0.712108 0.369146 0.011017
0.727306 0.368368 0.0104067
0.742016 0.367697 0.00994888
0 0.349294 0
0 0.368948 0
0 0.383108 0.00759899
0.0289311 0.391119 0.0128786
0.0719005 0.395987 0.0160067
0.113497 0.39939 0.0183566
0.152438 0.401465 0.0196384
0.189227 0.402792 0.0204623
0.224018 0.403647 0.0209201
0.256947 0.404105 0.021149
0.288289 0.404379 0.0212863
0.318242 0.404562 0.0214542
0.34667 0.404364 0.0211948
0.373831 0.404044 0.0208743
0.399741 0.403662 0.0205081
0.424598 0.403204 0.0201267
0.448631 0.402808 0.0198367
0.471763 0.402365 0.0195468
0.493935 0.401755 0.0190433
0.515343 0.401114 0.0185245
0.536095 0.400412 0.0179294
0.556191 0.399695 0.0173495
0.575753 0.399161 0.0170138
0.594659 0.39852 0.0165713
0.612955 0.397803 0.0159762
0.630716 0.39707 0.0154116
0.648005 0.396323 0.0148165
0.664851 0.395575 0.0142367
0.681498 0.395026 0.013901
0.697566 0.394278 0.0133211
0.713176 0.39353 0.0127565
0.72842 0.392782 0.0121614
0.74316 0.392157 0.0117342
0 0.369528 0
0 0.389395 0
0 0.403815 0.0071107
0.0282902 0.41207 0.0125582
0.0717632 0.417426 0.0161746
0.113069 0.420768 0.0183108
0.152071 0.422995 0.0197147
0.188937 0.424506 0.0206455
0.223804 0.425483 0.02121
0.25687 0.426139 0.0215915
0.288441 0.426657 0.021973
0.318227 0.42678 0.021973
0.3467 0.426688 0.0218051
0.373922 0.426474 0.021561
0.399893 0.426169 0.0212558
0.424918 0.425895 0.0210727
0.449027 0.425605 0.0208896
0.472068 0.425116 0.0204623
0.494285 0.424567 0.0200046
0.515755 0.424002 0.0195468
0.536553 0.423362 0.0189975
0.556939 0.42295 0.0187991
0.576394 0.422324 0.0182956
0.595254 0.421653 0.0177615
0.613596 0.420966 0.0172122
0.631403 0.420294 0.0166781
0.648859 0.419745 0.0163272
0.665843 0.419165 0.0159152
0.682322 0.418433 0.0153353
0.698405 0.4177 0.0147402
0.714061 0.416983 0.0142061
0.729335 0.416281 0.0136416
0.744274 0.415885 0.0134737
0 0.38883 0
0 0.40914 0
0 0.423819 0.00645457
0.0279088 0.432578 0.0123903
0.0710765 0.437888 0.0158083
0.112474 0.441398 0.0180514
0.151568 0.443809 0.0195773
0.188495 0.445472 0.0206149
0.223758 0.44683 0.0215915
0.256809 0.447562 0.0220035
0.288182 0.44799 0.0222019
0.318044 0.448203 0.0222629
0.346578 0.448218 0.0221561
0.373877 0.448112 0.0220188
0.400153 0.448127 0.0220798
0.425116 0.447822 0.0218051
0.449119 0.447471 0.0214694
0.472221 0.447044 0.0211032
0.494484 0.446571 0.0207065
0.516075 0.446128 0.0203861
0.537087 0.445731 0.0201267
0.55726 0.445136 0.0196231
0.576761 0.444541 0.0191501
0.595666 0.443931 0.0186618
0.614038 0.44332 0.0181582
0.632013 0.442802 0.0178225
0.649485 0.442283 0.0174716
0.666407 0.441642 0.0169833
0.682933 0.440955 0.0164034
0.699046 0.440253 0.0158541
0.714733 0.439597 0.0153353
0.73019 0.439094 0.0150301
0.745068 0.438636 0.014786
0 0.407477 0
0 0.428519 0
0 0.443442 0.0059968
0.0269474 0.45214 0.0116884
0.0702525 0.457649 0.015259
0.111711 0.461357 0.0176242
0.150866 0.46392 0.0192416
0.188251 0.465965 0.0206912
0.223209 0.467231 0.0214542
0.256336 0.468071 0.0219272
0.287785 0.468605 0.0222324
0.317678 0.468925 0.0223392
0.346288 0.469032 0.0223239
0.373892 0.469215 0.0225071
0.399969 0.469093 0.0223545
0.424994 0.468879 0.0221256
0.449027 0.468574 0.0218509
0.472175 0.468223 0.0215305
0.494545 0.467857 0.0212406
0.516289 0.467613 0.0211185
0.537194 0.467094 0.020676
0.557412 0.466545 0.0202182
0.576944 0.466026 0.019791
0.595895 0.465461 0.0193332
0.614542 0.465126 0.0191958
0.632425 0.464546 0.0187228
0.649851 0.463935 0.018265
0.666789 0.46334 0.0177768
0.68336 0.462684 0.017258
0.699596 0.462135 0.016846
0.715434 0.461662 0.016556
0.730785 0.461036 0.0160525
0.745632 0.460517 0.0157168
0 0.425696 0
0 0.446906 0
0 0.462074 0.00482185
0.0256657 0.471031 0.0106813
0.0690471 0.476753 0.0143893
0.110597 0.480644 0.0168765
0.15021 0.483619 0.0189212
0.187289 0.485557 0.0201419
0.222354 0.486931 0.0209812
0.255543 0.487877 0.0215457
0.287037 0.488533 0.0218967
0.317311 0.489174 0.0224002
0.345968 0.489372 0.022446
0.373342 0.489418 0.022385
0.399481 0.489357 0.0222629
0.424567 0.489204 0.0220951
0.448661 0.488975 0.0218509
0.472114 0.48893 0.021912
0.494484 0.488579 0.0215915
0.516075 0.488197 0.0212711
0.537011 0.487724 0.0208591
0.557275 0.487251 0.0204471
0.576883 0.486778 0.0200809
0.596078 0.486488 0.0199588
0.614542 0.485954 0.0195163
0.632471 0.48542 0.019089
0.649912 0.484855 0.0186465
0.666911 0.484291 0.018204
0.683558 0.483757 0.017792
0.699901 0.48333 0.0175326
0.715663 0.482734 0.0170748
0.731044 0.482139 0.0166018
0.745922 0.481651 0.0162814
0 0.443076 0
0 0.464607 0
0 0.480064 0.00344854
0.0241398 0.489296 0.00949111
0.0678721 0.495415 0.0135348
0.109636 0.49955 0.0162356
0.148959 0.502434 0.0180667
0.186114 0.504494 0.019379
0.221256 0.505989 0.0202792
0.25452 0.507057 0.0209354
0.286366 0.508003 0.021622
0.316442 0.508537 0.0219272
0.345159 0.508827 0.0220035
0.37261 0.508934 0.0220035
0.398795 0.508965 0.0219577
0.423926 0.508888 0.0218204
0.448356 0.508965 0.0219577
0.471595 0.508721 0.0217288
0.493996 0.508431 0.0214542
0.515648 0.508095 0.0211643
0.536629 0.507698 0.0207828
0.556939 0.507256 0.0204166
0.576806 0.507057 0.0203708
0.595834 0.506584 0.0199893
0.614328 0.506096 0.0195773
0.632303 0.505608 0.0191958
0.649775 0.505089 0.0187686
0.667033 0.504799 0.018677
0.683665 0.504234 0.0182193
0.699886 0.503655 0.017731
0.715679 0.503105 0.0173037
0.73109 0.502541 0.0168612
0.746044 0.502144 0.0166171
0 0.4598 0
0 0.481697 0
0 0.497444 0.00192264
0.0226596 0.507134 0.00831617
0.066392 0.51339 0.0124208
0.10811 0.517617 0.0151064
0.147524 0.520653 0.0170443
0.184787 0.52285 0.0184329
0.219989 0.524468 0.01944
0.253666 0.525872 0.0204471
0.285313 0.526711 0.0209506
0.315404 0.527306 0.0212558
0.344198 0.527657 0.0214084
0.371695 0.527855 0.0214389
0.398154 0.52813 0.0216831
0.423407 0.528176 0.0216678
0.447608 0.528069 0.0215305
0.470893 0.527901 0.0213474
0.49337 0.527657 0.0211185
0.515053 0.527382 0.0208591
0.536324 0.52723 0.0208286
0.55668 0.526864 0.0204929
0.576349 0.526467 0.0201724
0.595438 0.52604 0.0198062
0.613962 0.525597 0.0194553
0.631968 0.525139 0.0190738
0.649714 0.524895 0.0190127
0.666773 0.524407 0.018616
0.683452 0.523888 0.0181888
0.699702 0.523339 0.017731
0.715526 0.52282 0.017319
0.730983 0.522316 0.0169375
0.74612 0.522118 0.0169375
0 0.475715 0
0 0.498146 0
0 0.514443 0.000167849
0.0204929 0.524254 0.00654612
0.0641337 0.530632 0.0106355
0.105959 0.535058 0.0134585
0.14548 0.538247 0.0154726
0.183017 0.540703 0.0171206
0.218509 0.54255 0.0183719
0.251926 0.543832 0.0191348
0.283665 0.544778 0.0196689
0.313848 0.545449 0.0200504
0.342702 0.545876 0.0202487
0.370474 0.546319 0.0205692
0.396887 0.546548 0.0207065
0.422141 0.546593 0.0206607
0.446403 0.546563 0.0205692
0.469764 0.546441 0.0204166
0.492287 0.546258 0.0202182
0.514244 0.546227 0.0202792
0.535348 0.545937 0.0200198
0.555764 0.545602 0.0197147
0.575463 0.545251 0.0194247
0.594583 0.544869 0.019089
0.613169 0.544472 0.0187533
0.631449 0.544274 0.0187381
0.649012 0.543847 0.0183871
0.666117 0.543389 0.0180056
0.682826 0.542885 0.0175937
0.699107 0.542382 0.0171664
0.71519 0.542123 0.0171054
0.730663 0.541634 0.0167086
0.745647 0.541238 0.0164492
0 0.49073 0
0 0.513756 0
0 0.530282 0
0.0170443 0.540536 0.00367742
0.0607614 0.547189 0.00793469
0.10277 0.551843 0.0108797
0.14258 0.555306 0.013138
0.180285 0.557916 0.0149081
0.215732 0.559777 0.0160525
0.249287 0.561166 0.016907
0.281117 0.562203 0.0175021
0.311421 0.562966 0.0179446
0.340688 0.563714 0.0185092
0.368353 0.56405 0.0186618
0.394766 0.564294 0.0187533
0.420081 0.564401 0.0187533
0.444434 0.564416 0.018677
0.468025 0.564492 0.0187686
0.490715 0.564446 0.0187381
0.51252 0.564263 0.018555
0.533654 0.564004 0.0182956
0.554116 0.563699 0.0180056
0.573892 0.563409 0.0177462
0.593256 0.563226 0.0177005
0.611948 0.562921 0.0174716
0.63003 0.562539 0.0171511
0.647639 0.562127 0.0168002
0.664805 0.561715 0.0164645
0.681544 0.561257 0.0160678
0.698085 0.560983 0.0159762
0.714 0.560555 0.0156405
0.729519 0.560082 0.015259
0.744533 0.559716 0.0150301
0 0.504952 0
0 0.528176 0
0 0.545235 0
0.0125277 0.556054 0
0.0564126 0.563088 0.0043183
0.098909 0.5682 0.00770581
0.13875 0.57174 0.00996414
0.176425 0.57438 0.0115969
0.212024 0.576379 0.0128328
0.245731 0.577874 0.0137331
0.277836 0.57908 0.0145266
0.308476 0.580102 0.0152438
0.33756 0.580697 0.0155489
0.365332 0.581109 0.0157168
0.391852 0.581415 0.0158541
0.417273 0.581582 0.0158846
0.441855 0.581781 0.0160372
0.465507 0.581872 0.016144
0.488182 0.581796 0.016022
0.510063 0.581659 0.0158541
0.531273 0.581445 0.01561
0.551812 0.581186 0.0153506
0.571817 0.581079 0.0153506
0.591134 0.58085 0.015198
0.609827 0.580514 0.0149233
0.627985 0.580179 0.0146029
0.64564 0.579797 0.0142824
0.662852 0.579416 0.0139773
0.679881 0.579202 0.013962
0.696269 0.578759 0.0135653
0.7122 0.578332 0.0132296
0.727779 0.577905 0.0128634
0.74284 0.577554 0.012665
0 0.517937 0
0 0.541634 0
0 0.559304 0
0.00712596 0.57084 0
0.0514229 0.578485 0
0.0937667 0.583642 0.00318914
0.133806 0.587396 0.00553903
0.171679 0.590204 0.00729381
0.207507 0.59234 0.00860609
0.241474 0.594003 0.00965896
0.273899 0.595438 0.0106813
0.304463 0.596368 0.0112154
0.3337 0.597055 0.0115511
0.361608 0.597543 0.01178
0.388251 0.59791 0.0119631
0.414084 0.598367 0.0124056
0.438621 0.598505 0.0124208
0.462226 0.59855 0.0123751
0.484993 0.59852 0.0122683
0.506966 0.598428 0.0121462
0.528374 0.598337 0.0120851
0.549142 0.598276 0.0120699
0.569039 0.598047 0.0118563
0.588357 0.597772 0.0115969
0.607111 0.597498 0.0113527
0.62533 0.597162 0.0110628
0.643198 0.596963 0.0109865
0.660548 0.596704 0.0108339
0.677424 0.596307 0.0104982
0.693858 0.59588 0.0101167
0.70985 0.595483 0.00979629
0.72546 0.595071 0.00944533
0.740734 0.594934 0.00955215
0 0.530098 0
0 0.554192 0
0 0.572778 0
0.00132753 0.585153 0
0.0453346 0.592996 0
0.0878614 0.598444 0
0.128161 0.602441 0.000259403
0.166278 0.605417 0.00209049
0.202655 0.607935 0.00387579
