assets/cube/magenta_dream.cube
TITLE "Generated by Resolve"
LUT_3D_SIZE 9
0 0 0
0.0454108 0 0
0.12755 0 0
0.190448 0 0
0.240864 0 0
0.28278 0 0
0.318914 0 0
0.350683 0 0
0.380957 0 0
0 0.0442664 0.0129397
0.07393 0.0636606 0.025391
0.188251 0.061387 0.0211948
0.290105 0.0547189 0.0139773
0.380224 0.0468299 0.00613413
0.460014 0.0385138 0
0.532448 0.0306859 0
0.598291 0.023209 0
0.658625 0.0163119 0
0 0.151339 0.014725
0.0802472 0.191196 0.0225986
0.22118 0.192767 0.0168307
0.339879 0.188479 0.0106203
0.439689 0.182971 0.00508125
0.525063 0.177096 0
0.599832 0.171832 0
0.666331 0.166888 0
0.726223 0.16228 0
0 0.258091 0
0.0735637 0.302907 0.0157473
0.223606 0.307225 0.0177768
0.345037 0.30573 0.0164645
0.446067 0.302647 0.0140993
0.532433 0.298772 0.0109865
0.608423 0.295079 0.00820935
0.676188 0.291417 0.00549325
0.737118 0.287694 0.00267033
0 0.349294 0
0.0719005 0.395987 0.0160067
0.224018 0.403647 0.0209201
0.34667 0.404364 0.0211948
0.448631 0.402808 0.0198367
0.536095 0.400412 0.0179294
0.612955 0.397803 0.0159762
0.681498 0.395026 0.013901
0.74316 0.392157 0.0117342
0 0.425696 0
0.0690471 0.476753 0.0143893
0.222354 0.486931 0.0209812
0.345968 0.489372 0.022446
0.448661 0.488975 0.0218509
0.537011 0.487724 0.0208591
0.614542 0.485954 0.0195163
0.683558 0.483757 0.017792
0.745922 0.481651 0.0162814
0 0.49073 0
0.0607614 0.547189 0.00793469
0.215732 0.559777 0.0160525
0.340688 0.563714 0.0185092
0.444434 0.564416 0.018677
0.533654 0.564004 0.0182956
0.611948 0.562921 0.0174716
0.681544 0.561257 0.0160678
0.744533 0.559716 0.0150301
0 0.541436 0
0.0384527 0.606821 0
0.19678 0.62269 0
0.324178 0.628016 0.000808728
0.430198 0.629969 0.00196841
0.520974 0.63032 0.00213626
0.600458 0.629862 0.00177005
0.671077 0.628687 0.000671397
0.73492 0.627573 4.57771e-05
0 0.583032 0
0.0110323 0.657221 0
0.172976 0.677012 0
0.303487 0.68397 0
0.41181 0.686946 0
0.50428 0.687999 0
0.585077 0.688045 0
0.656779 0.687327 0
0.721538 0.686595 0
0 0 0.0597086
0.0507668 0 0.0751812
0.129168 0 0.0675669
0.188937 0 0.0577554
0.236332 0 0.0480354
0.278691 0 0.0403754
0.317601 0 0.0342107
0.353567 0 0.0290074
0.386938 0 0.024506
0 0.0516213 0.0905165
0.0852522 0.074052 0.117632
0.207691 0.0717174 0.119524
0.315679 0.0646372 0.115618
0.410071 0.0565194 0.109941
0.492958 0.048127 0.103502
0.567346 0.0403754 0.097322
0.63447 0.0331426 0.0913558
0.695048 0.0261997 0.0855268
0 0.166842 0.107164
0.0918135 0.206744 0.131594
0.238254 0.208682 0.130953
0.358999 0.204898 0.12697
0.459495 0.200046 0.122667
0.545159 0.194858 0.118242
0.620432 0.190066 0.114199
0.687541 0.185504 0.110338
0.74786 0.181018 0.106523
0 0.275425 0.101228
0.0890364 0.320043 0.129473
0.241825 0.325383 0.133257
0.364614 0.32459 0.132387
0.466392 0.321798 0.129946
0.553811 0.318654 0.127321
0.630426 0.315312 0.124559
0.698756 0.311971 0.121813
0.760189 0.308553 0.11899
0 0.366629 0.0948501
0.0889906 0.414755 0.128817
0.243198 0.423163 0.134874
0.367102 0.424491 0.135668
0.469886 0.423316 0.134508
0.558206 0.421439 0.132921
0.63563 0.419135 0.131029
0.704646 0.416587 0.128923
0.766827 0.414054 0.126864
0 0.444144 0.0901045
0.0869764 0.496742 0.126757
0.242313 0.507576 0.134539
0.367117 0.510536 0.136553
0.470741 0.510628 0.136385
0.559762 0.509728 0.135576
0.637842 0.508247 0.134356
0.707362 0.506279 0.132662
0.770153 0.504448 0.131243
0 0.510918 0.0810407
0.0798657 0.568872 0.120836
0.236942 0.582025 0.130266
0.362966 0.586358 0.133211
0.467781 0.587625 0.133974
0.557702 0.587549 0.133806
0.636484 0.586694 0.133059
0.706691 0.585367 0.131884
0.770062 0.584024 0.130861
0 0.56495 0.0602884
0.0600443 0.63209 0.105089
0.220966 0.648508 0.116716
0.349798 0.654398 0.120699
0.456825 0.656779 0.122332
0.548363 0.657481 0.122744
0.628336 0.65716 0.122316
0.699687 0.656443 0.121691
0.763973 0.655512 0.121035
0 0.61059 0.0362707
0.0360723 0.687465 0.085893
0.201251 0.707683 0.100008
0.333486 0.715251 0.105135
0.442954 0.718669 0.107485
0.536309 0.720104 0.108431
0.617685 0.720333 0.108385
0.690227 0.720104 0.108156
0.755474 0.71957 0.107805
0 0 0.12343
0.0500801 0 0.135546
0.125917 0 0.125658
0.183276 0 0.113725
0.232212 0 0.104372
0.276829 0 0.0975357
0.317464 0 0.0919814
0.354971 0 0.0872663
0.389685 0 0.0831464
0 0.0536507 0.161166
0.088365 0.0768444 0.201892
0.214054 0.0742504 0.210025
0.324254 0.0669566 0.209674
0.419883 0.0586404 0.206195
0.503792 0.0504311 0.20145
0.578637 0.0428321 0.19646
0.645945 0.0357366 0.191379
0.706569 0.0290074 0.186236
0 0.17171 0.197681
0.09514 0.211322 0.23357
0.243244 0.213428 0.235615
0.364446 0.21004 0.232609
0.464851 0.205341 0.228473
0.551003 0.200671 0.224353
0.62652 0.196124 0.22034
0.693751 0.191608 0.216373
0.75436 0.187457 0.212726
0 0.280598 0.200839
0.0945907 0.325475 0.234394
0.247959 0.331365 0.23888
0.371115 0.330968 0.238331
0.473198 0.328481 0.236118
0.560861 0.325582 0.233585
0.63769 0.322454 0.2309
0.706065 0.31902 0.22797
0.767819 0.316014 0.225391
0 0.371923 0.196445
0.0954147 0.421118 0.233494
0.250187 0.429984 0.240253
0.374411 0.431647 0.241382
0.477485 0.430762 0.240482
0.566018 0.429099 0.239017
0.643656 0.426978 0.237201
0.712764 0.424475 0.23505
0.775189 0.422202 0.233143
0 0.450507 0.191775
0.0940719 0.503853 0.231342
0.249943 0.515068 0.239841
0.374868 0.518166 0.242023
0.47895 0.5187 0.242298
0.5682 0.517998 0.241627
0.646479 0.516686 0.240497
0.716167 0.51487 0.238926
0.77911 0.513176 0.237507
0 0.518257 0.183185
0.087602 0.576699 0.225879
0.245228 0.590219 0.236057
0.371496 0.594781 0.239353
0.476661 0.596353 0.240436
0.566796 0.59646 0.240421
0.645716 0.595743 0.239734
0.716136 0.594598 0.238727
0.77966 0.593378 0.237736
0 0.57322 0.163607
0.0686656 0.641016 0.21207
0.230152 0.65774 0.224506
0.359442 0.663966 0.229023
0.466758 0.66659 0.230915
0.558526 0.667475 0.231525
0.638666 0.667308 0.23122
0.710231 0.666758 0.230716
0.774655 0.665965 0.230106
0 0.619898 0.140826
0.0456245 0.697704 0.195193
0.211414 0.718105 0.210163
0.34432 0.726116 0.216037
0.454108 0.729763 0.218692
0.547646 0.73135 0.21976
0.629328 0.731823 0.219989
0.702068 0.731746 0.219867
0.767468 0.731319 0.219547
0 0 0.174945
0.0483864 0 0.18439
0.122057 0 0.172717
0.178927 0 0.160296
0.229877 0 0.15227
0.275746 0 0.146227
0.317571 0 0.14136
0.356176 0 0.137255
0.391775 0 0.133577
0 0.0545815 0.221317
0.0896773 0.0779431 0.273671
0.217365 0.0751812 0.286992
0.328817 0.0677501 0.289357
0.424918 0.0592813 0.287404
0.509453 0.0513008 0.284001
0.584451 0.0438239 0.279835
0.651698 0.03682 0.275288
0.712337 0.0303044 0.270665
0 0.174075 0.274846
0.0967422 0.213504 0.318425
0.245686 0.215793 0.32195
0.36701 0.212711 0.319341
0.467536 0.208255 0.315343
0.553841 0.203815 0.31133
0.62948 0.19942 0.307362
0.696788 0.19498 0.303395
0.757534 0.191012 0.299809
0 0.283253 0.284276
0.097734 0.328313 0.320455
0.251316 0.334569 0.325399
0.374502 0.334325 0.325002
0.476829 0.332174 0.323049
0.564614 0.329442 0.320607
0.64155 0.326452 0.317983
0.710033 0.323171 0.315114
0.771878 0.320256 0.312551
0 0.375021 0.280735
0.0992294 0.424598 0.319402
0.254185 0.433768 0.326619
0.378332 0.435492 0.32784
0.481758 0.434989 0.327276
0.570397 0.433463 0.325902
0.648035 0.431357 0.324056
0.717327 0.429099 0.322087
0.779828 0.426902 0.320195
0 0.454231 0.276051
0.0983902 0.50782 0.317174
0.254459 0.519326 0.326162
0.379507 0.522652 0.328634
0.483711 0.523354 0.329061
0.573068 0.522789 0.328496
0.65127 0.521416 0.32726
0.721202 0.519905 0.325948
0.784222 0.518288 0.324575
0 0.522515 0.267781
0.0923629 0.58114 0.312123
0.250187 0.594903 0.322789
0.376593 0.59968 0.326375
0.481865 0.601404 0.327626
0.572091 0.601663 0.327733
0.651041 0.600977 0.327047
0.72163 0.600015 0.326207
0.785214 0.598886 0.325246
0 0.57792 0.249302
0.0739147 0.646021 0.299809
0.235431 0.662852 0.312657
0.365087 0.669398 0.317647
0.472526 0.67219 0.319722
0.56437 0.673198 0.320439
0.644648 0.673167 0.320272
0.716304 0.672724 0.31986
0.780789 0.672007 0.319249
0 0.625055 0.227863
0.0513771 0.703319 0.28481
0.217426 0.723918 0.300389
0.350561 0.732143 0.306645
0.460472 0.735973 0.309514
0.554101 0.737667 0.310704
0.63592 0.738277 0.311086
0.708751 0.738308 0.31104
0.774197 0.737926 0.310719
0 0 0.21828
0.046479 0 0.225528
0.118105 0 0.212238
0.17615 0 0.200946
0.22829 0 0.193942
0.27512 0 0.188708
0.317861 0 0.184527
0.357 0 0.180819
0.393698 0 0.177844
0 0.0547494 0.273518
0.0903029 0.0784314 0.336507
0.219303 0.0754406 0.353964
0.331594 0.0679179 0.358557
0.428138 0.0594644 0.357885
0.512871 0.0515908 0.355337
0.58793 0.0442359 0.351736
0.654856 0.0371099 0.347417
0.715679 0.0309911 0.343282
0 0.175189 0.342046
0.0975967 0.214664 0.391272
0.247028 0.217151 0.395636
0.368414 0.214282 0.393149
0.469062 0.210056 0.389303
0.555459 0.205768 0.385367
0.631174 0.201511 0.38146
0.698528 0.197101 0.377508
0.75938 0.193286 0.373953
0 0.284779 0.356146
0.0997482 0.330037 0.393835
0.253452 0.336568 0.39913
0.376593 0.336416 0.398871
0.479118 0.334539 0.397116
0.566979 0.331945 0.394766
0.643915 0.328984 0.392126
0.71252 0.325872 0.389395
0.774426 0.323033 0.386847
0 0.376944 0.352926
0.101793 0.426795 0.392737
0.256825 0.43621 0.400305
0.381064 0.438117 0.40174
0.48455 0.437766 0.401297
0.573266 0.436377 0.400015
0.650904 0.434318 0.398215
0.720302 0.432197 0.396338
0.782864 0.430076 0.394476
0 0.456657 0.348302
0.10135 0.510414 0.390539
0.257343 0.522011 0.399771
0.38262 0.525612 0.402564
0.4869 0.526452 0.403113
0.576318 0.526009 0.402655
0.654582 0.524742 0.401495
0.724559 0.523293 0.400229
0.787625 0.521752 0.398886
0 0.525307 0.340307
0.0956741 0.58407 0.385779
0.253315 0.597864 0.396658
0.380056 0.60296 0.400626
0.485405 0.604822 0.402029
0.575555 0.605051 0.40209
0.654704 0.604593 0.401617
0.725322 0.603708 0.400839
0.788968 0.602625 0.399893
0 0.581048 0.322698
0.0775921 0.649332 0.374594
0.239231 0.666331 0.387869
0.368948 0.673045 0.393072
0.476448 0.675959 0.3953
0.568185 0.676951 0.395972
0.648676 0.677134 0.396048
0.720394 0.676768 0.395682
0.784939 0.676112 0.395117
0 0.628428 0.302251
0.055375 0.707012 0.360952
0.221592 0.727764 0.37702
0.354803 0.736156 0.383505
0.46479 0.740108 0.386542
0.558404 0.741848 0.387793
0.64036 0.742611 0.388327
0.713252 0.742718 0.388357
0.778653 0.742321 0.387961
0 0 0.256062
0.04448 0 0.261707
0.114626 0 0.247272
0.174105 0 0.237583
0.227039 0 0.231449
0.274647 0 0.226963
0.318074 0 0.223423
0.357809 0 0.220203
0.395148 0 0.217777
0 0.0547036 0.320836
0.0903029 0.0783551 0.393057
0.220295 0.0751812 0.414084
0.33283 0.0673838 0.420172
0.43003 0.0592203 0.420829
0.514885 0.0514229 0.418921
0.58996 0.0441596 0.415763
0.65684 0.0371557 0.411734
0.717571 0.0311589 0.407828
0 0.175784 0.402609
0.0978561 0.215122 0.45597
0.247684 0.217807 0.460838
0.368933 0.214939 0.45832
0.469871 0.211093 0.454704
0.556344 0.206912 0.450828
0.631937 0.202472 0.446815
0.699535 0.198459 0.443061
0.760449 0.194705 0.439536
0 0.285542 0.420096
0.100969 0.330999 0.458793
0.254749 0.337774 0.464408
0.377966 0.337819 0.464317
0.480552 0.33608 0.462684
0.568475 0.333577 0.460395
0.64538 0.330571 0.457725
0.714137 0.327688 0.455131
0.776089 0.32491 0.452598
0 0.378073 0.416968
0.103471 0.428183 0.457725
0.258503 0.437751 0.465553
0.382879 0.439872 0.467201
0.486412 0.439643 0.46688
0.575189 0.438346 0.46566
0.652888 0.436362 0.46392
0.722347 0.434318 0.462089
0.784955 0.432273 0.460243
0 0.458152 0.412421
0.103365 0.512123 0.455573
0.259327 0.523842 0.465064
0.384771 0.527672 0.468086
0.489097 0.528618 0.468757
0.578485 0.528176 0.468284
0.656886 0.527077 0.467277
0.726925 0.525704 0.466056
0.790021 0.524193 0.464698
0 0.527123 0.404654
0.0979019 0.586023 0.451057
0.25568 0.600031 0.462287
0.382498 0.605264 0.466423
0.487907 0.607233 0.467933
0.578058 0.607538 0.468071
0.657298 0.607172 0.467689
0.727977 0.606363 0.466941
0.791577 0.605234 0.46595
0 0.583124 0.387717
0.079881 0.651469 0.44062
0.241886 0.668772 0.454368
0.371679 0.675608 0.45977
0.479225 0.67863 0.462119
0.571038 0.679728 0.462898
0.651576 0.679988 0.46302
0.723339 0.679683 0.462715
0.787793 0.67895 0.462043
0 0.630701 0.368048
0.0578317 0.709392 0.427955
0.224521 0.730495 0.444602
0.357809 0.73901 0.451301
0.467689 0.742947 0.454337
0.561547 0.744915 0.455833
0.643549 0.745739 0.456443
0.716487 0.745907 0.456504
0.781933 0.745571 0.456168
0 0 0.290608
0.0425422 0 0.295216
0.112139 0 0.280339
0.172396 0 0.271748
0.225834 0 0.266331
0.273899 0 0.262455
0.317693 0 0.259388
0.35787 0 0.256687
0.395636 0 0.254719
0 0.0540322 0.364431
0.0895247 0.0775311 0.445304
0.220233 0.0742504 0.469642
0.333165 0.0663615 0.477287
0.43064 0.0582742 0.478904
0.515602 0.0505531 0.477577
0.590402 0.0431373 0.474571
0.657511 0.0364385 0.470985
0.718166 0.0305638 0.467231
0 0.175448 0.458579
0.0973678 0.214817 0.515648
0.247425 0.217594 0.520806
0.368917 0.215015 0.518425
0.469978 0.211292 0.5149
0.556527 0.207233 0.511086
0.632212 0.202884 0.507118
0.69987 0.198901 0.503395
0.760845 0.195239 0.49987
0 0.285374 0.479011
0.101259 0.331212 0.518639
0.254917 0.338018 0.524437
0.378546 0.338415 0.524636
0.481239 0.336797 0.523079
0.569253 0.334401 0.520851
0.646235 0.331456 0.518242
0.715053 0.328634 0.515663
0.777066 0.325933 0.513161
0 0.378241 0.475898
0.104158 0.428794 0.517617
0.259159 0.438453 0.525673
0.383856 0.440864 0.527565
0.487495 0.440742 0.527337
0.576181 0.439338 0.52607
0.654124 0.437613 0.524483
0.723659 0.43563 0.522713
0.786313 0.433646 0.520882
0 0.458671 0.471427
0.104356 0.513054 0.515526
0.260471 0.524987 0.525338
0.386053 0.528939 0.528511
0.490486 0.529992 0.529274
0.579858 0.529549 0.528832
0.658427 0.528603 0.527932
0.728511 0.527291 0.526757
0.791638 0.525795 0.525399
0 0.527916 0.463859
0.0990311 0.587167 0.511208
0.257084 0.601419 0.522805
0.384024 0.60679 0.527108
0.489509 0.60885 0.528695
0.579767 0.609232 0.528939
0.659083 0.608942 0.528618
0.729809 0.608194 0.527901
0.793423 0.607065 0.526909
0 0.584146 0.447456
0.081239 0.652857 0.501457
0.243503 0.67042 0.515602
0.373434 0.677394 0.521172
0.480964 0.68043 0.523568
0.572992 0.681682 0.524498
0.653605 0.682002 0.524697
0.725383 0.681727 0.524392
0.789944 0.681071 0.523796
0 0.6318 0.428367
0.0594797 0.71104 0.489662
0.226368 0.732357 0.506691
0.359808 0.741009 0.513573
0.469764 0.745052 0.516747
0.563729 0.747097 0.518334
0.645808 0.748012 0.519005
0.7187 0.748119 0.519036
0.784329 0.747936 0.518822
0 0 0.324483
0.0408331 0 0.329549
0.110689 0 0.314641
0.170809 0 0.305974
0.22414 0 0.30074
0.272114 0 0.297108
0.315602 0 0.294118
0.355901 0 0.291875
0.393576 0 0.290227
0 0.0518654 0.405768
0.0870222 0.0751507 0.495735
0.218067 0.0717327 0.523674
0.331411 0.0638285 0.533181
0.429068 0.0557259 0.535821
0.514138 0.0480049 0.535119
0.588922 0.0405432 0.532464
0.656138 0.0339971 0.529198
0.716793 0.0281682 0.525612
0 0.173236 0.513069
0.0951705 0.212955 0.574716
0.24567 0.21593 0.580301
0.367559 0.213581 0.578058
0.468833 0.209964 0.574594
0.555489 0.205875 0.570764
0.631388 0.201678 0.566873
0.699153 0.197772 0.563165
0.76022 0.194125 0.559655
0 0.283375 0.537057
0.099733 0.330022 0.577996
0.253834 0.337133 0.584161
0.377798 0.337713 0.584512
0.480735 0.336187 0.583047
0.56875 0.333654 0.580774
0.646052 0.330983 0.578302
0.714977 0.328222 0.575753
0.77702 0.325444 0.57319
0 0.376577 0.533944
0.102785 0.427985 0.576959
0.258457 0.438102 0.585489
0.38349 0.440665 0.587549
0.487388 0.44065 0.587396
0.576257 0.439323 0.586206
0.654337 0.437659 0.58468
0.723995 0.435737 0.582925
0.786618 0.433585 0.581003
0 0.457359 0.529503
0.10309 0.512551 0.574884
0.26006 0.525002 0.585214
0.385962 0.529137 0.588571
0.490654 0.530297 0.589441
0.580224 0.529931 0.589075
0.658946 0.529046 0.588235
0.729152 0.527779 0.587076
0.792294 0.526223 0.585687
0 0.526879 0.522087
0.098146 0.587076 0.570809
0.256886 0.60177 0.582895
0.384176 0.607309 0.587396
0.489738 0.609339 0.589014
0.580377 0.609934 0.589426
0.659831 0.60972 0.589151
0.730694 0.609003 0.588479
0.794415 0.607935 0.587518
0 0.583337 0.506157
0.0806897 0.653101 0.5617
0.243488 0.671046 0.576318
0.373785 0.678187 0.582101
0.481514 0.681285 0.584573
0.573816 0.682689 0.585641
0.654597 0.68307 0.585885
0.726467 0.682811 0.585611
0.79115 0.682246 0.585077
0 0.631159 0.487572
0.0590677 0.711482 0.550561
0.226505 0.733227 0.568139
0.360281 0.742046 0.575235
0.470573 0.746227 0.578576
0.564736 0.748363 0.580255
0.646998 0.74934 0.580987
0.719997 0.749477 0.581048
0.785748 0.749386 0.580911
0 0 0.355703
0.0393988 0 0.361929
0.110201 0 0.347646
0.169528 0 0.337835
0.222461 0 0.332433
0.270069 0 0.328817
0.313237 0 0.325887
0.353231 0 0.323796
0.39057 0 0.322301
0 0.0491646 0.442786
0.0838636 0.0721447 0.541558
0.214786 0.0684062 0.572747
0.328679 0.0606851 0.584436
0.42652 0.0525368 0.588113
0.511696 0.0448157 0.588052
0.586557 0.0373693 0.585794
0.653819 0.0308232 0.582803
0.714488 0.0250248 0.5794
0 0.170321 0.562921
0.0923018 0.210422 0.629343
0.243244 0.213596 0.635386
0.365591 0.211475 0.63328
0.467124 0.207935 0.629877
0.553872 0.203723 0.626001
0.63003 0.199756 0.622202
0.697932 0.19588 0.618494
0.759075 0.192233 0.614954
0 0.280613 0.590646
0.097322 0.32813 0.632959
0.252033 0.335637 0.639536
0.376394 0.33637 0.64004
0.479622 0.334936 0.638636
0.567834 0.332448 0.636408
0.645319 0.329854 0.633982
0.714382 0.327138 0.631449
0.776501 0.324346 0.62887
0 0.374151 0.587579
0.10071 0.426642 0.632013
0.257023 0.43714 0.640955
0.382467 0.439872 0.643168
0.486564 0.439857 0.643076
0.575738 0.438697 0.641993
0.654002 0.437079 0.640497
0.723781 0.435203 0.638758
0.786526 0.433097 0.636881
0 0.455192 0.583124
0.101335 0.511635 0.63003
0.258854 0.524453 0.640772
0.385199 0.52874 0.644297
0.489998 0.529824 0.645167
0.57998 0.529702 0.644968
0.658869 0.528878 0.644175
0.729137 0.52755 0.642985
0.792493 0.526146 0.641688
0 0.524727 0.575647
0.0965591 0.586465 0.626123
0.255879 0.601541 0.638636
0.383612 0.607233 0.64332
0.489479 0.609369 0.645045
0.580346 0.610056 0.645533
0.659983 0.609888 0.645304
0.730846 0.609064 0.644587
0.794827 0.608179 0.643748
0 0.581384 0.560052
0.0792401 0.652705 0.617456
0.242618 0.671061 0.632547
0.373373 0.678401 0.63856
0.481437 0.681605 0.641154
0.573968 0.683085 0.642298
0.654932 0.683528 0.642603
0.726879 0.683238 0.642313
0.791775 0.682795 0.641871
0 0.629572 0.542062
0.0577401 0.711269 0.606851
0.225757 0.733486 0.624994
0.359823 0.742397 0.632242
0.470634 0.746807 0.635798
0.565057 0.74902 0.637568
0.647501 0.750057 0.638346
0.720653 0.750256 0.638468
0.786282 0.74995 0.638163
