assets/cube/magenta_dream.cube
TITLE "Generated by Resolve"
LUT_3D_SIZE 5
0 0 0
0.12755 0 0
0.240864 0 0
0.318914 0 0
0.380957 0 0
0 0.151339 0.014725
0.22118 0.192767 0.0168307
0.439689 0.182971 0.00508125
0.599832 0.171832 0
0.726223 0.16228 0
0 0.349294 0
0.224018 0.403647 0.0209201
0.448631 0.402808 0.0198367
0.612955 0.397803 0.0159762
0.74316 0.392157 0.0117342
0 0.49073 0
0.215732 0.559777 0.0160525
0.444434 0.564416 0.018677
0.611948 0.562921 0.0174716
0.744533 0.559716 0.0150301
0 0.583032 0
0.172976 0.677012 0
0.41181 0.686946 0
0.585077 0.688045 0
0.721538 0.686595 0
0 0 0.12343
0.125917 0 0.125658
0.232212 0 0.104372
0.317464 0 0.0919814
0.389685 0 0.0831464
0 0.17171 0.197681
0.243244 0.213428 0.235615
0.464851 0.205341 0.228473
0.62652 0.196124 0.22034
0.75436 0.187457 0.212726
0 0.371923 0.196445
0.250187 0.429984 0.240253
0.477485 0.430762 0.240482
0.643656 0.426978 0.237201
0.775189 0.422202 0.233143
0 0.518257 0.183185
0.245228 0.590219 0.236057
0.476661 0.596353 0.240436
0.645716 0.595743 0.239734
0.77966 0.593378 0.237736
0 0.619898 0.140826
0.211414 0.718105 0.210163
0.454108 0.729763 0.218692
0.629328 0.731823 0.219989
0.767468 0.731319 0.219547
0 0 0.21828
0.118105 0 0.212238
0.22829 0 0.193942
0.317861 0 0.184527
0.393698 0 0.177844
0 0.175189 0.342046
0.247028 0.217151 0.395636
0.469062 0.210056 0.389303
0.631174 0.201511 0.38146
0.75938 0.193286 0.373953
0 0.376944 0.352926
0.256825 0.43621 0.400305
0.48455 0.437766 0.401297
0.650904 0.434318 0.398215
0.782864 0.430076 0.394476
0 0.525307 0.340307
0.253315 0.597864 0.396658
0.485405 0.604822 0.402029
0.654704 0.604593 0.401617
0.788968 0.602625 0.399893
0 0.628428 0.302251
0.221592 0.727764 0.37702
0.46479 0.740108 0.386542
0.64036 0.742611 0.388327
0.778653 0.742321 0.387961
0 0 0.290608
0.112139 0 0.280339
0.225834 0 0.266331
0.317693 0 0.259388
0.395636 0 0.254719
0 0.175448 0.458579
0.247425 0.217594 0.520806
0.469978 0.211292 0.5149
0.632212 0.202884 0.507118
0.760845 0.195239 0.49987
0 0.378241 0.475898
0.259159 0.438453 0.525673
0.487495 0.440742 0.527337
0.654124 0.437613 0.524483
0.786313 0.433646 0.520882
0 0.527916 0.463859
0.257084 0.601419 0.522805
0.489509 0.60885 0.528695
0.659083 0.608942 0.528618
0.793423 0.607065 0.526909
0 0.6318 0.428367
0.226368 0.732357 0.506691
0.469764 0.745052 0.516747
0.645808 0.748012 0.519005
0.784329 0.747936 0.518822
0 0 0.355703
0.110201 0 0.347646
0.222461 0 0.332433
0.313237 0 0.325887
0.39057 0 0.322301
0 0.170321 0.562921
0.243244 0.213596 0.635386
0.467124 0.207935 0.629877
0.63003 0.199756 0.622202
0.759075 0.192233 0.614954
0 0.374151 0.587579
0.257023 0.43714 0.640955
0.486564 0.439857 0.643076
0.654002 0.437079 0.640497
0.786526 0.433097 0.636881
0 0.524727 0.575647
0.255879 0.601541 0.638636
0.489479 0.609369 0.645045
0.659983 0.609888 0.645304
0.794827 0.608179 0.643748
0 0.629572 0.542062
0.225757 0.733486 0.624994
0.470634 0.746807 0.635798
0.647501 0.750057 0.638346
0.786282 0.74995 0.638163
