assets/cube/magenta_day.cube
TITLE "Generated by Resolve"
LUT_3D_SIZE 5
0 0 0
0.0617838 0 0
0.178332 0 0
0.320668 0 0
0.479194 0 0
0.00733959 0.0817884 0.0118105
0.111879 0.101213 0.0312505
0.251911 0.116304 0.0462959
0.409674 0.130541 0.0605631
0.580514 0.145113 0.0750896
0.0582132 0.257969 0.0616159
0.175204 0.288289 0.0919203
0.325643 0.312764 0.116396
0.492699 0.335622 0.139239
0.671534 0.357733 0.161349
0.11603 0.475975 0.119234
0.241001 0.513985 0.157137
0.398459 0.545251 0.188464
0.572229 0.574701 0.217838
0.757198 0.602838 0.245975
0.170031 0.727398 0.175296
0.29865 0.772076 0.219821
0.460105 0.809354 0.257176
0.638132 0.844358 0.292119
0.827405 0.877806 0.325536
0 0 0.0403601
0.0630655 0 0.0390326
0.18497 0 0.0369573
0.329625 0 0.0387121
0.489616 0 0.0429236
0.0162814 0.0909285 0.0766308
0.122438 0.111772 0.0974746
0.263584 0.12784 0.113542
0.422675 0.143267 0.128969
0.594278 0.158587 0.144274
0.0706951 0.270878 0.131823
0.188937 0.302251 0.163149
0.340185 0.327367 0.188296
0.508156 0.351049 0.211948
0.687739 0.373831 0.234714
0.131151 0.491737 0.192477
0.257038 0.530404 0.231083
0.415229 0.562264 0.262959
0.589502 0.592111 0.292805
0.775235 0.620951 0.321599
0.187396 0.74551 0.247333
0.316533 0.790417 0.292226
0.478813 0.828443 0.330205
0.657145 0.86363 0.365438
0.847211 0.897826 0.399527
0 0 0.143099
0.0643626 0 0.141344
0.189517 0 0.142412
0.3364 0 0.146258
0.497841 0 0.151873
0.0228428 0.0976577 0.186023
0.130663 0.119997 0.208392
0.273045 0.137148 0.225544
0.433219 0.153582 0.241978
0.605753 0.169741 0.258137
0.0809491 0.28159 0.246494
0.200214 0.313741 0.27863
0.352361 0.33962 0.304509
0.520867 0.363745 0.328649
0.701396 0.387396 0.352285
0.143832 0.505043 0.309895
0.270329 0.544015 0.348867
0.42948 0.57673 0.381552
0.604257 0.606989 0.411826
0.790707 0.6365 0.441291
0.202243 0.761044 0.363836
0.331975 0.806363 0.409171
0.494942 0.844938 0.4477
0.673838 0.880598 0.483375
0.864103 0.914885 0.517662
0 0 0.27718
0.0648814 0 0.278843
0.192691 0 0.282506
0.341268 0 0.28806
0.504143 0.0012665 0.295079
0.0280766 0.102953 0.329503
0.137133 0.126467 0.353033
0.28072 0.144778 0.371359
0.441596 0.161913 0.388479
0.615259 0.179156 0.405753
0.0896773 0.290455 0.394583
0.209613 0.323171 0.427298
0.362753 0.350027 0.454154
0.531945 0.374823 0.47895
0.713161 0.399145 0.503273
0.155016 0.516411 0.46067
0.2822 0.555993 0.500252
0.441962 0.589288 0.533532
0.617334 0.620111 0.56437
0.804044 0.649836 0.594079
0.215442 0.774426 0.514412
0.34583 0.820371 0.560342
0.509041 0.859098 0.599084
0.688701 0.895552 0.635523
0.879454 0.930297 0.670268
0 0 0.460868
0.0627451 0 0.467552
0.192691 0 0.473671
0.342535 0 0.480644
0.506767 0.00495918 0.489189
0.0309606 0.105455 0.52398
0.140795 0.130129 0.548669
0.285298 0.149645 0.568215
0.446952 0.167742 0.586282
0.621271 0.185779 0.604379
0.0963149 0.296208 0.593774
0.216678 0.329824 0.62739
0.370214 0.357351 0.654917
0.540063 0.382971 0.680537
0.721523 0.407675 0.705242
0.164172 0.5243 0.662486
0.291722 0.564813 0.703014
0.451606 0.598459 0.73666
0.627634 0.630152 0.768353
0.814755 0.660426 0.798627
0.226734 0.784314 0.716487
0.357504 0.831067 0.763226
0.520989 0.870344 0.802502
0.700954 0.907271 0.839429
0.891463 0.941848 0.874052
