assets/cube/moonlight_01.cube
TITLE "Generated by Resolve"
LUT_3D_SIZE 33
0 0.00196841 0
0 0.0019379 0
0 0.00189212 0
0 0.00177005 0
0 0.00158694 0
0.000167849 0.00131228 0
0.00157168 0.000946059 0
0.00482185 0.000503548 0
0.00898756 0.000106813 0
0.013962 0 0
0.0197757 0 0
0.0264591 0 0
0.0340887 0 0
0.04271 0 0
0.052369 0 0
0.0631266 0 0
0.0750439 0 0
0.0880293 0 0
0.102144 0 0
0.117479 0 0
0.134081 0 0
0.151858 0 0
0.170916 0 0
0.191424 0 0
0.213214 0 0
0.236301 0 0
0.260822 0 0
0.286778 0 0
0.314046 0 0
0.342916 0 0
0.373159 0 0
0.40502 0 0
0.438361 0 0
0 0.00277714 0
0 0.00282292 0
0 0.00280766 0
0 0.00267033 0
0 0.0024567 0
0.00015259 0.00207523 0
0.0019379 0.00157168 0
0.0053254 0.000976577 0
0.00968948 0.000350958 0
0.0150301 7.62951e-05 0
0.0211185 0 0
0.0280919 0 0
0.035996 0 0
0.0449073 0 0
0.054902 0 0
0.065919 0 0
0.0781109 0 0
0.0914168 0 0
0.105882 0 0
0.121599 0 0
0.138598 0 0
0.156802 0 0
0.176303 0 0
0.197131 0 0
0.219272 0 0
0.242863 0 0
0.267735 0 0
0.294057 0 0
0.321904 0 0
0.351202 0 0
0.382055 0 0
0.414389 0 0
0.448142 0 0
0 0.00396735 0
0 0.0041352 0
0 0.00425727 0
0 0.00428778 0
0 0.00422675 0
4.57771e-05 0.00402838 0
0.0015259 0.00370794 0
0.00454719 0.00326543 0
0.00915541 0.00274662 0
0.014725 0.00227359 0
0.0212253 0.00173953 0
0.0285649 0.00122072 0
0.0368658 0.000701915 0
0.046128 0.000244144 0
0.0563973 0 0
0.0677653 0 0
0.0801862 0 0
0.0937362 0 0
0.108446 0 0
0.124376 0 0
0.141527 0 0
0.160021 0 0
0.179828 0 0
0.200992 0 0
0.223453 0 0
0.247318 0 0
0.272557 0 0
0.299229 0 0
0.327474 0 0
0.357153 0 0
0.388312 0 0
0.420966 0 0
0.455146 0 0
0 0.00595102 0
0 0.00630198 0
0 0.00662242 0
0 0.00682078 0
0 0.00691234 0
0 0.00686656 0
0.0009308 0.00669871 0
0.00352483 0.00639353 0
0.00839246 0.00593576 0
0.0142214 0.0053254 0
0.0209659 0.00451667 0
0.0286717 0.00354009 0
0.0372778 0.00238041 0
0.0469062 0.00109865 0
0.057557 0.000137331 0
0.069337 0 0
0.0821698 0 0
0.0961471 0 0
0.111284 0 0
0.127565 0 0
0.145129 0 0
0.163867 0 0
0.183871 0 0
0.205173 0 0
0.227787 0 0
0.251698 0 0
0.277089 0 0
0.303761 0 0
0.331884 0 0
0.361913 0 0
0.393332 0 0
0.426246 0 0
0.460975 0 0
0 0.00857557 0
0 0.00903334 0
0 0.00956741 0
0 0.0099794 0
0 0.0102846 0
0 0.0104219 0
0.000274662 0.0104677 0
0.00236515 0.0103304 0
0.00746166 0.010071 0
0.0135195 0.00968948 0
0.0205539 0.0091249 0
0.0285191 0.00839246 0
0.0375067 0.00747692 0
0.0474403 0.00639353 0
0.0584726 0.00527962 0
0.0705882 0.00421149 0
0.0838331 0.00314336 0
0.0981918 0.00210575 0
0.113771 0.00111391 0
0.130526 0.000289921 0
0.148516 0 0
0.167758 0 0
0.188205 0 0
0.21004 0 0
0.233143 0 0
0.257633 0 0
0.283558 0 0
0.310826 0 0
0.339483 0 0
0.369619 0 0
0.401068 0 0
0.434211 0 0
0.468757 0 0
0 0.0123903 0
0 0.0130007 0
0 0.0137026 0
0 0.0143282 0
0 0.014847 0
0 0.0152132 0
7.62951e-05 0.0154574 0
0.00175479 0.0155947 0
0.00640879 0.0155795 0
0.0126955 0.0153964 0
0.0200046 0.0149996 0
0.028275 0.0144808 0
0.0375525 0.0137789 0
0.047837 0.0128634 0
0.0592203 0.0117647 0
0.0717327 0.0104677 0
0.0853285 0.0089723 0
0.100069 0.00723278 0
0.116075 0.00527962 0
0.133242 0.00326543 0
0.151644 0.00192264 0
0.171298 0.00108339 0
0.192248 0.000457771 0
0.214542 3.0518e-05 0
0.238193 0 0
0.263264 0 0
0.289677 0 0
0.317449 0 0
0.346716 0 0
0.377279 0 0
0.409445 0 0
0.443076 0 0
0.478325 0 0
0 0.0170443 0
0 0.0178073 0
0 0.0187686 0
0 0.0196536 0
0 0.0204013 0
0 0.0210117 0
0 0.0215 0
0.00129702 0.0218509 0
0.00526436 0.0220645 0
0.0117952 0.0220951 0
0.0193637 0.0219425 0
0.027924 0.0216373 0
0.0374914 0.0211795 0
0.0481117 0.0204929 0
0.0598306 0.0196078 0
0.0726635 0.018555 0
0.086656 0.0172427 0
0.101808 0.0157473 0
0.118151 0.0140536 0
0.13576 0.0120699 0
0.154574 0.00993362 0
0.174716 0.00762951 0
0.196094 0.00544747 0
0.21886 0.00331121 0
0.243 0.00131228 0
0.268559 0 0
0.295445 0 0
0.323812 0 0
0.353475 0 0
0.384665 0 0
0.417487 0 0
0.451652 0 0
0.487434 0 0
0 0.0226291 0
0 0.0235599 0
0 0.0247807 0
0 0.0259251 0
0 0.0269474 0
0 0.0278325 0
0 0.0285954 0
0.000885023 0.0291752 0
0.00404364 0.0296483 0
0.0108034 0.0299077 0
0.0186465 0.030045 0
0.0274815 0.0299992 0
0.0373541 0.0297398 0
0.0482948 0.0293278 0
0.0603647 0.0286717 0
0.073518 0.0278477 0
0.0878767 0.0267948 0
0.10338 0.0255894 0
0.12015 0.0241093 0
0.138079 0.0224765 0
0.157336 0.0205844 0
0.177905 0.0185092 0
0.19971 0.0161593 0
0.222995 0.0135805 0
0.247669 0.0107271 0
0.273671 0.00798047 0
0.301045 0.00588998 0
0.329809 0.00401312 0
0.360067 0.00231937 0
0.391852 0.0009308 0
0.425193 6.10361e-05 0
0.459907 0 0
0.496223 0 0
0 0.0295109 0
0 0.030457 0
0 0.0319066 0
0 0.0333104 0
0 0.034638 0
0 0.0357824 0
0 0.0368048 0
0.000503548 0.0376745 0
0.00274662 0.038407 0
0.00978103 0.0389563 0
0.0178836 0.039353 0
0.0270237 0.0395666 0
0.037171 0.0395972 0
0.0484016 0.0394446 0
0.0607919 0.0390784 0
0.0742809 0.0385443 0
0.0889601 0.0378119 0
0.104875 0.0368505 0
0.122011 0.0357061 0
0.140398 0.0343175 0
0.160006 0.0327459 0
0.180972 0.0308537 0
0.203326 0.028809 0
0.227039 0.0264286 0
0.252064 0.0238346 0
0.278538 0.0210269 0
0.306477 0.0178988 0
0.335729 0.0145571 0
0.366476 0.0109255 0
0.398733 0.00695811 0
0.432593 0.00352483 0
0.467933 0.00178531 0
0.504707 0.000686656 0
0 0.0376135 0
0 0.0386511 0
0 0.0404059 0
0 0.0420844 0
0 0.0436408 0
0 0.0450294 0
0 0.0463417 0
0.000167849 0.0474708 0
0.00143435 0.0484932 0
0.00869764 0.0493477 0
0.0170596 0.0500191 0
0.0264591 0.0505226 0
0.0368963 0.0508583 0
0.0484627 0.0509957 0
0.0611734 0.0509346 0
0.0749828 0.0507362 0
0.0900587 0.0502632 0
0.106279 0.0496223 0
0.123781 0.0486915 0
0.142535 0.0476387 0
0.162585 0.0462806 0
0.183963 0.0447089 0
0.20679 0.0428779 0
0.23093 0.0408331 0
0.256397 0.0385138 0
0.28333 0.0359808 0
0.311742 0.0331426 0
0.341451 0.0300145 0
0.372747 0.0266423 0
0.405539 0.0230411 0
0.439887 0.019089 0
0.475776 0.0148928 0
0.513054 0.0103914 0
0 0.0469673 0
0 0.0481422 0
0 0.0501259 0
0 0.052079 0
0 0.0539712 0
0 0.0556497 0
0 0.0572518 0
1.5259e-05 0.0587167 0
0.000656138 0.0600137 0
0.00762951 0.0611734 0
0.0162203 0.0621195 0
0.0258946 0.0629587 0
0.0366674 0.0635691 0
0.0484779 0.0639963 0
0.0614786 0.0642405 0
0.0756695 0.064271 0
0.0910353 0.0641337 0
0.107668 0.0637827 0
0.125551 0.0632029 0
0.144686 0.0623789 0
0.165118 0.0612955 0
0.186923 0.060029 0
0.210086 0.0584878 0
0.234745 0.056733 0
0.260655 0.0547036 0
0.288045 0.0524758 0
0.316823 0.0499428 0
0.347112 0.0471046 0
0.378836 0.0440375 0
0.412238 0.0407263 0
0.44712 0.0370794 0
0.483391 0.0331273 0
0.521233 0.0290074 0
0 0.0575113 0
0 0.0589303 0
0 0.0610666 0
0 0.063386 0
0 0.0655833 0
0 0.0676127 0
0 0.0694743 0
0 0.0712444 0
0.00030518 0.0729076 0
0.00663767 0.0743572 0
0.0153811 0.0756085 0
0.0253147 0.0767529 0
0.0363317 0.0776684 0
0.0484932 0.0784009 0
0.0618143 0.078996 0
0.0763256 0.0793317 0
0.0920272 0.0794385 0
0.10901 0.0793927 0
0.127245 0.079118 0
0.146761 0.0785992 0
0.167605 0.0778973 0
0.189837 0.076936 0
0.213413 0.0757153 0
0.238407 0.0742657 0
0.264851 0.0725567 0
0.292683 0.0705577 0
0.321935 0.0683452 0
0.35259 0.0658274 0
0.384955 0.0630655 0
0.418738 0.0600748 0
0.454124 0.0567636 0
0.490929 0.0531319 0
0.529458 0.0492409 0
0 0.0694743 0
0 0.071107 0
0 0.0733654 0
0 0.0760204 0
0 0.0785382 0
0 0.0809033 0
0 0.0831617 0
0 0.0852369 0
0.000106813 0.0871595 0
0.00567636 0.0889296 0
0.0145113 0.0905623 0
0.0247044 0.0920272 0
0.0360418 0.0932631 0
0.0484932 0.0943008 0
0.0621347 0.0951553 0
0.0769818 0.0958724 0
0.0930343 0.0963149 0
0.110369 0.0965896 0
0.128969 0.0966354 0
0.148867 0.096437 0
0.170092 0.0960708 0
0.19266 0.0953536 0
0.216754 0.0945296 0
0.242176 0.0933547 0
0.268971 0.0919661 0
0.297246 0.0902876 0
0.326955 0.0884108 0
0.358129 0.0863203 0
0.390997 0.0838026 0
0.425269 0.0811475 0
0.461036 0.0780957 0
0.498375 0.0748913 0
0.537469 0.0712291 0
0 0.0828107 0
0 0.0846571 0
0 0.0870222 0
0 0.0900282 0
0 0.0928817 0
0 0.0956436 0
0 0.0982223 0
0 0.100649 0
0 0.102907 0
0.00480659 0.105013 0
0.0136721 0.106966 0
0.024155 0.108782 0
0.0357214 0.110338 0
0.0484779 0.111727 0
0.0624247 0.112993 0
0.0776074 0.11397 0
0.0939803 0.114748 0
0.111681 0.115358 0
0.130648 0.115755 0
0.150912 0.115892 0
0.172519 0.115785 0
0.195514 0.115496 0
0.22002 0.114931 0
0.245777 0.114092 0
0.273106 0.113054 0
0.301762 0.111818 0
0.331914 0.110201 0
0.363577 0.10837 0
0.396841 0.106294 0
0.431708 0.103899 0
0.468009 0.101274 0
0.505852 0.0983444 0
0.545388 0.0950484 0
0 0.0975814 0
0 0.0997024 0
0 0.102144 0
0 0.105501 0
0 0.108721 0
0 0.111833 0
0 0.114778 0
0 0.117556 0
0 0.120195 0
0.00399786 0.122652 0
0.0128023 0.12491 0
0.0235599 0.127062 0
0.035462 0.128985 0
0.0485237 0.130709 0
0.0627298 0.13225 0
0.078233 0.133669 0
0.0949569 0.134783 0
0.113008 0.13576 0
0.132326 0.136431 0
0.152987 0.136919 0
0.174914 0.13727 0
0.198398 0.13724 1.5259e-05
0.223224 0.137026 0.000183108
0.2495 0.136553 0.000350958
0.277195 0.135882 0.000411994
0.306279 0.13492 0.000396735
0.336919 0.133761 0.000320439
0.36907 0.13228 0.000183108
0.402808 0.130495 4.57771e-05
0.438071 0.128466 0
0.474861 0.126131 0
0.513222 0.123568 0
0.553231 0.120745 0
0 0.113909 0
0 0.116274 0
0 0.118761 0
0 0.122545 0
0 0.12604 0
0 0.129549 0
0 0.132845 0
0 0.135973 0
0 0.13901 0
0.00328069 0.141833 0
0.0119936 0.144427 0
0.0230259 0.14696 0
0.035172 0.149233 0
0.0485237 0.151339 0
0.0631113 0.153246 0
0.0788891 0.15494 0
0.0959487 0.156512 0
0.114351 0.157778 0
0.134051 0.158892 0
0.155016 0.15967 0.000213626
0.177417 0.160388 0.000839246
0.201221 0.160739 0.00137331
0.226474 0.160906 0.0019379
0.253193 0.1608 0.00239567
0.2813 0.160418 0.00265507
0.310842 0.159823 0.00273136
0.341817 0.158953 0.00257877
0.374472 0.157855 0.0021973
0.408698 0.156451 0.00166323
0.444465 0.154818 0.0012665
0.481636 0.15285 0.0009308
0.520531 0.150683 0.000610361
0.561074 0.148135 0.00030518
0 0.131792 0
0 0.134401 0
0 0.136889 0
0 0.141054 0
0 0.144945 0
0 0.148836 0
0 0.152499 0
0 0.156024 0
0 0.159335 0
0.00268559 0.162539 0
0.0111696 0.165591 0
0.0224613 0.168429 0
0.0349432 0.171084 0
0.0485542 0.173556 0
0.063447 0.175845 0
0.0796216 0.177935 0
0.0969711 0.179797 0
0.115724 0.181537 0
0.135729 0.18294 0.000564584
0.157153 0.184207 0.00164797
0.179858 0.185199 0.00296025
0.204074 0.185946 0.0041352
0.22974 0.186511 0.00512703
0.256779 0.186694 0.00590524
0.285344 0.186801 0.0065156
0.315328 0.186511 0.00691234
0.346883 0.186023 0.0071107
0.379919 0.185321 0.00709544
0.414527 0.184298 0.0068513
0.450767 0.182971 0.00636301
0.488457 0.181415 0.0056611
0.527901 0.179629 0.00474556
0.568978 0.177493 0.00354009
0 0.151308 0
0 0.154162 0
0 0.156634 0
0 0.161105 0
0 0.165469 0
0 0.16965 0
0 0.173724 0
0 0.17763 0
0 0.181415 0
0.00216678 0.185016 0
0.0104524 0.188388 0
0.021973 0.191608 0
0.0347448 0.194659 0
0.0486763 0.197528 0
0.0638895 0.200214 0
0.0803388 0.202686 0
0.098085 0.204959 0
0.117144 0.206989 0.000595102
0.137514 0.208804 0.00213626
0.159228 0.210346 0.00392157
0.182422 0.211765 0.00560006
0.206943 0.212894 0.00709544
0.233051 0.21387 0.00842298
0.260517 0.214466 0.00955215
0.289525 0.214862 0.0104982
0.319875 0.215091 0.0112612
0.351766 0.214908 0.0118105
0.385412 0.214618 0.0121462
0.420493 0.213901 0.0122377
0.45713 0.213077 0.0121309
0.495323 0.211841 0.01178
0.535149 0.210346 0.0112154
0.576761 0.208637 0.0103914
0 0.172488 0
0 0.175525 0
0 0.178027 0
0 0.182879 0
0 0.187564 0
0 0.192172 0
0 0.196658 0
0 0.200961 0
0 0.205066 0
0.00175479 0.209064 0
0.00972 0.212833 0
0.0215152 0.216449 0
0.0345922 0.219913 0
0.0488289 0.223194 0
0.0643168 0.226276 0
0.0810712 0.229068 0
0.0991836 0.231739 0.000335698
0.118593 0.234195 0.0019379
0.13933 0.236408 0.00419623
0.16144 0.238392 0.00634775
0.184939 0.240208 0.00836194
0.209964 0.241657 0.0101778
0.236378 0.242939 0.011841
0.264302 0.244053 0.0133364
0.293645 0.244877 0.0146334
0.324544 0.245411 0.0157321
0.356802 0.24564 0.0166323
0.390814 0.24567 0.017319
0.426398 0.245487 0.017792
0.463523 0.244984 0.0180514
0.50222 0.24416 0.0180819
0.542596 0.243107 0.0178683
0.584726 0.241703 0.0174105
0 0.195346 0
0 0.198642 0
0 0.201114 0
0 0.206226 0
0 0.211414 0
0 0.216449 0
0 0.221332 0
0 0.225956 0
0 0.230472 0
0.00144961 0.234897 0
0.00906386 0.239094 0
0.021149 0.243122 0
0.0344701 0.246906 0
0.049012 0.250599 0
0.0648203 0.254017 0
0.0819409 0.257328 0
0.100313 0.260319 0.00122072
0.120089 0.263203 0.00375372
0.141192 0.265843 0.00639353
0.163699 0.268238 0.00889601
0.187503 0.270375 0.0112306
0.212924 0.272358 0.0134127
0.239765 0.27396 0.0154116
0.268116 0.275395 0.0172427
0.29781 0.276646 0.0188754
0.329168 0.277623 0.0203555
0.361898 0.278279 0.021622
0.396384 0.278752 0.0226749
0.432456 0.278889 0.0234989
0.469947 0.278706 0.0241093
0.509163 0.278325 0.0245212
0.54995 0.277714 0.0247044
0.592615 0.276753 0.0246281
0 0.219883 0
0 0.223453 0
0 0.226154 0
0 0.231327 0
0 0.236957 0
0 0.242313 0
0 0.247623 0
0 0.252766 0
0 0.257633 0
0.00122072 0.262486 0
0.0084535 0.267094 0
0.0208286 0.271458 0
0.0344549 0.275776 0
0.0493019 0.27982 0
0.0653697 0.28365 0
0.082826 0.287282 0.000503548
0.101564 0.290822 0.00265507
0.121691 0.294026 0.00575265
0.143114 0.296986 0.00869764
0.165988 0.299825 0.0115511
0.190204 0.302419 0.0142367
0.21593 0.304723 0.0167544
0.243198 0.306874 0.0191043
0.271901 0.308751 0.0212863
0.302129 0.310338 0.0233005
0.333822 0.311635 0.0251011
0.367025 0.312749 0.0267338
0.401892 0.313664 0.0281682
0.438437 0.31426 0.0293889
0.476448 0.314534 0.0303807
0.516045 0.314595 0.0311742
0.557488 0.314321 0.0317082
0.600534 0.313695 0.0320134
0 0.246296 0
0 0.250034 0
0 0.253071 0
0 0.258167 0
0 0.264134 0
0 0.270039 0
0 0.275669 0
0 0.281254 0
0 0.286549 0
0.00106813 0.291722 0
0.00788891 0.296788 0
0.0205386 0.30161 0
0.0344701 0.306386 0
0.0495766 0.310842 0
0.066041 0.315145 0
0.083772 0.319127 0.00125124
0.102861 0.323018 0.00440986
0.123293 0.326787 0.00784314
0.145159 0.33022 0.0111543
0.168353 0.333394 0.0143282
0.192966 0.336431 0.0173648
0.219089 0.339193 0.0202487
0.246693 0.34168 0.0229496
0.275822 0.343999 0.0254826
0.306493 0.346029 0.027863
0.338552 0.347768 0.030045
0.372213 0.349203 0.0320287
0.407523 0.350454 0.033814
0.444465 0.351492 0.0354162
0.482979 0.352239 0.0367895
0.523079 0.352651 0.0379492
0.56492 0.352834 0.0388952
0.608377 0.352667 0.0395819
0 0.274388 0
0 0.278508 0
0 0.281697 0
0 0.286748 0
0 0.293187 0
0 0.299428 0
0 0.305638 0
0 0.311559 0
0 0.317296 0
0.000991836 0.322942 0
0.00741588 0.328359 0
0.0203861 0.333669 0
0.0345464 0.338811 0
0.0500343 0.343786 0
0.0667887 0.348547 0.000320439
0.0848402 0.352987 0.00242618
0.104219 0.357336 0.00630198
0.125017 0.361456 0.0100862
0.147189 0.365347 0.0137331
0.170764 0.368978 0.017258
0.195773 0.372366 0.0206455
0.222293 0.375601 0.0238804
0.25034 0.378546 0.0269322
0.279789 0.381216 0.0298314
0.310933 0.383734 0.032578
0.34345 0.385931 0.0351263
0.377478 0.387823 0.0375067
0.413275 0.389532 0.0396735
0.45069 0.390921 0.0416419
0.48957 0.391959 0.0433814
0.530175 0.392828 0.0449378
0.572427 0.393469 0.0462654
0.616571 0.393744 0.047364
0 0.304311 0
0 0.308736 0
0 0.312169 0
0 0.317174 0
0 0.323949 0
0 0.330755 0
0 0.337194 0
0 0.343587 0
0 0.349844 0
0.000961318 0.356008 0
0.00708019 0.361944 0
0.020264 0.367712 0
0.0347448 0.373327 0
0.0504921 0.378637 0
0.0675669 0.383749 0.000869764
0.0859846 0.3888 0.00411994
0.105714 0.3935 0.00833143
0.126894 0.398108 0.0124514
0.149355 0.402319 0.016434
0.173327 0.406439 0.020325
0.198749 0.410315 0.0240482
0.225574 0.413901 0.0276493
0.254032 0.417319 0.0310826
0.28394 0.420462 0.0343481
0.315419 0.423331 0.0374456
0.348409 0.426032 0.0403906
0.382895 0.428412 0.0431373
0.419043 0.430472 0.0456703
0.456855 0.432334 0.0480201
0.496361 0.43389 0.0501717
0.537377 0.435248 0.0521248
0.580133 0.43624 0.0538338
0.624643 0.436866 0.055314
0 0.336248 0
0 0.340856 0
0 0.344442 0
0 0.34931 0
0 0.356695 0
0 0.363729 0
0 0.370825 0
0 0.377783 0
0 0.384527 0
0.000946059 0.391058 0
0.00679026 0.397467 0
0.0202792 0.403586 0
0.0350042 0.409537 0
0.0510719 0.415473 7.62951e-05
0.0684825 0.421073 0.00154116
0.0871748 0.426474 0.0059205
0.107271 0.431647 0.0104829
0.128817 0.436622 0.0149538
0.151659 0.441337 0.0192874
0.175952 0.44593 0.0235142
0.201678 0.450141 0.0276036
0.228916 0.454231 0.0315709
0.257801 0.458167 0.0353857
0.288136 0.461662 0.0390021
0.319966 0.465019 0.0424811
0.353414 0.468071 0.0457771
0.388266 0.470954 0.0489204
0.424903 0.473518 0.0518502
0.463188 0.475746 0.0545815
0.503075 0.477791 0.0571298
0.544594 0.479515 0.0594644
0.587869 0.48101 0.0615854
0.632807 0.482155 0.0634775
0 0.369879 0
0 0.374792 0
0 0.378637 0
0 0.383368 0
0 0.39115 0
0 0.398871 0
0 0.406348 0
0 0.413657 0
0 0.42092 0
0.0009308 0.427924 0
0.00656138 0.434821 0
0.0203555 0.441444 0
0.0354009 0.447898 0
0.0517891 0.4542 0.000366217
0.0694591 0.460151 0.0028687
0.0885023 0.466041 0.0078584
0.108965 0.471733 0.0127718
0.130816 0.47718 0.0175784
0.154055 0.482399 0.0222934
0.178729 0.487358 0.0268711
0.204883 0.492088 0.0313268
0.232441 0.496666 0.0356603
0.261616 0.500816 0.0398108
0.292409 0.504982 0.0438392
0.324697 0.50869 0.0476844
0.358495 0.512245 0.0513619
0.39382 0.515511 0.0548867
0.43093 0.518593 0.0582284
0.469596 0.521324 0.0613413
0.509987 0.523735 0.064271
0.551888 0.525963 0.0670176
0.595682 0.52784 0.0695354
0.641169 0.529503 0.0718395
0 0.4056 0
0 0.410712 0
0 0.414832 0
0 0.419318 0
0 0.427649 0
0 0.435904 0
0 0.44387 0
0 0.451682 0
0 0.459312 0
0.000900282 0.466819 0
0.00646983 0.474067 0
0.0205539 0.481209 0
0.0359045 0.488029 0
0.0525673 0.49482 0.000595102
0.0705882 0.501289 0.00459297
0.0899825 0.507698 0.00994888
0.110735 0.513741 0.015198
0.13286 0.519554 0.0203403
0.156481 0.525277 0.0254063
0.181567 0.53077 0.0303655
0.208042 0.535988 0.035172
0.236027 0.540948 0.0398718
0.265599 0.545617 0.044419
0.296742 0.550149 0.0488136
0.329488 0.554376 0.0530404
0.363638 0.55845 0.0571145
0.399435 0.562081 0.0610056
0.437034 0.565698 0.0647593
0.476173 0.568811 0.0682689
0.51696 0.57174 0.0715953
0.559396 0.574502 0.0747539
0.603586 0.576898 0.0776837
0.649439 0.578927 0.0803845
0 0.443091 0
0 0.448646 0
0 0.453056 0
0 0.457343 0
0 0.466163 0
0 0.474784 0
0 0.483268 0
0 0.491463 0
0 0.499596 0
