assets/cube/moonlight_01.cube
TITLE "Generated by Resolve"
LUT_3D_SIZE 5
0 0.00196841 0
0.00898756 0.000106813 0
0.0750439 0 0
0.213214 0 0
0.438361 0 0
0 0.0295109 0
0.00274662 0.038407 0
0.0889601 0.0378119 0
0.252064 0.0238346 0
0.504707 0.000686656 0
0 0.131792 0
0 0.159335 0
0.0969711 0.179797 0
0.285344 0.186801 0.0065156
0.568978 0.177493 0.00354009
0 0.336248 0
0 0.384527 0
0.107271 0.431647 0.0104829
0.319966 0.465019 0.0424811
0.632807 0.482155 0.0634775
0 0.661952 0
0 0.732021 0
0.123903 0.81004 0.0329442
0.360891 0.874327 0.0891432
0.702495 0.922423 0.136248
0 0 0.0457008
0.00631724 0 0.0408637
0.0742809 0 0.0249332
0.214771 0 0.00199893
0.442435 0 0
0 0.029633 0.0311437
0.00376898 0.0400702 0.0425116
0.0925917 0.0410773 0.0430304
0.258946 0.0286412 0.029633
0.51516 0.00343328 0.0027924
0 0.138186 0.00901808
0.00047303 0.168261 0.0350805
0.106371 0.190707 0.0568856
0.298665 0.199466 0.066331
0.586618 0.191867 0.0605173
0 0.349386 0
0 0.401968 0.0282902
0.122484 0.451621 0.0728161
0.33994 0.487205 0.1075
0.657771 0.50634 0.128359
0 0.682033 0
0.00154116 0.758389 0.0261082
0.144793 0.839948 0.0952773
0.387411 0.907057 0.15668
0.734722 0.957504 0.206149
0 0 0.202075
0 0 0.197711
0.0647898 0 0.178088
0.207584 0 0.144915
0.43827 0 0.0976883
0 0.0214694 0.196735
0.000701915 0.0331579 0.213993
0.0877394 0.0362707 0.215228
0.256535 0.0261845 0.199664
0.51574 0.00383001 0.165469
0 0.136995 0.176791
0.000671397 0.168612 0.212909
0.108598 0.193256 0.238529
0.303899 0.204501 0.249027
0.595499 0.199542 0.242145
0 0.356832 0.157229
0.00300603 0.411582 0.209781
0.13257 0.463462 0.260899
0.353567 0.501778 0.298894
0.675517 0.523751 0.32108
0 0.699916 0.143526
0.0112917 0.779034 0.209674
0.163363 0.863005 0.287709
0.409949 0.932708 0.354604
0.7617 0.985977 0.407263
0 0 0.497597
0 0 0.495521
0.0446326 0 0.473899
0.189227 0 0.436011
0.422507 0 0.382559
0 0.00430304 0.506645
0 0.0155184 0.530785
0.0720836 0.0208896 0.533593
0.242603 0.0133974 0.516793
0.504158 0.00114443 0.479255
0 0.125017 0.49221
0 0.157916 0.538918
0.100603 0.185016 0.569223
0.298268 0.198932 0.581399
0.592706 0.196887 0.574151
0 0.353704 0.475822
0.00163272 0.409934 0.541741
0.133074 0.464424 0.60029
0.356909 0.505364 0.642329
0.682261 0.530358 0.666407
0 0.706981 0.463767
0.0183413 0.788022 0.546136
0.173083 0.874617 0.633631
0.422889 0.947097 0.706569
0.778576 0.998718 0.76318
0 0 0.955047
0 0 0.95668
0.0124971 0 0.933913
0.158755 0 0.892927
0.39411 0 0.834043
0 0 0.976745
0 0 0.992355
0.043946 0 0.995041
0.215686 0 0.990326
0.479225 0 0.96199
0 0.10071 0.975052
0 0.134722 0.998566
0.0806134 0.164324 1
0.280156 0.181048 1
0.577035 0.181949 1
0 0.338109 0.965606
0 0.395682 1
0.122072 0.452644 1
0.348272 0.496498 1
0.676539 0.524666 1
0 0.701518 0.956893
0.0148165 0.784222 1
0.171817 0.873289 1
0.424399 0.948882 1
0.783291 1 1
