assets/cube/moonlight_01.cube
TITLE "Generated by Resolve"
LUT_3D_SIZE 9
0 0.00196841 0
0 0.00158694 0
0.00898756 0.000106813 0
0.0340887 0 0
0.0750439 0 0
0.134081 0 0
0.213214 0 0
0.314046 0 0
0.438361 0 0
0 0.00857557 0
0 0.0102846 0
0.00746166 0.010071 0
0.0375067 0.00747692 0
0.0838331 0.00314336 0
0.148516 0 0
0.233143 0 0
0.339483 0 0
0.468757 0 0
0 0.0295109 0
0 0.034638 0
0.00274662 0.038407 0
0.037171 0.0395972 0
0.0889601 0.0378119 0
0.160006 0.0327459 0
0.252064 0.0238346 0
0.366476 0.0109255 0
0.504707 0.000686656 0
0 0.0694743 0
0 0.0785382 0
0.000106813 0.0871595 0
0.0360418 0.0932631 0
0.0930343 0.0963149 0
0.170092 0.0960708 0
0.268971 0.0919661 0
0.390997 0.0838026 0
0.537469 0.0712291 0
0 0.131792 0
0 0.144945 0
0 0.159335 0
0.0349432 0.171084 0
0.0969711 0.179797 0
0.179858 0.185199 0.00296025
0.285344 0.186801 0.0065156
0.414527 0.184298 0.0068513
0.568978 0.177493 0.00354009
0 0.219883 0
0 0.236957 0
0 0.257633 0
0.0344549 0.275776 0
0.101564 0.290822 0.00265507
0.190204 0.302419 0.0142367
0.302129 0.310338 0.0233005
0.438437 0.31426 0.0293889
0.600534 0.313695 0.0320134
0 0.336248 0
0 0.356695 0
0 0.384527 0
0.0350042 0.409537 0
0.107271 0.431647 0.0104829
0.201678 0.450141 0.0276036
0.319966 0.465019 0.0424811
0.463188 0.475746 0.0545815
0.632807 0.482155 0.0634775
0 0.48275 0
0 0.506569 0
0 0.541955 0
0.037171 0.574441 7.62951e-05
0.11458 0.604044 0.0204623
0.214817 0.630167 0.0433967
0.339422 0.652415 0.064332
0.489616 0.67068 0.0827497
0.666651 0.684459 0.0981308
0 0.661952 0
0 0.688426 0
0 0.732021 0
0.0414893 0.772534 0.00352483
0.123903 0.81004 0.0329442
0.230076 0.844129 0.0619211
0.360891 0.874327 0.0891432
0.517983 0.900603 0.114107
0.702495 0.922423 0.136248
0 0.000991836 0.0106508
0 0.000839246 0.00956741
0.00856031 1.5259e-05 0.00633249
0.0341344 0 0.00227359
0.0755474 0 1.5259e-05
0.135027 0 0
0.214633 0 0
0.315938 0 0
0.440803 0 0
0 0.00825513 0.00392157
0 0.0102846 0.00607309
0.00769055 0.0103914 0.00610361
0.0382544 0.00805676 0.0039826
0.0852827 0.00370794 0.000488289
0.150637 3.0518e-05 0
0.236011 0 0
0.343145 0 0
0.473167 0 0
0 0.0303807 0
0 0.0360266 0.000366217
0.00395209 0.0401465 0.00247196
0.0390478 0.0416876 0.0041352
0.0915999 0.0401617 0.00343328
0.163439 0.0353246 0.00077821
0.256413 0.0266575 0
0.371618 0.0138705 0
0.510628 0.00216678 0
0 0.0716411 0
0 0.0814374 0
0.000976577 0.090547 0.000167849
0.0390478 0.0970169 0.00419623
0.0969558 0.100481 0.00793469
0.17496 0.100511 0.00885023
0.274784 0.0967117 0.00650034
0.397711 0.0887312 0.00213626
0.545098 0.0763561 3.0518e-05
0 0.135409 0
0 0.149676 0
0 0.164569 0
0.0390784 0.176852 0.00447089
0.102174 0.185977 0.0132906
0.18616 0.191745 0.0195773
0.292592 0.193622 0.0226444
0.422919 0.191363 0.0220951
0.578363 0.18471 0.0175784
0 0.224796 0
0 0.24332 0
0 0.264744 0
0.0395972 0.283406 0.0056611
0.107942 0.299046 0.0196078
0.197803 0.311192 0.0316014
0.310842 0.319463 0.0406348
0.44831 0.323598 0.0462654
0.611536 0.323369 0.0480812
0 0.342199 0
0 0.364736 0
0 0.39353 0
0.0411536 0.419394 0.00749218
0.114748 0.442008 0.0273136
0.210483 0.461204 0.0452888
0.330114 0.476539 0.0605173
0.474632 0.487663 0.0725567
0.645502 0.494377 0.0810407
0 0.489662 0
0 0.516304 0
0 0.552697 0
0.0440528 0.586252 0.0106355
0.122988 0.616648 0.0366979
0.224674 0.643473 0.060914
0.35082 0.6663 0.0826123
0.502312 0.684886 0.10135
0.680735 0.69926 0.116716
0 0.669734 0
0 0.699596 0
0 0.744442 0
0.0487373 0.786191 0.0159457
0.133165 0.82472 0.0482338
0.240879 0.859648 0.0788891
0.373388 0.890562 0.107271
0.532082 0.917266 0.132921
0.717983 0.93959 0.155383
0 0 0.0457008
0 0 0.0447395
0.00631724 0 0.0408637
0.0322881 0 0.0343023
0.0742809 0 0.0249332
0.134417 0 0.0127871
0.214771 0 0.00199893
0.316869 0 0
0.442435 0 0
0 0.00622568 0.0409705
0 0.00846876 0.0442054
0.00628672 0.00895705 0.044419
0.0372931 0.00708019 0.041413
0.0848249 0.0033875 0.0352636
0.150866 3.0518e-05 0.025391
0.237003 0 0.011429
0.3449 0 0.000396735
0.475868 0 0
0 0.029633 0.0311437
0 0.0355535 0.0378271
0.00376898 0.0400702 0.0425116
0.0393683 0.0420844 0.0443885
0.0925917 0.0410773 0.0430304
0.165164 0.0366827 0.0381781
0.258946 0.0286412 0.029633
0.375113 0.0163882 0.0167544
0.51516 0.00343328 0.0027924
0 0.0725261 0.0202029
0 0.0826886 0.029633
0.00149538 0.0921492 0.0391089
0.0408331 0.0991073 0.0459907
0.0994278 0.103105 0.0500038
0.178332 0.103685 0.0505989
0.278996 0.100435 0.0475929
0.403006 0.0930953 0.04065
0.5514 0.0813153 0.0292973
0 0.138186 0.00901808
0 0.152895 0.0209506
0.00047303 0.168261 0.0350805
0.0424353 0.180987 0.0472725
0.106371 0.190707 0.0568856
0.191287 0.196887 0.0633402
0.298665 0.199466 0.066331
0.430045 0.197787 0.0654154
0.586618 0.191867 0.0605173
0 0.229709 0.00227359
0 0.248814 0.0123445
0 0.270665 0.0312657
0.0446937 0.289998 0.0488899
0.113893 0.306157 0.0643168
0.204761 0.318837 0.0768902
0.318791 0.327703 0.0861372
0.457389 0.332448 0.0916915
0.62179 0.332769 0.0933852
0 0.349386 0
0 0.372763 0.00579843
0 0.401968 0.0282902
0.0479591 0.428336 0.0515602
0.122484 0.451621 0.0728161
0.219364 0.471382 0.0917525
0.33994 0.487205 0.1075
0.485649 0.498955 0.119799
0.657771 0.50634 0.128359
0 0.499397 0
0 0.526986 0.00157168
0.000503548 0.563958 0.0265049
0.0527352 0.598016 0.0555581
0.132662 0.628977 0.0831006
0.235401 0.656229 0.108324
0.362646 0.67985 0.130892
0.515511 0.699107 0.150149
0.695247 0.714 0.165835
0 0.682033 0
0 0.713146 0
0.00154116 0.758389 0.0261082
0.0593271 0.800824 0.061326
0.144793 0.839948 0.0952773
0.253605 0.875502 0.12726
0.387411 0.907057 0.15668
0.547295 0.934447 0.183093
0.734722 0.957504 0.206149
0 0 0.108217
0 0 0.107774
0.00259403 0 0.103288
0.0282597 0 0.0956741
0.0707866 0 0.0853285
0.131472 0 0.0718395
0.212512 0 0.0549783
0.315328 0 0.0348821
0.441688 0 0.0112764
0 0.00242618 0.106355
0 0.00448615 0.110811
0.00280766 0.00543221 0.111269
0.0341039 0.00440986 0.108156
0.0820783 0.00173953 0.10132
0.148638 0 0.0903792
0.235386 0 0.0751202
0.343969 0 0.0556497
0.475746 0 0.0313115
0 0.0267338 0.0975814
0 0.0329137 0.106065
0.00177005 0.0378576 0.11165
0.0376593 0.0403601 0.113863
0.0914015 0.0398871 0.112535
0.164614 0.0360723 0.107317
0.259129 0.0285801 0.0979171
0.376043 0.0169985 0.0840467
0.516899 0.00404364 0.0654917
0 0.0712749 0.0870069
0 0.0817121 0.0991989
0.00144961 0.0916609 0.109834
0.0407263 0.0990921 0.117464
0.0999466 0.103609 0.121798
0.179522 0.104784 0.122545
0.281025 0.102205 0.11931
0.405753 0.0954757 0.111711
0.555169 0.0843366 0.0995499
0 0.138781 0.0759594
0 0.153857 0.0911269
0.000762951 0.16965 0.107088
0.0440223 0.182879 0.120348
0.108629 0.19321 0.130617
0.194308 0.200061 0.137453
0.302556 0.203128 0.140566
0.434852 0.202197 0.139574
0.592386 0.196826 0.134142
0 0.23241 0.0652934
0 0.251942 0.0828412
0 0.274357 0.104204
0.0480659 0.294224 0.123323
0.117998 0.310933 0.139666
0.20972 0.324208 0.15285
0.32459 0.3337 0.162509
0.464286 0.339101 0.168276
0.629602 0.340078 0.169802
0 0.35433 0.055848
0 0.378332 0.0747845
0.00114443 0.408133 0.101793
0.0532387 0.435019 0.126879
0.128573 0.458869 0.149615
0.226276 0.479088 0.169314
0.347875 0.49572 0.18584
0.494652 0.508156 0.198566
0.667887 0.516243 0.207294
0 0.506889 0.0479286
0 0.53518 0.0678416
0.00361639 0.572702 0.100359
0.0599832 0.607324 0.131609
0.140764 0.63888 0.160845
0.244495 0.666926 0.187366
0.372717 0.691051 0.210788
0.526711 0.711025 0.230793
0.707607 0.72665 0.246876
0 0.692302 0.0420233
0 0.724315 0.0622873
0.00459297 0.770169 0.100374
0.0687266 0.813169 0.138018
0.155016 0.852689 0.173816
0.26479 0.888899 0.207385
0.39971 0.921157 0.23801
0.560784 0.949264 0.265339
0.749249 0.972869 0.288945
0 0 0.202075
0 0 0.202365
0 0 0.197711
0.0218814 0 0.18941
0.0647898 0 0.178088
0.12604 0 0.163302
0.207584 0 0.144915
0.311162 0 0.123186
0.43827 0 0.0976883
0 0 0.203967
0 0 0.209888
0.000137331 0.00030518 0.21088
0.0285344 0.000335698 0.207568
0.0768139 0 0.200214
0.14374 0 0.188434
0.230976 0 0.172107
0.340276 0 0.151339
0.472648 0 0.12549
0 0.0214694 0.196735
0 0.0277409 0.207385
0.000701915 0.0331579 0.213993
0.0335699 0.0361791 0.216632
0.0877394 0.0362707 0.215228
0.16141 0.0330968 0.20972
0.256535 0.0261845 0.199664
0.374182 0.015259 0.185046
0.51574 0.00383001 0.165469
0 0.0675669 0.187152
0 0.0781872 0.201984
0.000869764 0.0886244 0.214054
0.0383154 0.0966354 0.222583
0.098024 0.101671 0.22739
0.178241 0.103487 0.228183
0.280354 0.101518 0.224704
0.405905 0.0954147 0.216754
0.55613 0.0850233 0.203937
0 0.136995 0.176791
0 0.152285 0.195071
0.000671397 0.168612 0.212909
0.0433814 0.182361 0.22739
0.108598 0.193256 0.238529
0.194919 0.200702 0.245762
0.303899 0.204501 0.249027
0.436988 0.204227 0.247929
0.595499 0.199542 0.242145
0 0.232654 0.166369
0 0.252567 0.187579
0 0.275395 0.211185
0.0493629 0.295796 0.231876
0.119936 0.313191 0.249424
0.21239 0.327092 0.263355
0.328161 0.337392 0.273487
0.46862 0.343465 0.279438
0.635004 0.345159 0.280949
0 0.356832 0.157229
0 0.381399 0.180209
0.00300603 0.411582 0.209781
0.0565499 0.439139 0.236744
0.13257 0.463462 0.260899
0.231113 0.484474 0.281743
0.353567 0.501778 0.298894
0.501274 0.514916 0.312093
0.675517 0.523751 0.32108
0 0.511925 0.149401
0 0.540734 0.173571
0.00636301 0.57882 0.209079
0.0653544 0.614176 0.242618
0.146883 0.646204 0.273442
0.251514 0.674922 0.301366
0.380621 0.699748 0.325811
0.535637 0.720439 0.346456
0.717601 0.736828 0.363058
0 0.699916 0.143526
0 0.732601 0.168444
0.0112917 0.779034 0.209674
0.0762341 0.822629 0.249836
0.163363 0.863005 0.287709
0.274067 0.899718 0.322835
0.409949 0.932708 0.354604
0.572106 0.961578 0.382925
0.7617 0.985977 0.407263
0 0 0.330846
0 0 0.332067
0 0 0.327581
0.0128939 0 0.318929
0.0561685 0 0.306477
0.11783 0 0.2907
0.199878 0 0.271214
0.304112 0 0.247684
0.431876 0 0.220523
0 0 0.337118
0 0 0.34464
0 0 0.346151
0.0202029 0 0.342901
0.0687572 0 0.335195
0.136004 0 0.322789
0.223651 0 0.305638
0.33341 0 0.283421
0.466407 0 0.256306
0 0.01355 0.332036
0 0.0198825 0.344915
0 0.0257725 0.352789
0.0268559 0.0293278 0.355962
0.0813916 0.0299687 0.354589
0.15555 0.0274815 0.348837
0.251118 0.0212253 0.338415
0.369268 0.0109255 0.323095
0.511543 0.00271611 0.302586
0 0.0611429 0.323964
0 0.0719463 0.341344
7.62951e-05 0.0829175 0.35523
0.0333257 0.0914168 0.364843
0.093492 0.0970779 0.370123
0.174166 0.0994888 0.371069
0.27686 0.098146 0.3673
0.403143 0.0927901 0.358953
0.55404 0.0830854 0.345754
0 0.132372 0.314672
0 0.147921 0.335805
0.000289921 0.164721 0.355901
0.0403143 0.17908 0.371786
0.105959 0.190555 0.38381
0.19295 0.198718 0.391669
0.302556 0.203174 0.395071
0.436362 0.203586 0.393805
0.595651 0.199603 0.387793
0 0.230152 0.305089
0 0.250278 0.32961
0 0.273701 0.355505
0.0482185 0.294759 0.378164
0.119356 0.312779 0.397009
0.212543 0.327337 0.411795
0.328893 0.338155 0.4224
0.470268 0.344961 0.42855
0.637369 0.347387 0.429984
0 0.356741 0.296208
0 0.381552 0.3234
0.00328069 0.412284 0.355383
0.0575113 0.440436 0.384512
0.134142 0.46537 0.410163
0.233417 0.487037 0.432212
0.356634 0.505043 0.450324
0.505211 0.518914 0.464073
0.680385 0.528511 0.473167
0 0.514351 0.288746
0 0.543404 0.317525
0.00808728 0.582025 0.355886
0.068513 0.618021 0.391623
0.150759 0.65069 0.424308
0.256184 0.680095 0.453758
0.38613 0.705638 0.479362
0.541939 0.727092 0.500801
0.724895 0.744259 0.517815
0 0.704921 0.283223
0 0.73814 0.312734
0.016022 0.785153 0.357641
0.0815595 0.82919 0.400031
0.169543 0.870268 0.439902
0.280995 0.907668 0.476631
0.417762 0.941421 0.509957
0.580896 0.971054 0.539406
0.771542 0.996063 0.564569
0 0 0.497597
0 0 0.499886
0 0 0.495521
0.00271611 0 0.486809
0.0446326 0 0.473899
0.106737 0 0.456886
0.189227 0 0.436011
0.294118 0 0.411322
0.422507 0 0.382559
0 0 0.509041
0 0 0.518364
0 0 0.520546
0.00895705 0 0.517525
0.0576486 0 0.509392
0.125277 0 0.496254
0.213336 0 0.478264
0.323491 0 0.455192
0.456962 0 0.426581
0 0.00430304 0.506645
0 0.00924697 0.521828
0 0.0155184 0.530785
0.017258 0.0195621 0.534646
0.0720836 0.0208896 0.533593
0.146563 0.018967 0.527642
0.242603 0.0133974 0.516793
0.361212 0.00624094 0.500603
0.504158 0.00114443 0.479255
0 0.0518807 0.500267
0 0.0627756 0.520577
0 0.0742351 0.536141
0.0255589 0.0833448 0.546715
0.0860761 0.0895857 0.552544
0.167132 0.092607 0.553765
0.27042 0.0919814 0.550179
0.397238 0.0872816 0.54165
0.548775 0.0782788 0.527626
0 0.125017 0.49221
0 0.140612 0.516838
0 0.157916 0.538918
0.0344549 0.172839 0.556268
0.100603 0.185016 0.569223
0.188052 0.193698 0.577661
0.298268 0.198932 0.581399
0.432822 0.200031 0.58024
0.592706 0.196887 0.574151
0 0.224842 0.483665
0 0.24506 0.512078
0 0.269062 0.540505
0.0443885 0.290623 0.564645
0.116106 0.30927 0.58471
0.209873 0.324605 0.60058
0.326894 0.336141 0.61178
0.468849 0.343664 0.618326
0.636851 0.346838 0.619959
0 0.353704 0.475822
0 0.378683 0.506813
0.00163272 0.409934 0.541741
0.0558328 0.438682 0.572976
0.133074 0.464424 0.60029
0.232975 0.486641 0.623316
0.356909 0.505364 0.642329
0.506264 0.519997 0.656718
0.682261 0.530358 0.666407
0 0.51368 0.468879
0 0.543114 0.501884
0.00820935 0.58233 0.543557
0.0690623 0.618753 0.581643
0.151934 0.652277 0.616327
0.258076 0.682231 0.647013
0.388769 0.708537 0.673732
0.545434 0.730755 0.696056
0.729305 0.748745 0.713909
0 0.706981 0.463767
0 0.740566 0.498116
0.0183413 0.788022 0.546136
0.0845045 0.832868 0.591516
0.173083 0.874617 0.633631
0.285435 0.912795 0.672084
0.422889 0.947097 0.706569
0.586938 0.977554 0.737102
0.778576 0.998718 0.76318
0 0 0.704967
0 0 0.708461
0 0 0.704677
0 0 0.69572
0.0301518 0 0.682231
0.0926528 0 0.664378
0.175601 0 0.642588
0.280949 0 0.616678
0.409934 0 0.586191
0 0 0.721691
0 0 0.732998
0 0 0.736141
0.000701915 0 0.733333
0.0434272 0 0.724987
0.111299 0 0.71136
0.199603 0 0.69276
0.310185 0 0.668528
0.444114 0 0.638682
0 0 0.722438
0 0 0.740063
0 0.00292973 0.750652
0.00552377 0.00730907 0.755138
0.0596017 0.00936904 0.754437
0.134508 0.0087129 0.748501
0.230854 0.00579843 0.737179
0.349981 0.00205997 0.72047
0.493446 0 0.698421
0 0.0395361 0.718395
0 0.0504311 0.741482
0 0.0624552 0.759045
0.0147402 0.0720836 0.770916
0.0755932 0.078996 0.777554
0.157061 0.0827344 0.779065
0.260822 0.0827649 0.775433
0.388174 0.0788586 0.766659
0.540383 0.070573 0.75227
0 0.114488 0.711986
0 0.130068 0.740017
0 0.147997 0.764355
0.0256657 0.163577 0.78323
0.0921645 0.176257 0.797406
0.180117 0.185718 0.806516
0.290883 0.191623 0.81059
0.425986 0.193439 0.809689
0.586542 0.191043 0.803235
0 0.216434 0.705074
0 0.236698 0.736934
0 0.261204 0.767971
0.0377661 0.283467 0.794217
0.10985 0.302739 0.815671
0.204089 0.318639 0.832319
0.321843 0.331029 0.844419
0.464439 0.3393 0.851362
0.633173 0.343252 0.853147
0 0.347478 0.698283
0 0.372625 0.733135
0 0.40444 0.771191
0.0513771 0.433799 0.804471
0.129122 0.460212 0.833509
0.229587 0.483131 0.858015
0.354192 0.502602 0.877836
0.504265 0.517983 0.892912
0.681025 0.529 0.903044
0 0.510094 0.692256
0 0.539544 0.729442
0.00642405 0.579293 0.774243
0.0669413 0.616541 0.815091
0.150393 0.650584 0.851591
0.257084 0.681239 0.883848
0.38851 0.708324 0.911833
0.545953 0.731334 0.935134
0.730526 0.750134 0.953704
0 0.705837 0.687587
0 0.739773 0.726864
0.0179904 0.787839 0.778286
0.0846876 0.833173 0.82649
0.173907 0.875639 0.870726
0.286961 0.914565 0.911025
0.425177 0.949676 0.947036
0.590082 0.980957 0.978836
0.782437 0.999649 0.994614
0 0 0.955047
0 0 0.959777
0 0 0.95668
0 0 0.947723
0.0124971 0 0.933913
0.0753033 0 0.915496
0.158755 0 0.892927
0.264454 0 0.865675
0.39411 0 0.834043
0 0 0.974334
0 0 0.981628
0 0 0.984222
0 0 0.983551
0.025864 0 0.979644
0.0939345 0 0.970367
0.182605 0 0.95111
0.293385 0 0.926009
0.427756 0 0.895155
0 0 0.976745
0 0 0.987182
0 0 0.992355
0 0 0.994492
0.043946 0 0.995041
0.119097 0 0.994064
0.215686 0 0.990326
0.335302 0 0.981888
0.479225 0 0.96199
0 0.0239261 0.976272
0 0.0348211 0.989212
0 0.0473335 0.996094
0.00355535 0.0576028 0.999237
0.0618753 0.0652018 1
0.143694 0.0695964 1
0.247837 0.0702831 1
0.375616 0.0670787 1
0.528344 0.0595254 1
0 0.10071 0.975052
0 0.116274 0.990036
0 0.134722 0.998566
0.0137636 0.150896 1
0.0806134 0.164324 1
0.168917 0.174441 1
0.280156 0.181048 1
0.415778 0.183597 1
0.577035 0.181949 1
0 0.204761 0.971191
0 0.225055 0.99115
0 0.250034 1
0.0279698 0.272816 1
0.100511 0.292775 1
0.195224 0.309499 1
0.313497 0.322469 1
0.456718 0.331624 1
0.626123 0.336385 1
0 0.338109 0.965606
0 0.363165 0.994263
0 0.395682 1
0.0438544 0.425559 1
0.122072 0.452644 1
0.223178 0.476432 1
0.348272 0.496498 1
0.499016 0.512688 1
0.676539 0.524666 1
0 0.503059 0.960861
0 0.532662 0.999847
0.00311284 0.573007 1
0.0617533 0.610742 1
0.145754 0.645655 1
0.253132 0.677104 1
0.385138 0.704952 1
0.543267 0.728603 1
0.728634 0.748241 1
0 0.701518 0.956893
0 0.735393 0.991119
0.0148165 0.784222 1
0.0820325 0.830259 1
0.171817 0.873289 1
0.285435 0.912963 1
0.424399 0.948882 1
0.590082 0.981003 1
0.783291 1 1
