assets/cube/only_red.cube
TITLE "Generated by Resolve"
LUT_3D_SIZE 5
0 0 0
0.22884 0.00570687 0.00570687
0.457694 0.0114137 0.0114137
0.686564 0.0171359 0.0171359
0.915419 0.0228428 0.0228428
0.161028 0.18587 0.161028
0.233829 0.233829 0.207752
0.455756 0.257221 0.0586862
0.726268 0.25507 0.0194858
0.972824 0.256306 0.0174716
0.322072 0.37174 0.322072
0.394919 0.419532 0.370321
0.467658 0.467658 0.415503
0.623011 0.509285 0.281849
0.911513 0.514443 0.117388
0.483101 0.55761 0.483101
0.556054 0.605371 0.531395
0.628672 0.653239 0.579538
0.701488 0.701488 0.62327
0.823423 0.749294 0.526909
0.644144 0.743496 0.644144
0.717144 0.791226 0.692454
0.789868 0.839063 0.740658
0.862409 0.886961 0.788724
0.935332 0.935332 0.831022
0.0157778 0.0157778 0.0472725
0.0976577 0.0606546 0.0976577
0.233158 0.0883345 0.160739
0.475395 0.0851453 0.215213
0.730617 0.080766 0.243214
0.175784 0.202518 0.202518
0.249989 0.249989 0.249989
0.478843 0.255695 0.255695
0.707698 0.261402 0.261402
0.936568 0.267124 0.267124
0.337407 0.388296 0.36286
0.411032 0.435859 0.411032
0.483818 0.483818 0.457755
0.70576 0.507225 0.308675
0.976272 0.505074 0.269474
0.498634 0.574136 0.523796
0.572061 0.621744 0.572061
0.644923 0.66952 0.620325
0.717662 0.717662 0.665507
0.872999 0.759289 0.531868
0.659754 0.759991 0.68481
0.733104 0.807614 0.733104
0.806058 0.855375 0.781399
0.878676 0.903243 0.829541
0.951492 0.951492 0.873274
0.0315557 0.0315557 0.0945602
0.111284 0.0770123 0.145556
0.195315 0.121324 0.195315
0.292958 0.161196 0.249042
0.466316 0.176669 0.321492
0.190082 0.218936 0.247807
0.265766 0.265766 0.297276
0.347646 0.310658 0.347646
0.483146 0.338323 0.410742
0.725368 0.335134 0.465217
0.351583 0.405066 0.405066
0.425788 0.452522 0.452522
0.499992 0.499992 0.499992
0.728847 0.505699 0.505699
0.957702 0.511406 0.511406
0.513375 0.590829 0.565011
0.587411 0.6383 0.612848
0.661036 0.685863 0.661036
0.733822 0.733822 0.707759
0.955764 0.757229 0.558679
0.67483 0.776608 0.725719
0.748638 0.824125 0.7738
0.822065 0.871748 0.822065
0.894926 0.919524 0.870329
0.967666 0.967666 0.915511
0.0473335 0.0473335 0.141833
0.126284 0.093019 0.192828
0.208347 0.137804 0.243626
0.292973 0.181994 0.292973
0.380865 0.225238 0.341955
0.205188 0.234974 0.294545
0.281544 0.281544 0.344549
0.361273 0.327001 0.39556
0.445304 0.371313 0.445304
0.542947 0.411185 0.499031
0.365621 0.421637 0.449638
0.440085 0.46894 0.49781
0.51577 0.51577 0.54728
0.59765 0.560662 0.59765
0.73315 0.588327 0.660746
0.527398 0.607599 0.607599
0.601587 0.65507 0.65507
0.675792 0.702525 0.702525
0.749996 0.749996 0.749996
0.978851 0.755703 0.755703
0.689235 0.793378 0.76733
0.763363 0.840833 0.815015
0.837415 0.888304 0.862852
0.91104 0.935866 0.91104
0.983825 0.983825 0.957763
0.0630961 0.0630961 0.18912
0.141695 0.108904 0.240055
0.222568 0.154025 0.291127
0.30576 0.198535 0.341512
0.390631 0.242649 0.390631
0.22063 0.250874 0.341604
0.297322 0.297322 0.391836
0.376287 0.343008 0.442817
0.458351 0.387808 0.493614
0.542962 0.431983 0.542962
0.380179 0.437903 0.495613
0.455192 0.484977 0.544549
0.531548 0.531548 0.594553
0.611276 0.577005 0.645563
0.695308 0.621317 0.695308
0.541344 0.624216 0.65185
0.615625 0.671626 0.699641
0.690089 0.718944 0.747814
0.765774 0.765774 0.797284
0.847654 0.810666 0.847654
0.703197 0.810132 0.810132
0.777386 0.857603 0.857603
0.851591 0.905074 0.905074
0.925795 0.952529 0.952529
1 1 1
