assets/cube/only_red.cube
TITLE "Generated by Resolve"
LUT_3D_SIZE 33
0 0 0
0.0285954 0.000717174 0.000717174
0.0572061 0.00143435 0.00143435
0.0858015 0.00213626 0.00213626
0.114412 0.00285344 0.00285344
0.143023 0.00357061 0.00357061
0.171633 0.00428778 0.00428778
0.200229 0.0049897 0.0049897
0.22884 0.00570687 0.00570687
0.25745 0.00642405 0.00642405
0.286061 0.00714122 0.00714122
0.314672 0.00784314 0.00784314
0.343267 0.00856031 0.00856031
0.371878 0.00927749 0.00927749
0.400488 0.00999466 0.00999466
0.429099 0.0107118 0.0107118
0.457694 0.0114137 0.0114137
0.486305 0.0121309 0.0121309
0.514916 0.0128481 0.0128481
0.543526 0.0135653 0.0135653
0.572137 0.0142672 0.0142672
0.600732 0.0149844 0.0149844
0.629343 0.0157015 0.0157015
0.657954 0.0164187 0.0164187
0.686564 0.0171359 0.0171359
0.71516 0.0178378 0.0178378
0.74377 0.018555 0.018555
0.772381 0.0192721 0.0192721
0.800992 0.0199893 0.0199893
0.829587 0.0206912 0.0206912
0.858198 0.0214084 0.0214084
0.886809 0.0221256 0.0221256
0.915419 0.0228428 0.0228428
0.0201267 0.0232242 0.0201267
0.029221 0.029221 0.0259556
0.0569619 0.0321355 0.00732433
0.0907759 0.0318761 0.00244144
0.121584 0.0320287 0.00218204
0.151461 0.0323949 0.00263981
0.180957 0.0328527 0.00323491
0.210208 0.0333715 0.00392157
0.239307 0.0339361 0.00462348
0.268299 0.0345464 0.00534066
0.297215 0.035172 0.00605783
0.326055 0.0357977 0.00679026
0.354864 0.0364538 0.0075227
0.383627 0.0371252 0.00825513
0.412375 0.0377966 0.00898756
0.441093 0.038468 0.00973526
0.46978 0.0391546 0.0104677
0.498466 0.0398413 0.0112001
0.527138 0.0405432 0.0119326
0.555795 0.0412299 0.012665
0.584451 0.0419318 0.0133974
0.613092 0.0426337 0.0141299
0.641733 0.0433356 0.0148623
0.670344 0.0440528 0.0155947
0.69897 0.0447547 0.0163272
0.727596 0.0454566 0.0170596
0.756207 0.0461738 0.0177768
0.784817 0.046891 0.0185092
0.813428 0.0475929 0.0192416
0.842023 0.0483101 0.0199741
0.870634 0.0490272 0.0207065
0.899229 0.0497292 0.0214389
0.927825 0.0504463 0.0221561
0.0402533 0.0464637 0.0402533
0.0493477 0.05243 0.0462806
0.0584421 0.0584421 0.0519265
0.0778668 0.0636454 0.0352178
0.113939 0.0642863 0.0146639
0.148928 0.06392 0.00726329
0.181552 0.0637522 0.00486763
0.212787 0.0638285 0.00425727
0.243198 0.0640574 0.00436408
0.273182 0.0643931 0.00476081
0.302937 0.0647898 0.00526436
0.332509 0.0652323 0.00585946
0.361929 0.0657206 0.00648508
0.391241 0.0662242 0.00714122
0.420447 0.0667582 0.00782788
0.449577 0.0673228 0.00852979
0.478645 0.0679026 0.00923171
0.507668 0.0684977 0.00994888
0.536629 0.0690929 0.0106661
0.565545 0.0697185 0.0113985
0.594446 0.0703441 0.0121309
0.623301 0.070985 0.0128634
0.65214 0.0716259 0.0135805
0.680949 0.072282 0.014313
0.709743 0.0729381 0.0150607
0.738521 0.0735943 0.0157931
0.767285 0.0742657 0.0165255
0.796033 0.0749218 0.017258
0.824765 0.0756085 0.0179904
0.853483 0.0762798 0.0187228
0.8822 0.0769665 0.0194553
0.910903 0.0776379 0.0201877
0.93959 0.0783246 0.0209354
0.0603799 0.069688 0.0603799
0.0694896 0.0756542 0.0664073
0.0785687 0.0816358 0.0724346
0.0876783 0.0876783 0.0778973
0.102922 0.0936446 0.0658579
0.13402 0.0963302 0.0397955
0.170901 0.0964523 0.0220035
0.206378 0.0960708 0.0133364
0.240024 0.0957656 0.00923171
0.272343 0.0956436 0.00730907
0.303761 0.0956741 0.0065156
0.334508 0.0958419 0.00634775
0.364797 0.0961013 0.00654612
0.394827 0.096437 0.0069276
0.424689 0.096788 0.00738537
0.454414 0.0972 0.00790417
0.484031 0.0976272 0.00846876
0.513497 0.0981003 0.00909438
0.542901 0.0985733 0.00972
0.572229 0.0990921 0.0103914
0.60148 0.0996109 0.0110628
0.630686 0.100145 0.0117494
0.659831 0.10071 0.0124361
0.68893 0.101274 0.013138
0.717983 0.101854 0.0138552
0.74699 0.102449 0.0145724
0.775982 0.103044 0.0152895
0.804944 0.103655 0.0160067
0.833875 0.104265 0.0167391
0.862791 0.104891 0.0174563
0.891661 0.105516 0.0181888
0.920531 0.106157 0.0189212
0.949386 0.106798 0.0196536
0.0805066 0.0929274 0.0805066
0.0896315 0.0988937 0.0865492
0.0987259 0.104875 0.0925765
0.10779 0.110857 0.0985733
0.116899 0.116899 0.103868
0.130236 0.12314 0.0948043
0.155749 0.127306 0.0704509
0.190936 0.128649 0.045594
0.227878 0.128603 0.0293431
0.2636 0.128222 0.0199283
0.297871 0.127871 0.0145418
0.330953 0.127626 0.0114595
0.363134 0.127535 0.00975052
0.394644 0.127535 0.00883497
0.425605 0.127657 0.00849927
0.456168 0.127871 0.00849927
0.486412 0.128145 0.00874342
0.516457 0.128466 0.00909438
0.54638 0.128817 0.00952163
0.576196 0.129198 0.0100099
0.605905 0.129595 0.010544
0.635523 0.130022 0.0110933
0.665034 0.13048 0.0117037
0.694484 0.130953 0.0123293
0.723873 0.131441 0.0129702
0.753201 0.131945 0.0136263
0.782483 0.132464 0.0142977
0.811719 0.132998 0.0149691
0.840909 0.133532 0.0156558
0.870054 0.134096 0.0163577
0.899168 0.134661 0.0170596
0.928267 0.135225 0.0177615
0.957305 0.135805 0.0184634
0.100633 0.116167 0.100633
0.109758 0.122118 0.106676
0.118868 0.128099 0.112703
0.127947 0.134081 0.11873
0.137011 0.140078 0.124727
0.146136 0.146136 0.129839
0.15845 0.152483 0.122667
0.179904 0.157519 0.10161
0.21146 0.160159 0.0746471
0.247974 0.160876 0.0520027
0.28484 0.160754 0.0366674
0.320729 0.160372 0.0267643
0.355413 0.159991 0.0204318
0.389029 0.159701 0.0163729
0.42182 0.159503 0.0137942
0.45391 0.159411 0.0121767
0.485496 0.159411 0.0112001
0.516594 0.159503 0.0107424
0.547341 0.15967 0.0105898
0.577798 0.159899 0.0106661
0.608011 0.160189 0.0109255
0.638071 0.160494 0.0112764
0.66804 0.160845 0.0116884
0.697902 0.161212 0.0121462
0.727672 0.161593 0.0126345
0.757382 0.162005 0.0131685
0.787015 0.162432 0.0137331
0.816571 0.162875 0.014313
0.846021 0.163348 0.0149386
0.875456 0.163821 0.0155642
0.904845 0.164309 0.0162051
0.934188 0.164813 0.0168612
0.963485 0.165316 0.0175326
0.120775 0.139391 0.120775
0.1299 0.145357 0.126802
0.13901 0.151339 0.132845
0.148089 0.157305 0.138857
0.157153 0.163302 0.144869
0.166217 0.169284 0.150881
0.175357 0.175357 0.15581
0.187076 0.181765 0.149935
0.205844 0.18732 0.131716
0.233616 0.190967 0.105684
0.26804 0.19266 0.0796216
0.305028 0.193072 0.058732
0.341817 0.192905 0.044007
0.377798 0.192538 0.033753
0.412772 0.192142 0.026688
0.446815 0.191806 0.0218204
0.480064 0.191546 0.0184634
0.512657 0.191379 0.0161593
0.544701 0.191302 0.0146181
0.576303 0.191302 0.013611
0.607538 0.191363 0.0130159
0.638407 0.191501 0.0127565
0.669032 0.191699 0.0127108
0.699413 0.191943 0.0128328
0.72961 0.192218 0.0131075
0.759686 0.192538 0.0134585
0.78967 0.192874 0.0138552
0.819577 0.193225 0.0142824
0.849409 0.193606 0.0147707
0.879164 0.194003 0.0152743
0.908858 0.1944 0.0158083
0.938491 0.194827 0.0163729
0.968078 0.19527 0.0169375
0.140902 0.162631 0.140902
0.150027 0.168597 0.146929
0.159136 0.174563 0.152972
0.168231 0.180545 0.158999
0.17731 0.186526 0.165011
0.186374 0.192508 0.171023
0.195438 0.198505 0.17702
0.204593 0.204593 0.181781
0.2159 0.211017 0.176837
0.232837 0.216876 0.161013
0.257435 0.221286 0.136934
0.289143 0.223896 0.109712
0.32491 0.225025 0.0852064
0.362081 0.225238 0.0656138
0.398779 0.225055 0.0513466
0.434852 0.224689 0.0408179
0.470024 0.224292 0.0331884
0.504387 0.223926 0.0276341
0.538018 0.223636 0.0235904
0.571008 0.223407 0.0206607
0.603479 0.223255 0.0185397
0.635493 0.223194 0.0170443
0.667109 0.223178 0.016022
0.698436 0.223224 0.0153353
0.729412 0.223346 0.0149844
0.760159 0.223514 0.0148318
0.790692 0.223728 0.0148623
0.821027 0.223972 0.0150149
0.851225 0.224262 0.0152895
0.8813 0.224582 0.0156405
0.911299 0.224903 0.016022
0.941238 0.225254 0.0164492
0.971099 0.22562 0.016907
0.161028 0.18587 0.161028
0.170153 0.191821 0.167071
0.179278 0.197803 0.173098
0.188373 0.203769 0.179126
0.197452 0.209751 0.185153
0.206531 0.215747 0.191165
0.215595 0.221729 0.197177
0.224659 0.227726 0.203174
0.233829 0.233829 0.207752
0.244862 0.240253 0.20351
0.260487 0.246311 0.189609
0.282567 0.25124 0.167727
0.311498 0.254643 0.140917
0.345403 0.256535 0.114351
0.381888 0.257313 0.0912032
0.41912 0.257404 0.0726024
0.455756 0.257221 0.0586862
0.491875 0.256855 0.0479591
0.527214 0.256458 0.0398566
0.561822 0.256077 0.0337224
0.595758 0.255741 0.0290837
0.629084 0.255482 0.0255741
0.661906 0.255283 0.0229343
0.694286 0.255146 0.0209506
0.726268 0.25507 0.0194858
0.757916 0.25507 0.0184482
0.789303 0.2551 0.0176852
0.820371 0.255192 0.0172427
0.851225 0.255344 0.0169985
0.881865 0.255528 0.0169375
0.912337 0.255756 0.0170138
0.942641 0.256016 0.0171969
0.972824 0.256306 0.0174716
0.181155 0.209094 0.181155
0.190295 0.215061 0.187198
0.199405 0.221027 0.19324
0.208515 0.227008 0.199268
0.217594 0.23299 0.205295
0.226673 0.238972 0.211307
0.235737 0.244953 0.217319
0.2448 0.25095 0.223316
0.253864 0.256931 0.229313
0.26305 0.26305 0.233722
0.273884 0.26949 0.23003
0.288563 0.275669 0.21767
0.308782 0.28098 0.197589
0.335134 0.284993 0.172198
0.366857 0.287602 0.144945
0.40206 0.289006 0.119432
0.438926 0.289555 0.0975052
0.47602 0.289586 0.0798657
0.512718 0.289372 0.0660258
0.548882 0.289006 0.0551308
0.58436 0.288609 0.0466468
0.619165 0.288228 0.0400244
0.653346 0.287877 0.0348669
0.686961 0.287572 0.0308385
0.720088 0.287327 0.0276951
0.752789 0.287144 0.0252384
0.785092 0.287022 0.0233616
0.81706 0.286961 0.0219272
0.848722 0.286946 0.0208591
0.880171 0.286961 0.0200351
0.911299 0.287053 0.0195315
0.942229 0.287175 0.0192264
0.972976 0.287343 0.0190738
0.201282 0.232334 0.201282
0.210422 0.2383 0.207324
0.219547 0.244266 0.213367
0.228641 0.250233 0.219394
0.237736 0.256214 0.225422
0.246815 0.262196 0.231449
0.255894 0.268177 0.237461
0.264958 0.274174 0.243473
0.274022 0.280156 0.24947
0.283085 0.286152 0.255467
0.292287 0.292287 0.259693
0.302953 0.298726 0.256428
0.316915 0.304982 0.24535
0.335622 0.310567 0.227024
0.359808 0.315068 0.20322
0.38938 0.318303 0.17615
0.422934 0.320317 0.14931
0.4589 0.321386 0.124926
0.495964 0.321767 0.104036
0.532952 0.321767 0.087129
0.569696 0.321523 0.0733654
0.60589 0.321172 0.0623331
0.641459 0.320775 0.0535286
0.676432 0.320378 0.0464942
0.710826 0.320012 0.0408637
0.744701 0.319677 0.0363622
0.778088 0.319417 0.0327611
0.811048 0.319188 0.0298772
0.843641 0.31902 0.0275883
0.875898 0.318914 0.0257725
0.907851 0.318853 0.0243534
0.939529 0.318822 0.02327
0.971023 0.318837 0.0224155
0.221424 0.255573 0.221424
0.230549 0.261524 0.227451
0.239673 0.267491 0.233494
0.248783 0.273472 0.239536
0.257877 0.279454 0.245563
0.266972 0.28542 0.251591
0.276036 0.291417 0.257603
0.285115 0.297398 0.263615
0.294179 0.30338 0.269612
0.303243 0.309377 0.275608
0.312306 0.315373 0.281605
0.321508 0.321508 0.285664
0.332067 0.327962 0.282765
0.345464 0.334279 0.272725
0.362997 0.340047 0.255924
0.385351 0.34493 0.233768
0.412879 0.348684 0.207462
0.444648 0.351293 0.180148
0.479393 0.35288 0.154101
0.515846 0.353704 0.130755
0.553017 0.353964 0.110689
0.589929 0.353933 0.0943313
0.626657 0.353674 0.080705
0.662882 0.353323 0.0695659
0.698558 0.352926 0.0604868
0.733654 0.352529 0.0530861
0.768215 0.352148 0.0470588
0.802289 0.351812 0.0421149
0.83592 0.351507 0.0380865
0.869123 0.351263 0.0348058
0.901991 0.351049 0.032105
0.934493 0.350896 0.0299382
0.96669 0.35079 0.0281987
0.24155 0.278798 0.24155
0.250675 0.284764 0.247593
0.259815 0.29073 0.25362
0.268925 0.296696 0.259663
0.278019 0.302678 0.26569
0.287114 0.308659 0.271717
0.296193 0.314641 0.277745
0.305257 0.320623 0.283757
0.314336 0.326619 0.289754
0.3234 0.332601 0.295766
0.332448 0.338598 0.301762
0.341512 0.344579 0.307759
0.350744 0.350744 0.31162
0.361196 0.357183 0.309026
0.374151 0.363546 0.29987
0.390738 0.369467 0.284428
0.411704 0.37464 0.263447
0.437278 0.378836 0.23859
0.467247 0.381964 0.211383
0.500587 0.38407 0.184344
0.53608 0.385351 0.159243
0.572839 0.385977 0.136812
0.610056 0.386145 0.117464
0.646922 0.386084 0.101549
0.683635 0.385824 0.0880293
0.71989 0.385473 0.0767987
0.755611 0.385092 0.0675059
0.790829 0.38468 0.0597848
0.825559 0.384298 0.0533761
0.8598 0.383948 0.0480507
0.893629 0.383627 0.0436408
0.927062 0.383352 0.0399634
0.960128 0.383108 0.0369268
0.261677 0.302037 0.261677
0.270817 0.308003 0.26772
0.279942 0.31397 0.273762
0.289052 0.319936 0.279789
0.298161 0.325917 0.285832
0.307256 0.331884 0.291859
0.316335 0.337865 0.297871
0.325414 0.343847 0.303899
0.334478 0.349844 0.309911
0.343542 0.355825 0.315908
0.352605 0.361822 0.321904
0.361669 0.367803 0.327901
0.370733 0.3738 0.333898
0.379965 0.379965 0.337591
0.390341 0.386404 0.335241
0.402945 0.392798 0.326848
0.418753 0.39884 0.312551
0.438483 0.404242 0.292958
0.462425 0.408789 0.269383
0.490684 0.412375 0.24271
0.522469 0.414984 0.215351
0.556863 0.416709 0.188983
0.592905 0.417731 0.164706
0.629862 0.418219 0.143084
0.667109 0.418326 0.124331
0.703914 0.41825 0.108797
0.740612 0.41799 0.0953689
0.776867 0.417639 0.0840772
0.812665 0.417243 0.0745556
0.847974 0.416846 0.0665599
0.882826 0.416449 0.0598154
0.917235 0.416083 0.0541543
0.951247 0.415747 0.0493782
0.281804 0.325277 0.281804
0.290944 0.331228 0.287846
0.300069 0.337194 0.293889
0.309194 0.343175 0.299916
0.318288 0.349142 0.305959
0.327382 0.355123 0.311986
0.336477 0.361105 0.318013
0.345556 0.367086 0.324025
0.354635 0.373068 0.330053
0.363699 0.379049 0.336049
0.372763 0.385046 0.342061
0.381826 0.391028 0.348058
0.39089 0.397024 0.354055
0.399939 0.403021 0.360052
0.409201 0.409201 0.363561
0.419516 0.415641 0.361425
0.431815 0.422049 0.353674
0.446983 0.428168 0.340414
0.465675 0.433753 0.322057
0.488182 0.438605 0.299794
0.51487 0.442573 0.273884
0.545129 0.445624 0.246616
0.578302 0.447791 0.219425
0.613397 0.449241 0.193881
0.649836 0.450065 0.170397
0.6869 0.450446 0.149508
0.724163 0.450507 0.131243
0.760891 0.450401 0.116045
0.797574 0.450141 0.102708
0.83386 0.44979 0.0913405
0.869703 0.449409 0.0816663
0.905104 0.448997 0.0733959
0.940078 0.4486 0.0663615
0.301946 0.348501 0.301946
0.31107 0.354467 0.307973
0.320195 0.360433 0.314015
0.32932 0.3664 0.320058
0.33843 0.372381 0.326085
0.347524 0.378347 0.332113
0.356619 0.384329 0.33814
0.365698 0.390311 0.344167
0.374777 0.396292 0.350179
0.383841 0.402289 0.356191
0.39292 0.40827 0.362203
0.401984 0.414252 0.3682
0.411048 0.420249 0.374212
0.420096 0.426246 0.380209
0.42916 0.432227 0.386191
0.438422 0.438422 0.389532
0.448692 0.444862 0.387594
0.460746 0.451301 0.380392
0.47538 0.457481 0.368032
0.493202 0.463218 0.35079
0.514641 0.468299 0.32932
0.539727 0.472602 0.304829
0.568505 0.476051 0.277943
0.60029 0.47866 0.250584
0.634394 0.480491 0.224002
0.670115 0.481682 0.199054
0.706798 0.482368 0.176333
0.743938 0.482658 0.156054
0.781201 0.482673 0.138231
0.817884 0.482567 0.123293
0.854551 0.482292 0.110048
0.890837 0.481941 0.0986191
0.926741 0.481559 0.0887617
0.322072 0.37174 0.322072
0.331197 0.377707 0.328099
0.340337 0.383673 0.334142
0.349447 0.389639 0.340185
0.358572 0.395605 0.346212
0.367666 0.401587 0.352255
0.376761 0.407568 0.358282
0.38584 0.413535 0.364309
0.394919 0.419532 0.370321
0.403998 0.425513 0.376333
0.413062 0.431495 0.382345
0.422126 0.437491 0.388357
0.431189 0.443473 0.394354
0.440253 0.44947 0.400351
0.449317 0.455451 0.406348
0.458381 0.461448 0.412314
0.467658 0.467658 0.415503
0.477867 0.474098 0.413718
0.489723 0.480537 0.407019
0.503899 0.486778 0.395453
0.520974 0.492622 0.379232
0.54136 0.497917 0.358862
0.565133 0.502495 0.335485
0.592538 0.506294 0.309178
0.623011 0.509285 0.281849
0.65597 0.511513 0.254719
0.690822 0.513069 0.228702
0.726925 0.514076 0.204486
0.76379 0.514626 0.182422
0.800992 0.514855 0.162692
0.838254 0.514839 0.14522
0.874861 0.514717 0.130587
0.911513 0.514443 0.117388
0.342199 0.39498 0.342199
0.351339 0.400931 0.348241
0.360464 0.406897 0.354269
0.369589 0.412863 0.360311
0.378698 0.418845 0.366354
0.387808 0.424811 0.372381
0.396902 0.430793 0.378408
0.405982 0.436774 0.384436
0.415061 0.442756 0.390463
0.42414 0.448737 0.396475
0.433219 0.454719 0.402487
0.442283 0.460716 0.408499
0.451347 0.466697 0.414496
0.46041 0.472694 0.420508
0.469474 0.478676 0.426505
0.478538 0.484672 0.432502
0.487602 0.490669 0.438422
0.496895 0.496895 0.441474
0.507057 0.503319 0.439826
0.51873 0.509773 0.43357
0.53254 0.51606 0.42269
0.548974 0.522011 0.407401
0.568444 0.527459 0.388067
0.591043 0.53228 0.365789
0.617166 0.536385 0.340215
0.646342 0.539727 0.313176
0.678141 0.542336 0.285801
0.712016 0.544244 0.259052
0.747402 0.545586 0.233677
0.783825 0.546426 0.210101
0.820813 0.546883 0.188663
0.858045 0.547051 0.169406
0.895171 0.547021 0.152453
0.362325 0.418204 0.362325
0.371466 0.42417 0.368368
0.380591 0.430137 0.374411
0.389715 0.436103 0.380438
0.39884 0.442069 0.386481
0.407935 0.448051 0.392508
0.417044 0.454017 0.39855
0.426123 0.459998 0.404578
0.435218 0.46598 0.41059
0.444297 0.471962 0.416617
0.453361 0.477958 0.422629
0.46244 0.48394 0.428641
0.471504 0.489921 0.434653
0.480568 0.495918 0.44065
0.489632 0.5019 0.446647
0.498695 0.507897 0.452644
0.507744 0.513893 0.45864
0.516808 0.51989 0.464515
0.526116 0.526116 0.467445
0.536248 0.532555 0.465919
0.547784 0.53901 0.46006
0.561242 0.545327 0.449821
0.577127 0.551354 0.435355
0.595819 0.556939 0.416983
0.617563 0.561959 0.395178
0.642313 0.566339 0.370993
0.670253 0.570001 0.344442
0.700893 0.572946 0.317082
0.73373 0.575219 0.289906
0.768307 0.576883 0.263645
0.804135 0.578027 0.238865
0.840772 0.578744 0.215946
0.877836 0.57911 0.195056
0.382452 0.441444 0.382452
0.391592 0.44741 0.388495
0.400732 0.453376 0.394537
0.409857 0.459342 0.40058
0.418967 0.465309 0.406607
0.428077 0.471275 0.41265
0.437171 0.477256 0.418677
0.446265 0.483238 0.424704
0.45536 0.489219 0.430732
0.464439 0.495201 0.436759
0.473518 0.501183 0.442771
0.482582 0.507164 0.448783
0.491646 0.513161 0.454795
0.50071 0.519142 0.460792
0.509773 0.525124 0.466804
0.518837 0.531121 0.472801
0.527901 0.537118 0.478798
0.536965 0.543099 0.484794
0.546029 0.549111 0.490593
0.555352 0.555352 0.493416
0.565454 0.561776 0.492012
0.576837 0.568231 0.486488
0.590021 0.574578 0.476814
0.605432 0.580682 0.463127
0.623423 0.586389 0.44564
0.644266 0.591577 0.424765
0.667903 0.596185 0.401526
0.694713 0.600137 0.375525
0.724178 0.603403 0.348424
0.755993 0.605997 0.321035
0.789776 0.60798 0.29398
0.824796 0.60943 0.268452
0.860945 0.610422 0.244282
0.402594 0.464683 0.402594
0.411719 0.470634 0.408621
0.420859 0.4766 0.414664
0.429984 0.482567 0.420706
0.439094 0.488548 0.426734
0.448203 0.494514 0.432776
0.457313 0.500496 0.438804
0.466407 0.506462 0.444831
0.475502 0.512444 0.450858
0.484581 0.518425 0.456886
0.49366 0.524407 0.462913
0.502724 0.530388 0.468925
0.511803 0.536385 0.474937
0.520867 0.542367 0.480949
0.529931 0.548363 0.486946
0.538994 0.554345 0.492943
0.548058 0.560342 0.498939
0.557122 0.566323 0.504936
0.566186 0.57232 0.510933
0.57525 0.578332 0.516655
0.584573 0.584573 0.519387
0.594644 0.590997 0.518074
0.60592 0.597467 0.512871
0.61886 0.60383 0.503716
0.633844 0.609979 0.490715
0.651225 0.615793 0.474037
0.67126 0.621134 0.454047
0.693904 0.62594 0.431769
0.719631 0.630152 0.406439
0.748012 0.633707 0.379705
0.778759 0.636606 0.352316
0.811521 0.638911 0.325109
0.845869 0.640665 0.298665
0.422721 0.487907 0.422721
0.431861 0.493874 0.428748
0.440986 0.49984 0.434791
0.450111 0.505806 0.440833
0.459236 0.511772 0.446876
0.468345 0.517754 0.452903
0.477455 0.52372 0.458946
0.486549 0.529702 0.464973
0.495644 0.535683 0.471
0.504723 0.54165 0.477028
0.513802 0.547646 0.48304
0.522881 0.553628 0.489067
0.531945 0.559609 0.495079
0.541024 0.565591 0.501091
0.550088 0.571588 0.507088
0.559152 0.577569 0.5131
0.568215 0.583566 0.519097
0.577279 0.589548 0.525093
0.586343 0.595544 0.53109
0.595392 0.601541 0.537087
0.604471 0.607553 0.542718
0.613809 0.613809 0.545357
0.62385 0.620233 0.544137
0.635035 0.626703 0.539208
0.64773 0.633082 0.530526
0.662348 0.639277 0.518151
0.679194 0.645167 0.502235
0.698528 0.650645 0.483085
0.7205 0.655634 0.461051
0.744976 0.66006 0.437125
0.77232 0.663874 0.410834
0.802029 0.667079 0.383658
0.833844 0.669673 0.356252
0.442847 0.511147 0.442847
0.451987 0.517113 0.44889
0.461112 0.523079 0.454932
0.470253 0.529046 0.46096
0.479362 0.535012 0.467002
0.488472 0.540978 0.473045
0.497581 0.54696 0.479072
0.506676 0.552926 0.4851
0.51577 0.558907 0.491127
0.524865 0.564889 0.497154
0.533944 0.570871 0.503182
0.543023 0.576852 0.509194
0.552102 0.582834 0.515221
0.561166 0.58883 0.521233
0.57023 0.594812 0.52723
0.579309 0.600793 0.533242
0.588373 0.60679 0.539239
0.597436 0.612772 0.545251
0.606485 0.618769 0.551247
0.615549 0.624765 0.557229
0.624613 0.630747 0.563226
0.633692 0.63679 0.568765
0.64303 0.64303 0.571328
0.653056 0.649454 0.570199
0.664149 0.655924 0.56553
0.676661 0.662333 0.557275
0.690944 0.668559 0.545464
0.707317 0.674525 0.530251
0.725994 0.68011 0.511894
0.747173 0.685252 0.490669
0.770718 0.689876 0.467552
0.797055 0.693935 0.44184
0.825788 0.697398 0.414939
0.462974 0.534386 0.462974
0.472114 0.540337 0.469017
0.481254 0.546304 0.475059
0.490379 0.55227 0.481086
0.499504 0.558236 0.487129
0.508614 0.564218 0.493172
0.517723 0.570184 0.499199
0.526818 0.576165 0.505241
0.535912 0.582132 0.511269
0.545007 0.588113 0.517296
0.554086 0.594095 0.523308
0.563165 0.600076 0.529335
0.572244 0.606058 0.535348
0.581323 0.612055 0.54136
0.590387 0.618036 0.547372
0.599451 0.624033 0.553384
0.608515 0.630014 0.559396
0.617578 0.635996 0.565393
0.626642 0.641993 0.571389
0.635706 0.64799 0.577386
0.64477 0.653971 0.583383
0.653834 0.659968 0.58938
0.662913 0.66601 0.594812
0.672267 0.672267 0.597299
0.682277 0.678691 0.596231
0.693278 0.685161 0.591806
0.705608 0.691569 0.583947
0.7196 0.697841 0.572656
0.735546 0.703853 0.558114
0.753643 0.709545 0.540475
0.774121 0.714824 0.519997
0.796841 0.719615 0.497597
0.822202 0.723888 0.472648
0.483101 0.55761 0.483101
0.492241 0.563577 0.489143
0.501381 0.569543 0.495186
0.510506 0.575509 0.501228
0.519631 0.581476 0.507256
0.52874 0.587442 0.513298
0.53785 0.593423 0.519341
0.54696 0.59939 0.525368
0.556054 0.605371 0.531395
0.565148 0.611353 0.537423
0.574228 0.617334 0.54345
0.583307 0.623316 0.549477
0.592386 0.629297 0.555489
0.601465 0.635279 0.561502
0.610544 0.64126 0.567514
0.619608 0.647257 0.573526
0.628672 0.653239 0.579538
0.637736 0.659236 0.585534
0.646799 0.665217 0.591546
0.655863 0.671214 0.597543
0.664927 0.677195 0.60354
0.673976 0.683192 0.609522
0.68304 0.689189 0.615518
0.692134 0.695232 0.620859
0.701488 0.701488 0.62327
0.711482 0.707912 0.622263
0.722408 0.714382 0.618067
0.7346 0.720806 0.610529
0.748333 0.727108 0.599756
0.763882 0.733181 0.585824
0.781476 0.738949 0.568856
0.801282 0.74435 0.549111
0.823423 0.749294 0.526909
0.503243 0.58085 0.503243
0.512367 0.586816 0.50927
0.521508 0.592782 0.515312
0.530632 0.598749 0.521355
0.539757 0.604715 0.527398
0.548882 0.610681 0.533425
0.557992 0.616648 0.539467
0.567086 0.622629 0.545495
0.576196 0.628595 0.551522
0.58529 0.634577 0.557565
0.594369 0.640558 0.563592
0.603464 0.64654 0.569604
0.612543 0.652522 0.575631
0.621607 0.658503 0.581643
0.630686 0.6645 0.587655
0.63975 0.670481 0.593668
0.648829 0.676463 0.59968
0.657893 0.68246 0.605692
0.666957 0.688441 0.611688
0.67602 0.694438 0.617685
0.685084 0.70042 0.623682
0.694133 0.706416 0.629679
0.703197 0.712413 0.635676
0.712261 0.718395 0.641672
0.721355 0.724453 0.646891
0.730724 0.730724 0.649241
0.740703 0.737148 0.648295
0.751553 0.743618 0.644282
0.763592 0.750042 0.637095
0.777096 0.756359 0.62678
0.792309 0.762478 0.613397
0.80943 0.768338 0.59707
0.828656 0.773831 0.578042
0.523369 0.604089 0.523369
0.532509 0.61004 0.529412
0.541634 0.616007 0.535439
0.550774 0.621973 0.541482
0.559899 0.627939 0.547524
0.569009 0.633921 0.553567
0.578119 0.639887 0.559594
0.587228 0.645853 0.565637
0.596323 0.651835 0.571664
0.605417 0.657816 0.577691
0.614511 0.663798 0.583719
0.623606 0.669764 0.589746
0.632685 0.675746 0.595758
0.641764 0.681743 0.601785
0.650828 0.687724 0.607797
0.659907 0.693706 0.613809
0.668971 0.699687 0.619821
0.678035 0.705684 0.625834
0.687099 0.711666 0.63183
0.696162 0.717662 0.637842
0.705226 0.723644 0.643839
