assets/cube/only_red.cube
TITLE "Generated by Resolve"
LUT_3D_SIZE 9
0 0 0
0.114412 0.00285344 0.00285344
0.22884 0.00570687 0.00570687
0.343267 0.00856031 0.00856031
0.457694 0.0114137 0.0114137
0.572137 0.0142672 0.0142672
0.686564 0.0171359 0.0171359
0.800992 0.0199893 0.0199893
0.915419 0.0228428 0.0228428
0.0805066 0.0929274 0.0805066
0.116899 0.116899 0.103868
0.227878 0.128603 0.0293431
0.363134 0.127535 0.00975052
0.486412 0.128145 0.00874342
0.605905 0.129595 0.010544
0.723873 0.131441 0.0129702
0.840909 0.133532 0.0156558
0.957305 0.135805 0.0184634
0.161028 0.18587 0.161028
0.197452 0.209751 0.185153
0.233829 0.233829 0.207752
0.311498 0.254643 0.140917
0.455756 0.257221 0.0586862
0.595758 0.255741 0.0290837
0.726268 0.25507 0.0194858
0.851225 0.255344 0.0169985
0.972824 0.256306 0.0174716
0.24155 0.278798 0.24155
0.278019 0.302678 0.26569
0.314336 0.326619 0.289754
0.350744 0.350744 0.31162
0.411704 0.37464 0.263447
0.53608 0.385351 0.159243
0.683635 0.385824 0.0880293
0.825559 0.384298 0.0533761
0.960128 0.383108 0.0369268
0.322072 0.37174 0.322072
0.358572 0.395605 0.346212
0.394919 0.419532 0.370321
0.431189 0.443473 0.394354
0.467658 0.467658 0.415503
0.520974 0.492622 0.379232
0.623011 0.509285 0.281849
0.76379 0.514626 0.182422
0.911513 0.514443 0.117388
0.402594 0.464683 0.402594
0.439094 0.488548 0.426734
0.475502 0.512444 0.450858
0.511803 0.536385 0.474937
0.548058 0.560342 0.498939
0.584573 0.584573 0.519387
0.633844 0.609979 0.490715
0.719631 0.630152 0.406439
0.845869 0.640665 0.298665
0.483101 0.55761 0.483101
0.519631 0.581476 0.507256
0.556054 0.605371 0.531395
0.592386 0.629297 0.555489
0.628672 0.653239 0.579538
0.664927 0.677195 0.60354
0.701488 0.701488 0.62327
0.748333 0.727108 0.599756
0.823423 0.749294 0.526909
0.563622 0.650553 0.563622
0.600153 0.674418 0.587777
0.636606 0.698299 0.611917
0.672969 0.72221 0.636042
0.70927 0.746151 0.660105
0.745541 0.770108 0.684138
0.781781 0.794064 0.708125
0.818418 0.818418 0.727153
0.863661 0.844114 0.707362
0.644144 0.743496 0.644144
0.68069 0.767346 0.668299
0.717144 0.791226 0.692454
0.753536 0.815137 0.716579
0.789868 0.839063 0.740658
0.826139 0.863005 0.764706
0.862409 0.886961 0.788724
0.89865 0.910933 0.812711
0.935332 0.935332 0.831022
0.00788891 0.00788891 0.0236362
0.0488289 0.0303349 0.0488289
0.116579 0.0441596 0.0803693
0.23769 0.0425727 0.107607
0.365316 0.0403754 0.121599
0.489174 0.0399023 0.129747
0.609491 0.0407111 0.1355
0.72813 0.0421302 0.140124
0.845609 0.0439612 0.144152
0.087892 0.101259 0.101259
0.124987 0.124987 0.124987
0.239414 0.12784 0.12784
0.353841 0.130694 0.130694
0.468269 0.133547 0.133547
0.582696 0.1364 0.1364
0.697124 0.139254 0.139254
0.811566 0.142123 0.142123
0.925994 0.144976 0.144976
0.168704 0.194141 0.181415
0.205509 0.217929 0.205509
0.241901 0.241901 0.22887
0.352865 0.253605 0.15433
0.488136 0.252537 0.134737
0.611414 0.253147 0.13373
0.730907 0.254597 0.135531
0.848875 0.256443 0.137957
0.965911 0.258534 0.140642
0.249317 0.287053 0.261891
0.28603 0.310857 0.28603
0.322454 0.334752 0.310155
0.358816 0.358816 0.332753
0.4365 0.379644 0.265934
0.580758 0.382223 0.183673
0.720745 0.380743 0.15407
0.85127 0.380072 0.144472
0.976226 0.380346 0.141985
0.32987 0.37998 0.342397
0.366552 0.4038 0.366552
0.403021 0.42768 0.390692
0.439323 0.451621 0.414755
0.475746 0.475746 0.436622
0.536706 0.499641 0.388464
0.661082 0.510353 0.284245
0.808637 0.510826 0.213031
0.950545 0.5093 0.178378
0.410422 0.472923 0.422919
0.447059 0.496742 0.447059
0.483558 0.520607 0.471214
0.519921 0.544518 0.495323
0.556191 0.568475 0.519356
0.59266 0.59266 0.540505
0.645975 0.617624 0.504234
0.747997 0.634287 0.406867
0.888777 0.639643 0.307439
0.490944 0.56585 0.503426
0.527581 0.589685 0.527581
0.564095 0.613535 0.551736
0.600504 0.637446 0.57586
0.636805 0.661387 0.599939
0.67306 0.685344 0.623941
0.709575 0.709575 0.644388
0.758846 0.734981 0.615717
0.844633 0.755154 0.531441
0.571481 0.658793 0.583947
0.608103 0.682612 0.608103
0.644633 0.706477 0.632258
0.681056 0.730373 0.656397
0.717388 0.754299 0.680491
0.753674 0.778241 0.70454
0.789929 0.802197 0.728527
0.82649 0.82649 0.748272
0.873335 0.85211 0.724758
0.652003 0.75172 0.664469
0.688624 0.775555 0.688624
0.725155 0.79942 0.712779
0.761608 0.823301 0.736919
0.797971 0.847211 0.761028
0.834272 0.871153 0.785107
0.870542 0.895109 0.809125
0.906783 0.919066 0.833127
0.94342 0.94342 0.85214
0.0157778 0.0157778 0.0472725
0.0556344 0.0384985 0.0727703
0.0976577 0.0606546 0.0976577
0.146471 0.0805982 0.124514
0.233158 0.0883345 0.160739
0.348455 0.0880293 0.192203
0.475395 0.0851453 0.215213
0.603769 0.0824903 0.231434
0.730617 0.080766 0.243214
0.0950332 0.109468 0.123903
0.132876 0.132876 0.148623
0.173816 0.155322 0.173816
0.241566 0.169146 0.205356
0.362676 0.167559 0.232593
0.490303 0.165362 0.246601
0.614145 0.164889 0.254734
0.734478 0.165698 0.260502
0.853132 0.167117 0.265126
0.175784 0.202518 0.202518
0.212894 0.226261 0.226261
0.249989 0.249989 0.249989
0.364416 0.252842 0.252842
0.478843 0.255695 0.255695
0.593271 0.258549 0.258549
0.707698 0.261402 0.261402
0.822126 0.264256 0.264256
0.936568 0.267124 0.267124
0.256672 0.295415 0.282506
0.29369 0.319142 0.306416
0.33051 0.342931 0.33051
0.366903 0.366903 0.353872
0.477867 0.378607 0.279332
0.613138 0.377539 0.259739
0.736416 0.378149 0.258732
0.855909 0.379599 0.260533
0.973877 0.381445 0.262959
0.337407 0.388296 0.36286
0.374304 0.412055 0.386892
0.411032 0.435859 0.411032
0.447456 0.459754 0.435157
0.483818 0.483818 0.457755
0.561502 0.504646 0.390936
0.70576 0.507225 0.308675
0.845747 0.505745 0.279072
0.976272 0.505074 0.269474
0.418036 0.481209 0.443305
0.454871 0.504982 0.467399
0.491554 0.528801 0.491554
0.528023 0.552682 0.515694
0.564324 0.576623 0.539757
0.600748 0.600748 0.561624
0.661707 0.624643 0.513466
0.786084 0.635355 0.409247
0.933639 0.635828 0.338033
0.498634 0.574136 0.523796
0.535409 0.597925 0.547921
0.572061 0.621744 0.572061
0.60856 0.645609 0.596216
0.644923 0.66952 0.620325
0.681193 0.693477 0.644358
0.717662 0.717662 0.665507
0.770977 0.742626 0.629236
0.872999 0.759289 0.531868
0.579202 0.667063 0.604303
0.615946 0.690852 0.628428
0.652583 0.714687 0.652583
0.689097 0.738537 0.676738
0.725505 0.762448 0.700862
0.761807 0.786389 0.724941
0.798062 0.810346 0.748943
0.834577 0.834577 0.76939
0.883848 0.859983 0.740719
0.659754 0.759991 0.68481
0.696483 0.78378 0.708949
0.733104 0.807614 0.733104
0.769635 0.831479 0.757259
0.806058 0.855375 0.781399
0.84239 0.879301 0.805493
0.878676 0.903243 0.829541
0.914931 0.927199 0.853529
0.951492 0.951492 0.873274
0.0236667 0.0236667 0.0709239
0.0631418 0.0465095 0.0964065
0.104173 0.0689097 0.121813
0.146487 0.0909895 0.146487
0.190433 0.112612 0.170977
0.256504 0.126741 0.204593
0.349737 0.132494 0.241108
0.461769 0.133043 0.273915
0.585321 0.130724 0.301183
0.102586 0.117479 0.147265
0.140764 0.140764 0.172274
0.180636 0.1635 0.197772
0.222644 0.185657 0.222644
0.271473 0.205585 0.2495
0.358144 0.213321 0.28574
0.473442 0.213031 0.317189
0.600366 0.210132 0.340215
0.728771 0.207492 0.35642
0.182803 0.210803 0.224811
0.220035 0.23447 0.24889
0.257877 0.257877 0.273625
0.298817 0.280324 0.298817
0.366567 0.294148 0.330358
0.487678 0.292561 0.357595
0.615305 0.290364 0.371603
0.739147 0.289891 0.379736
0.85948 0.2907 0.385504
0.263691 0.303792 0.303792
0.300786 0.32752 0.32752
0.337896 0.351263 0.351263
0.37499 0.37499 0.37499
0.489418 0.377844 0.377844
0.603845 0.380697 0.380697
0.718273 0.383551 0.383551
0.8327 0.386404 0.386404
0.947127 0.389258 0.389258
0.34461 0.396674 0.383658
0.381674 0.420401 0.407492
0.418692 0.444144 0.431418
0.455512 0.467933 0.455512
0.491905 0.491905 0.478874
0.602869 0.503609 0.404334
0.73814 0.502541 0.384741
0.861418 0.503151 0.383734
0.980911 0.504601 0.385534
0.425406 0.489555 0.463905
0.462409 0.513298 0.487846
0.499306 0.537057 0.511894
0.536034 0.560861 0.536034
0.572457 0.584756 0.560159
0.60882 0.60882 0.582757
0.686503 0.629648 0.515938
0.830762 0.632227 0.433677
0.970748 0.630747 0.404074
0.506111 0.582452 0.544289
0.543038 0.60621 0.568307
0.579873 0.629984 0.592401
0.616556 0.653803 0.616556
0.653025 0.677684 0.640696
0.689326 0.701625 0.664759
0.72575 0.72575 0.686625
0.786709 0.749645 0.638468
0.911086 0.760357 0.534249
0.586755 0.675364 0.624735
0.623636 0.699123 0.648798
0.66041 0.722927 0.672923
0.697063 0.746746 0.697063
0.733562 0.770611 0.721218
0.769924 0.794522 0.745327
0.806195 0.818479 0.76936
0.842664 0.842664 0.790509
0.895979 0.867628 0.754238
0.667369 0.768277 0.705211
0.704204 0.79205 0.729305
0.740948 0.815854 0.753429
0.777584 0.839689 0.777584
0.814099 0.863539 0.80174
0.850507 0.887449 0.825864
0.886809 0.911391 0.849943
0.923064 0.935347 0.873945
0.959579 0.959579 0.894392
0.0315557 0.0315557 0.0945602
0.0708476 0.0544594 0.120027
0.111284 0.0770123 0.145556
0.15288 0.0992599 0.170748
0.195315 0.121324 0.195315
0.238224 0.143313 0.219242
0.292958 0.161196 0.249042
0.370031 0.171801 0.285069
0.466316 0.176669 0.321492
0.110307 0.125429 0.170794
0.148653 0.148653 0.195911
0.188128 0.171496 0.221408
0.22916 0.193896 0.246799
0.271473 0.215991 0.271473
0.315419 0.237613 0.295964
0.381491 0.251728 0.32958
0.474723 0.257481 0.36611
0.586755 0.25803 0.398917
0.190082 0.218936 0.247807
0.227588 0.242481 0.272267
0.265766 0.265766 0.297276
0.305638 0.288502 0.322774
0.347646 0.310658 0.347646
0.396475 0.330587 0.374502
0.483146 0.338323 0.410742
0.598444 0.338033 0.442191
0.725368 0.335134 0.465217
0.270665 0.312108 0.325917
0.307805 0.335805 0.349813
0.345037 0.359472 0.373892
0.382879 0.382879 0.398627
0.423819 0.405325 0.423819
0.491569 0.41915 0.45536
0.61268 0.417563 0.482597
0.740307 0.415366 0.496605
0.864149 0.414893 0.504738
0.351583 0.405066 0.405066
0.388693 0.428794 0.428794
0.425788 0.452522 0.452522
0.462898 0.476265 0.476265
0.499992 0.499992 0.499992
0.61442 0.502846 0.502846
0.728847 0.505699 0.505699
0.843275 0.508553 0.508553
0.957702 0.511406 0.511406
0.432532 0.497948 0.484871
0.469612 0.521675 0.508659
0.506676 0.545403 0.532494
0.543694 0.569146 0.55642
0.580514 0.592935 0.580514
0.616907 0.616907 0.603876
0.727871 0.628611 0.529335
0.863142 0.627543 0.509743
0.986419 0.628153 0.508736
0.513375 0.590829 0.565011
0.550408 0.614557 0.588907
0.587411 0.6383 0.612848
0.624308 0.662058 0.636896
0.661036 0.685863 0.661036
0.697459 0.709758 0.685161
0.733822 0.733822 0.707759
0.811505 0.75465 0.64094
0.955764 0.757229 0.558679
0.594125 0.683711 0.645319
0.631113 0.707454 0.669291
0.66804 0.731212 0.693309
0.704875 0.754986 0.717403
0.741558 0.778805 0.741558
0.778027 0.802686 0.765698
0.814328 0.826627 0.789761
0.850752 0.850752 0.811627
0.911711 0.874647 0.76347
0.67483 0.776608 0.725719
0.711757 0.800366 0.749737
0.748638 0.824125 0.7738
0.785412 0.847929 0.797925
0.822065 0.871748 0.822065
0.858564 0.895613 0.84622
0.894926 0.919524 0.870329
0.931197 0.943481 0.894362
0.967666 0.967666 0.915511
0.0394446 0.0394446 0.118196
0.0786297 0.0623789 0.143648
0.1187 0.0850385 0.169207
0.159747 0.107424 0.194629
0.201633 0.12961 0.219654
0.244144 0.151659 0.244144
0.287022 0.173648 0.268116
0.335409 0.193729 0.294926
0.401526 0.207797 0.328878
0.11809 0.133349 0.194385
0.156542 0.156542 0.219547
0.195834 0.179446 0.245014
0.236271 0.201999 0.270558
0.277867 0.224247 0.29575
0.320302 0.246311 0.320302
0.36321 0.268299 0.344228
0.417945 0.286183 0.374029
0.495018 0.296803 0.410056
0.197574 0.226978 0.271107
0.235309 0.250431 0.295796
0.273655 0.273655 0.320912
0.31313 0.296498 0.34641
0.354162 0.318898 0.371801
0.396475 0.340993 0.396475
0.440421 0.362615 0.420966
0.506493 0.37673 0.454582
0.599725 0.382483 0.491112
0.277806 0.320302 0.348638
0.315084 0.343938 0.372808
0.35259 0.367483 0.397269
0.390768 0.390768 0.422278
0.43064 0.413504 0.447776
0.472648 0.43566 0.472648
0.521477 0.455589 0.499504
0.608148 0.463325 0.535744
0.723445 0.463035 0.567193
0.358557 0.413382 0.4271
0.395666 0.43711 0.450919
0.432807 0.460807 0.474815
0.470039 0.484474 0.498894
0.507881 0.507881 0.523629
0.548821 0.530327 0.548821
0.616571 0.544152 0.580362
0.737682 0.542565 0.607599
0.865309 0.540368 0.621607
0.43949 0.506325 0.506325
0.476585 0.530068 0.530068
0.513695 0.553796 0.553796
0.55079 0.577523 0.577523
0.5879 0.601267 0.601267
0.624994 0.624994 0.624994
0.739422 0.627848 0.627848
0.853849 0.630701 0.630701
0.968277 0.633555 0.633555
0.520439 0.599222 0.586084
0.557519 0.62295 0.609857
0.594614 0.646677 0.633661
0.631678 0.670405 0.657496
0.668696 0.694148 0.681422
0.705516 0.717937 0.705516
0.741909 0.741909 0.728878
0.852872 0.753613 0.654337
0.988144 0.752544 0.634745
0.601297 0.692103 0.666163
0.638361 0.715831 0.690013
0.67541 0.739559 0.713909
0.712413 0.763302 0.73785
0.74931 0.78706 0.761898
0.786038 0.810864 0.786038
0.822461 0.83476 0.810162
0.858824 0.858824 0.832761
0.936507 0.879652 0.765942
0.682109 0.784985 0.746395
0.719127 0.808713 0.770321
0.756115 0.832456 0.794293
0.793042 0.856214 0.818311
0.829877 0.879988 0.842405
0.86656 0.903807 0.86656
0.903029 0.927687 0.8907
0.93933 0.951629 0.914763
0.975753 0.975753 0.936629
0.0473335 0.0473335 0.141833
0.0864424 0.0702831 0.167269
0.126284 0.093019 0.192828
0.166934 0.115526 0.218341
0.208347 0.137804 0.243626
0.250431 0.159945 0.268528
0.292973 0.181994 0.292973
0.335836 0.203983 0.316991
0.380865 0.225238 0.341955
0.125917 0.141268 0.21799
0.164431 0.164431 0.243183
0.203616 0.187366 0.268635
0.243702 0.210025 0.294194
0.284733 0.232425 0.319615
0.326635 0.254597 0.34464
0.369131 0.276646 0.369131
0.412009 0.298634 0.393118
0.460395 0.318715 0.419913
0.205188 0.234974 0.294545
0.243091 0.25835 0.319387
0.281544 0.281544 0.344549
0.320836 0.304448 0.370016
0.361273 0.327001 0.39556
0.402869 0.349248 0.420752
0.445304 0.371313 0.445304
0.488212 0.393301 0.46923
0.542947 0.411185 0.499031
0.28513 0.32842 0.37171
0.322576 0.35198 0.396109
0.360311 0.375433 0.420798
0.398657 0.398657 0.445914
0.438132 0.4215 0.471412
0.479164 0.4439 0.496803
0.521477 0.465995 0.521477
0.565423 0.487617 0.545968
0.631495 0.501732 0.579583
0.365621 0.421637 0.449638
0.402808 0.445304 0.47364
0.440085 0.46894 0.49781
0.477592 0.492485 0.522271
0.51577 0.51577 0.54728
0.555642 0.538506 0.572778
0.59765 0.560662 0.59765
0.646479 0.580591 0.624506
0.73315 0.588327 0.660746
0.446448 0.514672 0.528313
0.483543 0.538384 0.552102
0.520668 0.562112 0.575921
0.557809 0.585809 0.599817
0.595041 0.609476 0.623896
0.632883 0.632883 0.64863
0.673823 0.655329 0.673823
0.741573 0.669154 0.705364
0.862684 0.667567 0.732601
0.527398 0.607599 0.607599
0.564492 0.631327 0.631327
0.601587 0.65507 0.65507
0.638697 0.678798 0.678798
0.675792 0.702525 0.702525
0.712901 0.726268 0.726268
0.749996 0.749996 0.749996
0.864424 0.75285 0.75285
0.978851 0.755703 0.755703
0.608331 0.700496 0.687327
0.645426 0.724224 0.711086
0.682521 0.747951 0.734859
0.719615 0.771679 0.758663
0.75668 0.795407 0.782498
0.793698 0.81915 0.806424
0.830518 0.842939 0.830518
0.866911 0.866911 0.85388
0.977874 0.878614 0.779339
0.689235 0.793378 0.76733
0.726299 0.817105 0.79115
0.763363 0.840833 0.815015
0.800412 0.864561 0.838911
0.837415 0.888304 0.862852
0.874311 0.912062 0.8869
0.91104 0.935866 0.91104
0.947463 0.959762 0.935164
0.983825 0.983825 0.957763
0.0552071 0.0552071 0.165484
0.0942855 0.0781872 0.19089
0.133959 0.100969 0.216434
0.174319 0.123552 0.241993
0.215351 0.145953 0.267414
0.257038 0.16817 0.292576
0.299229 0.19028 0.317388
0.341802 0.212329 0.341802
0.384649 0.234318 0.36585
0.133761 0.149172 0.241596
0.17232 0.17232 0.266835
0.211444 0.19527 0.292256
0.251286 0.218006 0.317815
0.29192 0.240513 0.343328
0.333349 0.262806 0.368612
0.375418 0.284932 0.393515
0.41796 0.306981 0.41796
0.460822 0.328969 0.441993
0.212879 0.242924 0.318059
0.250919 0.266255 0.342992
0.289433 0.289433 0.368185
0.328618 0.312367 0.393637
0.368704 0.335027 0.419196
0.409735 0.357427 0.444617
0.451637 0.379599 0.469642
0.494133 0.401648 0.494133
0.537011 0.423636 0.51812
0.292592 0.336477 0.39498
0.33019 0.359976 0.419547
0.368093 0.383352 0.444389
0.406546 0.406546 0.469551
0.445838 0.42945 0.495018
0.486275 0.452003 0.520562
0.527871 0.47425 0.545754
0.570306 0.496315 0.570306
0.613214 0.518303 0.594232
0.372824 0.429801 0.472526
0.410132 0.453422 0.496712
0.447578 0.476982 0.521111
0.485313 0.500435 0.5458
0.523659 0.523659 0.570916
0.563134 0.546502 0.596414
0.604166 0.568902 0.621805
0.646479 0.590997 0.646479
0.690425 0.612619 0.67097
0.453468 0.522927 0.550713
0.490623 0.546624 0.574639
0.52781 0.570306 0.598642
0.565087 0.593942 0.622812
0.602594 0.617487 0.647272
0.640772 0.640772 0.672282
0.680644 0.663508 0.69778
0.722652 0.685664 0.722652
0.771481 0.705592 0.749508
0.53434 0.61593 0.629541
0.571435 0.639658 0.653315
0.608545 0.663386 0.677104
0.64567 0.687114 0.700923
0.682811 0.710811 0.724819
0.720043 0.734478 0.748898
0.757885 0.757885 0.773632
0.798825 0.780331 0.798825
0.866575 0.794156 0.830365
0.61529 0.708873 0.708873
0.652384 0.732601 0.732601
0.689494 0.756329 0.756329
0.726589 0.780072 0.780072
0.763699 0.8038 0.8038
0.800793 0.827527 0.827527
0.837903 0.85127 0.85127
0.874998 0.874998 0.874998
0.989425 0.877852 0.877852
0.696239 0.801755 0.788571
0.733333 0.825483 0.812329
0.770428 0.849226 0.836088
0.807523 0.872953 0.859861
0.844617 0.896681 0.883665
0.881682 0.920409 0.9075
0.9187 0.944152 0.931426
0.95552 0.967941 0.95552
0.991913 0.991913 0.978882
0.0630961 0.0630961 0.18912
0.102144 0.0860914 0.214527
0.141695 0.108904 0.240055
0.181827 0.131548 0.265614
0.222568 0.154025 0.291127
0.263905 0.176349 0.316442
0.30576 0.198535 0.341512
0.348043 0.220615 0.366247
0.390631 0.242649 0.390631
0.141619 0.157061 0.265232
0.180194 0.180194 0.290471
0.219272 0.203174 0.315892
0.258961 0.225956 0.341436
0.299306 0.248539 0.366979
0.340352 0.270939 0.392416
0.382025 0.293172 0.417578
0.424216 0.315282 0.442374
0.466804 0.337316 0.466804
0.22063 0.250874 0.341604
0.258762 0.274159 0.366598
0.297322 0.297322 0.391836
0.336446 0.320272 0.417258
0.376287 0.343008 0.442817
0.416922 0.365515 0.46833
0.458351 0.387808 0.493614
0.50042 0.409934 0.518517
0.542962 0.431983 0.542962
0.30016 0.344488 0.418372
0.337881 0.367926 0.443061
0.375921 0.391257 0.467994
0.414435 0.414435 0.493187
0.45362 0.437369 0.518639
0.493706 0.460029 0.544198
0.534737 0.482429 0.569619
0.576638 0.504601 0.594644
0.619135 0.52665 0.619135
0.380179 0.437903 0.495613
0.417594 0.461479 0.519982
0.455192 0.484977 0.544549
0.493095 0.508354 0.56939
0.531548 0.531548 0.594553
0.57084 0.554452 0.62002
0.611276 0.577005 0.645563
0.652873 0.599252 0.670756
0.695308 0.621317 0.695308
0.460609 0.531136 0.573449
0.497826 0.554788 0.597513
0.535134 0.578424 0.621714
0.57258 0.601984 0.646113
0.610315 0.625437 0.670802
0.648661 0.648661 0.695918
0.688136 0.671504 0.721416
0.729168 0.693904 0.746807
0.771481 0.715999 0.771481
0.541344 0.624216 0.65185
0.57847 0.647929 0.675715
0.615625 0.671626 0.699641
0.652811 0.695308 0.723644
0.690089 0.718944 0.747814
0.727596 0.742489 0.772274
0.765774 0.765774 0.797284
0.805646 0.78851 0.822782
0.847654 0.810666 0.847654
0.622232 0.717205 0.730785
0.659342 0.740932 0.754543
0.696437 0.76466 0.778317
0.733547 0.788388 0.802106
0.770672 0.812116 0.825925
0.807813 0.835813 0.849821
0.845045 0.85948 0.873899
0.882887 0.882887 0.898634
0.923827 0.905333 0.923827
0.703197 0.810132 0.810132
0.740291 0.83386 0.83386
0.777386 0.857603 0.857603
0.814496 0.881331 0.881331
0.851591 0.905074 0.905074
0.888701 0.928801 0.928801
0.925795 0.952529 0.952529
0.962905 0.976272 0.976272
1 1 1
