assets/cube/orange_dark_7.cube
TITLE "Generated by Resolve"
LUT_3D_SIZE 5
0 0 0
0.00154116 0.00154116 0.00149538
0.0234836 0.0103304 0.0102998
0.11696 0.0222171 0.0222171
0.11696 0.0222171 0.0222171
0.043061 0.0498817 0.041886
0.107805 0.090074 0.0677806
0.301823 0.108064 0.0772412
0.387182 0.104265 0.0725872
0.505821 0.15375 0.0919203
0.0594644 0.306737 0.059205
0.213031 0.376654 0.0840314
0.513176 0.407721 0.117494
0.75259 0.454414 0.162341
0.762829 0.487205 0.180301
0.114778 0.735882 0.0978103
0.423346 0.800702 0.231861
0.743191 0.890135 0.300023
0.880858 0.949111 0.337728
0.888365 0.973587 0.357305
0.303136 0.871275 0.272526
0.580011 0.933165 0.347265
0.896178 0.981445 0.408652
0.898573 0.983841 0.42649
0.900908 0.986206 0.444862
0 0 0
0.00495918 0.00482185 0.00477607
0.0552987 0.0182803 0.0212863
0.132509 0.0262455 0.030808
0.13106 0.0258946 0.0296483
0.0513466 0.0656138 0.0592813
0.124376 0.10367 0.0915541
0.337087 0.119768 0.102754
0.458244 0.127764 0.107805
0.569024 0.182269 0.151583
0.0649882 0.337194 0.105592
0.241398 0.402319 0.150607
0.532921 0.443519 0.231113
0.77319 0.490501 0.269963
0.783551 0.524269 0.294347
0.193042 0.756664 0.264515
0.461143 0.847166 0.363012
0.788815 0.940047 0.439872
0.905119 0.990417 0.480476
0.907332 0.992645 0.500893
0.33286 0.8907 0.423117
0.615457 0.953323 0.504646
0.914137 0.999496 0.570138
0.916197 0.999908 0.593545
0.918227 1 0.617716
0.000701915 0.000701915 0.000686656
0.0111238 0.00959792 0.0110781
0.105745 0.0288853 0.0578164
0.15874 0.0316625 0.0661326
0.156954 0.031342 0.0628061
0.058732 0.0804913 0.108583
0.142901 0.118227 0.1682
0.379385 0.130999 0.200885
0.540124 0.157443 0.21503
0.608911 0.199832 0.248463
0.0657664 0.364065 0.256428
0.272663 0.424887 0.319081
0.564508 0.477089 0.379019
0.791791 0.525383 0.423041
0.802335 0.559792 0.453742
0.239506 0.790951 0.448692
0.497368 0.892103 0.540063
0.833021 0.988663 0.625849
0.921813 1 0.6636
0.92372 1 0.689845
0.360357 0.907729 0.618997
0.648676 0.971099 0.707408
0.929488 1 0.776974
0.931212 1 0.806256
0.932891 1 0.836057
0.00323491 0.00323491 0.00315862
0.0205844 0.0151522 0.02916
0.136263 0.0344244 0.129854
0.187915 0.0353094 0.142199
0.182361 0.0348363 0.124163
0.0649577 0.0928054 0.222263
0.15874 0.129686 0.322148
0.407599 0.141466 0.387671
0.607279 0.188724 0.367498
0.643641 0.216724 0.395544
0.0623941 0.383612 0.529992
0.306157 0.447639 0.527291
0.597177 0.509148 0.570886
0.808438 0.558511 0.622034
0.81915 0.593683 0.659052
0.266789 0.831479 0.662974
0.532616 0.936233 0.763394
0.870085 1 0.852781
0.935897 1 0.892561
0.937453 1 0.924437
0.384878 0.921416 0.836378
0.677516 0.984054 0.898802
0.938125 1 0.938125
0.938125 1 0.938125
0.938125 1 0.938125
0.00773632 0.00773632 0.00791943
0.0327153 0.0204471 0.0884565
0.148882 0.0358434 0.179004
0.203601 0.0359808 0.203601
0.207263 0.0371252 0.200671
0.067216 0.0977646 0.272068
0.165576 0.134371 0.403754
0.412039 0.15758 0.538613
0.650919 0.212131 0.55404
0.673365 0.231724 0.59855
0.0726635 0.395865 0.641749
0.339666 0.473777 0.741634
0.628031 0.539803 0.796597
0.821958 0.589242 0.821958
0.831937 0.624063 0.831937
0.289158 0.867536 0.805371
0.558373 0.961624 0.876478
0.895827 1 0.932464
0.938125 1 0.938125
0.938125 1 0.938125
0.400168 0.92546 0.840421
0.697154 0.987472 0.902205
0.938125 1 0.938125
0.938125 1 0.938125
0.938125 1 0.938125
