assets/cube/orange_dark_7.cube
TITLE "Generated by Resolve"
LUT_3D_SIZE 33
0 0 0
0 0 0
0 0 0
0 0 0
1.5259e-05 1.5259e-05 1.5259e-05
0.000213626 0.000213626 0.000198367
0.000488289 0.000488289 0.00047303
0.000839246 0.000839246 0.000808728
0.00154116 0.00154116 0.00149538
0.00236515 0.00236515 0.00230411
0.00329595 0.00326543 0.00318914
0.00459297 0.00433356 0.00424201
0.00640879 0.00560006 0.00549325
0.00892653 0.00695811 0.00686656
0.0123751 0.00827039 0.00817884
0.0169985 0.00933852 0.00927749
0.0234836 0.0103304 0.0102998
0.0324865 0.0112154 0.0112154
0.0515908 0.0152132 0.0152132
0.0780957 0.0190127 0.0190127
0.112398 0.0219425 0.0219425
0.11696 0.0222171 0.0222171
0.11696 0.0222171 0.0222171
0.11696 0.0222171 0.0222171
0.11696 0.0222171 0.0222171
0.11696 0.0222171 0.0222171
0.11696 0.0222171 0.0222171
0.11696 0.0222171 0.0222171
0.11696 0.0222171 0.0222171
0.11696 0.0222171 0.0222171
0.11696 0.0222171 0.0222171
0.11696 0.0222171 0.0222171
0.11696 0.0222171 0.0222171
0 0 0
7.62951e-05 7.62951e-05 7.62951e-05
0.000289921 0.000289921 0.000289921
0.000595102 0.000595102 0.000579843
0.00103761 0.00103761 0.0010071
0.00181582 0.00181582 0.00177005
0.00267033 0.00267033 0.00259403
0.00360113 0.00360113 0.00350958
0.00495918 0.00492866 0.00480659
0.0065156 0.00633249 0.0061799
0.00848402 0.00784314 0.00764477
0.0110475 0.00944533 0.00921645
0.0144808 0.0110475 0.0107881
0.0189975 0.0124971 0.0122683
0.0252537 0.0139315 0.0137331
0.0333257 0.0149538 0.0148165
0.0441901 0.0159152 0.0158541
0.057969 0.016495 0.016495
0.0822766 0.0194705 0.0194705
0.112276 0.0219272 0.0219272
0.11696 0.0222171 0.0222171
0.11696 0.0222171 0.0222171
0.11696 0.0222171 0.0222171
0.11696 0.0222171 0.0222171
0.11696 0.0222171 0.0222171
0.11696 0.0222171 0.0222171
0.11696 0.0222171 0.0222171
0.11696 0.0222171 0.0222171
0.11696 0.0222171 0.0222171
0.11696 0.0222171 0.0222171
0.11696 0.0222171 0.0222171
0.11696 0.0222171 0.0222171
0.11696 0.0222171 0.0222171
0.000717174 0.000717174 0.000686656
0.00129702 0.00129702 0.0012665
0.00209049 0.00209049 0.00204471
0.00297551 0.00297551 0.00291447
0.00404364 0.00404364 0.00393683
0.00541695 0.00543221 0.00529488
0.00688182 0.00688182 0.00671397
0.00857557 0.00843824 0.00822461
0.0107424 0.0102693 0.00996414
0.0134279 0.0121767 0.01178
0.0168612 0.0141146 0.0136416
0.0212863 0.0159915 0.0154574
0.0272221 0.0178683 0.0173037
0.0349126 0.0194705 0.0189364
0.0446784 0.0206455 0.0202487
0.0579385 0.022034 0.0217288
0.073579 0.0227817 0.0226291
0.0919509 0.0232547 0.0231632
0.11162 0.0234073 0.0233616
0.120134 0.0231022 0.0230716
0.118456 0.0226291 0.0226139
0.11696 0.0222171 0.0222171
0.11696 0.0222171 0.0222171
0.11696 0.0222171 0.0222171
0.11696 0.0222171 0.0222171
0.11696 0.0222171 0.0222171
0.11696 0.0222171 0.0222171
0.11696 0.0222171 0.0222171
0.11696 0.0222171 0.0222171
0.11696 0.0222171 0.0222171
0.11696 0.0222171 0.0222171
0.11696 0.0222171 0.0222171
0.11696 0.0222171 0.0222171
0.00329595 0.00329595 0.00321965
0.00451667 0.00451667 0.00440986
0.0059205 0.00593576 0.00578317
0.00738537 0.00740063 0.00721752
0.00909438 0.00910964 0.00886549
0.0111238 0.0110933 0.0107576
0.0134279 0.0131533 0.0126802
0.016144 0.0153048 0.0146792
0.0195468 0.0175784 0.0167697
0.0238651 0.019913 0.0189364
0.0294499 0.0222324 0.021088
0.0365606 0.0243381 0.0231174
0.0456092 0.0261387 0.0249638
0.057435 0.027863 0.0268254
0.0724193 0.0295109 0.0285954
0.0895705 0.0305638 0.0298161
0.108476 0.0313115 0.0307012
0.127703 0.0320287 0.0314641
0.146807 0.0327153 0.0321202
0.154543 0.032639 0.0320592
0.152682 0.0321202 0.0316014
0.150835 0.0316014 0.0311284
0.148974 0.0310979 0.0306554
0.147127 0.0305791 0.0301976
0.145281 0.0300603 0.0297246
0.14342 0.0295567 0.0292668
0.141573 0.0290379 0.0287938
0.139727 0.0285344 0.0283207
0.138033 0.0280613 0.0278782
0.136263 0.0275731 0.0274052
0.134585 0.0271 0.0269474
0.133181 0.0267185 0.026566
0.134585 0.0271 0.0269474
0.00791943 0.00793469 0.00773632
0.00976577 0.00978103 0.00952163
0.0117647 0.0117952 0.0114748
0.0138705 0.0138857 0.0134737
0.0163424 0.0162814 0.0156405
0.0191958 0.0188602 0.0179294
0.0225528 0.0215 0.0202487
0.0266728 0.0242161 0.0226139
0.0318303 0.0269627 0.0250248
0.0383154 0.0295872 0.0273899
0.0466163 0.0320439 0.0296941
0.0569314 0.034226 0.0318608
0.0705119 0.0365148 0.0342718
0.0866255 0.0385138 0.0363165
0.104509 0.0400397 0.0379339
0.123079 0.0413367 0.0392309
0.141604 0.0424811 0.0403449
0.162234 0.0433204 0.0411536
0.185245 0.0437934 0.0415961
0.193606 0.0434882 0.0413825
0.19144 0.0428779 0.0409094
0.18941 0.0423133 0.0404364
0.187396 0.0417487 0.0399634
0.185367 0.0411994 0.0394903
0.183337 0.0406348 0.0390021
0.181323 0.0400702 0.038529
0.179294 0.0395056 0.038056
0.177264 0.038941 0.037583
0.175235 0.0383764 0.0371099
0.173327 0.0378424 0.0366522
0.174075 0.038056 0.0368353
0.178439 0.0392615 0.0378576
0.186007 0.0413672 0.0396277
0.0145876 0.0146181 0.0142214
0.0170443 0.0171511 0.0165866
0.0196231 0.0198062 0.0189517
0.0224002 0.0225528 0.0213169
0.025803 0.0257115 0.0239261
0.0297093 0.0288853 0.0264897
0.0344091 0.0320745 0.0290837
0.040238 0.0352636 0.031693
0.0475624 0.0383459 0.0343328
0.0566873 0.0412146 0.0369116
0.0685435 0.0442054 0.0397498
0.0829938 0.0470283 0.0424811
0.0995193 0.0493324 0.0447852
0.117021 0.0512398 0.0466621
0.134874 0.0530709 0.0482795
0.154559 0.0545815 0.0495918
0.17673 0.0556954 0.0505074
0.201373 0.0563516 0.0509804
0.228779 0.0565499 0.0509804
0.237781 0.0560616 0.0505684
0.235431 0.0553902 0.0501106
0.233097 0.0547189 0.0496529
0.230747 0.0540475 0.0492103
0.228412 0.0533608 0.0487526
0.226062 0.0526894 0.0482948
0.223728 0.052018 0.047837
0.221378 0.0513313 0.0473793
0.219181 0.050721 0.0469062
0.219181 0.050721 0.0469062
0.222736 0.0517281 0.0476387
0.230015 0.0538338 0.0490578
0.240375 0.0568093 0.0510872
0.253605 0.0606394 0.0536507
0.0231937 0.0236362 0.0225681
0.0260777 0.0268711 0.0252079
0.0291905 0.0301518 0.0277867
0.0328832 0.033875 0.0305333
0.0371557 0.0376135 0.0332494
0.0422675 0.0413367 0.0360266
0.0485389 0.0450446 0.03888
0.0563668 0.0486152 0.0417487
0.0662547 0.0521553 0.0447547
0.0790112 0.0559854 0.048127
0.0938125 0.0593576 0.0511025
0.110124 0.0622263 0.0536202
0.126986 0.064683 0.0557107
0.145602 0.0668345 0.0574655
0.166384 0.068574 0.058854
0.189609 0.0699474 0.0598611
0.215564 0.0708324 0.0603952
0.24445 0.0711833 0.0603952
0.276402 0.0709697 0.0598306
0.285725 0.0702525 0.059266
0.283238 0.0695048 0.0588388
0.280766 0.0687724 0.0583963
0.278279 0.0680247 0.057969
0.275807 0.067277 0.0575265
0.27332 0.0665446 0.0570993
0.270848 0.0657969 0.0566567
0.269932 0.0655222 0.0565042
0.272663 0.0663462 0.0569772
0.278676 0.0681468 0.0580301
0.288014 0.0709697 0.0596323
0.300465 0.0748608 0.0615244
0.315496 0.0795758 0.0638285
0.335698 0.0859998 0.0669871
0.0329595 0.0352331 0.0320439
0.0362402 0.0392004 0.0347601
0.0400702 0.0435645 0.0375677
0.0443885 0.0478523 0.0403449
0.0496986 0.0522621 0.0432593
0.0562448 0.056733 0.0463111
0.0642863 0.0609751 0.0494698
0.0749065 0.0655528 0.0530861
0.0877546 0.0699321 0.0566415
0.102296 0.0737011 0.0597086
0.1178 0.0769207 0.0623026
0.134951 0.0798047 0.0645609
0.154314 0.0823682 0.066453
0.176043 0.0845197 0.0679026
0.200443 0.0862745 0.0689403
0.227512 0.0875257 0.0694743
0.257618 0.0882429 0.0694591
0.29102 0.0882887 0.0688182
0.327855 0.0876783 0.0675212
0.337316 0.0867628 0.0667887
0.334646 0.0858625 0.0664378
0.33196 0.0849622 0.0660868
0.329274 0.0840772 0.0657511
0.326604 0.0831769 0.0654002
0.325048 0.0826581 0.0651865
0.326604 0.0831769 0.0654002
0.331533 0.0848249 0.066041
0.339574 0.0875257 0.0670787
0.350301 0.0911116 0.0684825
0.363699 0.0957656 0.0700847
0.382864 0.102388 0.0727245
0.403616 0.109651 0.0760357
0.425147 0.117876 0.0797589
0.043061 0.0498817 0.041886
0.0467384 0.0548562 0.0446326
0.0509804 0.0599985 0.0474556
0.0561227 0.0651865 0.0504311
0.0625467 0.0702983 0.0536355
0.0708019 0.0755016 0.0571908
0.0814832 0.0809949 0.0611582
0.093904 0.0858473 0.0646982
0.107805 0.090074 0.0677806
0.1234 0.0938277 0.0704509
0.141039 0.0972457 0.0727855
0.160967 0.100313 0.0747692
0.183261 0.102892 0.0762951
0.208423 0.105028 0.0773632
0.236484 0.10663 0.0778973
0.267506 0.107668 0.0778821
0.301823 0.108064 0.0772412
0.339773 0.107713 0.0758984
0.38146 0.106661 0.0738384
0.390784 0.105577 0.0729839
0.388052 0.104585 0.0726787
0.385321 0.103593 0.0723888
0.383154 0.102815 0.0721599
0.383734 0.103014 0.072221
0.387182 0.104265 0.0725872
0.393378 0.106508 0.0732586
0.402319 0.110063 0.074052
0.414038 0.114717 0.0751354
0.431113 0.121172 0.0773632
0.449897 0.128817 0.0801862
0.46923 0.13698 0.0836805
0.488396 0.145373 0.0877394
0.505821 0.15375 0.0919203
0.0524453 0.0681163 0.0513008
0.0563363 0.0740826 0.0540017
0.0611276 0.0799725 0.0569924
0.0670634 0.0859998 0.0602579
0.0753338 0.092607 0.064332
0.0855421 0.0986648 0.0682536
0.0974594 0.103853 0.0717479
0.111086 0.108492 0.074876
0.126619 0.11281 0.0776989
0.144564 0.116777 0.0801404
0.164828 0.120348 0.0822003
0.18761 0.123522 0.0838026
0.213077 0.126192 0.0848554
0.241657 0.128359 0.085359
0.273503 0.1299 0.0852674
0.308553 0.130785 0.0845502
0.347112 0.130983 0.0832074
0.389578 0.130388 0.0810864
0.435798 0.129 0.078233
0.444633 0.127657 0.0773938
0.442191 0.126574 0.0772412
0.441764 0.126375 0.0772106
0.443778 0.127275 0.0773327
0.448218 0.129259 0.0776226
0.454948 0.132265 0.0780499
0.464805 0.136553 0.0788891
0.47953 0.143099 0.0806897
0.495766 0.150652 0.0832227
0.512947 0.158785 0.0866407
0.529641 0.167468 0.0906233
0.545174 0.175937 0.0950484
0.558816 0.18352 0.0993362
0.568887 0.189715 0.102586
0.0601053 0.0903182 0.0593729
0.0642557 0.0972305 0.0623026
0.0699168 0.104356 0.0659495
0.0776532 0.111604 0.0700542
0.0871595 0.118059 0.0739147
0.0986191 0.123751 0.077409
0.111955 0.129168 0.0806134
0.127398 0.134264 0.0834821
0.145037 0.138979 0.0859846
0.165316 0.143267 0.0880598
0.188296 0.147082 0.089662
0.213962 0.150286 0.0907454
0.242725 0.153002 0.0913252
0.274769 0.155062 0.0912947
0.310323 0.156451 0.0906386
0.349325 0.157122 0.0893263
0.392081 0.157031 0.0873121
0.438773 0.156176 0.084535
0.488914 0.15462 0.0809949
0.498985 0.153857 0.0801556
0.499687 0.154208 0.0801862
0.50219 0.155474 0.080293
0.506813 0.158068 0.080415
0.514611 0.16231 0.0810254
0.52668 0.168505 0.0826734
0.540398 0.175723 0.0852216
0.554849 0.183719 0.0887007
0.569024 0.192401 0.0928664
0.58262 0.200885 0.0975204
0.594781 0.208682 0.102312
0.603845 0.215412 0.10605
0.609537 0.219776 0.108248
0.612696 0.222293 0.109117
0.0657969 0.116548 0.0655222
0.0708171 0.125216 0.0694743
0.0776989 0.132906 0.073518
0.0865949 0.139712 0.0774548
0.0972763 0.146197 0.0811017
0.110094 0.152377 0.0844434
0.125093 0.15819 0.0874189
0.142473 0.163622 0.0900282
0.162325 0.168612 0.0922103
0.185046 0.173098 0.093904
0.210697 0.177005 0.0950637
0.239353 0.180453 0.0956436
0.271305 0.183276 0.0956283
0.306661 0.185412 0.0950179
0.345815 0.186786 0.0937514
0.38854 0.187396 0.0918135
0.434897 0.187228 0.0892195
0.481468 0.186725 0.0862135
0.525353 0.186328 0.0831311
0.553323 0.186694 0.0811322
0.555856 0.188418 0.0811322
0.561898 0.192004 0.0818341
0.571572 0.197589 0.0835737
0.582528 0.204288 0.0862898
0.594064 0.212131 0.0899672
0.606073 0.220508 0.0945602
0.61767 0.228794 0.0997482
0.627985 0.236805 0.104875
0.636072 0.243763 0.109346
0.641474 0.2486 0.111955
0.644526 0.251469 0.112917
0.647517 0.254307 0.113787
0.650401 0.257053 0.114748
0.0703899 0.14757 0.0703288
0.076173 0.155627 0.0747082
0.0839704 0.163302 0.0788434
0.0936751 0.170794 0.0825971
0.105425 0.177966 0.0859846
0.119539 0.184787 0.0890364
0.136202 0.191135 0.0916762
0.155505 0.19704 0.093904
0.177554 0.202411 0.0956588
0.20267 0.207218 0.0969406
0.231052 0.211276 0.0976577
0.262684 0.214786 0.0978256
0.29781 0.217594 0.0974289
0.336416 0.219669 0.0964218
0.379034 0.220966 0.0947433
0.42295 0.221546 0.0925612
0.465599 0.221897 0.0901198
0.505867 0.222263 0.087541
0.542718 0.22327 0.0850538
0.577508 0.226307 0.0837568
0.609613 0.231052 0.0838331
0.621195 0.237186 0.0866255
0.630396 0.24419 0.0907607
0.640162 0.251911 0.0959182
0.649836 0.2598 0.101717
0.658244 0.267842 0.107469
0.665324 0.274861 0.112581
0.67042 0.280171 0.115785
0.673228 0.283284 0.117037
0.675929 0.286366 0.118074
0.678553 0.289326 0.119097
0.681178 0.292302 0.12018
0.683757 0.295491 0.121248
0.0727703 0.180896 0.0726787
0.0787518 0.189761 0.0769665
0.0870985 0.198291 0.0809033
0.097734 0.206439 0.0845197
0.110704 0.21416 0.0877546
0.126314 0.221424 0.0906233
0.144778 0.228153 0.0930495
0.166155 0.234363 0.0950179
0.190509 0.239963 0.0965133
0.218006 0.244923 0.0974594
0.249073 0.249332 0.0978256
0.283513 0.253025 0.0976425
0.321584 0.256001 0.0969253
0.362081 0.258122 0.0956893
0.403174 0.259342 0.0939956
0.443 0.260258 0.0920729
0.480842 0.261173 0.0899977
0.518029 0.264179 0.0891737
0.552728 0.268421 0.0895247
0.584085 0.273564 0.0912795
0.61297 0.279789 0.0944839
0.639536 0.286702 0.0990311
0.665019 0.294148 0.104433
0.685435 0.301823 0.110292
0.691508 0.308705 0.115999
0.696101 0.314244 0.120104
0.698772 0.317754 0.121645
0.701122 0.320943 0.122744
0.703563 0.324254 0.123857
0.705776 0.327535 0.125078
0.707759 0.330953 0.12636
0.709804 0.334508 0.127672
0.711757 0.337926 0.129046
0.0720073 0.218235 0.0718853
0.0783703 0.227878 0.0762036
0.0873426 0.237217 0.0800031
0.0988785 0.246113 0.0834058
0.113085 0.254475 0.0864424
0.130129 0.262348 0.0890669
0.150362 0.269566 0.0912642
0.17377 0.276188 0.093019
0.20032 0.282017 0.0943313
0.23032 0.287297 0.0951705
0.264012 0.291829 0.0954757
0.300908 0.295308 0.0952773
0.339498 0.297597 0.0946517
0.378592 0.299031 0.0936141
0.416876 0.300023 0.0922866
0.45597 0.303197 0.0922255
0.492912 0.307073 0.0931258
0.527352 0.311666 0.0953231
0.559014 0.317281 0.0989548
0.588571 0.323796 0.10399
0.616892 0.330739 0.109957
0.645563 0.338018 0.116167
0.676692 0.344945 0.121614
0.712581 0.350973 0.125902
0.720134 0.355047 0.127916
0.722072 0.358495 0.12932
0.723873 0.362158 0.130846
0.725231 0.36585 0.132769
0.726589 0.369543 0.134768
0.727977 0.373388 0.136767
0.729335 0.377081 0.138735
0.730678 0.380789 0.140764
0.732082 0.384634 0.142763
0.0673838 0.260441 0.0671855
0.0740673 0.270985 0.071458
0.0838636 0.280964 0.0753033
0.0965896 0.290394 0.0787671
0.112245 0.299214 0.0818494
0.131044 0.307454 0.0845502
0.15317 0.314977 0.0868086
0.178729 0.321721 0.0886549
0.20766 0.327977 0.0899977
0.240009 0.333288 0.0909133
0.275639 0.336889 0.0914473
0.313191 0.339071 0.0915694
0.351415 0.340871 0.0914778
0.391379 0.344121 0.0924086
0.430137 0.347692 0.0942397
0.467033 0.351858 0.0972763
0.50193 0.356695 0.101656
0.534905 0.362371 0.107393
0.566171 0.368643 0.114122
0.597009 0.375494 0.121614
0.628504 0.382376 0.129137
0.663157 0.389029 0.135317
0.703685 0.394553 0.13904
0.736065 0.399313 0.141817
0.737377 0.403311 0.143908
0.738643 0.407172 0.145983
0.739925 0.411032 0.148089
0.741238 0.415045 0.15021
0.742519 0.418906 0.152285
0.743801 0.422782 0.154406
0.745113 0.426795 0.156527
0.746395 0.430671 0.158602
0.747677 0.434546 0.160784
0.0594644 0.306737 0.059205
0.066743 0.318105 0.0636149
0.0773938 0.328786 0.0675975
0.091371 0.338827 0.0712139
0.108553 0.34818 0.0744793
0.129091 0.356878 0.0773785
0.153124 0.364813 0.079881
0.181033 0.371664 0.082063
0.213031 0.376654 0.0840314
0.248295 0.379767 0.0856489
0.285985 0.382239 0.0872358
0.326177 0.385672 0.0894789
0.366125 0.38909 0.0926223
0.405539 0.392905 0.096788
0.443229 0.397192 0.102296
0.479103 0.402152 0.109087
0.513176 0.407721 0.117494
0.546014 0.413993 0.127092
0.578729 0.420737 0.136522
0.613275 0.427619 0.144564
0.651987 0.43386 0.149905
0.694026 0.439811 0.153735
0.737377 0.445838 0.157534
0.751324 0.450401 0.160159
0.75259 0.454414 0.162341
0.753887 0.458579 0.164508
0.755154 0.462593 0.166629
0.75642 0.466606 0.168872
0.757733 0.470771 0.17116
0.758984 0.474784 0.173404
0.760266 0.478798 0.175708
0.761517 0.482902 0.177981
0.762829 0.487205 0.180301
0.0480049 0.35787 0.0476692
0.0562448 0.369833 0.0525826
0.0681163 0.380972 0.057084
0.0836347 0.391409 0.0612192
0.102586 0.401068 0.0650034
0.125292 0.409796 0.0684977
0.152987 0.416342 0.0720531
0.185107 0.420813 0.0753796
0.221454 0.424506 0.078996
0.261006 0.428321 0.0831159
0.301778 0.431586 0.0879225
0.342809 0.434852 0.0937972
0.383139 0.438651 0.100771
0.421912 0.442817 0.109712
0.458854 0.447745 0.120806
0.494179 0.453407 0.132296
0.528649 0.459724 0.143465
0.563745 0.466453 0.153063
0.601419 0.473487 0.159701
0.642039 0.480156 0.164187
0.683986 0.4869 0.168643
0.726925 0.4934 0.172992
0.765133 0.499519 0.177142
0.7664 0.50367 0.179431
0.767697 0.507988 0.18175
0.768978 0.512154 0.1841
0.770245 0.516304 0.186389
0.771557 0.520623 0.188724
0.772839 0.524849 0.191028
0.774121 0.529152 0.193393
0.775433 0.533608 0.195758
0.776715 0.537911 0.198077
0.778012 0.542214 0.200473
0.0343633 0.41268 0.0339361
0.0437324 0.425238 0.0395361
0.0569619 0.436896 0.0447395
0.0742809 0.447669 0.0496681
0.0970474 0.45594 0.0549935
0.125368 0.461799 0.0603952
0.159243 0.466697 0.0664836
0.19733 0.471031 0.0728923
0.238056 0.474754 0.0799573
0.280461 0.477791 0.0887617
0.322972 0.480919 0.0986191
0.364523 0.48426 0.110399
0.40444 0.488273 0.123537
0.442466 0.493355 0.136858
0.479042 0.499153 0.149416
0.515114 0.50602 0.160449
0.552224 0.513283 0.168215
0.591485 0.520684 0.173526
0.632105 0.527962 0.178653
0.673777 0.535302 0.183764
0.716564 0.542412 0.188785
0.760479 0.549477 0.193805
0.780331 0.555108 0.197299
0.781613 0.559396 0.199619
0.78291 0.563714 0.201999
0.784237 0.568231 0.204379
0.785534 0.572656 0.206729
0.786831 0.577111 0.209171
0.788174 0.581704 0.211673
0.789471 0.586145 0.214145
0.790768 0.590585 0.216663
0.792111 0.595193 0.219181
0.793423 0.599634 0.221653
0.019089 0.471489 0.0185855
0.029984 0.48423 0.0252689
0.0468299 0.494713 0.0325475
0.0702678 0.502159 0.0403601
0.100679 0.508934 0.0493019
0.136767 0.514015 0.0589456
0.176867 0.517708 0.0691997
0.220157 0.520562 0.0814984
0.264546 0.52311 0.095201
0.308568 0.525933 0.109819
0.351156 0.529305 0.124926
0.39173 0.533654 0.139971
0.430381 0.539132 0.154131
0.467674 0.545678 0.166384
0.504616 0.553185 0.175692
0.542596 0.561303 0.181781
0.581689 0.569284 0.187579
0.622126 0.577371 0.193301
0.663554 0.585184 0.198932
0.706127 0.592935 0.204547
0.750027 0.600778 0.210101
0.7944 0.608347 0.215503
0.795727 0.612833 0.21799
0.79707 0.617578 0.220523
0.798398 0.622156 0.223011
0.79971 0.626734 0.225574
0.801083 0.631495 0.228107
0.802396 0.636057 0.23061
0.803723 0.64065 0.233173
0.805097 0.645411 0.235706
0.806409 0.649989 0.238209
0.807752 0.654582 0.240787
0.809125 0.659342 0.243336
0.00508125 0.532174 0.00434882
0.0221561 0.542245 0.0150759
0.0482643 0.550195 0.027985
0.0807813 0.556191 0.0408637
0.120836 0.560021 0.0568551
0.163973 0.562722 0.0728313
0.209155 0.56495 0.0895857
0.25478 0.56759 0.10692
0.299351 0.57055 0.1243
0.342229 0.57435 0.141314
0.382879 0.579355 0.157275
0.421546 0.585794 0.171069
0.458579 0.593332 0.181842
0.495277 0.60206 0.188815
0.532998 0.610758 0.195224
0.572045 0.619547 0.201572
0.6121 0.628077 0.207797
0.653315 0.63653 0.214099
0.695949 0.64506 0.22034
0.739544 0.653376 0.226474
0.784298 0.661723 0.232609
0.810117 0.668605 0.23714
0.81146 0.67332 0.239658
0.812802 0.67805 0.242237
0.814191 0.682948 0.2448
0.815549 0.687663 0.247333
0.816907 0.692393 0.249928
0.81825 0.697108 0.252476
0.819638 0.702007 0.255161
0.820996 0.706737 0.257862
0.822354 0.711543 0.260533
0.823758 0.716594 0.263233
0.825132 0.721447 0.265888
0.00555428 0.589593 0.00325017
0.0340887 0.596551 0.0215152
0.0708324 0.60116 0.0412146
0.11249 0.604318 0.0612497
0.157244 0.606958 0.0813764
0.203296 0.609033 0.101411
0.249409 0.611704 0.121355
0.294118 0.615183 0.140688
0.336477 0.619852 0.158663
0.376532 0.626017 0.17435
0.413962 0.633692 0.186587
0.449607 0.642939 0.194553
0.485924 0.652338 0.201694
0.523568 0.661845 0.208759
0.562341 0.671061 0.215686
0.602274 0.680217 0.222614
0.643549 0.689479 0.229465
0.685802 0.698589 0.236194
0.729213 0.707637 0.242924
0.773907 0.716625 0.249516
0.819638 0.725704 0.256077
0.826139 0.731029 0.259159
0.827512 0.735882 0.261738
0.828931 0.740932 0.264439
0.830289 0.745785 0.267109
0.831678 0.750652 0.269856
0.833097 0.755703 0.272557
0.83447 0.760647 0.275242
0.835874 0.765652 0.277989
0.837308 0.77084 0.28072
0.838712 0.77583 0.283406
0.840116 0.78085 0.286168
0.84155 0.786038 0.288914
0.0281071 0.641123 0.021973
0.0663157 0.645212 0.0460212
0.109361 0.648356 0.0698711
0.155184 0.65069 0.0932631
0.201785 0.653147 0.116075
0.247791 0.65626 0.137987
0.291569 0.660609 0.158251
0.33283 0.666468 0.176013
0.370733 0.674235 0.189944
0.405615 0.683879 0.199344
0.44062 0.693996 0.207095
0.476905 0.704036 0.21474
0.514321 0.714137 0.222309
0.552865 0.72401 0.229847
0.592721 0.733913 0.237263
0.633661 0.743923 0.244633
0.6757 0.753674 0.251881
0.718898 0.763348 0.259159
0.763531 0.773144 0.266407
0.80911 0.782635 0.273518
0.841093 0.790692 0.27924
0.842542 0.79588 0.281987
0.843931 0.80087 0.284672
0.84535 0.80589 0.287434
0.846799 0.811154 0.290166
0.848219 0.816281 0.292882
0.849653 0.821439 0.295644
0.851118 0.82678 0.298405
0.852537 0.831907 0.301213
0.853956 0.837049 0.304112
0.855421 0.84239 0.306981
0.856855 0.847532 0.309819
0.858289 0.852689 0.312718
0.0662089 0.688991 0.0548104
0.110307 0.69189 0.0820478
0.156741 0.694591 0.108309
0.20325 0.697536 0.13315
0.248264 0.701564 0.155993
0.290517 0.707118 0.176028
0.328969 0.714885 0.191974
0.363577 0.72488 0.202808
0.397116 0.735714 0.211139
0.431861 0.746471 0.21944
0.467964 0.757336 0.227649
0.505119 0.768017 0.235721
0.543465 0.778637 0.243854
0.583124 0.78938 0.251957
0.623896 0.799817 0.259876
0.665843 0.810178 0.267796
0.709117 0.820676 0.275624
0.753338 0.8309 0.283299
0.798733 0.841047 0.290959
0.845472 0.851331 0.298528
0.857832 0.857649 0.302388
0.859266 0.862867 0.30518
0.860761 0.868345 0.307958
0.862196 0.87361 0.310796
0.863645 0.878904 0.313695
0.865141 0.884382 0.316579
0.866575 0.889662 0.319432
0.86804 0.894942 0.322347
0.86952 0.900435 0.325231
0.87097 0.905715 0.328069
0.872435 0.911009 0.330999
0.873884 0.916304 0.333852
0.875395 0.92192 0.336736
0.114778 0.735882 0.0978103
0.161044 0.738903 0.126101
0.206699 0.742641 0.151904
0.249775 0.748028 0.174258
0.288899 0.755795 0.192508
0.323339 0.765942 0.204959
0.355398 0.777508 0.213901
0.388693 0.788998 0.222919
0.423346 0.800702 0.231861
0.459068 0.812116 0.240665
0.496086 0.823438 0.249439
0.534463 0.834897 0.258106
0.573846 0.846052 0.266636
0.614389 0.85713 0.275135
0.656291 0.868345 0.283528
0.699153 0.879271 0.291783
0.743191 0.890135 0.300023
0.788571 0.901122 0.308171
0.834989 0.911849 0.316243
0.873426 0.921584 0.323323
0.874937 0.927199 0.326207
0.876387 0.932616 0.329061
0.877867 0.938048 0.331975
0.879332 0.943481 0.334829
0.880858 0.949111 0.337728
0.882338 0.954543 0.340658
0.883803 0.959976 0.343526
0.885328 0.965606 0.346426
0.886809 0.971038 0.349371
0.887419 0.972641 0.351598
0.887724 0.972946 0.353475
0.888045 0.973266 0.355352
0.888365 0.973587 0.357305
0.167269 0.783948 0.145663
0.210727 0.789166 0.170886
0.250462 0.79678 0.191394
0.284703 0.806989 0.205814
0.31548 0.819364 0.215686
0.347295 0.831678 0.22536
0.380591 0.844129 0.234913
0.414969 0.856275 0.244312
0.450553 0.86833 0.253681
0.48748 0.880507 0.262943
0.525444 0.892393 0.272068
0.564599 0.904204 0.281147
0.605081 0.916136 0.290166
0.646555 0.927764 0.299107
0.689296 0.93933 0.308003
0.733196 0.949981 0.316579
0.777188 0.956344 0.324178
0.822278 0.96257 0.33167
0.868605 0.968673 0.338979
0.885863 0.971084 0.342733
0.886183 0.971405 0.344503
0.886519 0.971725 0.346334
0.886824 0.972045 0.348104
0.887144 0.972366 0.349966
0.887465 0.972686 0.351919
0.887785 0.973007 0.35378
0.88809 0.973312 0.355657
0.888411 0.973648 0.35761
0.888731 0.973953 0.359487
0.889036 0.974273 0.361364
0.889372 0.974594 0.363317
0.889677 0.974914 0.365194
0.889982 0.975219 0.367071
0.213642 0.837888 0.188647
0.247913 0.848386 0.205402
