assets/cube/orange_dark_7.cube
TITLE "Generated by Resolve"
LUT_3D_SIZE 9
0 0 0
1.5259e-05 1.5259e-05 1.5259e-05
0.00154116 0.00154116 0.00149538
0.00640879 0.00560006 0.00549325
0.0234836 0.0103304 0.0102998
0.112398 0.0219425 0.0219425
0.11696 0.0222171 0.0222171
0.11696 0.0222171 0.0222171
0.11696 0.0222171 0.0222171
0.00791943 0.00793469 0.00773632
0.0163424 0.0162814 0.0156405
0.0318303 0.0269627 0.0250248
0.0705119 0.0365148 0.0342718
0.141604 0.0424811 0.0403449
0.19144 0.0428779 0.0409094
0.183337 0.0406348 0.0390021
0.175235 0.0383764 0.0371099
0.186007 0.0413672 0.0396277
0.043061 0.0498817 0.041886
0.0625467 0.0702983 0.0536355
0.107805 0.090074 0.0677806
0.183261 0.102892 0.0762951
0.301823 0.108064 0.0772412
0.388052 0.104585 0.0726787
0.387182 0.104265 0.0725872
0.431113 0.121172 0.0773632
0.505821 0.15375 0.0919203
0.0703899 0.14757 0.0703288
0.105425 0.177966 0.0859846
0.177554 0.202411 0.0956588
0.29781 0.217594 0.0974289
0.465599 0.221897 0.0901198
0.609613 0.231052 0.0838331
0.649836 0.2598 0.101717
0.673228 0.283284 0.117037
0.683757 0.295491 0.121248
0.0594644 0.306737 0.059205
0.108553 0.34818 0.0744793
0.213031 0.376654 0.0840314
0.366125 0.38909 0.0926223
0.513176 0.407721 0.117494
0.651987 0.43386 0.149905
0.75259 0.454414 0.162341
0.757733 0.470771 0.17116
0.762829 0.487205 0.180301
0.00508125 0.532174 0.00434882
0.120836 0.560021 0.0568551
0.299351 0.57055 0.1243
0.458579 0.593332 0.181842
0.6121 0.628077 0.207797
0.784298 0.661723 0.232609
0.814191 0.682948 0.2448
0.819638 0.702007 0.255161
0.825132 0.721447 0.265888
0.114778 0.735882 0.0978103
0.288899 0.755795 0.192508
0.423346 0.800702 0.231861
0.573846 0.846052 0.266636
0.743191 0.890135 0.300023
0.874937 0.927199 0.326207
0.880858 0.949111 0.337728
0.886809 0.971038 0.349371
0.888365 0.973587 0.357305
0.24773 0.851392 0.220523
0.368505 0.88455 0.259129
0.507912 0.915114 0.295216
0.665553 0.943206 0.329061
0.841047 0.968978 0.360311
0.891081 0.976318 0.374044
0.892332 0.977569 0.382162
0.893568 0.978821 0.390249
0.894774 0.980026 0.398749
0.303136 0.871275 0.272526
0.432364 0.903471 0.311116
0.580011 0.933165 0.347265
0.745769 0.960433 0.381109
0.896178 0.981445 0.408652
0.897383 0.982651 0.417517
0.898573 0.983841 0.42649
0.899748 0.985031 0.435447
0.900908 0.986206 0.444862
0 0 0
0.000381476 0.000381476 0.000366217
0.00296025 0.00296025 0.00288396
0.0101625 0.00787366 0.00798047
0.034699 0.0126345 0.0130922
0.121691 0.0234989 0.0239109
0.120806 0.0232547 0.0235447
0.12015 0.0230869 0.0232853
0.119478 0.0229038 0.0230259
0.0110781 0.0111086 0.0108034
0.0207675 0.0205539 0.019852
0.0394598 0.0314946 0.0303197
0.0825513 0.0397955 0.0384833
0.150317 0.0452888 0.0438087
0.200381 0.0451972 0.0437934
0.191089 0.042649 0.0414282
0.182696 0.0403449 0.0393378
0.215228 0.0493019 0.0474556
0.0473487 0.0576638 0.0487984
0.0687419 0.0782788 0.0614481
0.114778 0.0958572 0.0740368
0.193225 0.108354 0.0821241
0.315465 0.112734 0.0822766
0.401373 0.108492 0.0770123
0.416907 0.114122 0.0805982
0.477958 0.138735 0.0958419
0.542214 0.169726 0.11751
0.0744335 0.157549 0.0787518
0.111009 0.187823 0.094728
0.185885 0.211887 0.10428
0.309575 0.226474 0.105562
0.471351 0.233631 0.102632
0.604379 0.250919 0.113283
0.675212 0.280232 0.13962
0.690181 0.296925 0.151125
0.699657 0.309697 0.157412
0.0625467 0.321721 0.0708476
0.114351 0.3626 0.0869154
0.226246 0.389181 0.101793
0.380316 0.404456 0.127962
0.521904 0.425864 0.168353
0.671672 0.452079 0.196414
0.763165 0.472755 0.210498
0.768277 0.489082 0.220935
0.773404 0.505898 0.231662
0.017731 0.548394 0.0317235
0.152743 0.570367 0.107912
0.327291 0.583642 0.18677
0.476936 0.61355 0.234546
0.632273 0.649042 0.262226
0.806607 0.68397 0.289357
0.825971 0.704265 0.302296
0.831495 0.723583 0.314214
0.837095 0.743435 0.326528
0.156329 0.74522 0.175982
0.309392 0.776516 0.253468
0.442298 0.824018 0.291768
0.594736 0.8701 0.328695
0.766217 0.915267 0.364218
0.88809 0.951598 0.39118
0.894057 0.973556 0.404196
0.896986 0.982254 0.414466
0.898161 0.983444 0.423438
0.262486 0.861677 0.282826
0.384741 0.895018 0.323156
0.525567 0.925765 0.360952
0.684779 0.95407 0.396399
0.861509 0.980056 0.429389
0.900725 0.986007 0.443305
0.901884 0.987167 0.452735
0.903029 0.988327 0.462242
0.904173 0.989471 0.472221
0.318151 0.881285 0.342245
0.44889 0.913664 0.382483
0.598001 0.943557 0.420294
0.765118 0.971008 0.455894
0.905501 0.990799 0.483742
0.9066 0.991913 0.49395
0.907698 0.993011 0.504311
0.908812 0.994141 0.514794
0.909895 0.995224 0.525612
0 0 0
0.00102235 0.00102235 0.000991836
0.00495918 0.00482185 0.00477607
0.015259 0.0102998 0.0111849
0.0552987 0.0182803 0.0212863
0.133242 0.0264286 0.0314183
0.132509 0.0262455 0.030808
0.131792 0.0260624 0.0302281
0.13106 0.0258946 0.0296483
0.0145113 0.0145724 0.0142061
0.0255894 0.0250095 0.0251621
0.047776 0.0360571 0.0383001
0.0948653 0.0440986 0.0485542
0.16553 0.0499733 0.0555581
0.218509 0.0494698 0.0555581
0.208499 0.0467842 0.0523079
0.206668 0.0463111 0.0515297
0.258778 0.0605783 0.0666209
0.0513466 0.0656138 0.0592813
0.074876 0.086244 0.0763714
0.124376 0.10367 0.0915541
0.207813 0.116014 0.101366
0.337087 0.119768 0.102754
0.428229 0.115969 0.0982986
0.458244 0.127764 0.107805
0.521721 0.156283 0.130724
0.569024 0.182269 0.151583
0.078584 0.168765 0.10135
0.11722 0.199435 0.120348
0.195987 0.22356 0.132418
0.32462 0.237949 0.136065
0.47744 0.248341 0.142153
0.599573 0.269932 0.163485
0.695445 0.297276 0.188495
0.705562 0.310521 0.197314
0.714549 0.323522 0.205707
0.0649882 0.337194 0.105592
0.12015 0.378164 0.125154
0.241398 0.402319 0.150607
0.393652 0.419059 0.187701
0.532921 0.443519 0.231113
0.691112 0.470115 0.254414
0.77319 0.490501 0.269963
0.778332 0.50724 0.281971
0.783551 0.524269 0.294347
0.0356909 0.561013 0.0974289
0.184924 0.579492 0.185565
0.351904 0.598291 0.260319
0.494911 0.633616 0.298054
0.652384 0.670176 0.328191
0.828351 0.705653 0.357488
0.837293 0.725139 0.371008
0.842939 0.745037 0.384634
0.848554 0.764752 0.398413
0.193042 0.756664 0.264515
0.325978 0.798718 0.322499
0.461143 0.847166 0.363012
0.615427 0.893996 0.402243
0.788815 0.940047 0.439872
0.900755 0.975494 0.467414
0.905119 0.990417 0.480476
0.906233 0.991547 0.490547
0.907332 0.992645 0.500893
0.276783 0.871351 0.35639
0.400504 0.904921 0.398352
0.542885 0.935851 0.437919
0.703273 0.96434 0.475044
0.881514 0.990478 0.509621
0.909712 0.995041 0.523827
0.910796 0.996124 0.534646
0.911864 0.997192 0.545602
0.912917 0.99826 0.556878
0.33286 0.8907 0.423117
0.464927 0.923278 0.465156
0.615457 0.953323 0.504646
0.783841 0.980987 0.541878
0.914137 0.999496 0.570138
0.915175 0.999786 0.581796
0.916197 0.999908 0.593545
0.91722 1 0.605371
0.918227 1 0.617716
0.000213626 0.000213626 0.000198367
0.00234989 0.00234989 0.00228885
0.00766003 0.00709544 0.00733959
0.0215763 0.0125734 0.0158846
0.0804608 0.0240024 0.0350805
0.145983 0.0292515 0.0454719
0.145205 0.0290837 0.0444343
0.144411 0.0289311 0.0434272
0.143648 0.0287633 0.0424201
0.0184329 0.0187381 0.0185245
0.0307774 0.0297551 0.0330205
0.0564584 0.0405737 0.0519875
0.105699 0.0489509 0.0667582
0.181659 0.0543832 0.0766003
0.23743 0.0532998 0.0774853
0.226993 0.0505837 0.0728771
0.238773 0.0538338 0.0757458
0.307454 0.0729076 0.0977798
0.0551614 0.0732433 0.077409
0.0810407 0.0937972 0.102312
0.133867 0.111238 0.121965
0.222293 0.123095 0.135927
0.358541 0.125917 0.141176
0.459525 0.124743 0.140139
0.499916 0.14229 0.15346
0.560128 0.173068 0.178485
0.589487 0.191272 0.194156
0.0817884 0.17937 0.140673
0.122393 0.210498 0.165423
0.205051 0.234226 0.182773
0.336507 0.248646 0.192004
0.480674 0.262928 0.203937
0.596613 0.288518 0.227268
0.710857 0.31078 0.245762
0.719341 0.324056 0.256397
0.72752 0.337255 0.267292
0.0660868 0.351492 0.16643
0.126909 0.391241 0.193256
0.256977 0.413794 0.225757
0.40679 0.433509 0.264057
0.54789 0.460685 0.300481
0.710124 0.487572 0.323751
0.782757 0.508217 0.340871
0.787945 0.525109 0.354482
0.793149 0.542031 0.368261
0.0576028 0.570474 0.194018
0.21622 0.58883 0.27837
0.371969 0.614847 0.339101
0.512566 0.653315 0.373053
0.671931 0.690745 0.405417
0.842603 0.726467 0.436454
0.848219 0.74609 0.451225
0.853864 0.765835 0.466285
0.859541 0.785672 0.481697
0.221805 0.771527 0.356176
0.342473 0.820768 0.403037
0.479438 0.869718 0.445762
0.635706 0.917632 0.487098
0.811231 0.964675 0.527153
0.912734 0.998077 0.555016
0.913787 0.999146 0.566293
0.914839 0.999756 0.57792
0.915862 0.999863 0.58967
0.290608 0.880461 0.441245
0.415702 0.914183 0.484855
0.559472 0.945296 0.52607
0.721416 0.974014 0.565057
0.901106 0.998856 0.601373
0.918044 1 0.615579
0.919051 1 0.627924
0.920043 1 0.640314
0.921004 1 0.652995
0.346853 0.899489 0.515373
0.480339 0.932265 0.558999
0.632441 0.962524 0.600397
0.802228 0.990372 0.639368
0.922133 1 0.667781
0.923095 1 0.681025
0.924025 1 0.694179
0.924971 1 0.707454
0.925887 1 0.72108
0.000701915 0.000701915 0.000686656
0.00399786 0.00399786 0.00390631
0.0111238 0.00959792 0.0110781
0.0294347 0.0149538 0.0243076
0.105745 0.0288853 0.0578164
0.159564 0.0317998 0.067689
0.15874 0.0316625 0.0661326
0.157916 0.0315099 0.0645914
0.156954 0.031342 0.0628061
0.0223697 0.0230564 0.0242161
0.0361639 0.0345312 0.0461433
0.0651102 0.0449226 0.0749981
0.116747 0.0536355 0.0947127
0.19852 0.05832 0.109468
0.257053 0.0565499 0.112154
0.24683 0.0540017 0.105806
0.277638 0.0624399 0.114168
0.357855 0.0857557 0.140764
0.058732 0.0804913 0.108583
0.0869154 0.101015 0.141604
0.142901 0.118227 0.1682
0.236545 0.129412 0.189166
0.379385 0.130999 0.200885
0.493324 0.13431 0.20325
0.540124 0.157443 0.21503
0.590951 0.188159 0.235782
0.608911 0.199832 0.248463
0.0838331 0.189242 0.200153
0.126314 0.220447 0.233356
0.212955 0.243748 0.258762
0.345739 0.258976 0.272007
0.482261 0.277546 0.281834
0.599176 0.305638 0.300023
0.723461 0.323903 0.315541
0.730831 0.337301 0.328603
0.737469 0.35111 0.342138
0.0657664 0.364065 0.256428
0.135622 0.40206 0.290303
0.272663 0.424887 0.319081
0.420157 0.44828 0.349828
0.564508 0.477089 0.379019
0.728969 0.504936 0.404776
0.791791 0.525383 0.423041
0.797024 0.542336 0.438346
0.802335 0.559792 0.453742
0.0837415 0.578058 0.31046
0.245441 0.599359 0.377859
0.38761 0.633265 0.423758
0.529915 0.67277 0.459571
0.691279 0.711131 0.494316
0.852949 0.746578 0.526406
0.858625 0.766369 0.542824
0.864378 0.786343 0.559518
0.87013 0.806607 0.576379
0.239506 0.790951 0.448692
0.358541 0.842222 0.495033
0.497368 0.892103 0.540063
0.655879 0.941131 0.583688
0.833021 0.988663 0.625849
0.920851 1 0.650904
0.921813 1 0.6636
0.922774 1 0.676555
0.92372 1 0.689845
0.303716 0.88896 0.537408
0.430396 0.92285 0.582681
0.575616 0.954192 0.625727
0.738933 0.983047 0.666285
0.919921 1 0.704585
0.925734 1 0.718837
0.92665 1 0.732464
0.92755 1 0.746456
0.92845 1 0.76054
0.360357 0.907729 0.618997
0.495415 0.940658 0.664332
0.648676 0.971099 0.707408
0.819989 0.998108 0.748302
0.929488 1 0.776974
0.930343 1 0.791547
0.931212 1 0.806256
0.932067 1 0.821012
0.932891 1 0.836057
0.00178531 0.00178531 0.00173953
0.00631724 0.0062562 0.00628672
0.0154116 0.0122835 0.0173953
0.042298 0.0195621 0.0433204
0.123919 0.0322271 0.0895247
0.173907 0.0339055 0.100175
0.173037 0.0337987 0.0979324
0.172168 0.0336919 0.0957351
0.170138 0.0334173 0.0907149
0.0264744 0.0278172 0.0333715
0.041474 0.0391699 0.0688182
0.073167 0.0492409 0.109972
0.128099 0.0579232 0.13492
0.215991 0.0615854 0.157168
0.27715 0.0589761 0.1626
0.273686 0.0584268 0.155673
0.322148 0.0721599 0.167452
0.406134 0.098497 0.194003
0.0620432 0.0869154 0.157046
0.0921645 0.107698 0.19733
0.151324 0.124498 0.233707
0.249989 0.134585 0.264485
0.39646 0.135897 0.284306
0.527855 0.144976 0.284566
0.576135 0.173281 0.287587
0.61413 0.19913 0.301732
0.626764 0.208484 0.315267
0.0845045 0.198184 0.283421
0.128817 0.229129 0.32784
0.219333 0.251637 0.362768
0.352911 0.269032 0.370077
0.483726 0.29276 0.368505
0.609308 0.320745 0.380377
0.733928 0.336721 0.398413
0.740215 0.350454 0.413687
0.745556 0.365179 0.429114
0.06392 0.374945 0.378286
0.146151 0.411337 0.408896
0.289113 0.435904 0.421836
0.433982 0.463447 0.440467
0.58114 0.493233 0.4692
0.747219 0.522026 0.497353
0.800336 0.542107 0.516762
0.805661 0.559426 0.53373
0.810987 0.576974 0.550652
0.112367 0.585504 0.434348
0.270954 0.612116 0.479438
0.402838 0.651804 0.519463
0.547051 0.692027 0.557687
0.710292 0.730999 0.59469
0.862821 0.766323 0.627939
0.86862 0.786358 0.64596
0.874388 0.806485 0.664225
0.880201 0.826871 0.682643
0.253254 0.811307 0.549996
0.374365 0.863554 0.59852
0.515251 0.914473 0.646006
0.675471 0.964019 0.691844
0.852338 1 0.734127
0.928298 1 0.758221
0.929183 1 0.77232
0.930053 1 0.78674
0.930922 1 0.801312
0.316503 0.896849 0.6448
0.444602 0.930938 0.691951
0.59115 0.962432 0.736751
0.75584 0.991485 0.779126
0.93193 1 0.818524
0.932754 1 0.83357
0.933593 1 0.848615
0.934401 1 0.863935
0.935225 1 0.879606
0.373297 0.915312 0.733989
0.509758 0.94844 0.781079
0.664424 0.979049 0.826001
0.837308 1 0.868772
0.936156 1 0.897734
0.936934 1 0.913725
0.937713 1 0.929717
0.938125 1 0.938125
0.938125 1 0.938125
0.00323491 0.00323491 0.00315862
0.0090486 0.00874342 0.00970474
0.0205844 0.0151522 0.02916
0.059968 0.0256657 0.0798657
0.136263 0.0344244 0.129854
0.18883 0.0353704 0.145312
0.187915 0.0353094 0.142199
0.18703 0.0352331 0.139223
0.182361 0.0348363 0.124163
0.0304417 0.0325475 0.0495613
0.0465553 0.0434424 0.106645
0.0806592 0.0536202 0.15668
0.139544 0.0616007 0.190463
0.233616 0.0638743 0.222889
0.297597 0.0603494 0.232227
0.306798 0.0636149 0.223835
0.369329 0.0826123 0.233967
0.448707 0.110246 0.255192
0.0649577 0.0928054 0.222263
0.0965744 0.113664 0.273091
0.15874 0.129686 0.322148
0.262379 0.138415 0.365484
0.407599 0.141466 0.387671
0.538354 0.15761 0.37583
0.607279 0.188724 0.367498
0.631586 0.207126 0.379248
0.643641 0.216724 0.395544
0.0835279 0.205707 0.394018
0.129625 0.236316 0.452354
0.225025 0.258579 0.490684
0.359182 0.279744 0.478004
0.487114 0.307881 0.460014
0.627436 0.333043 0.472511
0.74229 0.349584 0.493843
0.747631 0.364019 0.510842
0.75288 0.378683 0.527871
0.0623941 0.383612 0.529992
0.159014 0.419837 0.538872
0.306157 0.447639 0.527291
0.447944 0.478508 0.539269
0.597177 0.509148 0.570886
0.765286 0.538903 0.601572
0.808438 0.558511 0.622034
0.813779 0.576074 0.640452
0.81915 0.593683 0.659052
0.141894 0.594018 0.557351
0.290333 0.62739 0.585168
0.417563 0.669764 0.626825
0.563622 0.710704 0.667216
0.729168 0.750957 0.706752
0.872267 0.785794 0.74107
0.878065 0.805798 0.760479
0.883909 0.826215 0.780514
0.88983 0.846845 0.800549
0.266789 0.831479 0.662974
0.389685 0.884596 0.713756
0.532616 0.936233 0.763394
0.694072 0.983337 0.811032
0.870085 1 0.852781
0.935073 1 0.87689
0.935897 1 0.892561
0.936675 1 0.908446
0.937453 1 0.924437
0.328664 0.904112 0.763699
0.458061 0.938384 0.812467
0.606287 0.970077 0.859281
0.772274 0.999146 0.903517
0.938125 1 0.938125
0.938125 1 0.938125
0.938125 1 0.938125
0.938125 1 0.938125
0.938125 1 0.938125
0.384878 0.921416 0.836378
0.522072 0.95404 0.86894
0.677516 0.984054 0.898802
0.85066 1 0.926131
0.938125 1 0.938125
0.938125 1 0.938125
0.938125 1 0.938125
0.938125 1 0.938125
0.938125 1 0.938125
0.00534066 0.00534066 0.00521859
0.0122835 0.0115206 0.0158694
0.0264591 0.0179599 0.0508278
0.0769665 0.0304112 0.134401
0.147982 0.0358282 0.178561
0.203601 0.0359808 0.203601
0.203189 0.0359808 0.201785
0.201663 0.0359503 0.195163
0.192966 0.0356451 0.16025
0.0341497 0.0370794 0.0788739
0.0509041 0.0470741 0.161547
0.0863508 0.0567483 0.201755
0.149187 0.0641489 0.24918
0.249302 0.0649577 0.297154
0.317357 0.0606851 0.317357
0.345052 0.0696727 0.309041
0.416327 0.0937819 0.310445
0.482261 0.119722 0.32369
0.0665751 0.0964523 0.269047
0.0991073 0.117372 0.334462
0.163775 0.132982 0.400336
0.271611 0.14052 0.462028
0.414008 0.148348 0.5037
0.533898 0.171908 0.469596
0.632624 0.202167 0.454643
0.647532 0.214725 0.47039
0.65919 0.224353 0.48983
0.0823377 0.210056 0.466514
0.129564 0.240558 0.542382
0.230396 0.26508 0.613077
0.36527 0.29131 0.587839
0.493172 0.322728 0.556069
0.645411 0.344884 0.578164
0.749142 0.36231 0.600916
0.754345 0.377005 0.619654
0.759609 0.391882 0.638331
0.0648051 0.38996 0.631434
0.174212 0.428717 0.670069
0.32372 0.460365 0.632242
0.461723 0.493172 0.650324
0.613016 0.52491 0.684413
0.782971 0.555169 0.717189
0.816022 0.574624 0.738857
0.821454 0.592416 0.758877
0.826886 0.610101 0.778897
0.170855 0.604318 0.676066
0.303319 0.644221 0.701701
0.431907 0.687327 0.74583
0.58027 0.729473 0.788571
0.747448 0.770321 0.830259
0.881178 0.804578 0.865736
0.887114 0.825208 0.886809
0.892378 0.845045 0.892378
0.897642 0.865034 0.897642
0.27982 0.851316 0.787564
0.404715 0.90515 0.838346
0.549004 0.957092 0.874083
0.708247 0.989334 0.904067
0.884749 1 0.930922
0.938125 1 0.938125
0.938125 1 0.938125
0.938125 1 0.938125
0.938125 1 0.938125
0.338003 0.908431 0.823438
0.468147 0.942046 0.856962
0.616693 0.973022 0.887816
0.783169 1 0.916121
0.938125 1 0.938125
0.938125 1 0.938125
0.938125 1 0.938125
0.938125 1 0.938125
0.938125 1 0.938125
0.392569 0.923445 0.838422
0.5308 0.955886 0.870771
0.687251 0.985748 0.900496
0.861631 1 0.927687
0.938125 1 0.938125
0.938125 1 0.938125
0.938125 1 0.938125
0.938125 1 0.938125
0.938125 1 0.938125
0.00773632 0.00773632 0.00791943
0.0159609 0.0144961 0.0280308
0.0327153 0.0204471 0.0884565
0.080293 0.0308843 0.136965
0.148882 0.0358434 0.179004
0.203601 0.0359808 0.203601
0.203601 0.0359808 0.203601
0.203601 0.0359808 0.203601
0.207263 0.0371252 0.200671
0.0372625 0.0410315 0.129854
0.0504768 0.0464942 0.160037
0.0877394 0.057557 0.204303
0.151461 0.0649424 0.252094
0.25275 0.0655985 0.300267
0.327703 0.0630961 0.327703
0.38294 0.0770886 0.38294
0.459998 0.105211 0.393133
0.505196 0.124544 0.403082
0.067216 0.0977646 0.272068
0.10013 0.11873 0.337697
0.165576 0.134371 0.403754
0.274144 0.142916 0.467155
0.412039 0.15758 0.538613
0.530648 0.186542 0.563775
0.650919 0.212131 0.55404
0.662226 0.221759 0.57615
0.673365 0.231724 0.59855
0.0825055 0.212177 0.469718
0.130846 0.243 0.545968
0.236988 0.271809 0.621637
0.372122 0.30367 0.683909
0.50338 0.335866 0.663111
0.661326 0.356664 0.695781
0.755245 0.374777 0.719783
0.760479 0.389685 0.740017
0.765667 0.404746 0.760388
0.0726635 0.395865 0.641749
0.192142 0.437705 0.716533
0.339666 0.473777 0.741634
0.475273 0.50782 0.773175
0.628031 0.539803 0.796597
0.799527 0.570535 0.815595
0.821958 0.589242 0.821958
0.826932 0.606455 0.826932
0.831937 0.624063 0.831937
0.1953 0.615732 0.748302
0.314473 0.6598 0.782315
0.444434 0.703166 0.812024
0.593957 0.745296 0.840116
0.762097 0.786023 0.866789
0.885557 0.819287 0.885557
0.890806 0.839109 0.890806
0.896056 0.858946 0.896056
0.901396 0.879515 0.901396
0.289158 0.867536 0.805371
0.415244 0.921126 0.842985
0.558373 0.961624 0.876478
0.718227 0.990997 0.905715
0.895827 1 0.932464
0.938125 1 0.938125
0.938125 1 0.938125
0.938125 1 0.938125
0.938125 1 0.938125
0.345083 0.910506 0.825513
0.476463 0.943938 0.858854
0.625971 0.974777 0.88957
0.793774 1 0.917723
0.938125 1 0.938125
0.938125 1 0.938125
0.938125 1 0.938125
0.938125 1 0.938125
0.938125 1 0.938125
0.400168 0.92546 0.840421
0.539605 0.957717 0.872587
0.697154 0.987472 0.902205
0.872557 1 0.929213
0.938125 1 0.938125
0.938125 1 0.938125
0.938125 1 0.938125
0.938125 1 0.938125
0.938125 1 0.938125
