assets/cube/orange_dark_look.cube
TITLE "Generated by Resolve"
LUT_3D_SIZE 9
0.000854505 0.000381476 0
0.00383001 0 0
0.0290532 0 0
0.0928969 0 0
0.161791 0 0
0.228092 0 0
0.295766 0 0
0.370123 0 0
0.454093 0 0
0.00447089 0.00587472 0
0.0132296 0.00967422 0.0009308
0.0483711 0.00972 0
0.130846 0.0016022 0
0.224445 0 0
0.321981 0 0
0.426841 0.0110323 0
0.537881 0.0300603 0.00341802
0.651926 0.0552682 0.0188907
0.0135958 0.0422827 0.00688182
0.0387274 0.0598306 0.0182803
0.0970932 0.0770428 0.0287022
0.210544 0.0894331 0.035996
0.33724 0.107317 0.0446174
0.460899 0.131289 0.0563668
0.580606 0.159548 0.0719158
0.694575 0.189746 0.0899825
0.801572 0.220356 0.109422
0.0449989 0.157763 0.0362402
0.0923629 0.200336 0.0588693
0.182132 0.235157 0.0832685
0.315038 0.259678 0.101167
0.444984 0.284718 0.116396
0.562341 0.311284 0.131548
0.670115 0.33904 0.14728
0.769223 0.366705 0.163226
0.860136 0.393545 0.179019
0.109041 0.345434 0.0893721
0.165606 0.390066 0.117571
0.266514 0.420096 0.145144
0.405463 0.437156 0.164172
0.530144 0.456123 0.17879
0.638498 0.477531 0.192554
0.735439 0.500084 0.206104
0.823377 0.522835 0.219425
0.903761 0.545357 0.232517
0.171572 0.529152 0.144594
0.228504 0.56582 0.171435
0.332692 0.586603 0.197864
0.474617 0.594629 0.216327
0.595926 0.606531 0.229603
0.698344 0.622415 0.241825
0.788296 0.64004 0.253559
0.868986 0.658335 0.264942
0.942733 0.677272 0.276265
0.22179 0.689174 0.190753
0.27779 0.718883 0.215549
0.383429 0.732128 0.240818
0.52726 0.732784 0.25893
0.646693 0.738888 0.271382
0.74522 0.750027 0.282445
0.830533 0.763607 0.292912
0.906371 0.778302 0.302968
0.975326 0.794064 0.312963
0.261662 0.829023 0.228367
0.316518 0.853193 0.251438
0.422797 0.860471 0.275959
0.56762 0.855009 0.29398
0.686107 0.856718 0.306172
0.781949 0.863996 0.316503
0.863966 0.874205 0.326101
0.936248 0.885908 0.335195
1 0.898878 0.344152
0.293599 0.952728 0.259144
0.347265 0.972381 0.280812
0.453727 0.974914 0.304982
0.599374 0.964828 0.323445
0.716976 0.962722 0.335576
0.810834 0.966796 0.34548
0.890288 0.974136 0.354452
0.959808 0.983246 0.362829
1 0.993774 0.370977
0.000885023 0.000274662 0
0.00389105 4.57771e-05 0
0.0293889 0 0
0.0941634 0 0
0.164752 0 0
0.233341 0 0
0.304387 0 0
0.382788 0 0
0.470649 0 0
0.00601205 0.00706493 0.000732433
0.0149691 0.0117952 0.00427253
0.051545 0.0128939 0.00425727
0.137804 0.00581369 0
0.235691 0.00289921 0
0.337438 0.00779736 0
0.44625 0.0213474 0.00201419
0.56022 0.0423438 0.0160372
0.67454 0.0683146 0.0353246
0.0181888 0.048127 0.0126192
0.0470741 0.0676127 0.0238651
0.10811 0.087953 0.0364996
0.225452 0.102358 0.0448615
0.355383 0.121599 0.0557717
0.480797 0.146395 0.070634
0.600687 0.174701 0.0887465
0.713726 0.204379 0.108736
0.81912 0.234089 0.129549
0.0553597 0.173175 0.0453346
0.105608 0.216098 0.0716716
0.19823 0.251148 0.0986648
0.331548 0.275883 0.116457
0.460975 0.300099 0.131731
0.578256 0.326299 0.147768
0.685069 0.35314 0.164263
0.783322 0.380072 0.181048
0.873564 0.406378 0.197726
0.121035 0.362448 0.10454
0.178836 0.406149 0.134737
0.281254 0.435111 0.162982
0.420005 0.451438 0.181109
0.543511 0.46949 0.194919
0.651148 0.490349 0.208667
0.747387 0.512337 0.222461
0.834669 0.534554 0.236149
0.914595 0.556725 0.249775
0.182528 0.543801 0.162051
0.240131 0.579614 0.189837
0.345235 0.599252 0.216098
0.486992 0.606439 0.233341
0.607462 0.617884 0.245762
0.709209 0.633417 0.257649
0.798596 0.650721 0.269398
0.87863 0.668559 0.280858
0.951873 0.68716 0.292424
0.231586 0.701549 0.208957
0.287953 0.730449 0.234165
0.394247 0.742718 0.258885
0.537957 0.742611 0.275624
0.657008 0.748684 0.287266
0.75494 0.759609 0.297871
0.839597 0.772824 0.308095
0.914916 0.787243 0.31812
0.983307 0.80267 0.328176
0.270466 0.839475 0.246693
0.325521 0.862928 0.269871
0.43241 0.869566 0.293721
0.577447 0.863737 0.310414
0.695491 0.865263 0.321645
0.790768 0.872343 0.331395
0.872007 0.882078 0.340536
0.943954 0.893706 0.349569
1 0.906477 0.358526
0.301595 0.961608 0.277302
0.355474 0.980789 0.299001
0.462501 0.982879 0.322377
0.608362 0.972488 0.339406
0.725567 0.970199 0.350469
0.818891 0.97406 0.359701
0.897673 0.981018 0.368185
0.966918 0.990158 0.37644
1 1 0.384527
0.000549325 0 1.5259e-05
0.00540169 0 0
0.0295109 0 0
0.0937972 0 0
0.165316 0 0
0.236011 0 0
0.310536 0 0
0.392905 0 0
0.484031 0 0
0.00595102 0.00909438 0.0041352
0.0180819 0.0141604 0.00680552
0.053727 0.016907 0.0107424
0.142702 0.0112306 0.00682078
0.244327 0.0102235 0.00567636
0.350134 0.0173648 0.0119631
0.461677 0.0327764 0.0262303
0.577295 0.0552377 0.0474556
0.692103 0.0821241 0.073167
0.0233768 0.0545815 0.0221256
0.057145 0.0753643 0.0392004
0.116457 0.099443 0.059266
0.236606 0.116213 0.069337
0.368261 0.135988 0.0840772
0.494957 0.161501 0.103792
0.614694 0.189837 0.126299
0.726452 0.218875 0.149905
0.830655 0.248035 0.173999
0.0668956 0.187564 0.0685588
0.120714 0.230945 0.101701
0.216297 0.264988 0.134142
0.344671 0.290898 0.151904
0.472435 0.315221 0.167437
0.588739 0.340993 0.18497
0.694438 0.367132 0.203235
0.79089 0.392859 0.22153
0.880385 0.418753 0.240208
0.133974 0.377096 0.138277
0.19321 0.419745 0.172152
0.297612 0.44715 0.20267
0.43389 0.4636 0.2206
0.554314 0.48191 0.233433
0.659953 0.502464 0.247135
0.75465 0.523903 0.261448
0.840513 0.545434 0.275883
0.919753 0.567391 0.290715
0.194598 0.555673 0.200855
0.253056 0.590631 0.230777
0.35967 0.609125 0.257786
0.499962 0.615732 0.27393
0.617929 0.627634 0.285252
0.71751 0.643061 0.296559
0.805356 0.660166 0.308309
0.884291 0.677852 0.320165
0.956603 0.696208 0.332372
0.242878 0.711223 0.250492
0.299748 0.73933 0.27689
0.407156 0.750668 0.301427
0.550164 0.750072 0.316594
0.667124 0.756359 0.326879
0.763195 0.767391 0.336706
0.846372 0.780575 0.346639
0.920638 0.79501 0.356771
0.988037 0.810254 0.367086
0.281071 0.847272 0.289631
0.336446 0.870024 0.31342
0.444099 0.875807 0.336416
0.588922 0.869749 0.351232
0.705379 0.871489 0.360952
0.799084 0.878737 0.369772
0.87895 0.888518 0.378408
0.949798 0.90013 0.387289
1 0.912764 0.396277
0.311635 0.967803 0.320836
0.365713 0.986374 0.342779
0.473289 0.987716 0.364843
0.619226 0.977386 0.379767
0.735225 0.97528 0.389166
0.8271 0.979217 0.397269
0.904707 0.986328 0.405112
0.972869 0.995422 0.413031
1 1 0.421042
0 0 0.0348669
0.00421149 0 0.0338293
0.0305943 0 0.0262913
0.092256 0 0.0140993
0.162493 0 0.00500496
0.233371 0 0.00170901
0.309453 0 0.00610361
0.394736 0 0.0200198
0.488533 0 0.0423743
0.00450141 0.00874342 0.0459297
0.0187076 0.014374 0.051957
0.0604257 0.0175326 0.0537118
0.146029 0.0148928 0.0560616
0.247623 0.0161288 0.0645151
0.355657 0.0256962 0.0828107
0.468635 0.0429541 0.109712
0.583902 0.0663462 0.142916
0.697887 0.0937514 0.179721
0.0245365 0.0600137 0.0740368
0.0577554 0.0839246 0.0966354
0.12845 0.108354 0.113664
0.242741 0.128527 0.141009
0.373434 0.149233 0.168582
0.498756 0.174701 0.19826
0.61677 0.202609 0.22945
0.72668 0.231083 0.2607
0.829221 0.259709 0.291752
0.0753338 0.199451 0.142947
0.130709 0.243473 0.183078
0.235233 0.275273 0.214847
0.342748 0.305455 0.244221
0.469078 0.329213 0.264332
0.584527 0.354086 0.286809
0.689174 0.379492 0.309911
0.784421 0.404471 0.332692
0.87245 0.429511 0.355581
0.14519 0.387976 0.232898
0.205158 0.429145 0.271061
0.315373 0.453559 0.303319
0.449119 0.468421 0.331594
0.554665 0.491035 0.343206
0.655543 0.512398 0.356542
0.747646 0.533486 0.372
0.832044 0.554788 0.388586
0.909789 0.576196 0.405737
0.205768 0.562585 0.306889
0.264714 0.596124 0.339437
0.375387 0.612573 0.36733
0.517372 0.61767 0.388663
0.625284 0.631907 0.400977
0.717678 0.648905 0.411048
0.801068 0.666285 0.422263
0.877668 0.684352 0.434867
0.948104 0.702678 0.448234
0.253834 0.714855 0.363378
0.311162 0.742031 0.391516
0.421622 0.751995 0.415869
0.566766 0.750118 0.433036
0.677791 0.757519 0.444129
0.767452 0.769909 0.453086
0.845975 0.783841 0.462272
0.91725 0.798917 0.472465
0.982391 0.814435 0.483284
0.292027 0.848554 0.406867
0.347784 0.870665 0.431708
0.457618 0.875212 0.453422
0.604501 0.868299 0.468315
0.717311 0.870573 0.47808
0.806027 0.878889 0.486183
0.881834 0.889632 0.494163
0.949538 0.9019 0.50277
1 0.914916 0.511864
0.322713 0.9673 0.440772
0.377035 0.985336 0.463157
0.486336 0.985809 0.483268
0.633997 0.974716 0.496757
0.747677 0.972992 0.505501
0.835767 0.977752 0.512749
0.909911 0.985733 0.519905
0.975113 0.995422 0.527352
1 1 0.53518
0 0 0.112337
0 0 0.111345
0.0286107 0 0.0992752
0.0923629 0 0.0829328
0.162753 0 0.0759747
0.234714 0 0.0782635
0.312551 0 0.0905165
0.4 0 0.114153
0.497505 0 0.148409
0.00148013 0.00567636 0.129885
0.0166781 0.0123903 0.140017
0.0637217 0.0163882 0.141222
0.154116 0.0154574 0.142275
0.25713 0.019028 0.157778
0.366644 0.0307927 0.186343
0.480812 0.049958 0.224155
0.595285 0.0740978 0.266773
0.708141 0.1019 0.312291
0.0250401 0.0629892 0.168383
0.0599069 0.0897078 0.200046
0.138308 0.114702 0.221988
0.261006 0.13518 0.243946
0.388357 0.157992 0.278279
0.510582 0.184039 0.316152
0.625544 0.211627 0.354391
0.732601 0.239445 0.391684
0.833082 0.267628 0.428504
0.0800946 0.210224 0.251377
0.134493 0.255116 0.29604
0.235248 0.288792 0.32195
0.361868 0.314153 0.333089
0.476066 0.339818 0.366293
0.586633 0.364172 0.39913
0.688518 0.388693 0.429191
0.782132 0.413184 0.457694
0.868696 0.437629 0.485313
0.150805 0.397848 0.352773
0.209567 0.438758 0.391867
0.318334 0.463493 0.41474
0.462623 0.476097 0.419654
0.544778 0.503716 0.442176
0.645655 0.523156 0.469642
0.737865 0.542992 0.491447
0.822049 0.563516 0.512566
0.899214 0.584176 0.533303
0.211307 0.569253 0.434119
0.269337 0.602243 0.466392
0.380255 0.61799 0.486839
0.533532 0.619821 0.500694
0.639002 0.6327 0.530999
0.710201 0.655619 0.539345
0.789929 0.673609 0.549996
0.865263 0.691386 0.563699
0.934844 0.709224 0.578576
0.259266 0.718502 0.495415
0.315984 0.745144 0.522881
0.427283 0.754284 0.541436
0.580987 0.750027 0.555505
0.694942 0.755352 0.576288
0.772137 0.770306 0.589822
0.84181 0.786694 0.597848
0.90866 0.80264 0.60708
0.97142 0.818463 0.617807
0.29752 0.849775 0.542168
0.352895 0.87155 0.566247
0.463966 0.875685 0.583307
0.617151 0.866743 0.595834
0.732952 0.867247 0.61117
0.815824 0.876173 0.623545
0.884443 0.888838 0.632364
0.946777 0.902373 0.640436
1 0.916167 0.649104
0.32842 0.96669 0.578317
0.382498 0.984512 0.599847
0.492943 0.984665 0.615763
0.645472 0.971923 0.626856
0.761746 0.96875 0.638849
0.847044 0.973617 0.649317
0.916304 0.982712 0.657832
0.976913 0.9935 0.665415
1 1 0.672953
0 0 0.180743
0 0 0.180468
0.0267643 0 0.16643
0.0932326 0 0.147189
0.165942 0 0.141451
0.240742 0 0.147997
0.322148 0 0.166567
0.41297 0 0.197375
0.513542 0 0.239445
0 0.0037232 0.204746
0.0158846 0.0114595 0.218235
0.0666972 0.0166629 0.220783
0.162936 0.0170748 0.221881
0.270802 0.0228733 0.242054
0.383139 0.0365606 0.276631
0.498909 0.0572671 0.320684
0.61384 0.082414 0.368856
0.725765 0.11043 0.418723
0.0270695 0.0674754 0.253849
0.064683 0.0966201 0.292393
0.14818 0.123125 0.318105
0.277516 0.143221 0.338048
0.406989 0.166751 0.372976
0.528466 0.193118 0.413428
0.641276 0.220188 0.454002
0.746899 0.247837 0.494285
0.845273 0.275334 0.533364
0.0863508 0.222385 0.346685
0.141054 0.267262 0.39408
0.242191 0.300542 0.419516
0.377325 0.323171 0.428809
0.495003 0.347799 0.454963
0.60174 0.372396 0.487739
0.699962 0.396445 0.519768
0.791333 0.420706 0.550988
0.876036 0.444755 0.581079
0.156588 0.409033 0.450721
0.214572 0.449363 0.489937
0.321569 0.474189 0.508293
0.463203 0.487587 0.506096
0.56672 0.509071 0.515816
0.656092 0.530892 0.544091
0.743236 0.550881 0.572091
0.825132 0.571145 0.597879
0.900893 0.59144 0.62208
0.216129 0.577859 0.533364
0.273411 0.610498 0.564904
0.382727 0.626352 0.579416
0.533257 0.629602 0.578424
0.645762 0.64213 0.578042
0.705928 0.666545 0.597681
0.784756 0.683146 0.625254
0.860395 0.699825 0.645884
0.929946 0.716838 0.664744
0.263523 0.724895 0.595697
0.319509 0.751171 0.621958
0.429892 0.760433 0.634852
0.584237 0.756283 0.637446
0.707897 0.759014 0.648539
0.788159 0.771237 0.678508
0.835508 0.793942 0.686351
0.90042 0.81001 0.695583
0.962829 0.825147 0.707362
0.301411 0.854246 0.643107
0.356054 0.875502 0.66569
0.466743 0.879896 0.677821
0.621851 0.870619 0.682231
0.744717 0.868925 0.694713
0.832013 0.875578 0.714855
0.8916 0.889967 0.730205
0.945434 0.905638 0.737606
0.999207 0.920089 0.744945
0.332097 0.969512 0.679667
0.385534 0.986877 0.699672
0.495949 0.987366 0.711269
0.650645 0.974182 0.716289
0.771817 0.969085 0.726986
0.860487 0.972457 0.742
0.92697 0.981582 0.755444
0.981979 0.993591 0.764858
1 1 0.77229
0 0 0.238148
0 0 0.239017
0.0259556 0 0.224338
0.095201 0 0.203601
0.170703 0 0.199115
0.24889 0 0.20943
0.334844 0 0.233967
0.429831 0 0.271107
0.533257 0 0.318959
0 0.00296025 0.269154
0.016556 0.011902 0.286107
0.0711681 0.0183871 0.290654
0.173083 0.0202029 0.292912
0.286122 0.0280461 0.316991
0.401968 0.0436408 0.356176
0.518624 0.0652628 0.403494
0.634302 0.09131 0.455238
0.745754 0.119615 0.507713
0.0304875 0.0737926 0.329427
0.0711223 0.105074 0.373266
0.159106 0.132845 0.401587
0.294102 0.153292 0.421195
0.425574 0.176593 0.455344
0.54696 0.202686 0.496162
0.659037 0.229526 0.537789
0.763577 0.256825 0.579232
0.860548 0.283757 0.619272
0.0936751 0.235599 0.42948
0.149325 0.280385 0.478614
0.251133 0.312337 0.502602
0.390539 0.333486 0.510414
0.511543 0.356664 0.53312
0.618051 0.38085 0.564019
0.714794 0.404593 0.59588
0.804456 0.428428 0.627604
0.88751 0.451942 0.658396
0.163287 0.421347 0.533196
0.220844 0.4607 0.571969
0.327031 0.484672 0.587289
0.469673 0.497566 0.583062
0.580972 0.516274 0.590814
0.671916 0.537011 0.61268
0.756298 0.557565 0.639536
0.835447 0.577783 0.666178
0.909255 0.59791 0.691768
0.221393 0.587503 0.61445
0.278172 0.619562 0.645167
0.386633 0.63537 0.656046
0.535073 0.6392 0.648875
0.647837 0.651209 0.646021
0.725246 0.67042 0.655879
0.795666 0.689311 0.680323
0.866606 0.706554 0.705165
0.933928 0.723445 0.72752
0.267903 0.732464 0.676051
0.323415 0.758358 0.701289
0.433051 0.767773 0.710262
0.585657 0.764218 0.704921
0.706523 0.768139 0.703853
0.790707 0.781109 0.70428
0.834302 0.8038 0.720958
0.897231 0.818708 0.747478
0.959823 0.832776 0.766125
0.305272 0.860243 0.723079
0.359472 0.881178 0.744472
0.46952 0.885649 0.752667
0.623941 0.876661 0.749722
0.747753 0.874784 0.753307
0.842863 0.879637 0.765469
0.909422 0.8907 0.792676
0.941848 0.912032 0.803357
0.993103 0.926986 0.81001
0.335546 0.974029 0.759152
0.388632 0.991257 0.778058
0.498527 0.99176 0.785855
0.653315 0.978683 0.784665
0.776654 0.973083 0.790021
0.870604 0.974792 0.803159
0.941299 0.981918 0.82182
0.991073 0.994446 0.837629
1 1 0.845823
0 0 0.287541
0 0 0.289616
0.0260319 0 0.275105
0.0983139 0 0.254032
0.177218 0 0.251453
0.259205 0 0.265522
0.349187 0 0.294926
0.448768 0 0.338018
0.555215 0 0.390829
0 0.00306706 0.32578
0.0183871 0.0134279 0.346593
0.0772412 0.0214389 0.353948
0.184924 0.0247959 0.358068
0.302724 0.0344244 0.38526
0.422049 0.0518196 0.428107
0.540032 0.0744335 0.477913
0.655619 0.100847 0.531273
0.766232 0.129076 0.584863
0.0351568 0.0817426 0.398199
0.0789807 0.114961 0.446342
0.171038 0.143664 0.476295
0.310826 0.164401 0.495598
0.444389 0.187488 0.529
0.565515 0.212879 0.569009
0.676921 0.2392 0.610605
0.780545 0.266026 0.652293
0.8766 0.292546 0.692775
0.101549 0.249256 0.502846
0.158358 0.293889 0.553017
0.261677 0.325139 0.57612
0.403769 0.344762 0.581918
0.526802 0.366415 0.602014
0.633127 0.38941 0.63061
0.729686 0.413016 0.662089
0.818448 0.436469 0.693721
0.900252 0.459419 0.724437
0.170459 0.434104 0.604822
0.227863 0.472419 0.642893
0.334203 0.495781 0.656275
0.477791 0.507546 0.650004
0.59266 0.524514 0.656352
0.68603 0.544198 0.675212
0.770047 0.564462 0.699962
0.847807 0.584512 0.725856
0.919829 0.604089 0.751141
0.227207 0.597955 0.683879
0.283406 0.628885 0.713283
0.391608 0.644602 0.721752
0.53933 0.648295 0.711147
0.653696 0.659403 0.707713
0.737911 0.676249 0.715801
0.809903 0.69456 0.734859
0.878126 0.712108 0.757839
0.942885 0.729 0.780438
0.272618 0.74081 0.743801
0.327688 0.766033 0.76788
0.436942 0.775525 0.77409
0.588342 0.772305 0.763882
0.707027 0.776455 0.75819
0.792294 0.788998 0.757733
0.85211 0.806989 0.766659
0.907652 0.824033 0.788464
0.965682 0.838849 0.810727
0.30927 0.866957 0.7897
0.36321 0.887648 0.810178
0.472816 0.892149 0.815366
0.626276 0.883436 0.80708
0.748592 0.881941 0.804288
0.841886 0.887816 0.806622
0.911086 0.899733 0.809354
0.941283 0.921157 0.822721
0.989395 0.935363 0.847257
0.339071 0.979477 0.824964
0.391943 0.996582 0.842954
0.501411 0.99707 0.84773
0.655619 0.984115 0.841428
0.778866 0.978637 0.841413
0.874296 0.980117 0.848386
0.951049 0.985641 0.861845
1 0.99527 0.885115
1 1 0.900221
0 0 0.33106
0 0 0.334447
0.0268406 0 0.320165
0.102388 0 0.299702
0.185275 0 0.299763
0.271901 0 0.318196
0.36611 0 0.352239
0.469276 0 0.399878
0.578546 0.00173953 0.45684
0 0.0040589 0.376867
0.021149 0.0158389 0.401312
0.0843061 0.0254215 0.411627
0.198367 0.0307164 0.418799
0.320699 0.0420233 0.448631
0.442847 0.0608377 0.493965
0.56231 0.0844434 0.545724
0.677821 0.111131 0.599985
0.787259 0.139055 0.653635
0.0408331 0.090837 0.461433
0.0880293 0.126055 0.513512
0.183764 0.155306 0.544152
0.327474 0.175998 0.562676
0.462989 0.198856 0.59527
0.5841 0.22359 0.634318
0.695186 0.249516 0.675654
0.797681 0.275563 0.716777
0.892592 0.301411 0.756939
0.110002 0.263478 0.569177
0.167636 0.307347 0.619196
0.272572 0.337957 0.641367
0.417044 0.356451 0.645411
0.541695 0.376928 0.663584
0.648188 0.398901 0.690349
0.744274 0.42179 0.720729
0.832349 0.444724 0.751797
0.913359 0.467216 0.7823
0.177783 0.44686 0.667903
0.23534 0.484382 0.705409
0.342214 0.507134 0.717235
0.48687 0.517876 0.709148
0.603616 0.533272 0.713924
0.69868 0.55198 0.730907
0.783017 0.571756 0.754009
0.860258 0.591531 0.778988
0.931441 0.610849 0.80383
0.23331 0.608759 0.744503
0.289448 0.639094 0.773175
0.397528 0.654246 0.779431
0.545083 0.657404 0.766262
0.660349 0.667277 0.761807
0.748196 0.683024 0.769268
0.822324 0.700496 0.785672
0.889982 0.717678 0.806287
0.953613 0.734661 0.828138
0.277577 0.749569 0.802319
0.33254 0.774487 0.825696
0.441474 0.783597 0.829435
0.592187 0.780331 0.815854
0.710231 0.784436 0.808148
0.797162 0.796109 0.807721
0.863325 0.811917 0.815335
0.920409 0.828138 0.831647
0.97612 0.843626 0.852079
0.313359 0.874022 0.846616
0.367224 0.894606 0.866468
0.476539 0.898955 0.8692
0.629313 0.89044 0.857099
0.750408 0.889265 0.850599
0.841901 0.895582 0.84921
0.910338 0.907485 0.849775
0.95671 0.924178 0.855924
0.998871 0.940322 0.875761
0.342687 0.985473 0.880964
0.395438 1 0.898192
0.504646 1 0.900587
0.658183 0.989914 0.890181
0.780835 0.984817 0.886244
0.87541 0.986557 0.888182
0.95169 0.992584 0.893584
1 1 0.900755
1 1 0.916197
