assets/cube/orange_dark_look.cube
TITLE "Generated by Resolve"
LUT_3D_SIZE 5
0.000854505 0.000381476 0
0.0290532 0 0
0.161791 0 0
0.295766 0 0
0.454093 0 0
0.0135958 0.0422827 0.00688182
0.0970932 0.0770428 0.0287022
0.33724 0.107317 0.0446174
0.580606 0.159548 0.0719158
0.801572 0.220356 0.109422
0.109041 0.345434 0.0893721
0.266514 0.420096 0.145144
0.530144 0.456123 0.17879
0.735439 0.500084 0.206104
0.903761 0.545357 0.232517
0.22179 0.689174 0.190753
0.383429 0.732128 0.240818
0.646693 0.738888 0.271382
0.830533 0.763607 0.292912
0.975326 0.794064 0.312963
0.293599 0.952728 0.259144
0.453727 0.974914 0.304982
0.716976 0.962722 0.335576
0.890288 0.974136 0.354452
1 0.993774 0.370977
0.000549325 0 1.5259e-05
0.0295109 0 0
0.165316 0 0
0.310536 0 0
0.484031 0 0
0.0233768 0.0545815 0.0221256
0.116457 0.099443 0.059266
0.368261 0.135988 0.0840772
0.614694 0.189837 0.126299
0.830655 0.248035 0.173999
0.133974 0.377096 0.138277
0.297612 0.44715 0.20267
0.554314 0.48191 0.233433
0.75465 0.523903 0.261448
0.919753 0.567391 0.290715
0.242878 0.711223 0.250492
0.407156 0.750668 0.301427
0.667124 0.756359 0.326879
0.846372 0.780575 0.346639
0.988037 0.810254 0.367086
0.311635 0.967803 0.320836
0.473289 0.987716 0.364843
0.735225 0.97528 0.389166
0.904707 0.986328 0.405112
1 1 0.421042
0 0 0.112337
0.0286107 0 0.0992752
0.162753 0 0.0759747
0.312551 0 0.0905165
0.497505 0 0.148409
0.0250401 0.0629892 0.168383
0.138308 0.114702 0.221988
0.388357 0.157992 0.278279
0.625544 0.211627 0.354391
0.833082 0.267628 0.428504
0.150805 0.397848 0.352773
0.318334 0.463493 0.41474
0.544778 0.503716 0.442176
0.737865 0.542992 0.491447
0.899214 0.584176 0.533303
0.259266 0.718502 0.495415
0.427283 0.754284 0.541436
0.694942 0.755352 0.576288
0.84181 0.786694 0.597848
0.97142 0.818463 0.617807
0.32842 0.96669 0.578317
0.492943 0.984665 0.615763
0.761746 0.96875 0.638849
0.916304 0.982712 0.657832
1 1 0.672953
0 0 0.238148
0.0259556 0 0.224338
0.170703 0 0.199115
0.334844 0 0.233967
0.533257 0 0.318959
0.0304875 0.0737926 0.329427
0.159106 0.132845 0.401587
0.425574 0.176593 0.455344
0.659037 0.229526 0.537789
0.860548 0.283757 0.619272
0.163287 0.421347 0.533196
0.327031 0.484672 0.587289
0.580972 0.516274 0.590814
0.756298 0.557565 0.639536
0.909255 0.59791 0.691768
0.267903 0.732464 0.676051
0.433051 0.767773 0.710262
0.706523 0.768139 0.703853
0.834302 0.8038 0.720958
0.959823 0.832776 0.766125
0.335546 0.974029 0.759152
0.498527 0.99176 0.785855
0.776654 0.973083 0.790021
0.941299 0.981918 0.82182
1 1 0.845823
0 0 0.33106
0.0268406 0 0.320165
0.185275 0 0.299763
0.36611 0 0.352239
0.578546 0.00173953 0.45684
0.0408331 0.090837 0.461433
0.183764 0.155306 0.544152
0.462989 0.198856 0.59527
0.695186 0.249516 0.675654
0.892592 0.301411 0.756939
0.177783 0.44686 0.667903
0.342214 0.507134 0.717235
0.603616 0.533272 0.713924
0.783017 0.571756 0.754009
0.931441 0.610849 0.80383
0.277577 0.749569 0.802319
0.441474 0.783597 0.829435
0.710231 0.784436 0.808148
0.863325 0.811917 0.815335
0.97612 0.843626 0.852079
0.342687 0.985473 0.880964
0.504646 1 0.900587
0.780835 0.984817 0.886244
0.95169 0.992584 0.893584
1 1 0.916197
