assets/cube/orange_dark_look.cube
TITLE "Generated by Resolve"
LUT_3D_SIZE 33
0.000854505 0.000381476 0
0.0009308 0.000350958 0
0.00109865 0.000335698 0
0.00207523 0.000198367 0
0.00383001 0 0
0.00680552 0 0
0.0115358 0 0
0.0187533 0 0
0.0290532 0 0
0.0424659 0 0
0.0581979 0 0
0.0752728 0 0
0.0928969 0 0
0.11043 0 0
0.127703 0 0
0.144869 0 0
0.161791 0 0
0.1785 0 0
0.194949 0 0
0.211322 0 0
0.228092 0 0
0.244892 0 0
0.261738 0 0
0.278599 0 0
0.295766 0 0
0.313649 0 0
0.332235 0 0
0.351019 0 0
0.370123 0 0
0.389899 0 0
0.410483 0 0
0.432166 0 0
0.454093 0 0
0.00129702 0.000427253 0
0.0015259 0.000534066 0
0.00184634 0.000717174 0
0.00289921 0.000823987 0
0.00495918 0.000732433 0
0.00830091 0.000366217 0
0.0135042 0 0
0.0213474 0 0
0.0323033 0 0
0.0462959 0 0
0.0625467 0 0
0.0802014 0 0
0.098558 0 0
0.117235 0 0
0.135561 0 0
0.153628 0 0
0.171603 0 0
0.189639 0 0
0.207828 0 0
0.226123 0 0
0.244282 0 0
0.26276 0 0
0.281743 0 0
0.301228 0 0
0.321035 0 0
0.341207 0 0
0.361776 0 0
0.383139 0 0
0.405158 0 0
0.427451 0 0
0.450431 0 0
0.474174 0 0
0.498421 0 0
0.00236515 0.00106813 0
0.00282292 0.00140383 0
0.00335698 0.00178531 0
0.00445563 0.00218204 0
0.00669871 0.00239567 0
0.0104219 0.00231937 0
0.0162051 0.00181582 0
0.0246586 0.000671397 0
0.036408 0 0
0.0514534 0 0
0.068925 0 0
0.0876936 0 0
0.10724 0 0
0.126879 0 0
0.146609 0 0
0.166323 0 0
0.18587 0 0
0.205417 0 0
0.225513 0 0
0.245747 0 0
0.266239 0 0
0.286793 0 0
0.307622 0 0
0.329549 0 0
0.351766 0 0
0.374426 0 0
0.397314 0 0
0.420722 0 0
0.445075 0 0
0.470558 0 0
0.49601 0 0
0.521782 0 0
0.54786 0 0
0.00328069 0.00282292 0
0.00442512 0.00329595 0
0.00556954 0.00392157 0
0.00697337 0.00460822 0
0.00935378 0.00518807 0
0.0134432 0.00553903 0
0.0197452 0.00541695 0
0.0289921 0.00466926 0
0.0416876 0.00311284 0
0.0577707 0.000869764 0
0.0766308 0 0
0.0970169 0 0
0.118074 0 0
0.139223 0 0
0.160403 0 0
0.181827 0 0
0.2038 0 0
0.225483 0 0
0.247166 0 0
0.2692 0 0
0.291859 0 0
0.315068 0 0
0.338979 0 0
0.362676 0 0
0.386938 0 0
0.411948 0 0
0.437598 0 0
0.463706 0 0
0.490593 0.000732433 0
0.517372 0.00511177 0
0.544594 0.0100099 0
0.572229 0.0153353 0
0.600015 0.0211032 0
0.00447089 0.00587472 0
0.00611887 0.00663767 0
0.00802625 0.00753796 0
0.0102846 0.00860609 0.000503548
0.0132296 0.00967422 0.0009308
0.0176394 0.0104829 0.000976577
0.0244297 0.0108644 0.000686656
0.0345006 0.0106661 0
0.0483711 0.00972 0
0.0659495 0.00807202 0
0.0861219 0.0059205 0
0.107958 0.00366217 0
0.130846 0.0016022 0
0.154116 0 0
0.17731 0 0
0.200839 0 0
0.224445 0 0
0.248447 0 0
0.272801 0 0
0.29723 0 0
0.321981 0 0
0.347814 0.0019379 0
0.37377 0.00448615 0
0.400183 0.00753796 0
0.426841 0.0110323 0
0.453788 0.0149691 0
0.481849 0.0196994 0
0.509697 0.0246738 0.000549325
0.537881 0.0300603 0.00341802
0.566247 0.0358282 0.00671397
0.594629 0.0419318 0.0103761
0.623011 0.0482948 0.0143587
0.651926 0.0552682 0.0188907
0.0059968 0.0106508 0
0.00820935 0.0118715 0.000564584
0.0108797 0.0132143 0.00180056
0.0140993 0.014725 0.00296025
0.0180362 0.0163272 0.00392157
0.0233005 0.0178531 0.00460822
0.030808 0.0189822 0.00491341
0.0416724 0.0194858 0.00477607
0.0568399 0.019379 0.00421149
0.0759136 0.018555 0.00306706
0.0979629 0.0172885 0.00158694
0.12163 0.0158846 0
0.146273 0.0146792 0
0.17174 0.0140383 0
0.197528 0.0139162 0
0.223316 0.0142214 0
0.249119 0.0149538 0
0.275151 0.0162051 0
0.301671 0.0180819 0
0.329137 0.0207828 0.000503548
0.356603 0.0238193 0.00218204
0.384146 0.0272679 0.00402838
0.411917 0.03122 0.00605783
0.440055 0.0356909 0.00827039
0.468559 0.0406806 0.010605
0.497978 0.0464332 0.013489
0.526833 0.0522316 0.0165866
0.555673 0.05832 0.0200351
0.584466 0.0646677 0.0237736
0.61323 0.0712902 0.0278325
0.642023 0.0782635 0.0322271
0.67155 0.085832 0.037171
0.699855 0.0931563 0.0420386
0.00787366 0.0176699 0.0011902
0.0108186 0.0196994 0.00289921
0.0143435 0.0217441 0.00453193
0.0185702 0.0238499 0.00608835
0.0237125 0.0260624 0.00755322
0.0302586 0.028397 0.00888075
0.0390936 0.0306249 0.0100252
0.0513161 0.0323186 0.0107881
0.0675975 0.0331121 0.0109865
0.0881361 0.0332647 0.0107424
0.112062 0.0331426 0.0102693
0.138048 0.0330816 0.00981155
0.165225 0.0333104 0.00953689
0.192752 0.0338903 0.00952163
0.220417 0.0349889 0.00984207
0.248493 0.0367437 0.010605
0.276875 0.0391089 0.0117342
0.305318 0.0419776 0.0131533
0.334264 0.0455482 0.0149233
0.363195 0.0495155 0.0168612
0.392325 0.0539559 0.018967
0.421683 0.0589151 0.0212253
0.451133 0.0643168 0.0237125
0.480568 0.0700694 0.0265812
0.510613 0.0764935 0.029984
0.539864 0.0828107 0.0334936
0.5691 0.0894636 0.0373083
0.598398 0.096437 0.041474
0.627543 0.103593 0.0458534
0.656901 0.111147 0.0506142
0.685191 0.118456 0.055314
0.713237 0.125887 0.0601816
0.741161 0.133593 0.0653239
0.0103304 0.0278935 0.00363165
0.0138857 0.0307164 0.00575265
0.0183719 0.0337682 0.00793469
0.0238804 0.0369726 0.010132
0.0305333 0.0401923 0.0122377
0.0387121 0.043473 0.0142519
0.0492256 0.0468299 0.0161746
0.063035 0.0498054 0.0178531
0.081117 0.0521248 0.0191806
0.103456 0.0536812 0.0200351
0.129137 0.0548409 0.0205844
0.157427 0.0563668 0.0212863
0.186725 0.0580758 0.022034
0.216556 0.0602579 0.0230411
0.246403 0.0629129 0.0242771
0.276341 0.0660868 0.0257725
0.306645 0.0699931 0.0276188
0.337179 0.0745098 0.0297398
0.367498 0.0793774 0.0319524
0.397833 0.0847028 0.0343175
0.428092 0.0903487 0.0369726
0.458167 0.0963149 0.0399176
0.488487 0.102815 0.0433051
0.518608 0.109575 0.0469673
0.548424 0.116518 0.0508583
0.577905 0.123598 0.0549325
0.606912 0.130724 0.059144
0.635523 0.137926 0.063508
0.664622 0.145663 0.0682994
0.693141 0.153368 0.0731518
0.720974 0.160998 0.0780346
0.748196 0.168505 0.0829175
0.774823 0.176028 0.0878767
0.0135958 0.0422827 0.00688182
0.0179751 0.0462654 0.00959792
0.0233921 0.0504311 0.0123751
0.0301518 0.054902 0.0152438
0.0387274 0.0598306 0.0182803
0.0489662 0.0645304 0.0211185
0.0614328 0.0690318 0.0238041
0.0771496 0.0732433 0.0263523
0.0970932 0.0770428 0.0287022
0.121569 0.0803845 0.030808
0.149706 0.0835279 0.0327001
0.179568 0.0863508 0.0343328
0.210544 0.0894331 0.035996
0.242023 0.093019 0.0378424
0.27361 0.0971542 0.0398718
0.305409 0.101961 0.0421607
0.33724 0.107317 0.0446174
0.368475 0.112795 0.0471656
0.39942 0.118608 0.049958
0.430182 0.124773 0.0530251
0.460899 0.131289 0.0563668
0.491768 0.138323 0.06009
0.522042 0.145434 0.0639658
0.551492 0.152407 0.0678569
0.580606 0.159548 0.0719158
0.609613 0.166949 0.0762188
0.638331 0.174487 0.080705
0.667079 0.182376 0.0854658
0.694575 0.189746 0.0899825
0.721721 0.197177 0.0946059
0.748669 0.204837 0.099443
0.775265 0.212497 0.104341
0.801572 0.220356 0.109422
0.0179751 0.0615702 0.0112154
0.0234836 0.067277 0.014786
0.0301671 0.073106 0.0183719
0.0384527 0.0792859 0.0220798
0.0484321 0.08542 0.0257267
0.0606851 0.0916762 0.0294041
0.0756542 0.0978714 0.0330358
0.0938582 0.103639 0.0365759
0.115984 0.108843 0.0399023
0.142519 0.113787 0.0430762
0.172076 0.118105 0.0458686
0.203632 0.122423 0.0485084
0.236179 0.12694 0.0510872
0.26894 0.131777 0.0536812
0.301991 0.137362 0.0565347
0.334203 0.142901 0.0593423
0.366171 0.148852 0.0623484
0.39791 0.1552 0.0655833
0.429236 0.161807 0.0690013
0.460136 0.168627 0.0725872
0.490791 0.175692 0.0763561
0.520699 0.182696 0.0801709
0.550347 0.190005 0.0842145
0.579507 0.197375 0.088365
0.60798 0.204669 0.0925307
0.636118 0.2121 0.0968338
0.664057 0.219715 0.10132
0.691417 0.227298 0.105837
0.718303 0.234806 0.110384
0.744488 0.242176 0.114885
0.770062 0.24947 0.119387
0.795789 0.257115 0.124163
0.821012 0.26479 0.129015
0.0242924 0.0869764 0.0173648
0.0310674 0.0945754 0.0217746
0.0392309 0.102342 0.0261997
0.0489967 0.110201 0.0306401
0.0607156 0.118013 0.0350652
0.074815 0.125673 0.0394751
0.0918441 0.13312 0.0440528
0.112734 0.140566 0.0487984
0.137209 0.147036 0.0531167
0.165408 0.15288 0.0570382
0.19646 0.158267 0.0605936
0.229068 0.163455 0.06392
0.262394 0.16875 0.0671244
0.296345 0.174807 0.0705577
0.329473 0.180835 0.0738994
0.362066 0.18706 0.0772717
0.393942 0.193378 0.0806897
0.425193 0.199878 0.0841688
0.45623 0.20679 0.087892
0.487236 0.214221 0.0919051
0.517143 0.221302 0.0957809
0.546288 0.228305 0.0996414
0.574823 0.23537 0.103593
0.603052 0.242664 0.107698
0.631159 0.250233 0.112016
0.658747 0.257816 0.116381
0.685237 0.264988 0.120562
0.711254 0.272175 0.124788
0.737102 0.2795 0.129137
0.76257 0.28687 0.133562
0.787915 0.294499 0.138186
0.812085 0.301579 0.142504
0.835767 0.30869 0.146883
0.033402 0.119448 0.0258946
0.0413977 0.128603 0.030869
0.0508125 0.13785 0.0358434
0.0620127 0.147219 0.0408484
0.0753643 0.156542 0.0459907
0.0912795 0.165621 0.0514382
0.110552 0.174609 0.0571908
0.133074 0.182498 0.0626383
0.15935 0.189532 0.067689
0.189105 0.19588 0.0722515
0.221439 0.201907 0.0764477
0.25507 0.207767 0.080354
0.289464 0.213993 0.0842603
0.322957 0.219806 0.0878157
0.35584 0.225879 0.0913863
0.388327 0.232349 0.0950637
0.420157 0.239017 0.0988022
0.451682 0.246113 0.102739
0.481804 0.252766 0.106447
0.511376 0.259586 0.110231
0.540627 0.266636 0.114137
0.569299 0.273762 0.11812
0.597192 0.280827 0.122087
0.624796 0.288121 0.126207
0.651499 0.295155 0.13022
0.677882 0.302358 0.13434
0.703761 0.309545 0.138491
0.728939 0.316564 0.14258
0.753689 0.323568 0.146685
0.778363 0.330831 0.150973
0.802335 0.337942 0.1552
0.825833 0.344961 0.159411
0.8486 0.351858 0.163561
0.0449989 0.157763 0.0362402
0.0542916 0.16846 0.0416724
0.0650797 0.179217 0.0470893
0.0775769 0.189807 0.0527504
0.0923629 0.200336 0.0588693
0.109667 0.210224 0.0651408
0.130037 0.219348 0.0714122
0.154192 0.227741 0.0775616
0.182132 0.235157 0.0832685
0.213184 0.241611 0.088304
0.246616 0.247868 0.092958
0.280751 0.253727 0.0971542
0.315038 0.259678 0.101167
0.34876 0.265705 0.105028
0.381476 0.271748 0.108766
0.413291 0.277867 0.112444
0.444984 0.284718 0.116396
0.475563 0.291386 0.120241
0.505333 0.298085 0.124056
0.534188 0.304707 0.12781
0.562341 0.311284 0.131548
0.590082 0.318074 0.135393
0.617838 0.325444 0.139544
0.644358 0.332311 0.143435
0.670115 0.33904 0.14728
0.695354 0.345754 0.151125
0.720241 0.352605 0.155062
0.744854 0.359609 0.159106
0.769223 0.366705 0.163226
0.792538 0.373358 0.167102
0.815366 0.379995 0.171008
0.837995 0.386755 0.17499
0.860136 0.393545 0.179019
0.0591592 0.201282 0.0480812
0.0694438 0.212909 0.0537118
0.0811322 0.224369 0.0597238
0.0948043 0.23595 0.0662547
0.110628 0.247074 0.0730449
0.128908 0.257237 0.0798352
0.15024 0.266392 0.0865339
0.175326 0.274495 0.0929732
0.204364 0.281712 0.0990005
0.236927 0.288502 0.104631
0.271 0.294392 0.109468
0.305318 0.299809 0.113725
0.339437 0.305241 0.117708
0.372992 0.310994 0.121645
0.405646 0.317006 0.125521
0.437751 0.323476 0.129519
0.468269 0.329488 0.133196
0.497948 0.335637 0.136858
0.527062 0.342061 0.140627
0.555505 0.348592 0.144411
0.583566 0.355398 0.148318
0.610407 0.361776 0.151995
0.636591 0.368231 0.155688
0.662379 0.374838 0.159472
0.687617 0.381491 0.163287
0.712169 0.388006 0.16701
0.736538 0.394781 0.170901
0.760052 0.401251 0.17464
0.783291 0.407828 0.178439
0.806058 0.414374 0.182239
0.828183 0.420798 0.185977
0.849851 0.427146 0.189685
0.871489 0.433875 0.193622
0.0750134 0.24799 0.0608377
0.0861524 0.260288 0.0671855
0.0988937 0.272648 0.073991
0.112932 0.28394 0.080766
0.129122 0.294697 0.0877394
0.148119 0.304875 0.0948806
0.170367 0.314076 0.101946
0.196536 0.322179 0.108766
0.226459 0.328984 0.114992
0.259266 0.334707 0.12047
0.293873 0.340124 0.125414
0.328725 0.345357 0.129854
0.362951 0.350454 0.133913
0.396429 0.355871 0.137865
0.428733 0.361471 0.141711
0.460029 0.367239 0.145495
0.490318 0.373129 0.149218
0.519509 0.378973 0.152834
0.547753 0.384833 0.156405
0.575769 0.391226 0.160189
0.602945 0.397513 0.163882
0.629297 0.403723 0.167514
0.654795 0.409857 0.171084
0.679606 0.415946 0.174624
0.704036 0.422187 0.178225
0.728481 0.428901 0.182086
0.751858 0.435157 0.185687
0.774609 0.441291 0.189227
0.796918 0.447395 0.192767
0.818936 0.45362 0.196368
0.840528 0.459892 0.2
0.862058 0.466407 0.203769
0.882521 0.47248 0.207324
0.0917525 0.296284 0.0747234
0.103532 0.308919 0.0815747
0.116518 0.320928 0.0885481
0.131106 0.332296 0.0956588
0.147692 0.342794 0.102785
0.166918 0.352346 0.109911
0.189731 0.361196 0.117113
0.216663 0.369039 0.124132
0.247227 0.37528 0.130449
0.280598 0.380362 0.135958
0.315373 0.384909 0.140795
0.350378 0.389532 0.145205
0.385046 0.394568 0.149462
0.418448 0.399619 0.153414
0.450233 0.404547 0.157092
0.480903 0.409689 0.160678
0.510674 0.415137 0.164294
0.539574 0.420783 0.16791
0.567895 0.42681 0.171649
0.594812 0.43241 0.175097
0.621073 0.438087 0.178546
0.64683 0.443961 0.182055
0.671885 0.449928 0.18558
0.696544 0.456077 0.189181
0.720302 0.461982 0.19263
0.743465 0.467842 0.196048
0.766247 0.473838 0.199527
0.788571 0.47985 0.203006
0.810315 0.485725 0.206424
0.831922 0.491844 0.209949
0.852796 0.497765 0.213382
0.87335 0.503731 0.216846
0.89337 0.509682 0.220295
0.109041 0.345434 0.0893721
0.12076 0.35729 0.0961471
0.133791 0.368704 0.103105
0.148608 0.379736 0.110292
0.165606 0.390066 0.117571
0.18558 0.399802 0.125032
0.208484 0.407736 0.132052
0.235431 0.414466 0.138811
0.266514 0.420096 0.145144
0.300557 0.424796 0.15079
0.335927 0.428977 0.155749
0.371221 0.433112 0.160204
0.405463 0.437156 0.164172
0.438605 0.441611 0.168017
0.470375 0.446311 0.17171
0.500755 0.451072 0.17525
0.530144 0.456123 0.17879
0.558618 0.461418 0.18233
0.586114 0.466773 0.185794
0.612741 0.47219 0.189227
0.638498 0.477531 0.192554
0.663493 0.482902 0.195865
0.688151 0.488655 0.199329
0.712184 0.494438 0.202762
0.735439 0.500084 0.206104
0.758007 0.505638 0.209384
0.780041 0.511177 0.21265
0.801724 0.516838 0.215946
0.823377 0.522835 0.219425
0.844251 0.528542 0.222751
0.864485 0.534127 0.226001
0.884321 0.539681 0.229221
0.903761 0.545357 0.232517
0.125582 0.393133 0.103685
0.137575 0.404898 0.110643
0.150744 0.41593 0.117617
0.165499 0.42623 0.124651
0.182834 0.436347 0.132021
0.202762 0.445197 0.139269
0.226093 0.452811 0.146365
0.253376 0.45893 0.153079
0.284642 0.463676 0.159258
0.319051 0.467689 0.164858
0.355032 0.471595 0.16997
0.390402 0.475059 0.174334
0.424628 0.478538 0.178241
0.45745 0.482277 0.181903
0.488914 0.486427 0.185489
0.519326 0.491081 0.18909
0.548547 0.495903 0.19263
0.576349 0.500557 0.195926
0.603189 0.505333 0.199191
0.629328 0.510369 0.202502
0.65478 0.515511 0.205798
0.679805 0.521004 0.209216
0.703593 0.526131 0.21239
0.726802 0.531319 0.215564
0.749554 0.536675 0.218784
0.771786 0.542077 0.222019
0.793622 0.547601 0.225284
0.814832 0.553017 0.228489
0.835523 0.558343 0.231617
0.855879 0.563775 0.234791
0.875746 0.569223 0.23798
0.89514 0.574563 0.241093
0.914244 0.580118 0.244312
0.141512 0.439643 0.117693
0.153475 0.450858 0.124559
0.166796 0.461616 0.131563
0.18201 0.472053 0.138827
0.199039 0.481071 0.14583
0.218906 0.489082 0.15285
0.242405 0.496132 0.159854
0.2701 0.501854 0.166629
0.302144 0.506539 0.173037
0.336721 0.509667 0.1785
0.372488 0.512428 0.183291
0.408026 0.515358 0.187625
0.442451 0.518502 0.191577
0.475303 0.521874 0.195239
0.506767 0.52578 0.19884
0.536599 0.529686 0.202197
0.565332 0.533944 0.205554
0.59295 0.538369 0.208835
0.619471 0.54284 0.212024
0.645167 0.547494 0.215213
0.670329 0.552438 0.218463
0.694606 0.557321 0.221637
0.71812 0.56228 0.224765
0.740902 0.567193 0.227848
0.763043 0.572106 0.230884
0.784909 0.57731 0.234028
0.806363 0.58262 0.237217
0.827085 0.587747 0.240284
0.847303 0.592798 0.24329
0.867033 0.597833 0.246281
0.886412 0.603006 0.249317
0.905699 0.608392 0.252461
0.924331 0.613703 0.255558
0.156924 0.4851 0.131411
0.168948 0.495979 0.138247
0.182162 0.506081 0.145083
0.197147 0.515633 0.152041
0.214343 0.524315 0.159045
0.234318 0.531853 0.165972
0.257801 0.538109 0.172778
0.285908 0.543511 0.179599
0.317998 0.54728 0.185809
0.353002 0.550011 0.191318
0.389013 0.552193 0.196094
0.424506 0.554376 0.20029
0.458885 0.556924 0.20415
0.492058 0.560265 0.207965
0.523186 0.563546 0.211398
0.552773 0.567025 0.214664
0.581064 0.570718 0.217838
0.608316 0.574731 0.221012
0.634699 0.579065 0.224201
0.660319 0.583658 0.227436
0.684794 0.587976 0.230442
0.708522 0.592416 0.233417
0.731624 0.597055 0.236454
0.754116 0.601785 0.239475
0.776318 0.606836 0.242618
0.797513 0.611536 0.245548
0.818219 0.616297 0.248478
0.838544 0.62118 0.251438
0.858473 0.626093 0.254383
0.878004 0.631067 0.257359
0.897093 0.636088 0.260334
0.915633 0.64097 0.263218
0.933761 0.645975 0.266148
0.171572 0.529152 0.144594
0.183474 0.539437 0.151263
0.196551 0.548898 0.157885
0.211337 0.557687 0.164584
0.228504 0.56582 0.171435
0.248631 0.572992 0.178347
0.272618 0.579278 0.185336
0.300526 0.583597 0.191806
0.332692 0.586603 0.197864
0.367926 0.588754 0.203342
0.404288 0.590539 0.208179
0.440299 0.59266 0.212558
0.474617 0.594629 0.216327
0.507256 0.597009 0.219821
0.538262 0.599893 0.223209
0.567803 0.603128 0.226474
0.595926 0.606531 0.229603
0.623117 0.610407 0.232807
0.649012 0.614221 0.235828
0.674083 0.61828 0.238849
0.698344 0.622415 0.241825
0.721767 0.626596 0.244739
0.744427 0.630869 0.247623
0.766766 0.635523 0.25066
0.788296 0.64004 0.253559
0.809247 0.644602 0.256443
0.829587 0.649104 0.259281
0.849409 0.653635 0.262074
0.868986 0.658335 0.264942
0.888334 0.663249 0.267903
0.906935 0.667948 0.270726
0.925078 0.672587 0.273487
0.942733 0.677272 0.276265
0.185168 0.571237 0.156954
0.196948 0.580987 0.163455
0.210071 0.590173 0.170047
0.224857 0.59855 0.176638
0.242069 0.606271 0.183413
0.262211 0.61294 0.190188
0.286046 0.618357 0.196902
0.314229 0.622339 0.203418
0.346609 0.624826 0.20943
0.381949 0.626276 0.214801
0.418662 0.627771 0.219715
0.454597 0.629191 0.223972
0.489052 0.630808 0.227756
0.521645 0.632776 0.231205
0.552392 0.635111 0.234455
0.581704 0.637919 0.237629
0.610025 0.641398 0.240909
0.636759 0.644724 0.243915
0.662364 0.648188 0.246845
0.686992 0.651789 0.249714
0.710918 0.655619 0.252598
0.734142 0.659617 0.255482
0.756848 0.663981 0.258457
0.7785 0.66804 0.261234
0.799573 0.67219 0.263996
0.820188 0.676493 0.266789
0.840284 0.680858 0.269566
0.860151 0.685496 0.27245
0.87924 0.68983 0.275166
0.897887 0.694209 0.277852
0.916167 0.698711 0.280598
0.934081 0.703243 0.28333
0.951492 0.707805 0.286046
0.198154 0.612039 0.168856
0.209705 0.621103 0.175097
0.222705 0.62974 0.181506
0.237659 0.638041 0.188144
0.254871 0.645335 0.194812
0.274907 0.651347 0.201389
0.298665 0.656092 0.207919
0.326955 0.659556 0.214343
0.359609 0.661677 0.220386
0.395529 0.663096 0.225971
0.43209 0.663706 0.230671
0.467964 0.664454 0.234791
0.502449 0.66566 0.238544
0.535134 0.667353 0.242039
0.566094 0.669657 0.245396
0.595239 0.672084 0.248508
0.622934 0.674769 0.251484
0.649485 0.677821 0.254459
0.674952 0.681086 0.257359
0.699367 0.684459 0.260182
0.723232 0.688197 0.263081
0.74609 0.691844 0.265843
0.768215 0.695689 0.26862
0.789685 0.699596 0.271366
0.810468 0.703532 0.274052
0.830671 0.707485 0.276707
0.85069 0.711849 0.279515
0.869993 0.716045 0.2822
0.888853 0.720226 0.284855
0.907195 0.724407 0.28748
0.925048 0.728603 0.290074
0.942626 0.732891 0.292699
0.960006 0.737514 0.29546
0.210346 0.651347 0.180117
0.221927 0.660182 0.186328
0.234928 0.668513 0.192645
0.249577 0.675975 0.198978
0.266682 0.682734 0.205463
0.286809 0.688441 0.211994
0.310674 0.69279 0.218479
0.339101 0.695842 0.224857
0.371969 0.697551 0.230915
0.407813 0.698207 0.236332
0.444648 0.698482 0.241077
0.480644 0.698833 0.245197
0.515068 0.699504 0.248875
0.547814 0.700954 0.252384
0.578622 0.702831 0.255665
0.607675 0.704952 0.258747
0.635203 0.707332 0.261677
0.661448 0.709957 0.264515
0.686656 0.712886 0.267338
0.711177 0.71632 0.270268
0.73463 0.719631 0.273014
0.757168 0.722972 0.275685
0.778927 0.726452 0.278325
0.800092 0.730114 0.28098
0.820691 0.733898 0.283635
0.840955 0.737972 0.286381
0.860349 0.741787 0.28896
0.879255 0.745663 0.291508
0.897826 0.749645 0.294087
0.915969 0.753689 0.296666
0.933883 0.758007 0.299336
0.951064 0.76202 0.301839
0.967803 0.766125 0.304356
0.22179 0.689174 0.190753
0.233433 0.697887 0.196963
0.246265 0.705699 0.203082
0.260838 0.712718 0.209262
0.27779 0.718883 0.215549
0.297887 0.724132 0.221973
0.321965 0.728328 0.228519
0.350591 0.731075 0.234913
0.383429 0.732128 0.240818
0.419333 0.732204 0.246159
0.456291 0.732052 0.250904
0.492454 0.732082 0.25507
0.52726 0.732784 0.25893
0.559747 0.733577 0.262272
0.590295 0.734905 0.265415
0.619226 0.736721 0.268452
0.646693 0.738888 0.271382
0.672969 0.741451 0.274281
0.698039 0.744167 0.277073
0.721996 0.746975 0.279759
0.74522 0.750027 0.282445
0.767605 0.753216 0.285084
0.789166 0.756512 0.287678
0.810208 0.760052 0.290333
0.830533 0.763607 0.292912
0.850294 0.767224 0.295476
0.869505 0.770901 0.298009
0.888151 0.774578 0.300496
0.906371 0.778302 0.302968
0.924453 0.78233 0.305562
0.941863 0.786252 0.308049
0.958877 0.790158 0.310521
0.975326 0.794064 0.312963
0.232792 0.726131 0.201038
0.244068 0.733989 0.206882
0.256825 0.741451 0.212894
0.271412 0.748211 0.219028
0.288396 0.754116 0.225269
0.308614 0.759167 0.231693
0.33254 0.762692 0.238025
0.361135 0.764874 0.244312
0.394186 0.765637 0.250248
0.430274 0.765347 0.255604
0.467338 0.764767 0.260349
0.503716 0.764569 0.264591
0.538308 0.764614 0.268299
0.570886 0.765194 0.271672
0.601358 0.766201 0.2748
0.630091 0.767605 0.277745
0.657511 0.769589 0.280674
0.683665 0.771923 0.283543
0.708522 0.774334 0.286259
0.73228 0.776883 0.288884
0.755169 0.779583 0.291463
0.777325 0.782513 0.294041
0.798886 0.785809 0.296696
0.819638 0.78909 0.299245
0.839643 0.792325 0.301717
0.859068 0.795666 0.304173
0.878019 0.79913 0.30663
0.896498 0.802686 0.309087
0.914794 0.806516 0.311635
0.932311 0.810071 0.314015
0.949371 0.813703 0.316396
0.966125 0.817426 0.318791
0.982406 0.821241 0.321202
0.243046 0.761639 0.210681
0.254231 0.769146 0.216403
0.266804 0.776074 0.222217
0.2813 0.782452 0.228229
0.298466 0.788357 0.234546
0.318563 0.792859 0.240803
0.342504 0.795987 0.247059
0.371069 0.797665 0.253239
0.404196 0.798001 0.259159
0.440528 0.797482 0.264591
0.477882 0.796735 0.269444
0.514122 0.795911 0.273579
0.548669 0.795529 0.277226
0.581201 0.795773 0.280583
0.611704 0.796582 0.283726
0.64065 0.798032 0.286809
0.667765 0.799527 0.289601
0.693553 0.801358 0.292317
0.718242 0.80354 0.295003
0.741894 0.805936 0.297612
0.764752 0.808545 0.300206
0.786801 0.811353 0.30277
0.807904 0.814191 0.305257
0.828382 0.817197 0.307729
0.848234 0.82031 0.31017
0.867445 0.823453 0.312566
0.886244 0.826795 0.315007
0.904555 0.830213 0.317418
0.922377 0.833631 0.319799
0.939742 0.837095 0.322148
0.956588 0.840558 0.324483
0.973037 0.844053 0.326772
0.989227 0.847822 0.329168
0.252613 0.795804 0.219745
0.263752 0.803098 0.225406
0.276493 0.810101 0.231312
0.290867 0.816052 0.237156
0.307713 0.82118 0.243168
0.327794 0.825345 0.249363
0.351827 0.828244 0.255619
0.380499 0.829602 0.261799
0.41387 0.829786 0.267826
