assets/cube/red_afternoon_01.cube
TITLE "Generated by Resolve"
LUT_3D_SIZE 33
0 0 0
0 0 0
0 0 0
0 0 0
0 0 0
0 0 0
0 0 0
0 0 0
0 0 0
0 0 0
0 0 0
0 0 0
0 0 0
0 0 0
0 0 0
0 0 0
0 0 0
0 0 0
0 0 0
0 0 0
0 0 0
0 0 0
0 0 0
0 0 0
0 0 0
0 0 0
0 0 0
0 0 0
0 0 0
0.0047303 0 0
0.0102998 0 0
0.015671 0 0
0.020737 0 0
0 0 0
0 0 0
0 0 0
0 0 0
0 0 0
0 0 0
0 0 0
0 0 0
0 0 0
0 0 0
0 0 0
0 0 0
0 0 0
0 0 0
0 0 0
0 0 0
0 0 0
0 0 0
0 0 0
0 0 0
0 0 0
0 0 0
0 0 0
0 0 0
0 0 0
0 0 0
0.00299077 0 0
0.00849927 0 0
0.0137636 0 0
0.0187076 0 0
0.0229343 0 0
0.0311131 0 0
0.0430152 0 0
0 0 0
0 0 0
0 0 0
0 0 0
0 0 0
0 0 0
0 0 0
0 0 0
0 0 0
0 0 0
0 0 0
0 0 0
0 0 0
0 0 0
0 0 0
0 0 0
0 0 0
0 0 0
0 0 0
0 0 0
0 0 0
0 0 0
0 0 0
0.00128176 0 0
0.00671397 0 0
0.0118715 0 0
0.0166476 0 0
0.0209964 0 0
0.0304112 0 0
0.0420081 0 0
0.0554971 0.00181582 0
0.0708476 0.00357061 0
0.0880293 0.005066 0
0 0 0
0 0 0
0 0 0
0 0 0
0 0 0
0 0 0
0 0 0
0 0 0
0 0 0
0 0 0
0 0 0
0 0 0
0 0 0
0 0 0
0 0 0
0 0 0
0 0 0
0 0 0
0 0 0
0 0 0
0 0 0
0.00494392 0 0
0.00999466 0 0
0.0145418 0 0
0.0200351 0 0
0.0293736 0 0
0.040528 0.00225834 0
0.0534371 0.00453193 0
0.0680247 0.0065919 0
0.0843366 0.00840772 0
0.102388 0.00993362 0
0.121889 0.0112306 0
0.143267 0.0121462 0
0 0 0
0 0 0
0 0 0
0 0 0
0 0 0
0 0 0
0 0 0
0 0 0
0 0 0
0 0 0
0 0 0
0 0 0
0 0 0
0 0 0
0 0 0
0 0 0
0 0 0
0 0 0
0.00321965 0 0
0.00813306 0 0
0.012253 0 0
0.0189059 0 0
0.0279545 0.00218204 0
0.0386053 0.00485237 0
0.0508431 0.00740063 0
0.0646982 0.00976577 0
0.0801709 0.0118715 0.000366217
0.097261 0.0137331 0.000656138
0.115694 0.0153658 0.000686656
0.135851 0.0166781 0.00030518
0.15758 0.0177005 0
0.180804 0.0184176 0
0.205463 0.0188602 0
0 0 0
0 0 0
0 0 0
0 0 0
0 0 0
0 0 0
0 0 0
0 0 0
0 0 0
0 0 0
0 0 0
0 0 0
0 0 0
0 0 0
0 0 0
0.00158694 0 0
0.00633249 0 0
0.0105287 0 0
0.0175937 0.00164797 0
0.026215 0.00460822 0
0.0362707 0.00756847 0
0.0477302 0.0104372 0.000396735
0.0606546 0.0131533 0.00138857
0.0750439 0.0156558 0.00205997
0.0907759 0.0179599 0.00247196
0.10808 0.0199893 0.00248722
0.126879 0.0217441 0.00216678
0.147143 0.0232242 0.00151064
0.168826 0.024445 0.000534066
0.191897 0.0253758 0
0.216312 0.0260471 0
0.241978 0.0264591 0
0.268849 0.026627 0
0 0 0
0 0 0
0 0 0
0 0 0
0 0 0
0 0 0
0 0 0
0 0 0
0 0 0
0 0 0
0 0 0
0 0 0
0 0 0
0.00445563 0 0
0.00901808 0.000885023 0
0.0157321 0.00401312 0
0.0237583 0.00730907 0
0.0330358 0.0106203 0.000442512
0.043595 0.0138399 0.00178531
0.0554818 0.0169223 0.00282292
0.0687114 0.0198215 0.00354009
0.0832074 0.0225528 0.00401312
0.0991684 0.0250248 0.00407416
0.116533 0.0272526 0.00381476
0.135286 0.029221 0.00321965
0.155398 0.03093 0.00230411
0.176837 0.0323796 0.00108339
0.199557 0.0335699 0
0.223499 0.0345312 0
0.248615 0.0352331 0
0.27483 0.0357214 0
0.302052 0.0360113 0
0.33022 0.0361028 0
0 0 0
0 0 0
0 0 0
0 0 0
0 0 0
0 0 0
0 0 0
0 0 0
0 0 0
0 0 0
0.00225834 0.000137331 0
0.00709544 0.0031281 0
0.0132906 0.00662242 0
0.0205844 0.0102693 9.15541e-05
0.0289769 0.0139315 0.00172427
0.038529 0.0175479 0.00308232
0.0492866 0.0210269 0.00416571
0.0612802 0.0243534 0.00491341
0.074464 0.0275273 0.00543221
0.0890211 0.030457 0.00553903
0.104891 0.0331731 0.00531014
0.122087 0.0356298 0.00477607
0.140581 0.0378576 0.00392157
0.160342 0.0398413 0.00276188
0.181353 0.0415656 0.00132753
0.203571 0.0430457 0
0.226917 0.0443122 0
0.251347 0.0453498 0
0.276799 0.0461738 0
0.303197 0.0468147 0
0.330449 0.0472877 0
0.358495 0.0476081 0
0.387228 0.047776 0
0 0 0
0 0 0
0 0 0
0 0 0
0 0 0
0 0 0
0 0 0
0.000259403 0.00205997 0
0.00477607 0.0055848 0
0.0102846 0.00947585 0
0.0167086 0.013489 0.0012665
0.0241245 0.0175479 0.00292973
0.0325628 0.0215457 0.00433356
0.0420996 0.0254673 0.00541695
0.0527352 0.0292515 0.00627146
0.0645914 0.0328527 0.00674449
0.0776684 0.0362707 0.00688182
0.0919966 0.0394903 0.00671397
0.107576 0.0424659 0.00621042
0.124407 0.0452125 0.00540169
0.142489 0.0477302 0.00428778
0.161761 0.0499886 0.00291447
0.182223 0.0520333 0.00128176
0.2038 0.0538338 0
0.226459 0.0554208 0
0.250141 0.0567941 0
0.274754 0.0579843 0
0.300267 0.0589914 0
0.326574 0.0598306 0
0.353613 0.0605173 0
0.381292 0.0610819 0
0.409552 0.0615549 0
0.4383 0.0619211 0
0 0 0
0 0 0
0 0 0
0 0.00141909 0
0 0.00430304 0
0.00207523 0.00823987 0
0.00683604 0.0124971 0.000427253
0.0122072 0.0169375 0.00238041
0.0184939 0.0214084 0.00407416
0.0257267 0.0258488 0.00547799
0.0339513 0.0302129 0.0065919
0.0432136 0.0344549 0.00747692
0.0536049 0.0385595 0.00796521
0.0651408 0.0424659 0.00813306
0.0778668 0.0461891 0.00798047
0.0917983 0.0496986 0.0075227
0.10695 0.0529793 0.00674449
0.123293 0.0560311 0.00569161
0.140826 0.058854 0.00436408
0.159503 0.0614328 0.00277714
0.179324 0.0637827 0.000976577
0.200198 0.065919 0
0.22211 0.0678416 0
0.244984 0.0695659 0
0.268742 0.071107 0
0.293355 0.0724651 0
0.318715 0.0736706 0
0.344762 0.0747387 0
0.37142 0.0756847 0
0.398611 0.076524 0
0.426261 0.0772869 0
0.454276 0.0779889 0
0.482582 0.078645 0
0 0.00318914 0
0 0.0068513 0
0 0.0112001 0
0.00248722 0.0158236 0.00151064
0.00709544 0.0206149 0.0033875
0.0123598 0.0254673 0.00505074
0.0182345 0.0303807 0.00650034
0.0249638 0.0352483 0.00767529
0.0327459 0.0399786 0.00856031
0.0415808 0.0445869 0.00907912
0.0515145 0.0490272 0.00926223
0.0625925 0.0532692 0.00914015
0.074815 0.0573129 0.00869764
0.0882277 0.0611429 0.00796521
0.102831 0.064744 0.00694286
0.118593 0.0681163 0.0056611
0.1355 0.0712596 0.0041352
0.153521 0.0741588 0.00238041
0.172641 0.0768444 0.000427253
0.192782 0.0793011 0
0.213916 0.0815595 0
0.235966 0.0836194 0
0.258885 0.0854963 0
0.282597 0.0872053 0
0.307042 0.0887617 0
0.332143 0.0901808 0
0.357809 0.0914931 0
0.383993 0.0926986 0
0.410605 0.0938277 0
0.437552 0.0948959 0
0.46479 0.0959182 0
0.492226 0.0969253 0
0.519768 0.0979171 0
0 0.019501 0.00262455
0.000717174 0.0246738 0.00448615
0.00489815 0.0299382 0.00610361
0.00976577 0.0352331 0.0074464
0.0154269 0.0404669 0.00857557
0.0217746 0.0456855 0.00939956
0.028748 0.0508888 0.0100099
0.0369268 0.0558938 0.0102388
0.0462501 0.0606851 0.0101472
0.056733 0.0652934 0.00973526
0.0683604 0.069688 0.00903334
0.0811627 0.0738384 0.00805676
0.09514 0.0777752 0.00680552
0.110246 0.0814679 0.0053254
0.126497 0.0849165 0.00361639
0.143832 0.0881514 0.00172427
0.162234 0.0911574 0
0.181628 0.0939345 0
0.201984 0.0965133 0
0.223255 0.098909 0
0.24535 0.101106 0
0.268208 0.103151 0
0.291768 0.105043 0
0.315969 0.106798 0
0.340734 0.108431 0
0.365972 0.109972 0
0.391623 0.111437 0
0.417609 0.11284 0
0.443854 0.114199 0
0.470283 0.115541 0
0.496834 0.116869 0
0.5234 0.118227 0
0.549935 0.1196 0
0 0.0405585 0.00848402
0.00411994 0.0462348 0.00956741
0.00923171 0.0518807 0.0102998
0.0151675 0.0574502 0.0107271
0.0219425 0.0629129 0.0108949
0.0293889 0.0683146 0.0108644
0.0377813 0.0735637 0.0105592
0.0475166 0.0785382 0.00991836
0.0584573 0.0832837 0.0089723
0.0705882 0.0877852 0.0077821
0.0838788 0.0920424 0.00633249
0.0983291 0.0960555 0.00468452
0.113878 0.0998245 0.00283818
0.130526 0.103365 0.000823987
0.148211 0.106676 0
0.166903 0.109773 0
0.186511 0.112673 0
0.207019 0.115358 0
0.228336 0.117876 0
0.250401 0.120211 0
0.273152 0.122408 0
0.296529 0.124468 0
0.320455 0.126421 0
0.344839 0.128267 0
0.369619 0.130022 0
0.394736 0.131731 0
0.420096 0.133394 0
0.44564 0.135027 0
0.471275 0.13666 0
0.496941 0.138308 0
0.522576 0.139986 0
0.548089 0.141711 0
0.573404 0.143511 0
0 0.0646372 0.0116274
0.00489815 0.0705577 0.0116884
0.0112154 0.0763409 0.01149
0.0184482 0.0819867 0.0110323
0.0265202 0.0874952 0.0103609
0.0351263 0.0929427 0.00959792
0.0452125 0.0980697 0.00849927
0.0565805 0.102922 0.00712596
0.0691691 0.1075 0.00553903
0.0829328 0.111833 0.00375372
0.0978103 0.115923 0.00178531
0.113771 0.119753 0
0.130785 0.123369 0
0.148775 0.126757 0
0.167697 0.129931 0
0.187503 0.132906 0
0.208103 0.135698 0
0.22945 0.138323 0
0.251484 0.140795 0
0.274113 0.14313 0
0.297276 0.145342 0
0.320912 0.147463 0
0.34493 0.149493 0
0.369268 0.151461 0
0.393851 0.153399 0
0.418601 0.155291 0
0.443458 0.157183 0
0.468345 0.159091 0
0.493172 0.161013 0
0.517906 0.162997 0
0.542443 0.165042 0
0.566735 0.167178 0
0.590707 0.169421 0
0 0.0911421 0.0117189
0.00343328 0.0970626 0.0109255
0.0112154 0.102815 0.00991836
0.0198978 0.1084 0.00872816
0.029221 0.113863 0.00746166
0.0394446 0.119173 0.00607309
0.0512398 0.124102 0.00437934
0.064271 0.12874 0.00251774
0.0784772 0.13312 0.000488289
0.0937972 0.13724 0
0.110155 0.141131 0
0.12752 0.144778 0
0.145815 0.148211 0
0.164965 0.151446 0
0.184939 0.154498 0
0.205646 0.157366 0
0.227039 0.160082 0
0.249012 0.162661 0
0.271534 0.165118 0
0.294499 0.167468 0
0.317861 0.169726 0
0.341543 0.171939 0
0.365454 0.17409 0
0.389548 0.176211 0
0.413733 0.178317 0
0.437949 0.180438 0
0.462119 0.182589 0
0.486183 0.184787 0
0.510048 0.187045 0
0.533684 0.189395 0
0.557046 0.191836 0
0.580377 0.194293 0
0.603738 0.196765 0
0 0.119493 0.00920119
0.000411994 0.125277 0.00772107
0.00979629 0.130861 0.00610361
0.0200046 0.136294 0.00442512
0.0305486 0.14168 0.00282292
0.04271 0.14667 0.000961318
0.0562142 0.151339 0
0.0708934 0.155734 0
0.0866407 0.159869 0
0.103426 0.163775 0
0.121141 0.167437 0
0.139742 0.170901 0
0.159167 0.174166 0
0.179324 0.177249 0
0.200153 0.180179 0
0.221592 0.182956 0
0.243549 0.185626 0
0.265965 0.188174 0
0.288777 0.190631 0
0.31191 0.193027 0
0.335271 0.195377 0
0.358801 0.197681 0
0.382437 0.199969 0
0.406104 0.202274 0
0.42974 0.204593 0
0.453254 0.206973 0
0.4766 0.2094 0
0.499809 0.211902 0
0.523033 0.214405 0
0.546304 0.216907 0
0.569619 0.219425 0
0.592966 0.221942 0
0.616358 0.224491 0
0 0.149187 0.00466926
0 0.154726 0.00274662
0.00764477 0.160067 0.000793469
0.0192111 0.165331 0
0.0314794 0.170428 0
0.0454414 0.175113 0
0.0605936 0.179492 0
0.0768292 0.183612 0
0.0940414 0.187488 0
0.112169 0.19115 0
0.131106 0.194598 0
0.150805 0.197864 0
0.171176 0.200977 0
0.192157 0.203937 0
0.213672 0.20676 0
0.23566 0.209476 0
0.25803 0.212085 0
0.280705 0.214633 0
0.303639 0.217136 0
0.326741 0.219593 0
0.34995 0.222034 0
0.373205 0.224475 0
0.396399 0.226932 0
0.419532 0.22945 0
0.442603 0.231983 0
0.465736 0.234516 0
0.488899 0.237064 0
0.512108 0.239612 0
0.535378 0.242176 0
0.558679 0.244755 0
0.582025 0.247333 0
0.605402 0.249928 0
0.62884 0.252552 0
0 0.179767 0
0 0.185 0
0.00537118 0.190082 0
0.0181125 0.195163 0
0.0324865 0.199832 0
0.0481575 0.204166 0
0.0648966 0.20824 0
0.0825971 0.21207 0
0.101137 0.215686 0
0.120455 0.219104 0
0.140475 0.222354 0
0.161105 0.225452 0
0.182284 0.228412 0
0.203922 0.23125 0
0.225971 0.233997 0
0.248325 0.236652 0
0.270939 0.239261 0
0.293721 0.241825 0
0.316625 0.244373 0
0.339574 0.246921 0
0.362509 0.2495 0
0.385473 0.252064 0
0.408484 0.254643 0
0.43154 0.257221 0
0.454658 0.259815 0
0.477806 0.262409 0
0.501015 0.265034 0
0.524269 0.267643 0
0.54757 0.270283 0
0.570916 0.272923 0
0.594293 0.275593 0
0.617731 0.278264 0
0.641199 0.280949 0
0 0.210849 0
0 0.215732 0
0.00354009 0.220554 0
0.0180056 0.225284 0
0.0341802 0.229557 0
0.0514534 0.233555 0
0.0696574 0.237308 0
0.0886702 0.240864 0
0.1084 0.244221 0
0.128786 0.24741 0
0.149722 0.250462 0
0.17113 0.253391 0
0.19295 0.256229 0
0.215106 0.258961 0
0.237507 0.261646 0
0.260105 0.264286 0
0.282811 0.266911 0
0.305608 0.269535 0
0.328435 0.272145 0
0.351324 0.274769 0
0.374258 0.277394 0
0.397269 0.280018 0
0.42031 0.282658 0
0.443427 0.285313 0
0.466575 0.287968 0
0.489784 0.290639 0
0.513024 0.293324 0
0.536324 0.296025 0
0.55967 0.298726 0
0.583047 0.301442 0
0.60647 0.304173 0
0.629938 0.306905 0
0.653452 0.309667 0
0 0.242054 0
0 0.246601 0
0.00265507 0.251209 0
0.0192874 0.255421 0
0.0371099 0.259327 0
0.0558633 0.262974 0
0.0753796 0.266423 0
0.0955825 0.269688 0
0.116365 0.272816 0
0.137652 0.275792 0
0.15935 0.278676 0
0.181399 0.281468 0
0.203723 0.284184 0
0.226246 0.28687 0
0.248859 0.28954 0
0.27155 0.29221 0
0.294301 0.294865 0
0.317113 0.297536 0
0.339986 0.300221 0
0.362921 0.302907 0
0.385901 0.305592 0
0.408957 0.308293 0
0.432059 0.311009 0
0.455207 0.313726 0
0.478401 0.316457 0
0.501656 0.319203 0
0.524941 0.32195 0
0.548287 0.324712 0
0.571664 0.327489 0
0.595087 0.330266 0
0.618555 0.333059 0
0.642069 0.335866 0
0.665614 0.338689 0
0 0.27306 0
0 0.277317 0
0.0041352 0.281544 0
0.0225223 0.285313 0
0.0418402 0.288838 0
0.0619211 0.292165 0
0.0826276 0.295323 0
0.103868 0.298329 0
0.125551 0.301228 0
0.147601 0.304036 0
0.16994 0.306783 0
0.192355 0.309514 0
0.214862 0.31223 0
0.237461 0.314946 0
0.260121 0.317678 0
0.282856 0.320394 0
0.305653 0.323125 0
0.328511 0.325872 0
0.351446 0.328603 0
0.374426 0.331365 0
0.397467 0.334127 0
0.420554 0.336889 0
0.443702 0.339666 0
0.466911 0.342458 0
0.49015 0.345266 0
0.513436 0.348074 0
0.536782 0.350881 0
0.560159 0.353719 0
0.583581 0.356558 0
0.60705 0.359411 0.00148013
0.630549 0.362264 0.00311284
0.654093 0.365133 0.00477607
0.677684 0.368017 0.00646983
0 0.303609 0
0 0.307652 0
0.00833143 0.311315 0
0.0282444 0.314702 0
0.0489052 0.317876 0
0.0701762 0.320897 0
0.0919356 0.323781 0
0.114 0.326604 0
0.136187 0.329412 0
0.15848 0.332204 0
0.180865 0.334981 0
0.203357 0.337758 0
0.225925 0.340536 0
0.248569 0.343328 0
0.27129 0.346105 0
0.294072 0.348898 0
0.31693 0.351705 0
0.339849 0.354513 0
0.362829 0.357321 0
0.38587 0.360143 0
0.408957 0.362966 0
0.43209 0.365805 0
0.455283 0.368643 0
0.478538 0.371496 0
0.501823 0.374365 6.10361e-05
0.525154 0.377234 0.00166323
0.548531 0.380118 0.00328069
0.571954 0.383017 0.00492866
0.595422 0.385916 0.00660716
0.618936 0.38883 0.00830091
0.642466 0.39176 0.0100252
0.666056 0.39469 0.01178
0.689677 0.397635 0.0135653
0 0.333455 0
0 0.337087 0
0.0157168 0.340322 0
0.0370184 0.343359 0
0.0586709 0.346288 0
0.0805066 0.349187 0
0.10251 0.352071 0
0.124651 0.354925 0
0.146914 0.357778 0
0.169268 0.360632 0
0.19173 0.36347 0
0.214282 0.366323 0
0.236912 0.369162 0
0.259617 0.372015 0
0.282399 0.374868 0
0.305241 0.377722 0
0.328161 0.380591 0
0.351125 0.383459 0
0.374151 0.386328 0
0.397238 0.389227 0
0.420371 0.392111 9.15541e-05
0.443565 0.39501 0.00166323
0.466804 0.397925 0.00326543
0.490089 0.400839 0.00491341
0.51342 0.403769 0.00657664
0.536812 0.406699 0.00825513
0.56022 0.409644 0.0099794
0.583688 0.412604 0.0117189
0.607187 0.415564 0.013489
0.630732 0.41854 0.0152743
0.654322 0.42153 0.0170901
0.677943 0.424521 0.0189212
0.701595 0.427512 0.0207828
0 0.362463 0
0.00447089 0.365682 0
0.0256809 0.368765 0
0.0472267 0.371771 0
0.068986 0.374746 0
0.0909285 0.377691 0
0.113024 0.380621 0
0.135241 0.383551 0
0.15758 0.386465 0
0.180011 0.389364 0
0.202548 0.392279 0
0.225162 0.395178 0
0.247852 0.398093 0
0.270619 0.401007 0
0.293462 0.403922 0
0.31635 0.406851 0
0.339315 0.409781 0
0.362341 0.412711 0.00148013
0.385428 0.415641 0.00308232
0.40856 0.418601 0.00471504
0.431739 0.421546 0.00637827
0.454978 0.424521 0.00805676
0.478264 0.427482 0.00976577
0.501595 0.430457 0.01149
0.524971 0.433448 0.0132448
0.548394 0.436454 0.0150301
0.571847 0.439445 0.0168307
0.595346 0.442466 0.0186618
0.618891 0.445487 0.0205081
0.642481 0.448524 0.0223697
0.666087 0.45156 0.0242771
0.689754 0.454612 0.0261845
0.713436 0.457664 0.0281224
0 0.391135 0
0.0142977 0.394324 0
0.0357061 0.397421 0
0.0573892 0.400473 0
0.0792706 0.403494 0
0.10132 0.4065 0
0.123507 0.409491 0
0.1458 0.412467 0
0.168215 0.415442 0
0.190723 0.418418 0
0.213321 0.421378 0
0.235996 0.424353 0
0.258747 0.427329 0
0.281575 0.430304 0.00109865
0.304463 0.43328 0.00270085
0.327428 0.436255 0.00433356
0.350439 0.439246 0.0059968
0.37351 0.442252 0.00767529
0.396643 0.445243 0.00936904
0.419821 0.448249 0.0110933
0.443061 0.45127 0.0128481
0.466331 0.454292 0.0146181
0.489662 0.457328 0.0164187
0.513039 0.460365 0.0182345
0.536446 0.463401 0.0200656
0.559915 0.466453 0.0219272
0.583413 0.46952 0.0238193
0.606958 0.472587 0.0257267
0.630533 0.47567 0.0276493
0.654154 0.478752 0.0295872
0.677806 0.481849 0.0315557
0.701503 0.484962 0.0335393
0.725216 0.488075 0.0355535
0.00292973 0.420035 0
0.0241703 0.423239 0
0.0457465 0.426368 0
0.0675517 0.42948 0
0.0895399 0.432547 0
0.111681 0.435599 0
0.133959 0.438651 0
0.156344 0.441688 0
0.17882 0.444724 0
0.201404 0.447745 0.000488289
0.224063 0.450782 0.00210575
0.246799 0.453803 0.00373846
0.269612 0.45684 0.00540169
0.2925 0.459876 0.00708019
0.315435 0.462913 0.0087892
0.338445 0.465965 0.0105135
0.361517 0.469001 0.0122683
0.384634 0.472053 0.0140383
0.407813 0.47512 0.0158236
0.431037 0.478187 0.0176394
0.454322 0.481254 0.0194705
0.477638 0.484337 0.0213321
0.501015 0.487419 0.023209
0.524422 0.490517 0.0251011
0.547875 0.493629 0.0270237
0.571374 0.496727 0.0289616
0.594919 0.499855 0.0309148
0.618494 0.502968 0.0328985
0.642115 0.506111 0.0348974
0.665766 0.509255 0.0369116
0.689448 0.512398 0.038941
0.713176 0.515557 0.041001
0.736934 0.51873 0.0430762
0.0126192 0.44921 0
0.0340581 0.45243 0
0.055787 0.455619 0
0.0777142 0.458762 0
0.0998093 0.461891 0
0.122042 0.465003 0
0.144381 0.468101 0.00120546
0.166842 0.471199 0.00288396
0.189395 0.474281 0.00456245
0.212039 0.477378 0.0062562
0.23476 0.480461 0.00798047
0.257572 0.483543 0.00972
0.28043 0.486641 0.0114748
0.303365 0.489723 0.0132448
0.326375 0.492821 0.0150454
0.349432 0.495933 0.0168612
0.372549 0.499031 0.0187076
0.395712 0.502144 0.0205539
0.418936 0.505257 0.0224308
0.442206 0.508385 0.0243229
0.465522 0.511513 0.0262455
0.488899 0.514641 0.0281834
0.512306 0.517784 0.0301366
0.53576 0.520928 0.032105
0.559258 0.524086 0.0340887
0.582788 0.52726 0.0361028
0.606363 0.530419 0.0381323
0.629984 0.533608 0.040177
0.653635 0.536782 0.042237
0.677317 0.539986 0.0443275
0.701045 0.543191 0.0464332
0.724804 0.546395 0.0485389
0.748592 0.549615 0.0506752
0.0223697 0.47866 0
0.0439765 0.48191 0
0.0658274 0.485145 0
0.0878767 0.488334 0.00167849
0.110063 0.491508 0.00341802
0.132372 0.494667 0.00515755
0.154803 0.497826 0.00689708
0.177325 0.500984 0.00866712
0.199954 0.504128 0.0104524
