assets/cube/red_afternoon_01.cube
TITLE "Generated by Resolve"
LUT_3D_SIZE 9
0 0 0
0 0 0
0 0 0
0 0 0
0 0 0
0 0 0
0 0 0
0 0 0
0.020737 0 0
0 0 0
0 0 0
0 0 0
0 0 0
0 0 0
0.012253 0 0
0.0508431 0.00740063 0
0.115694 0.0153658 0.000686656
0.205463 0.0188602 0
0 0 0
0 0 0
0.00477607 0.0055848 0
0.0325628 0.0215457 0.00433356
0.0776684 0.0362707 0.00688182
0.142489 0.0477302 0.00428778
0.226459 0.0554208 0
0.326574 0.0598306 0
0.4383 0.0619211 0
0 0.0405585 0.00848402
0.0219425 0.0629129 0.0108949
0.0584573 0.0832837 0.0089723
0.113878 0.0998245 0.00283818
0.186511 0.112673 0
0.273152 0.122408 0
0.369619 0.130022 0
0.471275 0.13666 0
0.573404 0.143511 0
0 0.149187 0.00466926
0.0314794 0.170428 0
0.0940414 0.187488 0
0.171176 0.200977 0
0.25803 0.212085 0
0.34995 0.222034 0
0.442603 0.231983 0
0.535378 0.242176 0
0.62884 0.252552 0
0 0.27306 0
0.0418402 0.288838 0
0.125551 0.301228 0
0.214862 0.31223 0
0.305653 0.323125 0
0.397467 0.334127 0
0.49015 0.345266 0
0.583581 0.356558 0
0.677684 0.368017 0.00646983
0 0.391135 0
0.0792706 0.403494 0
0.168215 0.415442 0
0.258747 0.427329 0
0.350439 0.439246 0.0059968
0.443061 0.45127 0.0128481
0.536446 0.463401 0.0200656
0.630533 0.47567 0.0276493
0.725216 0.488075 0.0355535
0.0321508 0.50837 0.00180056
0.120302 0.521401 0.0091249
0.210483 0.534234 0.0165255
0.301976 0.547021 0.0241398
0.394491 0.559853 0.0320134
0.487816 0.572747 0.0401465
0.581857 0.585748 0.0485389
0.676524 0.598856 0.0572061
0.77174 0.61207 0.0661173
0.071519 0.629801 0.0252384
0.161166 0.643534 0.0337682
0.252369 0.65713 0.042359
0.344717 0.67071 0.0510872
0.437934 0.684321 0.0600137
0.531899 0.697993 0.0691386
0.62652 0.711757 0.0784772
0.721706 0.725582 0.0880293
0.817426 0.739528 0.0977798
0 0 0
0 0 0
0 0 0
0 0 0
0 0 0
0 0 0
0 0 0
0.0059968 0 0
0.0255436 0 0
0 0 0
0 0 0
0 0 0
0 0 0
0 0 0
0.0212558 0.00109865 0
0.0680705 0.0113527 0.00833143
0.13933 0.0181277 0.0134432
0.234394 0.0203708 0.0133516
0 0 0
0 0 0
0.0108492 0.01178 0.0056611
0.0421912 0.0280003 0.0158083
0.09131 0.0420539 0.0217899
0.160037 0.0526131 0.0225681
0.24715 0.059617 0.0180209
0.349126 0.0636759 0.0100404
0.461204 0.0657664 0.00128176
0.000411994 0.049836 0.0217136
0.024918 0.0719158 0.0276188
0.0645457 0.0915847 0.0289311
0.123339 0.107393 0.0246738
0.198672 0.1196 0.0178988
0.286961 0.128923 0.0104677
0.383871 0.1364 0.00396735
0.484703 0.14316 0
0.584817 0.150393 0
0 0.159808 0.0274052
0.034287 0.180148 0.0220951
0.100053 0.196307 0.0162051
0.179324 0.209125 0.0112612
0.267155 0.219806 0.00895705
0.358892 0.229557 0.0106966
0.450843 0.239399 0.0165866
0.543511 0.249485 0.0232242
0.636927 0.2598 0.0302586
0 0.282582 0.0137026
0.0480354 0.297368 0.014374
0.13341 0.30898 0.0184787
0.222782 0.319692 0.0251164
0.313527 0.33051 0.0320439
0.40531 0.341451 0.0392767
0.497978 0.35256 0.0468452
0.591409 0.363836 0.0547189
0.685496 0.375296 0.0628977
0.000640879 0.398733 0.0293736
0.0867933 0.410971 0.0373693
0.175784 0.422858 0.045182
0.266346 0.434699 0.0531319
0.358053 0.446616 0.0612955
0.450675 0.458625 0.0696727
0.544091 0.470756 0.0783093
0.638178 0.483024 0.0871748
0.732876 0.49543 0.0962844
0.039353 0.515862 0.0559701
0.127626 0.528847 0.0648966
0.217868 0.54165 0.0737621
0.309407 0.554437 0.0827497
0.401953 0.567269 0.0918746
0.495293 0.580163 0.101183
0.589364 0.593164 0.110704
0.684031 0.606271 0.120409
0.779278 0.619501 0.130327
0.0786603 0.637308 0.0842298
0.168383 0.651026 0.0939803
0.259663 0.664622 0.103716
0.352026 0.678203 0.113542
0.445289 0.691814 0.123491
0.539284 0.705486 0.133593
0.633921 0.719249 0.143862
0.729137 0.733089 0.154299
0.824857 0.747036 0.164904
0 0 0
0 0 0
0 0 0
0 0 0
0 0 0
0 0 0
0 0 0
0.0126345 0 0
0.0396887 0 0.000640879
0 0 0
0 0 0
0 0 0
0 0 0
0.00517281 0 0
0.0333867 0.0056611 0.00694286
0.0869764 0.0152438 0.0182193
0.164126 0.0208438 0.0260166
0.263783 0.021973 0.0295872
0 0 0
0 0.00250248 0.0009308
0.0175174 0.0185245 0.0147555
0.0523537 0.034638 0.0274662
0.105486 0.0479591 0.0364385
0.177798 0.0576028 0.0412451
0.267399 0.0637369 0.0424201
0.370443 0.0671702 0.0411231
0.482185 0.0690471 0.0387274
0.000900282 0.0594949 0.0348211
0.0280308 0.0811322 0.0441138
0.0708019 0.0999313 0.049897
0.132509 0.114656 0.0519265
0.209995 0.125933 0.0515755
0.299413 0.13463 0.050248
0.396292 0.141817 0.0493935
0.495964 0.148669 0.0503548
0.593835 0.156374 0.0544594
0 0.169863 0.0571145
0.0367895 0.188983 0.0581521
0.105333 0.204028 0.0581216
0.186358 0.216037 0.0585184
0.274891 0.226291 0.0608682
0.366293 0.235981 0.0664836
0.458137 0.245869 0.0741436
0.550851 0.256001 0.0821241
0.644297 0.266361 0.090425
0 0.290623 0.0626688
0.0535897 0.304448 0.0676585
0.140352 0.315541 0.0749523
0.229831 0.326284 0.0830091
0.320623 0.337133 0.0912642
0.412482 0.348104 0.099733
0.505196 0.359258 0.108446
0.598657 0.370565 0.117403
0.69279 0.382055 0.126604
0.00717174 0.405493 0.0877089
0.0935988 0.417716 0.0969253
0.182696 0.429603 0.105943
0.273335 0.441489 0.115023
0.365103 0.453422 0.124239
0.457786 0.465461 0.133623
0.551232 0.477623 0.143206
0.645365 0.489921 0.153002
0.740093 0.502358 0.162997
0.0459907 0.522774 0.118181
0.134432 0.53576 0.128115
0.224765 0.548577 0.137972
0.316365 0.561395 0.14789
0.408957 0.574243 0.157916
0.502358 0.587167 0.168093
0.59646 0.600198 0.178439
0.691173 0.613321 0.188937
0.786435 0.626581 0.199619
0.0853285 0.644358 0.149645
0.175174 0.658076 0.160266
0.266529 0.671687 0.17084
0.358953 0.685298 0.181491
0.452262 0.698924 0.192218
0.546304 0.712627 0.203082
0.64097 0.726406 0.214084
0.736217 0.740276 0.225223
0.831983 0.754238 0.23653
0 0 0
0 0 0
0 0 0
0 0 0
0 0 0
0 0 0
0 0 0
0.0185397 0 0
0.0580148 0 0.00961318
0 0 0
0 0 0
0 0 0
0 0 0
0.0103914 0 0.00251774
0.0471504 0.0101015 0.0182803
0.1066 0.0186465 0.0342412
0.189105 0.022858 0.0475013
0.29247 0.0228122 0.0572824
0 0 0
0.00151064 0.0083772 0.00988785
0.0243229 0.0252995 0.0284428
0.0625162 0.0408789 0.0461738
0.11928 0.053193 0.0609293
0.19472 0.061799 0.0719768
0.286366 0.0670939 0.0795605
0.390143 0.0700542 0.0845045
0.501213 0.0718395 0.0879225
0.000747692 0.0688182 0.0560006
0.0304723 0.089662 0.0713207
0.0763409 0.107378 0.0834058
0.140841 0.12105 0.0917067
0.220295 0.131472 0.0973526
0.310628 0.139635 0.101488
0.407294 0.14667 0.105379
0.505653 0.153765 0.110292
0.60119 0.162081 0.117403
0 0.178897 0.0991989
0.038941 0.196841 0.106081
0.110124 0.210864 0.111177
0.192767 0.222217 0.115969
0.28188 0.232181 0.121859
0.373007 0.241917 0.129824
0.464958 0.251881 0.138491
0.557733 0.262089 0.147433
0.65124 0.272511 0.156634
0 0.297734 0.121477
0.059205 0.310719 0.12958
0.146792 0.321599 0.138537
0.236393 0.332418 0.14757
0.327291 0.343313 0.156756
0.419211 0.35436 0.166125
0.512001 0.365545 0.175708
0.605524 0.376913 0.185489
0.699718 0.388464 0.195483
0.0132601 0.41181 0.15256
0.0999619 0.424018 0.162661
0.189197 0.435966 0.172549
0.279942 0.447883 0.182467
0.371786 0.459861 0.192493
0.46453 0.471946 0.20267
0.558038 0.484154 0.213016
0.652216 0.496483 0.223529
0.74699 0.508965 0.234226
0.0522621 0.529305 0.18587
0.140856 0.542306 0.196582
0.231296 0.555169 0.207202
0.322988 0.568002 0.217868
0.415641 0.580896 0.228611
0.509102 0.593851 0.23949
0.60325 0.606912 0.250507
0.698009 0.620081 0.261662
0.793317 0.633371 0.272984
0.0916762 0.651087 0.219821
0.181643 0.66482 0.231144
0.273075 0.678462 0.242405
0.365576 0.692088 0.253712
0.458946 0.70576 0.265095
0.553033 0.719478 0.276585
0.647745 0.733288 0.288197
0.743038 0.747189 0.299947
0.838834 0.761181 0.311818
0 0 0
0 0 0
0 0 0
0 0 0
0 0 0
0 0 0
0.00424201 0 0
0.0251621 0 0.00497444
0.0790112 0.000915541 0.0229648
0 0 0
0 0 0
0 0 0
0 0 0
0.0193179 0.00341802 0.013077
0.0621653 0.0141909 0.0348363
0.127001 0.0214694 0.0570382
0.214054 0.0242924 0.0771344
0.320378 0.0231479 0.0939803
0 0.000274662 0.00447089
0.00587472 0.0149081 0.0232395
0.0310826 0.0319371 0.0478981
0.0725567 0.0467079 0.072221
0.132723 0.057908 0.0938888
0.21091 0.0654459 0.111864
0.304219 0.0699931 0.126085
0.408362 0.0725567 0.137102
0.518471 0.074403 0.145815
6.10361e-05 0.07776 0.0849317
0.0323796 0.097673 0.107301
0.0814374 0.114199 0.126146
0.148562 0.126818 0.14081
0.22977 0.136461 0.152132
0.320821 0.144213 0.161166
0.41709 0.151217 0.169009
0.514015 0.158679 0.176898
0.607813 0.167544 0.185794
0 0.187137 0.1505
0.0409705 0.203952 0.162814
0.114641 0.21706 0.172381
0.198764 0.227863 0.180713
0.288304 0.237675 0.189136
0.379385 0.247517 0.198337
0.471427 0.257572 0.207797
0.564279 0.267842 0.217502
0.657877 0.278355 0.227436
0 0.304173 0.187243
0.0650034 0.316426 0.197391
0.152895 0.327337 0.207202
0.242618 0.338216 0.217029
0.333623 0.349187 0.226963
0.42565 0.360296 0.237064
0.518502 0.371557 0.247333
0.6121 0.382986 0.257801
0.70634 0.394583 0.268467
0.0190433 0.417777 0.222248
0.106004 0.43003 0.233051
0.195392 0.442023 0.243641
0.286244 0.453986 0.254246
0.378164 0.466026 0.264942
0.470985 0.478157 0.275776
0.564569 0.490425 0.286748
0.658793 0.5028 0.297887
0.753628 0.515328 0.309178
0.0582284 0.535546 0.257832
0.147005 0.548577 0.2692
0.237552 0.561471 0.280446
0.329335 0.57435 0.291737
0.422065 0.587289 0.30309
0.515587 0.60029 0.314565
0.609781 0.613397 0.326162
0.704601 0.626596 0.337881
0.799954 0.639918 0.349752
0.0977493 0.657542 0.293858
0.187854 0.671305 0.30576
0.279377 0.684977 0.317617
0.371954 0.69865 0.329488
0.465385 0.712337 0.341436
0.559533 0.726116 0.353475
0.654292 0.739956 0.365621
0.74963 0.753887 0.37789
0.845457 0.76791 0.39028
0 0 0
0 0 0
0 0 0
0 0 0
0 0 0
0 0 0
0.0105592 0 0.000671397
0.0393683 0 0.0169528
0.102159 0.00241093 0.0416266
0 0 0
0 0 0
0 0 0
0.00289921 0 0.00691234
0.0297856 0.00799573 0.0283513
0.0778973 0.0178836 0.0573129
0.147784 0.0237125 0.0871138
0.238727 0.0251774 0.114931
0.347326 0.0230869 0.139254
0 0.00489815 0.0140841
0.0101015 0.0216373 0.0417182
0.037705 0.0383154 0.0738689
0.0823835 0.0520638 0.105882
0.145708 0.0621042 0.135149
0.226337 0.0686351 0.160296
0.320974 0.0724956 0.180987
0.425162 0.0747997 0.19762
0.534066 0.0768292 0.210986
0 0.0862745 0.121782
0.0338445 0.105135 0.151705
0.0861219 0.120424 0.177371
0.155749 0.132036 0.198108
0.238529 0.141009 0.214588
0.330083 0.14847 0.227756
0.425803 0.155581 0.238682
0.521111 0.163546 0.248524
0.614145 0.172763 0.258335
0 0.194675 0.209827
0.0429999 0.210422 0.226947
0.119036 0.222721 0.240192
0.204456 0.233127 0.251118
0.294301 0.242908 0.261021
0.385489 0.252857 0.270954
0.477623 0.263005 0.281086
0.570581 0.273365 0.291432
0.66424 0.283955 0.302007
0 0.310094 0.258381
0.070634 0.321828 0.269459
0.15874 0.332815 0.279942
0.2486 0.343771 0.290425
0.339712 0.354818 0.300984
0.43183 0.366003 0.311711
0.524773 0.37734 0.322591
0.618433 0.38883 0.333654
0.712749 0.400488 0.344884
0.0245975 0.423499 0.295811
0.111818 0.435782 0.30721
0.201343 0.447837 0.31841
0.292302 0.459861 0.32961
0.384314 0.471962 0.340887
0.477226 0.484154 0.352285
0.570855 0.496468 0.363806
0.665156 0.508904 0.375494
0.760052 0.521477 0.38732
0.0639811 0.541543 0.333349
0.152911 0.55462 0.345266
0.243595 0.567559 0.357076
0.335454 0.580484 0.368902
0.42826 0.593469 0.380804
0.521843 0.606516 0.392782
0.616114 0.619669 0.404898
0.710979 0.632914 0.417121
0.806378 0.646281 0.429496
0.103624 0.663783 0.371176
0.193851 0.677577 0.383597
0.285466 0.691295 0.395956
0.378134 0.704997 0.408331
0.471611 0.71873 0.420768
0.56582 0.73254 0.433295
0.660639 0.746426 0.44593
0.756024 0.760388 0.458656
0.851896 0.774456 0.471519
0 0 0
0 0 0
0 0 0
0 0 0
0 0 0
0 0 0
0.0159152 0 0.00978103
0.0563363 0.000274662 0.0339513
0.126711 0.00326543 0.0665141
0 0 0
0 0 0
0 0 0.0015259
0.00825513 0.000869764 0.0176547
0.0413214 0.0123445 0.0493019
0.0943008 0.0210269 0.0866712
0.168627 0.0253758 0.124971
0.262867 0.0255894 0.160967
0.373159 0.0226749 0.192782
0 0.0111086 0.029984
0.0140688 0.0283207 0.066331
0.0440986 0.0443122 0.107073
0.0919203 0.0569162 0.147524
0.15819 0.0657816 0.184649
0.240955 0.071397 0.216831
0.336583 0.0746929 0.243565
0.440543 0.0768749 0.265156
0.548012 0.0792096 0.282322
0 0.0942702 0.166705
0.035111 0.112001 0.204273
0.0904555 0.126101 0.23653
0.162417 0.136782 0.262806
0.246601 0.14519 0.283726
0.338491 0.152483 0.30016
0.433509 0.159838 0.313161
0.52723 0.168399 0.323919
0.620249 0.177752 0.33434
0 0.201572 0.27631
0.0450904 0.216342 0.297429
0.123354 0.227955 0.313436
0.209964 0.238087 0.325933
0.300069 0.247944 0.336477
0.391379 0.257984 0.347005
0.483619 0.268223 0.357733
0.576654 0.278676 0.368643
0.670405 0.289342 0.379767
0 0.31548 0.333501
0.0760662 0.327016 0.345037
0.164355 0.338079 0.3561
0.254353 0.349126 0.367147
0.345586 0.36025 0.378271
0.437797 0.371511 0.389548
0.530831 0.38291 0.400961
0.624567 0.394476 0.412543
0.718944 0.40621 0.424277
0.0299535 0.429023 0.372702
0.117418 0.441337 0.384619
0.207095 0.453452 0.396338
0.298161 0.465537 0.408057
0.39028 0.477699 0.419852
0.483253 0.489952 0.431754
0.576974 0.502327 0.443778
0.671336 0.514824 0.45594
0.766278 0.527443 0.468238
0.0695354 0.547356 0.411933
0.158633 0.560464 0.424353
0.249424 0.573449 0.436652
0.34139 0.586435 0.448966
0.434272 0.599466 0.461326
0.527932 0.612573 0.473793
0.622248 0.625757 0.486366
0.717174 0.639063 0.499046
0.812634 0.652476 0.511849
0.1093 0.669841 0.451347
0.199649 0.683665 0.46424
0.291371 0.697414 0.477058
0.384115 0.711162 0.489891
0.477668 0.724956 0.50277
0.571939 0.738796 0.51574
0.666804 0.752712 0.528801
0.762234 0.766735 0.541955
0.858167 0.780835 0.55523
0 0 0
0 0 0
0 0 0
0 0 0
0 0 0
0.00218204 0 0.00486763
0.0243992 0 0.0217441
0.075349 0.00224308 0.0569162
0.152621 0.00334173 0.0985885
0 0 0
0 0 0
0 0 0.0116426
0.0158541 0.00544747 0.0353399
0.0535592 0.0163272 0.0768139
0.11104 0.0236057 0.123613
0.189334 0.0265049 0.170977
0.28629 0.0255589 0.215228
0.397711 0.0219883 0.254231
0 0.0177615 0.0518044
0.0177005 0.0348058 0.0977951
0.0502022 0.0498817 0.148135
0.101091 0.061265 0.197345
0.170077 0.0690013 0.242237
0.254704 0.0737621 0.281025
0.351064 0.0766308 0.313161
0.454566 0.0788281 0.338872
0.560372 0.0816358 0.358862
0 0.101732 0.219791
0.0361334 0.118288 0.264759
0.0944686 0.131258 0.30309
0.168627 0.141115 0.334203
0.254032 0.149081 0.358663
0.34612 0.156329 0.377371
0.440299 0.16408 0.391379
0.533043 0.173114 0.402396
0.626184 0.182589 0.413367
0 0.207874 0.349172
0.0473487 0.221759 0.373342
0.127672 0.232837 0.391089
0.21532 0.242832 0.404089
0.305638 0.252796 0.415
0.39707 0.262943 0.426062
0.489418 0.273274 0.437293
0.582559 0.283833 0.448722
0.676387 0.294575 0.460349
0 0.32047 0.411658
0.0813153 0.332021 0.423651
0.169787 0.34316 0.435233
0.259937 0.354299 0.446784
0.351278 0.365499 0.458412
0.44358 0.376837 0.470176
0.536706 0.388327 0.482078
0.630518 0.399954 0.494118
0.724971 0.411749 0.506325
0.0351415 0.434348 0.452461
0.122835 0.446723 0.464851
0.212665 0.458885 0.477058
0.303838 0.471061 0.48925
0.396048 0.483284 0.501503
0.489113 0.495598 0.513863
0.582895 0.508019 0.526345
0.677333 0.520577 0.538933
0.772335 0.533257 0.551675
0.0749065 0.552987 0.493233
0.164187 0.56614 0.506096
0.2551 0.579187 0.518837
0.347143 0.592218 0.531594
0.440116 0.605295 0.544396
0.533837 0.618463 0.55729
0.628229 0.631708 0.570275
0.723217 0.64506 0.583383
0.818723 0.658503 0.596597
0.114809 0.675731 0.534096
0.205295 0.689601 0.547402
0.297108 0.703395 0.560632
0.389929 0.717189 0.573877
0.483558 0.731014 0.587182
0.57789 0.7449 0.600549
0.672816 0.758862 0.614008
0.768307 0.772915 0.627558
0.864271 0.78706 0.641215
0 0 0
0 0 0
0 0 0
0 0 0
0 0 0
0.00819409 0 0.0150759
0.037644 0 0.0411536
0.0959487 0.00352483 0.0868086
0.179355 0.00267033 0.138521
0 0 0
0 0 0.00570687
6.10361e-05 0 0.0205997
0.0243381 0.00999466 0.0595254
0.0661326 0.019852 0.111559
0.127886 0.0256046 0.168673
0.209674 0.0270848 0.225299
0.308812 0.0251469 0.277546
0.420874 0.021088 0.323171
0 0.024506 0.0804608
0.0208743 0.0409705 0.137072
0.0559548 0.054963 0.197391
0.109819 0.065095 0.255375
0.181323 0.0717632 0.307652
0.267567 0.0758068 0.352407
0.364416 0.0783856 0.38909
0.467231 0.0807507 0.417945
0.571221 0.0841688 0.439734
0 0.108614 0.280949
0.0369573 0.12401 0.332845
0.0982071 0.135912 0.376516
0.174426 0.145083 0.411566
0.260899 0.152743 0.43856
0.353033 0.160098 0.458457
0.44622 0.168368 0.472374
0.538689 0.177676 0.483604
0.631937 0.187259 0.495048
0 0.213642 0.427634
0.0497902 0.226764 0.453834
0.132067 0.23743 0.472221
0.2206 0.247425 0.48481
0.311055 0.257496 0.496223
0.402609 0.26775 0.507759
0.495064 0.278187 0.519478
0.588281 0.288823 0.53138
0.6822 0.299657 0.54345
0.000732433 0.325307 0.492531
0.0864118 0.336873 0.504952
0.175067 0.348104 0.516991
0.265354 0.359319 0.529015
0.356817 0.370611 0.541115
0.44921 0.382025 0.553323
0.542412 0.393576 0.565652
0.636316 0.405295 0.578134
0.730846 0.417151 0.590768
0.0401923 0.439536 0.534813
0.128115 0.451957 0.547631
0.218082 0.464195 0.560265
0.309361 0.476417 0.572885
0.401679 0.488701 0.58558
0.49482 0.501091 0.598352
0.588678 0.513573 0.611231
0.683177 0.526192 0.624247
0.778256 0.538933 0.637369
0.0801556 0.55848 0.576974
0.169589 0.571679 0.590249
0.260609 0.584772 0.603403
0.352758 0.597864 0.616556
0.445808 0.611002 0.629755
0.539605 0.624201 0.643046
0.634058 0.637507 0.656428
0.729107 0.650904 0.669902
0.824674 0.664408 0.683497
0.12018 0.681468 0.61915
0.210788 0.695384 0.632837
0.302708 0.709224 0.646464
0.395605 0.723064 0.66009
0.489311 0.736934 0.673762
0.583703 0.750866 0.68751
0.678691 0.764874 0.701335
0.774227 0.778973 0.715251
0.870253 0.793164 0.729274
