assets/cube/red_afternoon_01.cube
TITLE "Generated by Resolve"
LUT_3D_SIZE 5
0 0 0
0 0 0
0 0 0
0 0 0
0.020737 0 0
0 0 0
0.00477607 0.0055848 0
0.0776684 0.0362707 0.00688182
0.226459 0.0554208 0
0.4383 0.0619211 0
0 0.149187 0.00466926
0.0940414 0.187488 0
0.25803 0.212085 0
0.442603 0.231983 0
0.62884 0.252552 0
0 0.391135 0
0.168215 0.415442 0
0.350439 0.439246 0.0059968
0.536446 0.463401 0.0200656
0.725216 0.488075 0.0355535
0.071519 0.629801 0.0252384
0.252369 0.65713 0.042359
0.437934 0.684321 0.0600137
0.62652 0.711757 0.0784772
0.817426 0.739528 0.0977798
0 0 0
0 0 0
0 0 0
0 0 0
0.0396887 0 0.000640879
0 0 0
0.0175174 0.0185245 0.0147555
0.105486 0.0479591 0.0364385
0.267399 0.0637369 0.0424201
0.482185 0.0690471 0.0387274
0 0.169863 0.0571145
0.105333 0.204028 0.0581216
0.274891 0.226291 0.0608682
0.458137 0.245869 0.0741436
0.644297 0.266361 0.090425
0.00717174 0.405493 0.0877089
0.182696 0.429603 0.105943
0.365103 0.453422 0.124239
0.551232 0.477623 0.143206
0.740093 0.502358 0.162997
0.0853285 0.644358 0.149645
0.266529 0.671687 0.17084
0.452262 0.698924 0.192218
0.64097 0.726406 0.214084
0.831983 0.754238 0.23653
0 0 0
0 0 0
0 0 0
0.00424201 0 0
0.0790112 0.000915541 0.0229648
0 0.000274662 0.00447089
0.0310826 0.0319371 0.0478981
0.132723 0.057908 0.0938888
0.304219 0.0699931 0.126085
0.518471 0.074403 0.145815
0 0.187137 0.1505
0.114641 0.21706 0.172381
0.288304 0.237675 0.189136
0.471427 0.257572 0.207797
0.657877 0.278355 0.227436
0.0190433 0.417777 0.222248
0.195392 0.442023 0.243641
0.378164 0.466026 0.264942
0.564569 0.490425 0.286748
0.753628 0.515328 0.309178
0.0977493 0.657542 0.293858
0.279377 0.684977 0.317617
0.465385 0.712337 0.341436
0.654292 0.739956 0.365621
0.845457 0.76791 0.39028
0 0 0
0 0 0
0 0 0
0.0159152 0 0.00978103
0.126711 0.00326543 0.0665141
0 0.0111086 0.029984
0.0440986 0.0443122 0.107073
0.15819 0.0657816 0.184649
0.336583 0.0746929 0.243565
0.548012 0.0792096 0.282322
0 0.201572 0.27631
0.123354 0.227955 0.313436
0.300069 0.247944 0.336477
0.483619 0.268223 0.357733
0.670405 0.289342 0.379767
0.0299535 0.429023 0.372702
0.207095 0.453452 0.396338
0.39028 0.477699 0.419852
0.576974 0.502327 0.443778
0.766278 0.527443 0.468238
0.1093 0.669841 0.451347
0.291371 0.697414 0.477058
0.477668 0.724956 0.50277
0.666804 0.752712 0.528801
0.858167 0.780835 0.55523
0 0 0
0 0 0
0 0 0
0.037644 0 0.0411536
0.179355 0.00267033 0.138521
0 0.024506 0.0804608
0.0559548 0.054963 0.197391
0.181323 0.0717632 0.307652
0.364416 0.0783856 0.38909
0.571221 0.0841688 0.439734
0 0.213642 0.427634
0.132067 0.23743 0.472221
0.311055 0.257496 0.496223
0.495064 0.278187 0.519478
0.6822 0.299657 0.54345
0.0401923 0.439536 0.534813
0.218082 0.464195 0.560265
0.401679 0.488701 0.58558
0.588678 0.513573 0.611231
0.778256 0.538933 0.637369
0.12018 0.681468 0.61915
0.302708 0.709224 0.646464
0.489311 0.736934 0.673762
0.678691 0.764874 0.701335
0.870253 0.793164 0.729274
