assets/cube/retro_magenta_01.cube
TITLE "Generated by Resolve"
LUT_3D_SIZE 9
0.100496 0.0667735 0.0667735
0.164385 0.0777142 0.0777142
0.241764 0.0855421 0.0855421
0.328634 0.0908064 0.0908064
0.421408 0.0944686 0.0944686
0.516625 0.0974899 0.0974899
0.611048 0.10071 0.10071
0.701717 0.104952 0.104952
0.785763 0.110979 0.110979
0.144457 0.157626 0.0825055
0.219455 0.166705 0.0849775
0.300816 0.173892 0.0873426
0.385214 0.180102 0.0904402
0.469566 0.186191 0.0950332
0.551629 0.192767 0.101442
0.633265 0.199435 0.10811
0.7149 0.206119 0.114794
0.796262 0.212863 0.121553
0.154452 0.261006 0.0799115
0.235355 0.268055 0.0850843
0.316991 0.274739 0.0917372
0.398642 0.281407 0.0984054
0.480278 0.288075 0.105089
0.561913 0.294759 0.111788
0.643534 0.301442 0.118471
0.725139 0.30811 0.12517
0.80647 0.314885 0.13196
0.164034 0.363363 0.088716
0.24567 0.370047 0.0953994
0.327321 0.376715 0.102083
0.408957 0.383383 0.108782
0.490578 0.390066 0.115496
0.572183 0.39675 0.12221
0.653773 0.403433 0.128939
0.735332 0.410117 0.135683
0.816587 0.416892 0.142535
0.174395 0.465339 0.0990921
0.256031 0.472007 0.105806
0.337682 0.478676 0.112535
0.419303 0.485344 0.119265
0.500893 0.492027 0.126024
0.582467 0.498711 0.132799
0.663996 0.505409 0.13962
0.745495 0.512108 0.146456
0.826658 0.518898 0.153399
0.184863 0.567254 0.109606
0.266514 0.573922 0.116365
0.348135 0.580591 0.123171
0.42974 0.587259 0.129976
0.511315 0.593942 0.136843
0.592828 0.600626 0.143725
0.674281 0.607324 0.150668
0.755673 0.614038 0.157671
0.836698 0.620859 0.164828
0.19556 0.669078 0.120363
0.277195 0.675731 0.12723
0.358831 0.682399 0.134157
0.440406 0.689052 0.141115
0.521935 0.69572 0.14815
0.603387 0.702419 0.155276
0.684749 0.709117 0.162509
0.765972 0.715846 0.169879
0.846754 0.722667 0.177523
0.206638 0.770748 0.131579
0.288319 0.777371 0.138643
0.36997 0.783993 0.145815
0.451545 0.790631 0.153094
0.533059 0.797269 0.160555
0.61445 0.803906 0.168261
0.695674 0.810559 0.176394
0.776623 0.817182 0.185657
0.855467 0.823285 0.206149
0.218967 0.871916 0.144121
0.300786 0.878447 0.151675
0.38262 0.884947 0.159518
0.464485 0.891386 0.167941
0.547051 0.897322 0.179156
0.632715 0.900862 0.205051
0.716228 0.904097 0.240238
0.795239 0.907698 0.285115
0.867292 0.912352 0.340139
0.107774 0.0705882 0.114244
0.173724 0.0804608 0.135332
0.251865 0.0871901 0.151843
0.338735 0.0917067 0.164462
0.430793 0.0949874 0.174136
0.524636 0.0979324 0.181765
0.617075 0.101411 0.188251
0.705257 0.106188 0.194476
0.787488 0.112703 0.201129
0.146975 0.160586 0.158129
0.222843 0.168841 0.166186
0.304387 0.17554 0.172763
0.388357 0.181598 0.178744
0.471672 0.187823 0.184924
0.553353 0.194491 0.191592
0.634989 0.20116 0.198276
0.716625 0.207843 0.204944
0.797986 0.214588 0.211704
0.155795 0.262974 0.168856
0.237079 0.26978 0.175219
0.318715 0.276448 0.181888
0.400366 0.283131 0.188571
0.482002 0.289799 0.195254
0.563638 0.296483 0.201938
0.645258 0.303166 0.208621
0.726848 0.30985 0.21532
0.808164 0.316609 0.222095
0.165759 0.365087 0.178866
0.247395 0.371771 0.18555
0.329046 0.378439 0.192233
0.410681 0.385107 0.198932
0.492302 0.391791 0.205631
0.573907 0.398474 0.212345
0.655482 0.405158 0.219059
0.737041 0.411856 0.225803
0.81828 0.418631 0.232624
0.176135 0.467063 0.189242
0.257771 0.473732 0.195941
0.339406 0.4804 0.202655
0.421027 0.487068 0.209384
0.502617 0.493751 0.216129
0.584192 0.50045 0.222904
0.665721 0.507149 0.229694
0.747189 0.513848 0.2365
0.828351 0.520653 0.243427
0.186618 0.568978 0.199725
0.268254 0.575647 0.20647
0.349889 0.5823 0.213245
0.431495 0.588983 0.22005
0.513054 0.595666 0.226886
0.594568 0.602365 0.233753
0.67602 0.609064 0.240665
0.757382 0.615793 0.247639
0.838392 0.622614 0.254749
0.19733 0.670802 0.210422
0.278981 0.677455 0.217273
0.360601 0.684108 0.224155
0.442191 0.690776 0.231098
0.523705 0.697459 0.238102
0.605158 0.704143 0.245182
0.686503 0.710857 0.252369
0.767712 0.717601 0.259693
0.848447 0.724453 0.267308
0.208484 0.772457 0.221561
0.290166 0.77908 0.228595
0.371817 0.785702 0.235721
0.453407 0.79234 0.242954
0.53492 0.798978 0.25037
0.616312 0.805631 0.25803
0.697536 0.812284 0.266178
0.778408 0.818799 0.276707
0.856611 0.824842 0.299672
0.220951 0.873594 0.233967
0.302815 0.880125 0.241474
0.384695 0.88661 0.249302
0.466712 0.892989 0.257816
0.551125 0.898009 0.272663
0.637232 0.901411 0.298665
0.720729 0.904723 0.333089
0.799268 0.908644 0.376211
0.87039 0.913848 0.428473
0.1149 0.0741741 0.170016
0.182254 0.0827344 0.200092
0.261082 0.0884871 0.224262
0.347875 0.0923781 0.243183
0.439139 0.0953994 0.25774
0.531563 0.0984207 0.268925
0.622034 0.102266 0.277653
0.707759 0.107668 0.284855
0.789181 0.114397 0.291615
0.149142 0.16318 0.238437
0.225834 0.170718 0.25098
0.30753 0.177081 0.260716
0.391012 0.183078 0.268559
0.473396 0.189517 0.275395
0.555047 0.196201 0.282078
0.636683 0.202869 0.288746
0.718318 0.209552 0.295415
0.79968 0.216297 0.302159
0.157244 0.26479 0.259007
0.238773 0.271489 0.26569
0.320424 0.278157 0.272374
0.402075 0.28484 0.279042
0.483711 0.291508 0.285725
0.565332 0.298192 0.292393
0.646952 0.304875 0.299077
0.728542 0.311559 0.305776
0.809857 0.318318 0.312535
0.167468 0.366796 0.269337
0.249104 0.373465 0.27602
0.330739 0.380133 0.282704
0.41239 0.386816 0.289387
0.493996 0.3935 0.296086
0.575601 0.400183 0.302785
0.657176 0.406867 0.309483
0.73872 0.413565 0.316213
0.819959 0.420356 0.323018
0.177844 0.468757 0.279698
0.25948 0.475425 0.286381
0.341115 0.482109 0.293095
0.422736 0.488777 0.299809
0.504326 0.49546 0.306538
0.585901 0.502159 0.313283
0.667414 0.508858 0.320058
0.748882 0.515572 0.326848
0.83003 0.522377 0.333745
0.188357 0.570672 0.290135
0.269993 0.57734 0.29688
0.351614 0.584009 0.303639
0.433219 0.590692 0.310414
0.514778 0.597375 0.31722
0.596277 0.604074 0.324056
0.677714 0.610788 0.330938
0.759075 0.617517 0.337881
0.84007 0.624353 0.344945
0.1991 0.672496 0.300786
0.280751 0.679149 0.307607
0.362371 0.685817 0.314458
0.443961 0.692485 0.32137
0.525475 0.699168 0.328328
0.606912 0.705867 0.335363
0.688243 0.712581 0.342504
0.769421 0.719341 0.349767
0.850126 0.726207 0.357321
0.210315 0.774151 0.311803
0.292012 0.780774 0.318807
0.373663 0.787396 0.325887
0.455268 0.794034 0.333074
0.536782 0.800687 0.340429
0.618173 0.80734 0.348043
0.699397 0.813977 0.356222
0.780224 0.820218 0.369589
0.857801 0.826505 0.392172
0.222934 0.875257 0.324071
0.304845 0.881773 0.331518
0.386816 0.888228 0.339315
0.469123 0.894499 0.348028
0.555703 0.898604 0.365637
0.642252 0.90193 0.391119
0.725673 0.90544 0.423911
0.803662 0.909773 0.46453
0.873823 0.915618 0.513237
0.12137 0.0772259 0.233143
0.190036 0.0845808 0.271214
0.269444 0.0894942 0.301976
0.3561 0.0929122 0.32607
0.44654 0.0957961 0.344442
0.537514 0.0989853 0.358083
0.626032 0.103288 0.368048
0.709499 0.109361 0.375341
0.79089 0.116106 0.382086
0.151064 0.165454 0.322545
0.228504 0.172442 0.338506
0.310292 0.178546 0.350347
0.393256 0.184619 0.359045
0.475105 0.191226 0.365881
0.556756 0.197894 0.372549
0.638392 0.204578 0.379217
0.720012 0.211246 0.385885
0.801358 0.218006 0.39263
0.158846 0.266514 0.349493
0.240482 0.273182 0.356176
0.322118 0.279866 0.362844
0.403769 0.286534 0.369512
0.485405 0.293217 0.376181
0.567041 0.299901 0.382864
0.648646 0.306569 0.389532
0.730236 0.313268 0.396216
0.811536 0.320027 0.402975
0.169177 0.368505 0.359823
0.250813 0.375174 0.366491
0.332448 0.381842 0.373159
0.414084 0.388525 0.379843
0.495705 0.395209 0.386526
0.577295 0.401892 0.39321
0.658869 0.408576 0.399908
0.740414 0.41529 0.406622
0.821637 0.422065 0.413397
0.179553 0.470466 0.370153
0.261204 0.477134 0.376837
0.34284 0.483803 0.38352
0.424445 0.490486 0.390234
0.506035 0.497169 0.396933
0.587594 0.503868 0.403662
0.669108 0.510567 0.410407
0.750561 0.517296 0.417166
0.831693 0.524102 0.424033
0.190082 0.572381 0.380545
0.271717 0.579034 0.387274
0.353353 0.585718 0.394003
0.434943 0.592401 0.400763
0.516503 0.599084 0.407538
0.598001 0.605798 0.414343
0.679423 0.612512 0.42118
0.760769 0.619257 0.428077
0.841733 0.626093 0.435096
0.20087 0.674189 0.391119
0.282521 0.680858 0.39791
0.364141 0.68751 0.40473
0.445731 0.694194 0.411597
0.52723 0.700877 0.418509
0.608667 0.707591 0.425498
0.689982 0.714321 0.432563
0.77113 0.72108 0.439765
0.851789 0.727977 0.447242
0.212161 0.77583 0.402029
0.293858 0.782452 0.408972
0.375525 0.78909 0.415991
0.45713 0.795727 0.423133
0.538659 0.80238 0.430411
0.620066 0.809033 0.437964
0.70132 0.815656 0.44625
0.782177 0.821714 0.461463
0.859068 0.82829 0.48304
0.224948 0.876905 0.414115
0.30692 0.883406 0.421485
0.389029 0.889845 0.429236
0.472633 0.895613 0.439109
0.560815 0.899168 0.457359
0.647761 0.90251 0.481498
0.731075 0.906279 0.512001
0.808499 0.911116 0.549355
0.877653 0.917693 0.59379
0.127184 0.0797742 0.30312
0.197086 0.0860609 0.348135
0.277012 0.0902724 0.38436
0.363455 0.0933394 0.412512
0.45304 0.0962081 0.433585
0.542565 0.0996872 0.448676
0.629068 0.104555 0.458869
0.711208 0.111055 0.465812
0.792584 0.117815 0.472557
0.152743 0.167483 0.409857
0.2309 0.174014 0.428153
0.312734 0.180011 0.441077
0.395163 0.186252 0.449668
0.476814 0.19292 0.456352
0.55845 0.199603 0.46302
0.640085 0.206271 0.469688
0.721706 0.212955 0.476356
0.803052 0.219715 0.483085
0.16054 0.268223 0.439979
0.242176 0.274891 0.446647
0.323827 0.281559 0.453315
0.405463 0.288243 0.459983
0.487098 0.294911 0.466651
0.568734 0.301595 0.47332
0.650339 0.308278 0.479988
0.731914 0.314977 0.486656
0.813214 0.321752 0.4934
0.170871 0.370199 0.450278
0.252522 0.376867 0.456947
0.334157 0.383551 0.463615
0.415793 0.390219 0.470283
0.497398 0.396918 0.476951
0.579004 0.403601 0.483635
0.660563 0.4103 0.490318
0.742092 0.416999 0.497002
0.823316 0.423789 0.503761
0.181277 0.47216 0.460594
0.262913 0.478828 0.467262
0.344549 0.485512 0.473945
0.426154 0.492195 0.480629
0.507744 0.498878 0.487312
0.589303 0.505577 0.494026
0.670802 0.512291 0.50074
0.752255 0.51902 0.507469
0.833356 0.525841 0.51429
0.191821 0.574075 0.470939
0.273457 0.580743 0.477638
0.355093 0.587427 0.484352
0.436683 0.59411 0.491081
0.518227 0.600793 0.497826
0.599725 0.607507 0.504601
0.681132 0.614237 0.511391
0.762463 0.620996 0.518227
0.843412 0.627848 0.525185
0.20264 0.675898 0.481437
0.284291 0.682551 0.488182
0.365927 0.689219 0.494972
0.447501 0.695903 0.501793
0.529015 0.702602 0.508659
0.610437 0.709316 0.515572
0.691722 0.71606 0.522576
0.772854 0.722835 0.529686
0.853437 0.729763 0.537072
0.214008 0.777523 0.49221
0.29572 0.784146 0.499092
0.377401 0.790784 0.50605
0.459022 0.797436 0.5131
0.540551 0.804089 0.520302
0.621988 0.810742 0.527764
0.703532 0.817212 0.536782
0.784283 0.823301 0.551904
0.860456 0.830274 0.571664
0.227008 0.878569 0.504067
0.309056 0.885039 0.51136
0.391379 0.891417 0.519051
0.477562 0.896269 0.530373
0.566522 0.899718 0.547433
0.653803 0.903166 0.569497
0.73698 0.907286 0.596979
0.813779 0.912703 0.63032
0.88188 0.920104 0.669764
0.132387 0.0818647 0.3794
0.203449 0.0872206 0.430228
0.283818 0.0908522 0.470787
0.370016 0.0937057 0.5019
0.458701 0.0966659 0.52462
0.546746 0.100557 0.540139
0.631251 0.106096 0.549615
0.712901 0.112764 0.556298
0.794278 0.119509 0.563027
0.154269 0.169299 0.499763
0.233066 0.175509 0.519341
0.314916 0.181491 0.532357
0.396857 0.187961 0.540154
0.478508 0.194629 0.546822
0.560143 0.201297 0.553491
0.641779 0.20798 0.560159
0.7234 0.214664 0.566812
0.804746 0.221424 0.573541
0.162249 0.269917 0.530449
0.243885 0.2766 0.537118
0.325536 0.283268 0.543786
0.407172 0.289937 0.550454
0.488807 0.29662 0.557107
0.570428 0.303304 0.56376
0.652033 0.309987 0.570428
0.733608 0.316686 0.577081
0.814893 0.323461 0.58381
0.17258 0.371908 0.540749
0.254215 0.378576 0.547402
0.335866 0.38526 0.55407
0.417487 0.391928 0.560723
0.499107 0.398611 0.567376
0.580697 0.40531 0.574044
0.662257 0.412009 0.580697
0.74377 0.418723 0.587366
0.824994 0.425513 0.59411
0.182986 0.473869 0.551019
0.264637 0.480537 0.557671
0.346273 0.487221 0.56434
0.427878 0.493904 0.571008
0.509453 0.500603 0.577676
0.590997 0.507301 0.58436
0.672496 0.514015 0.591043
0.753933 0.520745 0.597742
0.835035 0.527581 0.604517
0.193561 0.575784 0.561318
0.275196 0.582452 0.568002
0.356832 0.589136 0.574685
0.438422 0.595819 0.581369
0.519966 0.602518 0.588083
0.60145 0.609232 0.594812
0.682857 0.615976 0.601556
0.764157 0.622736 0.608331
0.845075 0.629602 0.615213
0.204425 0.677592 0.57171
0.286076 0.68426 0.578439
0.367712 0.690929 0.585168
0.449287 0.697612 0.591943
0.530785 0.704311 0.598733
0.612207 0.71104 0.605585
0.693492 0.7178 0.612497
0.774578 0.724605 0.619501
0.8551 0.731563 0.626749
0.215869 0.779217 0.58233
0.297597 0.78584 0.589166
0.379294 0.792477 0.596048
0.460929 0.79913 0.602991
0.542489 0.805783 0.610071
0.623987 0.812436 0.617426
0.706127 0.818662 0.627054
0.786587 0.82501 0.640528
0.862013 0.832471 0.657755
0.229099 0.880217 0.593927
0.311269 0.886671 0.601099
0.394049 0.892912 0.608728
0.483116 0.89688 0.620295
0.5729 0.900282 0.635508
0.660441 0.903944 0.654688
0.743404 0.908492 0.678401
0.819547 0.914595 0.707042
0.886549 0.922881 0.740841
0.137011 0.0835584 0.461372
0.209171 0.0881208 0.516869
0.289921 0.09131 0.560632
0.37583 0.0940719 0.593606
0.463584 0.0972457 0.616968
0.550134 0.101625 0.631937
0.632959 0.10779 0.640101
0.714595 0.114473 0.646769
0.795972 0.121218 0.653498
0.155673 0.170947 0.591653
0.23505 0.176959 0.611505
0.316854 0.183032 0.623636
0.398566 0.189654 0.630625
0.480217 0.196338 0.637293
0.561852 0.203006 0.643961
0.643473 0.209689 0.650614
0.725093 0.216373 0.657267
0.806439 0.223133 0.663996
0.163943 0.271626 0.62092
0.245594 0.278294 0.627588
0.32723 0.284977 0.634256
0.408881 0.291646 0.640909
0.490501 0.298329 0.647562
0.572122 0.305013 0.654215
0.653727 0.311711 0.660853
0.735302 0.318395 0.667506
0.816571 0.325185 0.674205
0.174289 0.373602 0.631205
0.255924 0.380285 0.637858
0.337575 0.386954 0.644511
0.419196 0.393637 0.651148
0.500801 0.400336 0.657801
0.582391 0.407019 0.664439
0.663951 0.413733 0.671077
0.745464 0.420447 0.677714
0.826658 0.427253 0.684428
0.18471 0.475563 0.641443
0.266346 0.482246 0.648081
0.347982 0.48893 0.654734
0.429587 0.495613 0.661372
0.511177 0.502312 0.668025
0.592706 0.50901 0.674662
0.674205 0.51574 0.681315
0.755627 0.522484 0.687984
0.836698 0.52932 0.694713
0.1953 0.577478 0.651682
0.276951 0.584161 0.658335
0.358572 0.590845 0.664988
0.440162 0.597528 0.671641
0.521691 0.604242 0.678309
0.603174 0.610956 0.684977
0.684565 0.6177 0.691676
0.765866 0.624491 0.69839
0.846754 0.631373 0.70518
0.20621 0.679286 0.661967
0.287877 0.685954 0.66865
0.369497 0.692638 0.675334
0.451072 0.699321 0.682033
0.53257 0.706035 0.688777
0.613977 0.712779 0.695521
0.695247 0.719554 0.702327
0.776318 0.726375 0.709194
0.856718 0.733379 0.716258
0.217746 0.780896 0.672419
0.299489 0.787533 0.679164
0.381201 0.794186 0.685954
0.462852 0.800839 0.69279
0.544457 0.807492 0.699733
0.626108 0.814115 0.706874
0.708995 0.820203 0.715831
0.78912 0.826871 0.72697
0.863752 0.834897 0.740856
0.231235 0.881849 0.68368
0.313588 0.888273 0.6907
0.39852 0.893874 0.69839
0.489372 0.897459 0.708476
0.579889 0.900908 0.72105
0.667659 0.90486 0.73666
0.750393 0.909941 0.755886
0.825803 0.916793 0.779141
0.891661 0.926055 0.806714
0.141115 0.0849012 0.548409
0.214298 0.0887922 0.607446
0.295384 0.0916762 0.6533
0.380941 0.0944533 0.687083
0.467735 0.0979629 0.710033
0.552758 0.102937 0.723507
0.634653 0.109499 0.730571
0.716304 0.116167 0.73724
0.797681 0.122927 0.743969
0.156985 0.172473 0.684947
0.236912 0.178408 0.704097
0.318624 0.18468 0.714427
0.400259 0.191363 0.721111
0.48191 0.198032 0.727764
0.563546 0.204715 0.734432
0.645182 0.211398 0.741085
0.726787 0.218082 0.747723
0.808118 0.224842 0.754437
0.165652 0.27332 0.711406
0.247288 0.280003 0.718059
0.328939 0.286671 0.724712
0.410574 0.293355 0.731365
0.49221 0.300038 0.738018
0.573816 0.306722 0.744656
0.655421 0.31342 0.751278
0.73698 0.320119 0.7579
0.818265 0.326894 0.764599
0.175998 0.375311 0.72166
0.257633 0.381979 0.728298
0.339269 0.388663 0.734936
0.420905 0.395346 0.741573
0.50251 0.402045 0.748196
0.584085 0.408728 0.754818
0.665644 0.415442 0.76144
0.747143 0.422171 0.768048
0.828336 0.428977 0.774731
0.186435 0.477272 0.731853
0.26807 0.483955 0.738491
0.349706 0.490623 0.745098
0.431312 0.497322 0.75172
0.512886 0.504021 0.758343
0.594415 0.510735 0.76495
0.675898 0.517464 0.771572
0.757305 0.524208 0.77818
0.838376 0.53106 0.784863
0.19704 0.579187 0.742016
0.278691 0.585855 0.748638
0.360311 0.592554 0.755261
0.441901 0.599237 0.761883
0.52343 0.605951 0.768505
0.604898 0.61268 0.775113
0.68629 0.61944 0.78175
0.767559 0.62623 0.788373
0.848417 0.633143 0.795087
0.208011 0.680995 0.752194
0.289662 0.687663 0.758816
0.371298 0.694347 0.765454
0.452873 0.701045 0.772091
0.534371 0.707759 0.778729
0.615778 0.714519 0.785382
0.697017 0.721309 0.79205
0.778042 0.728161 0.798733
0.858305 0.735241 0.805478
0.219638 0.782589 0.762432
0.301396 0.789227 0.7691
0.383139 0.79588 0.775784
0.46482 0.802533 0.782483
0.546502 0.809201 0.789197
0.628962 0.815625 0.79585
0.712154 0.821836 0.802701
0.791913 0.828931 0.810727
0.865705 0.837613 0.820584
0.233463 0.883482 0.773312
0.316121 0.889845 0.780087
0.404364 0.894545 0.786908
0.49633 0.898054 0.794537
0.587564 0.901625 0.803708
0.675517 0.905959 0.81503
0.757946 0.91165 0.829068
0.832563 0.919356 0.846296
0.897246 0.929641 0.867079
0.144732 0.0859541 0.639551
0.218906 0.0893263 0.700923
0.300252 0.0920424 0.747768
0.385428 0.0949569 0.781292
0.471244 0.0988785 0.802869
0.554742 0.104555 0.813947
0.636393 0.111238 0.820615
0.718029 0.117906 0.827283
0.799405 0.124666 0.833997
0.158297 0.173968 0.778668
0.238697 0.179919 0.796139
0.320348 0.186419 0.804471
0.401999 0.193088 0.811139
0.483635 0.199771 0.817807
0.56527 0.206455 0.82446
0.646906 0.213138 0.831098
0.728511 0.219821 0.837736
0.809842 0.226596 0.844434
0.167391 0.275059 0.801434
0.249027 0.281743 0.808087
0.330663 0.288411 0.81474
0.412314 0.295094 0.821378
0.493935 0.301778 0.828016
0.57554 0.308461 0.834638
0.657145 0.31516 0.84126
0.738705 0.321859 0.847868
0.819974 0.328649 0.854536
0.177737 0.37705 0.811673
0.259373 0.383719 0.818296
0.341024 0.390402 0.824918
0.422644 0.397086 0.83154
0.50425 0.403784 0.838148
0.585824 0.410483 0.844755
0.667369 0.417197 0.851347
0.748852 0.423926 0.857923
0.830045 0.430747 0.864576
0.18819 0.479011 0.82182
0.269825 0.485679 0.828428
0.351461 0.492378 0.835035
0.433066 0.499062 0.841627
0.514626 0.505776 0.848203
0.596155 0.512489 0.85478
0.677623 0.519234 0.861357
0.75903 0.525979 0.867918
0.84007 0.532845 0.87454
0.198825 0.580926 0.831907
0.280476 0.587594 0.838499
0.362097 0.594293 0.845075
0.443671 0.600992 0.851652
0.525216 0.607706 0.858213
0.606668 0.61445 0.864775
0.688045 0.621225 0.871321
0.769284 0.628031 0.877867
0.850111 0.634958 0.884459
0.209842 0.682734 0.841947
0.291508 0.689403 0.848524
0.373129 0.696086 0.855085
0.454719 0.7028 0.861646
0.536217 0.709529 0.868193
0.617609 0.716289 0.874723
0.698833 0.72311 0.881224
0.779812 0.730007 0.887663
0.859525 0.737362 0.893309
0.221576 0.784314 0.851972
0.303365 0.790967 0.858534
0.385122 0.79762 0.865064
0.466865 0.804273 0.87158
0.548669 0.810925 0.877989
0.632425 0.817151 0.882902
0.715663 0.823636 0.88687
0.795026 0.831235 0.891051
0.867948 0.84065 0.896193
0.235798 0.885145 0.862348
0.319158 0.89134 0.868666
0.411002 0.895201 0.873182
0.504158 0.89868 0.877623
0.595956 0.902495 0.882704
0.684047 0.907286 0.889036
0.766094 0.91368 0.897261
0.839872 0.922301 0.907927
0.902831 0.933288 0.921096
