assets/cube/retro_magenta_01.cube
TITLE "Generated by Resolve"
LUT_3D_SIZE 33
0.100496 0.0667735 0.0667735
0.114672 0.0695964 0.0695964
0.130343 0.0725414 0.0725414
0.146944 0.0752422 0.0752422
0.164385 0.0777142 0.0777142
0.18265 0.0799573 0.0799573
0.201663 0.082002 0.0820172
0.221393 0.0838636 0.0838636
0.241764 0.0855421 0.0855421
0.26273 0.087068 0.087068
0.28423 0.0884413 0.0884413
0.306218 0.0896773 0.0896773
0.328634 0.0908064 0.0908064
0.351415 0.0918288 0.0918441
0.374502 0.0927749 0.0927749
0.397864 0.0936599 0.0936599
0.421408 0.0944686 0.0944686
0.445121 0.0952468 0.0952468
0.468925 0.0960098 0.0960098
0.492775 0.0967422 0.0967422
0.516625 0.0974899 0.0974899
0.540429 0.0982376 0.0982376
0.564126 0.0990158 0.0990158
0.587686 0.0998398 0.0998398
0.611048 0.10071 0.10071
0.634165 0.10164 0.10164
0.657023 0.102663 0.102663
0.679545 0.103761 0.103761
0.701717 0.104952 0.104952
0.723461 0.106249 0.106264
0.744762 0.107683 0.107683
0.765576 0.109239 0.109239
0.785763 0.110979 0.110979
0.116503 0.0871595 0.0746014
0.132189 0.0901656 0.0769055
0.148714 0.0929427 0.078996
0.166064 0.0955062 0.0808881
0.184161 0.0978561 0.0825971
0.202976 0.100023 0.0841382
0.222431 0.101991 0.0855421
0.242481 0.103807 0.0867933
0.263066 0.105486 0.0879225
0.284138 0.107012 0.0889601
0.305653 0.108431 0.0898909
0.32752 0.109743 0.0907607
0.349722 0.110979 0.0915541
0.372198 0.112123 0.0923171
0.394873 0.113207 0.0930343
0.4177 0.11426 0.0937362
0.44065 0.115267 0.0944381
0.463661 0.116258 0.09514
0.486671 0.11725 0.0958724
0.509651 0.118257 0.0966354
0.53254 0.119265 0.0974594
0.555291 0.120317 0.0983291
0.577874 0.121416 0.0992752
0.600229 0.122576 0.100298
0.622309 0.123796 0.101411
0.644114 0.125109 0.102632
0.665522 0.126497 0.103975
0.686564 0.128008 0.10544
0.707179 0.129625 0.107042
0.727596 0.131289 0.108721
0.748012 0.132952 0.110384
0.768414 0.13463 0.112047
0.788571 0.13637 0.113787
0.129076 0.109453 0.07953
0.145586 0.112291 0.0811017
0.16286 0.114916 0.0825055
0.18085 0.117342 0.083772
0.199481 0.119585 0.0849012
0.218723 0.121675 0.0859388
0.238514 0.123598 0.0868696
0.258793 0.125399 0.0877089
0.2795 0.127062 0.0884871
0.300587 0.128618 0.0892195
0.322011 0.130098 0.0899062
0.343694 0.131487 0.0905776
0.365621 0.132799 0.0912337
0.387701 0.134081 0.0918898
0.409903 0.135317 0.0925612
0.432181 0.136522 0.0932784
0.454475 0.137728 0.0940261
0.476738 0.138933 0.0948348
0.498939 0.140154 0.0957046
0.521019 0.14139 0.0966506
0.542916 0.142687 0.0976883
0.564614 0.144015 0.0988327
0.586084 0.145418 0.100084
0.607233 0.146899 0.101472
0.628046 0.14847 0.102983
0.648524 0.150118 0.104616
0.66894 0.151781 0.106294
0.689357 0.153445 0.107958
0.709758 0.155123 0.109621
0.730175 0.156786 0.111299
0.750591 0.15845 0.112963
0.770993 0.160128 0.114641
0.79115 0.161868 0.116381
0.138186 0.133028 0.0819409
0.155459 0.135683 0.0829633
0.173388 0.13817 0.0838788
0.191928 0.140475 0.0847181
0.211032 0.142626 0.0854658
0.230625 0.14464 0.0861677
0.25066 0.146517 0.0868238
0.271077 0.148287 0.0874647
0.291844 0.14995 0.0880751
0.312886 0.151553 0.0886854
0.334157 0.153063 0.0893111
0.355612 0.154528 0.0899672
0.377203 0.155947 0.0906539
0.398856 0.157336 0.0913863
0.420554 0.158709 0.092195
0.442237 0.160082 0.0930648
0.463859 0.161456 0.0940414
0.485359 0.16286 0.0950942
0.506737 0.164294 0.0962539
0.527886 0.165789 0.0975509
0.548806 0.16733 0.09897
0.569451 0.168933 0.100526
0.589868 0.170611 0.10219
0.610285 0.172274 0.103868
0.630701 0.173938 0.105531
0.651102 0.175601 0.107195
0.671519 0.177279 0.108873
0.69192 0.178943 0.110536
0.712337 0.180621 0.1122
0.732738 0.182284 0.113878
0.753155 0.183963 0.115541
0.773556 0.185626 0.11722
0.793713 0.187366 0.118959
0.144457 0.157626 0.0825055
0.162417 0.160113 0.0831769
0.180941 0.162448 0.0838178
0.199969 0.164645 0.0844129
0.219455 0.166705 0.0849775
0.239338 0.168643 0.0855421
0.259541 0.170474 0.0861219
0.280064 0.172213 0.086717
0.300816 0.173892 0.0873426
0.321752 0.175494 0.088014
0.34284 0.177066 0.0887465
0.364004 0.178592 0.0895552
0.385214 0.180102 0.0904402
0.406424 0.181613 0.0914168
0.427573 0.183108 0.0925002
0.448646 0.184634 0.0936904
0.469566 0.186191 0.0950332
0.490288 0.187778 0.0964981
0.510796 0.189425 0.0981003
0.531212 0.191104 0.0997635
0.551629 0.192767 0.101442
0.57203 0.19443 0.103105
0.592447 0.196109 0.104784
0.612863 0.197772 0.106447
0.633265 0.199435 0.10811
0.653681 0.201099 0.109789
0.674083 0.202777 0.111452
0.694499 0.20444 0.11313
0.7149 0.206119 0.114794
0.735317 0.207782 0.116457
0.755718 0.209461 0.118135
0.77612 0.211124 0.119799
0.796262 0.212863 0.121553
0.148562 0.182986 0.0819409
0.167132 0.185306 0.0824598
0.186175 0.187503 0.0829938
0.205631 0.189578 0.0835279
0.225422 0.191531 0.0840925
0.245533 0.193408 0.0847028
0.265873 0.195193 0.0853742
0.286412 0.196918 0.0861067
0.307118 0.198581 0.0869154
0.327901 0.200214 0.0878004
0.348745 0.201831 0.0888075
0.369589 0.203418 0.0899214
0.390402 0.20502 0.0911421
0.411124 0.206622 0.0925154
0.431708 0.208255 0.0940261
0.45214 0.209918 0.0956741
0.472557 0.211582 0.0973526
0.492973 0.21326 0.0990158
0.513375 0.214923 0.100679
0.533791 0.216587 0.102358
0.554208 0.218265 0.104021
0.574609 0.219928 0.105684
0.595026 0.221607 0.107362
0.615427 0.22327 0.109026
0.635843 0.224933 0.110704
0.656245 0.226612 0.112367
0.676661 0.228275 0.114046
0.697063 0.229938 0.115709
0.717464 0.231617 0.117388
0.737881 0.23328 0.119051
0.758282 0.234958 0.120729
0.778683 0.236622 0.122393
0.798825 0.238361 0.124147
0.151156 0.208835 0.0809033
0.170291 0.211002 0.0814527
0.189776 0.213046 0.0820478
0.209583 0.215 0.0827039
0.229633 0.216876 0.0834363
0.249897 0.218677 0.0842603
0.270314 0.220417 0.0851759
0.290837 0.22211 0.0861982
0.311421 0.223789 0.0873274
0.332021 0.225437 0.0886091
0.35259 0.227085 0.090013
0.373068 0.228748 0.0915847
0.393484 0.230411 0.0932479
0.413901 0.232074 0.0949111
0.434302 0.233753 0.0965896
0.454719 0.235416 0.0982528
0.475135 0.237079 0.0999313
0.495537 0.238758 0.101595
0.515953 0.240421 0.103258
0.53637 0.242084 0.104936
0.556771 0.243763 0.1066
0.577188 0.245426 0.108278
0.597589 0.247105 0.109941
0.618006 0.248768 0.11162
0.638407 0.250431 0.113283
0.658808 0.25211 0.114961
0.679225 0.253773 0.116625
0.699626 0.255451 0.118303
0.720027 0.257115 0.119966
0.740429 0.258793 0.121645
0.76083 0.260456 0.123323
0.781231 0.262135 0.124987
0.801373 0.263874 0.126741
0.152911 0.234928 0.0800336
0.172519 0.236927 0.0807813
0.192401 0.238834 0.0816052
0.212482 0.240681 0.082536
0.232746 0.242451 0.0835889
0.253101 0.24419 0.0847639
0.273533 0.245884 0.0860761
0.293996 0.247562 0.087541
0.314412 0.249241 0.0891585
0.334829 0.250904 0.0908217
0.355245 0.252567 0.0924849
0.375647 0.254231 0.0941634
0.396063 0.255909 0.0958267
0.41648 0.257572 0.0975052
0.436881 0.259251 0.0991684
0.457298 0.260914 0.100832
0.477714 0.262577 0.10251
0.498116 0.264256 0.104173
0.518532 0.265919 0.105852
0.538933 0.267582 0.107515
0.55935 0.269261 0.109194
0.579751 0.270924 0.110857
0.600168 0.272602 0.112535
0.620569 0.274266 0.114199
0.64097 0.275929 0.115877
0.661372 0.277607 0.117556
0.681788 0.279271 0.119219
0.70219 0.280949 0.120897
0.722591 0.282612 0.122576
0.742992 0.284291 0.124239
0.763394 0.285954 0.125917
0.78378 0.287633 0.127596
0.803922 0.289372 0.129351
0.154452 0.261006 0.0799115
0.174456 0.262852 0.0809949
0.194659 0.264637 0.0822003
0.214969 0.266361 0.0835584
0.235355 0.268055 0.0850843
0.255756 0.269734 0.0867323
0.276173 0.271397 0.0883955
0.29659 0.27306 0.090074
0.316991 0.274739 0.0917372
0.337407 0.276402 0.0934005
0.357824 0.278065 0.095079
0.378225 0.279728 0.0967422
0.398642 0.281407 0.0984054
0.419059 0.28307 0.100084
0.43946 0.284733 0.101747
0.459876 0.286412 0.103426
0.480278 0.288075 0.105089
0.500694 0.289754 0.106767
0.521096 0.291417 0.108431
0.541512 0.29308 0.110109
0.561913 0.294759 0.111788
0.58233 0.296422 0.113451
0.602731 0.2981 0.115129
0.623133 0.299763 0.116793
0.643534 0.301442 0.118471
0.663935 0.303105 0.12015
0.684337 0.304768 0.121828
0.704738 0.306447 0.123507
0.725139 0.30811 0.12517
0.745541 0.309789 0.126848
0.765942 0.311467 0.128527
0.786328 0.31313 0.130205
0.80647 0.314885 0.13196
0.156344 0.286854 0.0810712
0.176684 0.288548 0.0826429
0.197101 0.290211 0.0843061
0.217517 0.29189 0.0859693
0.237934 0.293553 0.0876478
0.258335 0.295216 0.0893111
0.278752 0.296895 0.0909743
0.299168 0.298558 0.0926528
0.31957 0.300221 0.094316
0.339986 0.3019 0.0959945
0.360403 0.303563 0.0976577
0.380804 0.305226 0.099321
0.401221 0.306905 0.100999
0.421637 0.308568 0.102678
0.442039 0.310231 0.104341
0.462455 0.31191 0.10602
0.482856 0.313573 0.107683
0.503258 0.315236 0.109361
0.523674 0.316915 0.111025
0.544076 0.318578 0.112703
0.564492 0.320256 0.114382
0.584894 0.32192 0.11606
0.605295 0.323598 0.117723
0.625696 0.325261 0.119402
0.646097 0.32694 0.12108
0.666499 0.328603 0.122759
0.6869 0.330282 0.124437
0.707301 0.331945 0.126116
0.727687 0.333623 0.127794
0.748089 0.335286 0.129473
0.768475 0.336965 0.131151
0.788861 0.338643 0.13283
0.809003 0.340383 0.134585
0.158862 0.312383 0.0835431
0.179263 0.314046 0.0852216
0.19968 0.315709 0.0868849
0.220096 0.317388 0.0885481
0.240513 0.319051 0.0902266
0.260914 0.320714 0.0918898
0.281331 0.322393 0.0935683
0.301747 0.324056 0.0952316
0.322148 0.325719 0.09691
0.342565 0.327398 0.0985733
0.362982 0.329061 0.100252
0.383383 0.330724 0.101915
0.4038 0.332403 0.103593
0.424201 0.334066 0.105257
0.444617 0.335729 0.106935
0.465019 0.337407 0.108598
0.485435 0.339071 0.110277
0.505837 0.340734 0.111955
0.526238 0.342412 0.113634
0.546654 0.344076 0.115297
0.567056 0.345754 0.116976
0.587457 0.347417 0.118654
0.607858 0.349096 0.120333
0.62826 0.350759 0.122011
0.648661 0.352438 0.12369
0.669062 0.354101 0.125368
0.689448 0.355779 0.127047
0.70985 0.357443 0.128725
0.730236 0.359121 0.130404
0.750622 0.3608 0.132097
0.771023 0.362463 0.133776
0.791409 0.364141 0.135454
0.811536 0.365881 0.137224
0.16144 0.337881 0.0861219
0.181857 0.339544 0.0878004
0.202258 0.341207 0.0894636
0.222675 0.34287 0.0911421
0.243091 0.344549 0.0928054
0.263508 0.346212 0.0944839
0.283909 0.347875 0.0961471
0.304326 0.349554 0.0978256
0.324742 0.351217 0.0994888
0.345144 0.35288 0.101167
0.36556 0.354559 0.102831
0.385962 0.356222 0.104509
0.406378 0.357885 0.106188
0.42678 0.359564 0.107851
0.447196 0.361227 0.109529
0.467597 0.362905 0.111208
0.487999 0.364569 0.112886
0.508415 0.366232 0.114549
0.528817 0.36791 0.116228
0.549218 0.369574 0.117906
0.569619 0.371252 0.119585
0.590021 0.372915 0.121263
0.610422 0.374594 0.122942
0.630823 0.376257 0.12462
0.651209 0.377935 0.126314
0.671611 0.379599 0.127993
0.691997 0.381277 0.129671
0.712398 0.382956 0.131365
0.732784 0.384619 0.133043
0.75317 0.386297 0.134737
0.773556 0.387976 0.136416
0.793942 0.389639 0.138109
0.814054 0.391394 0.139864
0.164034 0.363363 0.088716
0.184436 0.365042 0.0903792
0.204852 0.366705 0.0920577
0.225254 0.368368 0.0937209
0.24567 0.370047 0.0953994
0.266087 0.37171 0.0970626
0.286488 0.373373 0.0987411
0.306905 0.375036 0.10042
0.327321 0.376715 0.102083
0.347723 0.378378 0.103761
0.368139 0.380056 0.10544
0.38854 0.38172 0.107103
0.408957 0.383383 0.108782
0.429358 0.385061 0.11046
0.44976 0.386725 0.112139
0.470176 0.388388 0.113817
0.490578 0.390066 0.115496
0.510979 0.39173 0.117174
0.53138 0.393408 0.118853
0.551781 0.395071 0.120531
0.572183 0.39675 0.12221
0.592584 0.398413 0.123888
0.612985 0.400092 0.125582
0.633371 0.401755 0.12726
0.653773 0.403433 0.128939
0.674159 0.405097 0.130632
0.694545 0.406775 0.132311
0.714946 0.408453 0.134005
0.735332 0.410117 0.135683
0.755703 0.411795 0.137377
0.776089 0.413474 0.139071
0.79646 0.415152 0.140764
0.816587 0.416892 0.142535
0.166613 0.388861 0.0912947
0.187015 0.390524 0.0929732
0.207431 0.392203 0.0946365
0.227848 0.393866 0.0963149
0.248249 0.395529 0.0979934
0.268666 0.397208 0.0996567
0.289082 0.398871 0.101335
0.309483 0.400534 0.103014
0.3299 0.402213 0.104692
0.350301 0.403876 0.106355
0.370718 0.405539 0.108034
0.391119 0.407202 0.109712
0.411536 0.408881 0.111391
0.431937 0.410544 0.113069
0.452338 0.412222 0.114748
0.472755 0.413886 0.116426
0.493156 0.415564 0.118105
0.513558 0.417227 0.119783
0.533959 0.418891 0.121477
0.55436 0.420569 0.123156
0.574746 0.422232 0.124834
0.595148 0.423911 0.126528
0.615549 0.425589 0.128206
0.635935 0.427253 0.1299
0.656321 0.428931 0.131579
0.676722 0.430594 0.133272
0.697093 0.432273 0.134966
0.717479 0.433951 0.13666
0.737865 0.435615 0.138354
0.758251 0.437293 0.140047
0.778622 0.438972 0.141741
0.798993 0.44065 0.143435
0.819104 0.442405 0.145205
0.169207 0.414359 0.0938888
0.189609 0.416022 0.0955673
0.210025 0.417685 0.0972457
0.230426 0.419348 0.098909
0.250843 0.421027 0.100587
0.27126 0.42269 0.102266
0.291661 0.424353 0.103944
0.312078 0.426032 0.105608
0.332494 0.427695 0.107286
0.352895 0.429358 0.108965
0.373312 0.431037 0.110643
0.393713 0.4327 0.112322
0.414115 0.434363 0.114
0.434516 0.436042 0.115694
0.454932 0.437705 0.117372
0.475334 0.439384 0.119051
0.495735 0.441047 0.120729
0.516136 0.442725 0.122423
0.536538 0.444389 0.124102
0.556924 0.446067 0.125795
0.577325 0.44773 0.127474
0.597711 0.449409 0.129168
0.618112 0.451072 0.130861
0.638498 0.45275 0.132555
0.658885 0.454429 0.134249
0.679271 0.456092 0.135943
0.699641 0.457771 0.137636
0.720027 0.459449 0.13933
0.740414 0.461112 0.141024
0.760784 0.462791 0.142733
0.781155 0.464469 0.144427
0.801511 0.466148 0.146136
0.821622 0.467903 0.147906
0.171801 0.439841 0.0964828
0.192203 0.441505 0.0981613
0.212619 0.443183 0.0998398
0.233021 0.444846 0.101518
0.253437 0.44651 0.103197
0.273854 0.448188 0.104875
0.294255 0.449851 0.106554
0.314672 0.451514 0.108232
0.335073 0.453193 0.109911
0.355489 0.454856 0.111589
0.375891 0.456519 0.113268
0.396307 0.458198 0.114946
0.416709 0.459861 0.11664
0.43711 0.461524 0.118318
0.457511 0.463203 0.119997
0.477913 0.464866 0.121691
0.498314 0.466545 0.123369
0.518715 0.468208 0.125063
0.539101 0.469886 0.126757
0.559503 0.47155 0.12845
0.579889 0.473228 0.130129
0.60029 0.474891 0.131823
0.620676 0.47657 0.133532
0.641062 0.478233 0.135225
0.661448 0.479912 0.136919
0.681819 0.48159 0.138613
0.702205 0.483268 0.140322
0.722576 0.484947 0.142031
0.742947 0.486625 0.143725
0.763317 0.488289 0.145434
0.783688 0.489967 0.147143
0.804044 0.491646 0.148852
0.82414 0.4934 0.150637
0.174395 0.465339 0.0990921
0.194797 0.467002 0.100771
0.215213 0.468666 0.102449
0.235615 0.470329 0.104128
0.256031 0.472007 0.105806
0.276448 0.473671 0.107485
0.296849 0.475334 0.109163
0.317266 0.477012 0.110842
0.337682 0.478676 0.112535
0.358083 0.480339 0.114214
0.378485 0.482002 0.115892
0.398886 0.48368 0.117586
0.419303 0.485344 0.119265
0.439704 0.487022 0.120958
0.460105 0.488685 0.122652
0.480507 0.490349 0.124331
0.500893 0.492027 0.126024
0.521294 0.49369 0.127718
0.54168 0.495369 0.129412
0.562081 0.497047 0.131106
0.582467 0.498711 0.132799
0.602853 0.500389 0.134508
0.62324 0.502052 0.136202
0.643626 0.503731 0.137911
0.663996 0.505409 0.13962
0.684382 0.507088 0.141314
0.704753 0.508751 0.143023
0.725124 0.51043 0.144732
0.745495 0.512108 0.146456
0.76585 0.513787 0.148165
0.786206 0.515465 0.149889
0.806561 0.517143 0.151598
0.826658 0.518898 0.153399
0.177005 0.490822 0.101701
0.197406 0.492485 0.10338
0.217823 0.494148 0.105074
0.238224 0.495811 0.106752
0.25864 0.49749 0.108431
0.279057 0.499153 0.110109
0.299458 0.500816 0.111788
0.319875 0.502495 0.113481
0.340276 0.504158 0.115175
0.360678 0.505821 0.116854
0.381094 0.5075 0.118547
0.401495 0.509163 0.120226
0.421897 0.510826 0.12192
0.442298 0.512505 0.123613
0.462699 0.514168 0.125307
0.483085 0.515831 0.127001
0.503487 0.51751 0.128695
0.523873 0.519173 0.130388
0.544274 0.520851 0.132097
0.56466 0.52253 0.133806
0.585046 0.524193 0.1355
0.605432 0.525872 0.137209
0.625818 0.52755 0.138918
0.646189 0.529213 0.140627
0.66656 0.530892 0.142336
0.686931 0.53257 0.144045
0.707301 0.534249 0.145754
0.727672 0.535927 0.147478
0.748028 0.537606 0.149203
0.768383 0.539284 0.150927
0.788739 0.540963 0.152651
0.809079 0.542641 0.154376
0.82916 0.544396 0.156176
0.179614 0.516304 0.104326
0.200015 0.517968 0.106004
0.220432 0.519631 0.107698
0.240833 0.521294 0.109377
0.26125 0.522972 0.11107
0.281666 0.524636 0.112749
0.302068 0.526299 0.114443
0.322484 0.527962 0.116121
0.342885 0.529641 0.117815
0.363287 0.531304 0.119509
0.383703 0.532967 0.121202
0.404105 0.534646 0.122896
0.424506 0.536309 0.12459
0.444907 0.537987 0.126284
0.465293 0.539651 0.127977
0.485695 0.541314 0.129686
0.506081 0.542992 0.131395
0.526482 0.544656 0.133089
0.546868 0.546334 0.134798
0.567254 0.548012 0.136507
0.58764 0.549676 0.138216
0.608011 0.551354 0.139925
0.628397 0.553033 0.141649
0.648768 0.554696 0.143359
0.669139 0.556374 0.145083
0.689494 0.558053 0.146807
0.709865 0.559731 0.148531
0.73022 0.56141 0.150256
0.750576 0.563088 0.15198
0.770916 0.564767 0.153719
0.791272 0.566445 0.155459
0.811597 0.568124 0.157198
0.831678 0.569879 0.159014
0.182239 0.541787 0.106966
0.20264 0.54345 0.108644
0.223056 0.545113 0.110338
0.243458 0.546777 0.112016
0.263874 0.54844 0.11371
0.284291 0.550118 0.115404
0.304692 0.551781 0.117098
0.325109 0.553445 0.118791
0.34551 0.555108 0.120485
0.365911 0.556786 0.122179
0.386313 0.55845 0.123873
0.406714 0.560113 0.125582
0.427115 0.561791 0.127275
0.447517 0.563455 0.128985
0.467903 0.565118 0.130678
0.488304 0.566796 0.132387
0.50869 0.56846 0.134096
0.529076 0.570138 0.135805
0.549462 0.571801 0.13753
0.569848 0.57348 0.139239
0.590219 0.575158 0.140963
0.610605 0.576822 0.142672
0.630976 0.5785 0.144396
0.651347 0.580179 0.14612
0.671702 0.581857 0.14786
0.692073 0.583535 0.149584
0.712413 0.585214 0.151324
0.732769 0.586892 0.153063
0.753124 0.588571 0.154803
0.773465 0.590249 0.156558
0.79379 0.591928 0.158312
0.81413 0.593622 0.160052
0.834195 0.595376 0.161883
0.184863 0.567254 0.109606
0.205264 0.568917 0.111299
0.225681 0.570581 0.112993
0.246098 0.572244 0.114672
0.266514 0.573922 0.116365
0.286915 0.575586 0.118074
0.307332 0.577249 0.119768
0.327733 0.578912 0.121462
0.348135 0.580591 0.123171
0.368536 0.582254 0.124865
0.388952 0.583917 0.126574
0.409339 0.58558 0.128283
0.42974 0.587259 0.129976
0.450141 0.588922 0.131701
0.470527 0.5906 0.13341
0.490913 0.592264 0.135119
0.511315 0.593942 0.136843
0.531685 0.595605 0.138552
0.552071 0.597284 0.140276
0.572457 0.598947 0.142
0.592828 0.600626 0.143725
0.613199 0.602304 0.145464
0.63357 0.603967 0.147204
0.653925 0.605646 0.148928
0.674281 0.607324 0.150668
0.694652 0.609003 0.152422
0.714992 0.610681 0.154162
0.735332 0.61236 0.155917
0.755673 0.614038 0.157671
0.775998 0.615732 0.159442
0.796338 0.617411 0.161212
0.816648 0.619089 0.162982
0.836698 0.620859 0.164828
0.187518 0.592721 0.112261
0.207919 0.594385 0.113954
0.228336 0.596048 0.115663
0.248737 0.597711 0.117357
0.269154 0.599374 0.119051
0.28957 0.601053 0.12076
0.309972 0.602716 0.122454
0.330373 0.604379 0.124163
0.35079 0.606043 0.125872
0.371191 0.607706 0.127581
0.391592 0.609384 0.12929
0.411994 0.611048 0.130999
0.43238 0.612711 0.132723
0.452781 0.614389 0.134432
0.473167 0.616053 0.136156
0.493553 0.617731 0.137881
0.513939 0.619394 0.139605
0.534325 0.621073 0.141329
0.554696 0.622736 0.143069
0.575067 0.624414 0.144808
0.595438 0.626078 0.146548
0.615808 0.627756 0.148287
0.636179 0.629435 0.150027
0.656535 0.631113 0.151781
0.676875 0.632792 0.153536
0.69723 0.63447 0.155291
0.717571 0.636149 0.157061
0.737911 0.637827 0.158831
0.758236 0.639506 0.160601
0.778546 0.641199 0.162387
0.798871 0.642878 0.164172
0.819165 0.644572 0.165957
0.839216 0.646326 0.167834
0.190173 0.618189 0.114946
0.210575 0.619852 0.11664
0.230991 0.621515 0.118349
0.251408 0.623178 0.120043
0.271824 0.624842 0.121752
0.292226 0.626505 0.123461
0.312627 0.628168 0.12517
0.333043 0.629831 0.126879
0.353445 0.63151 0.128603
0.373846 0.633173 0.130312
0.394247 0.634836 0.132036
0.414649 0.6365 0.133761
0.435035 0.638178 0.135485
0.455421 0.639841 0.137209
0.475822 0.641505 0.138949
0.496208 0.643183 0.140673
0.516579 0.644846 0.142412
0.536965 0.646525 0.144152
0.557336 0.648188 0.145892
0.577707 0.649866 0.147646
0.598077 0.651545 0.149401
0.618433 0.653208 0.151156
0.638788 0.654887 0.152911
0.659144 0.656565 0.154681
0.679484 0.658244 0.156451
0.699825 0.659922 0.158236
0.72015 0.661601 0.160006
0.74049 0.663279 0.161807
0.7608 0.664973 0.163607
0.781109 0.666651 0.165408
0.801419 0.668345 0.167208
0.821698 0.670024 0.169024
0.841733 0.671794 0.170932
0.192859 0.643641 0.117632
0.21326 0.645304 0.119341
0.233677 0.646967 0.12105
0.254078 0.64863 0.122759
0.274495 0.650294 0.124483
0.294911 0.651957 0.126192
0.315312 0.65362 0.127916
0.335714 0.655283 0.129641
0.35613 0.656947 0.131365
0.376516 0.65861 0.133074
0.396918 0.660288 0.134813
0.417319 0.661952 0.136538
0.437705 0.663615 0.138277
0.458106 0.665293 0.140017
0.478492 0.666957 0.141756
0.498863 0.66862 0.143511
0.519249 0.670298 0.145251
0.53962 0.671962 0.147005
0.559991 0.67364 0.148775
0.580362 0.675303 0.15053
0.600717 0.676982 0.1523
0.621073 0.67866 0.15407
0.641428 0.680339 0.155856
0.661768 0.682002 0.157641
0.682109 0.68368 0.159442
0.702434 0.685374 0.161242
0.722759 0.687053 0.163043
0.743069 0.688731 0.164858
0.763378 0.69041 0.166674
0.783673 0.692103 0.168505
0.803967 0.693782 0.170352
0.824231 0.695476 0.172213
0.844236 0.697246 0.174151
0.19556 0.669078 0.120363
0.215961 0.670741 0.122072
0.236378 0.672404 0.123796
0.256794 0.674067 0.125505
0.277195 0.675731 0.12723
0.297612 0.677394 0.128954
0.318013 0.679057 0.130678
0.33843 0.68072 0.132418
0.358831 0.682399 0.134157
0.379232 0.684062 0.135882
0.399619 0.685725 0.137621
0.42002 0.687388 0.139376
0.440406 0.689052 0.141115
0.460792 0.690715 0.14287
0.481178 0.692393 0.144625
0.501564 0.694057 0.146395
0.521935 0.69572 0.14815
0.542306 0.697398 0.14992
0.562676 0.699062 0.151705
0.583032 0.70074 0.15349
0.603387 0.702419 0.155276
0.623743 0.704082 0.157076
0.644083 0.70576 0.158877
0.664424 0.707439 0.160678
0.684749 0.709117 0.162509
0.705074 0.710796 0.164324
0.725383 0.712474 0.166171
0.745678 0.714153 0.168017
0.765972 0.715846 0.169879
0.786252 0.717525 0.17174
0.806531 0.719219 0.173632
0.82678 0.720913 0.17554
0.846754 0.722667 0.177523
0.198276 0.694514 0.12311
0.218692 0.696178 0.124834
0.239109 0.697841 0.126558
0.25951 0.699504 0.128283
0.279927 0.701167 0.130022
0.300343 0.702831 0.131762
0.320745 0.704494 0.133501
0.341146 0.706157 0.135241
0.361563 0.70782 0.13698
0.381949 0.709484 0.138735
0.40235 0.711147 0.14049
0.422751 0.71281 0.142245
0.443137 0.714473 0.144015
0.463523 0.716136 0.145785
0.483909 0.717815 0.147555
0.50428 0.719478 0.149325
0.524651 0.721141 0.15111
0.545022 0.722805 0.152911
0.565377 0.724483 0.154711
0.585733 0.726162 0.156512
0.606088 0.727825 0.158328
0.626429 0.729503 0.160143
0.646769 0.731182 0.161975
0.667094 0.732845 0.163821
0.687419 0.734524 0.165682
0.707729 0.736202 0.167544
0.728023 0.737881 0.169421
0.748318 0.739574 0.171313
0.768582 0.741253 0.17322
0.788846 0.742931 0.175143
0.809094 0.744625 0.177096
0.829328 0.746319 0.17908
0.849271 0.748089 0.181155
0.201022 0.719951 0.125887
0.221439 0.721599 0.127626
0.241856 0.723262 0.129366
0.262272 0.724926 0.131106
0.282689 0.726589 0.132845
0.303105 0.728252 0.1346
0.323507 0.7299 0.136339
0.343908 0.731563 0.138109
0.364309 0.733227 0.139864
0.38471 0.73489 0.141634
0.405112 0.736553 0.143404
0.425498 0.738216 0.145174
0.445899 0.739879 0.14696
0.46627 0.741543 0.148745
0.486656 0.743206 0.150546
0.507027 0.744869 0.152346
0.527398 0.746548 0.154147
0.547768 0.748211 0.155962
0.568124 0.749874 0.157794
0.588479 0.751553 0.15964
0.60882 0.753216 0.161471
0.62916 0.754894 0.163333
0.649485 0.756558 0.165209
0.66981 0.758236 0.167086
0.69012 0.759915 0.168994
0.710414 0.761593 0.170916
0.730694 0.763272 0.172854
0.750973 0.76495 0.174807
0.771221 0.766629 0.176791
0.791455 0.768322 0.178805
0.811673 0.770001 0.180865
