assets/cube/retro_magenta_01.cube
TITLE "Generated by Resolve"
LUT_3D_SIZE 5
0.100496 0.0667735 0.0667735
0.241764 0.0855421 0.0855421
0.421408 0.0944686 0.0944686
0.611048 0.10071 0.10071
0.785763 0.110979 0.110979
0.154452 0.261006 0.0799115
0.316991 0.274739 0.0917372
0.480278 0.288075 0.105089
0.643534 0.301442 0.118471
0.80647 0.314885 0.13196
0.174395 0.465339 0.0990921
0.337682 0.478676 0.112535
0.500893 0.492027 0.126024
0.663996 0.505409 0.13962
0.826658 0.518898 0.153399
0.19556 0.669078 0.120363
0.358831 0.682399 0.134157
0.521935 0.69572 0.14815
0.684749 0.709117 0.162509
0.846754 0.722667 0.177523
0.218967 0.871916 0.144121
0.38262 0.884947 0.159518
0.547051 0.897322 0.179156
0.716228 0.904097 0.240238
0.867292 0.912352 0.340139
0.1149 0.0741741 0.170016
0.261082 0.0884871 0.224262
0.439139 0.0953994 0.25774
0.622034 0.102266 0.277653
0.789181 0.114397 0.291615
0.157244 0.26479 0.259007
0.320424 0.278157 0.272374
0.483711 0.291508 0.285725
0.646952 0.304875 0.299077
0.809857 0.318318 0.312535
0.177844 0.468757 0.279698
0.341115 0.482109 0.293095
0.504326 0.49546 0.306538
0.667414 0.508858 0.320058
0.83003 0.522377 0.333745
0.1991 0.672496 0.300786
0.362371 0.685817 0.314458
0.525475 0.699168 0.328328
0.688243 0.712581 0.342504
0.850126 0.726207 0.357321
0.222934 0.875257 0.324071
0.386816 0.888228 0.339315
0.555703 0.898604 0.365637
0.725673 0.90544 0.423911
0.873823 0.915618 0.513237
0.127184 0.0797742 0.30312
0.277012 0.0902724 0.38436
0.45304 0.0962081 0.433585
0.629068 0.104555 0.458869
0.792584 0.117815 0.472557
0.16054 0.268223 0.439979
0.323827 0.281559 0.453315
0.487098 0.294911 0.466651
0.650339 0.308278 0.479988
0.813214 0.321752 0.4934
0.181277 0.47216 0.460594
0.344549 0.485512 0.473945
0.507744 0.498878 0.487312
0.670802 0.512291 0.50074
0.833356 0.525841 0.51429
0.20264 0.675898 0.481437
0.365927 0.689219 0.494972
0.529015 0.702602 0.508659
0.691722 0.71606 0.522576
0.853437 0.729763 0.537072
0.227008 0.878569 0.504067
0.391379 0.891417 0.519051
0.566522 0.899718 0.547433
0.73698 0.907286 0.596979
0.88188 0.920104 0.669764
0.137011 0.0835584 0.461372
0.289921 0.09131 0.560632
0.463584 0.0972457 0.616968
0.632959 0.10779 0.640101
0.795972 0.121218 0.653498
0.163943 0.271626 0.62092
0.32723 0.284977 0.634256
0.490501 0.298329 0.647562
0.653727 0.311711 0.660853
0.816571 0.325185 0.674205
0.18471 0.475563 0.641443
0.347982 0.48893 0.654734
0.511177 0.502312 0.668025
0.674205 0.51574 0.681315
0.836698 0.52932 0.694713
0.20621 0.679286 0.661967
0.369497 0.692638 0.675334
0.53257 0.706035 0.688777
0.695247 0.719554 0.702327
0.856718 0.733379 0.716258
0.231235 0.881849 0.68368
0.39852 0.893874 0.69839
0.579889 0.900908 0.72105
0.750393 0.909941 0.755886
0.891661 0.926055 0.806714
0.144732 0.0859541 0.639551
0.300252 0.0920424 0.747768
0.471244 0.0988785 0.802869
0.636393 0.111238 0.820615
0.799405 0.124666 0.833997
0.167391 0.275059 0.801434
0.330663 0.288411 0.81474
0.493935 0.301778 0.828016
0.657145 0.31516 0.84126
0.819974 0.328649 0.854536
0.18819 0.479011 0.82182
0.351461 0.492378 0.835035
0.514626 0.505776 0.848203
0.677623 0.519234 0.861357
0.84007 0.532845 0.87454
0.209842 0.682734 0.841947
0.373129 0.696086 0.855085
0.536217 0.709529 0.868193
0.698833 0.72311 0.881224
0.859525 0.737362 0.893309
0.235798 0.885145 0.862348
0.411002 0.895201 0.873182
0.595956 0.902495 0.882704
0.766094 0.91368 0.897261
0.902831 0.933288 0.921096
