assets/cube/smart_contrast.cube
TITLE "Generated by Resolve"
LUT_3D_SIZE 9
0 0 0
0.0379797 0.00587472 0.00587472
0.0830549 0.00920119 0.00920119
0.157427 0.00407416 0.00407416
0.263935 0 0
0.371695 0 0
0.452186 0 0
0.500969 0 0
0.54258 0 0
0.0179904 0.0500954 0.0179904
0.0553597 0.0553597 0.0232547
0.100923 0.0591592 0.0270695
0.177157 0.0559091 0.0238041
0.28687 0.0453193 0.0132143
0.399222 0.0363622 0.00425727
0.485847 0.0375372 0.00544747
0.542641 0.0509041 0.0187991
0.594217 0.0703136 0.0382086
0.0317235 0.105577 0.0317235
0.0727855 0.114549 0.0406806
0.123461 0.123461 0.0495918
0.2065 0.127001 0.0531472
0.324926 0.125124 0.0512703
0.447959 0.126848 0.0529946
0.547112 0.140566 0.0667124
0.618067 0.168078 0.0942245
0.684825 0.20267 0.128817
0.0365606 0.189914 0.0365606
0.0870527 0.208301 0.0549477
0.149126 0.228611 0.0752575
0.245274 0.245274 0.0919356
0.378408 0.258091 0.104753
0.516564 0.274937 0.121584
0.629435 0.302373 0.149035
0.710872 0.340368 0.18703
0.783627 0.380972 0.227634
0.0508431 0.324498 0.0508431
0.116396 0.357946 0.0842908
0.193286 0.393088 0.119432
0.302205 0.422507 0.148852
0.444236 0.444236 0.170581
0.586725 0.465415 0.19176
0.699535 0.49279 0.219135
0.780194 0.530007 0.256352
0.85301 0.570672 0.297017
0.110811 0.505776 0.110811
0.183597 0.546471 0.151492
0.263172 0.584283 0.189319
0.371191 0.612818 0.217838
0.512764 0.634073 0.239109
0.655589 0.655589 0.260624
0.769253 0.683818 0.288853
0.847456 0.718578 0.323613
0.912825 0.751781 0.356817
0.205615 0.68603 0.205615
0.278264 0.726558 0.246159
0.358419 0.764981 0.284566
0.466682 0.793744 0.313329
0.603967 0.810727 0.330312
0.73756 0.822995 0.342596
0.837888 0.837873 0.357473
0.900618 0.857176 0.376776
0.950408 0.874815 0.394415
0.330678 0.85452 0.330678
0.397223 0.888975 0.365118
0.466453 0.916442 0.392599
0.560357 0.930861 0.407019
0.681926 0.932113 0.408255
0.800381 0.929259 0.405402
0.887312 0.930739 0.406897
0.938628 0.938628 0.414771
0.979141 0.946975 0.423133
0.426886 0.982895 0.426886
0.477699 1 0.445594
0.532403 1 0.458549
0.613581 1 0.460243
0.724514 1 0.450858
0.834455 0.995483 0.439475
0.914885 0.990478 0.43447
0.96144 0.993591 0.437583
0.998672 0.998672 0.442679
0.00242618 0.00242618 0.0345159
0.0403449 0.00823987 0.0403449
0.0852674 0.0114137 0.0435187
0.159625 0.00627146 0.0383764
0.266239 0 0.0246891
0.374273 0 0.0113985
0.455131 0 0.00683604
0.504463 0 0.0127108
0.546731 0 0.0228428
0.0202182 0.0523232 0.0523232
0.0577401 0.0577401 0.0577401
0.103609 0.0618601 0.0618601
0.180285 0.0590372 0.0590372
0.290578 0.0490272 0.0490272
0.403662 0.0408026 0.0408026
0.49131 0.0429999 0.0429999
0.549294 0.0575418 0.0575418
0.602197 0.0783093 0.0783093
0.03505 0.108904 0.067155
0.0767529 0.118502 0.0767529
0.128252 0.128252 0.0865034
0.212375 0.132876 0.0911269
0.332052 0.13225 0.090486
0.456474 0.135363 0.0936141
0.557198 0.150637 0.108888
0.629831 0.179843 0.138094
0.697887 0.215747 0.173983
0.0428779 0.196216 0.0749828
0.094667 0.215915 0.094667
0.15819 0.237675 0.116426
0.255985 0.255985 0.134737
0.390692 0.27039 0.149142
0.529992 0.288365 0.167117
0.643534 0.316472 0.195239
0.725185 0.354681 0.233448
0.797696 0.395041 0.273808
0.0621805 0.335836 0.0942855
0.129152 0.370703 0.129152
0.207004 0.406806 0.165255
0.316442 0.436744 0.195193
0.458503 0.458503 0.216953
0.600595 0.479286 0.237736
0.713283 0.506523 0.264973
0.794446 0.544259 0.302708
0.867277 0.584924 0.343374
0.125109 0.520088 0.157214
0.197787 0.560647 0.197787
0.276783 0.597894 0.235019
0.385183 0.626795 0.263935
0.527077 0.648386 0.285512
0.669734 0.669734 0.306874
0.782727 0.697276 0.334417
0.859739 0.730846 0.367987
0.92343 0.762402 0.399527
0.219776 0.700191 0.251881
0.292561 0.740871 0.292561
0.372366 0.778912 0.330617
0.479774 0.806836 0.358526
0.615702 0.822446 0.374136
0.747524 0.832975 0.384665
0.846235 0.846235 0.397925
0.907515 0.864073 0.415778
0.956054 0.880461 0.432151
0.343328 0.86717 0.375433
0.408331 0.900069 0.408331
0.475807 0.925795 0.434058
0.56817 0.938659 0.446921
0.688334 0.938537 0.446784
0.8056 0.934478 0.442741
0.891524 0.934966 0.443229
0.942138 0.942138 0.450385
0.982101 0.949935 0.458198
0.434165 0.990173 0.46627
0.483665 1 0.483665
0.537224 1 0.495476
0.617533 1 0.4963
0.72781 1 0.486259
0.837247 0.998276 0.474372
0.917327 0.99292 0.469017
0.963668 0.995819 0.471931
1 1 0.476967
0.00440986 0.00440986 0.0782635
0.0420996 0.00999466 0.0838483
0.0869001 0.0130465 0.0869001
0.161273 0.00793469 0.0817884
0.26807 0 0.0682689
0.376394 0 0.0552834
0.457694 0 0.0511482
0.507591 0 0.0576028
0.550607 0 0.068452
0.021912 0.0540169 0.0957656
0.0596475 0.0596628 0.101411
0.105882 0.0641184 0.105882
0.183032 0.061799 0.103548
0.293965 0.0524147 0.0941634
0.407889 0.0450141 0.0867781
0.49659 0.0482948 0.0900435
0.55581 0.0640726 0.105821
0.610117 0.0862287 0.127977
0.0380102 0.111864 0.111864
0.0803845 0.122148 0.122148
0.13283 0.13283 0.13283
0.218097 0.138598 0.138598
0.339055 0.139254 0.139254
0.464958 0.143847 0.143847
0.5673 0.160739 0.160754
0.641535 0.191546 0.191546
0.710735 0.22858 0.22858
0.0490425 0.202396 0.122896
0.10219 0.223438 0.143938
0.167224 0.246723 0.167224
0.266712 0.266712 0.187228
0.402869 0.282551 0.203067
0.543145 0.301518 0.222034
0.657206 0.330144 0.25066
0.738918 0.368414 0.28893
0.811017 0.408362 0.328878
0.0734874 0.347143 0.147341
0.141726 0.383291 0.18349
0.220401 0.420203 0.220401
0.33019 0.450492 0.25069
0.472145 0.472145 0.272343
0.613657 0.492348 0.292546
0.72668 0.519936 0.320134
0.808209 0.558007 0.358206
0.880858 0.59852 0.398718
0.138872 0.533837 0.212726
0.211261 0.574136 0.253025
0.289723 0.610834 0.289723
0.398764 0.640391 0.31928
0.540825 0.662135 0.341024
0.683131 0.683131 0.36202
0.79527 0.709834 0.388724
0.870939 0.742061 0.420951
0.932891 0.771847 0.450736
0.233494 0.713893 0.307347
0.306249 0.754559 0.347997
0.385519 0.792081 0.385519
0.49189 0.818952 0.412406
0.626291 0.833036 0.42649
0.756374 0.84181 0.435264
0.853498 0.853498 0.446952
0.91342 0.869978 0.463432
0.960739 0.885145 0.478599
0.354955 0.878798 0.428809
0.41825 0.910002 0.460014
0.484062 0.934051 0.484062
0.574914 0.945418 0.49543
0.693782 0.943969 0.49398
0.809903 0.938781 0.488792
0.894942 0.938384 0.48838
0.944884 0.944884 0.494896
0.984344 0.952193 0.50219
0.440421 0.996429 0.514275
0.48867 1 0.530419
0.541161 1 0.541161
0.620691 1 0.541192
0.730358 1 0.530556
0.839338 1 0.518227
0.919112 0.994705 0.512566
0.965316 0.997467 0.515328
1 1 0.520363
0.00411994 0.00411994 0.157458
0.0415961 0.00949111 0.162844
0.0863355 0.0124819 0.16582
0.160784 0.0074464 0.160784
0.267781 0 0.147478
0.376455 0 0.134829
0.458259 0 0.131197
0.508766 0 0.138262
0.552605 0 0.14995
0.0214847 0.0535897 0.174838
0.0594797 0.0594797 0.180728
0.106111 0.0643473 0.185595
0.183795 0.062562 0.183795
0.295399 0.0538491 0.175097
0.410254 0.0473945 0.168627
0.500099 0.0517891 0.173037
0.560601 0.068864 0.190097
0.616373 0.0924697 0.213718
0.0390021 0.112871 0.192355
0.0821241 0.123888 0.203372
0.135592 0.135592 0.215091
0.222034 0.14255 0.222034
0.344366 0.144564 0.224048
0.471778 0.150652 0.230152
0.575799 0.169253 0.248737
0.651499 0.201495 0.280995
0.721675 0.239536 0.31902
0.0534676 0.206821 0.206821
0.108019 0.229267 0.229267
0.17464 0.254124 0.254124
0.275807 0.275807 0.275807
0.41323 0.292927 0.292927
0.55433 0.312703 0.312703
0.668757 0.341695 0.341695
0.750378 0.379873 0.379873
0.821912 0.419257 0.419257
0.0831006 0.356756 0.236439
0.152453 0.394003 0.273701
0.231769 0.431571 0.311269
0.341756 0.462058 0.341756
0.483452 0.483452 0.363134
0.624414 0.503105 0.382788
0.738079 0.531334 0.411017
0.81976 0.569574 0.449256
0.892088 0.609751 0.489433
0.150393 0.545373 0.303746
0.222354 0.585214 0.343603
0.30074 0.621851 0.38024
0.410285 0.651911 0.410285
0.552331 0.67364 0.432013
0.694118 0.694118 0.452506
0.805234 0.719799 0.478172
0.879393 0.7505 0.508888
0.939574 0.778531 0.536919
0.24506 0.72546 0.398398
0.317617 0.765927 0.438865
0.396201 0.802747 0.475685
0.501366 0.828428 0.501366
0.634073 0.840818 0.513756
0.762478 0.847913 0.520851
0.858106 0.858106 0.531044
0.916701 0.873259 0.546197
0.962875 0.887282 0.56022
0.363851 0.887709 0.517205
0.425406 0.917144 0.546639
0.489586 0.93959 0.569085
0.579019 0.949523 0.579019
0.69662 0.946807 0.576303
0.811658 0.940536 0.570047
0.895918 0.939361 0.568856
0.945266 0.945266 0.574762
0.984253 0.952102 0.581598
0.444053 1 0.597391
0.491096 1 0.612329
0.542596 1 0.62208
0.621424 1 0.621424
0.730556 1 0.610239
0.839124 1 0.597513
0.918654 0.994247 0.591592
0.964752 0.996902 0.594247
1 1 0.599344
0.00137331 0.00137331 0.275029
0.0386969 0.0065919 0.280247
0.0834058 0.00955215 0.283207
0.157992 0.00463874 0.278294
0.265248 0 0.265248
0.374304 0 0.252995
0.456641 0 0.249882
0.50782 0 0.257633
0.55259 0 0.270237
0.0187686 0.0508583 0.292424
0.0570687 0.0570687 0.298619
0.104128 0.0623789 0.303929
0.182406 0.0611734 0.302724
0.294759 0.053193 0.294759
0.41062 0.0477607 0.289311
0.501656 0.0533455 0.294896
0.5635 0.0717632 0.313313
0.620783 0.0968795 0.338445
0.0378576 0.111711 0.311513
0.0818341 0.123583 0.323384
0.136385 0.136385 0.336187
0.224063 0.144579 0.344381
0.347799 0.147997 0.347799
0.476768 0.155657 0.355459
0.582483 0.175937 0.375738
0.659464 0.209476 0.409277
0.73048 0.248341 0.448142
0.0559854 0.209339 0.329641
0.112016 0.233249 0.353567
0.18027 0.259754 0.380072
0.283009 0.283009 0.403311
0.421561 0.301259 0.421561
0.563333 0.321706 0.442023
0.677958 0.350896 0.471214
0.759319 0.388815 0.509133
0.830289 0.427634 0.547936
0.0907607 0.364416 0.364416
0.161074 0.40264 0.40264
0.240894 0.440696 0.440696
0.350912 0.471229 0.471229
0.492195 0.492195 0.492195
0.633051 0.511742 0.511742
0.747219 0.540475 0.540475
0.828901 0.578714 0.578714
0.900725 0.618387 0.618387
0.159457 0.554437 0.433112
0.230823 0.593698 0.472389
0.309621 0.630732 0.509422
0.419471 0.661097 0.539788
0.561334 0.682643 0.561334
0.702449 0.702449 0.58114
0.812375 0.72694 0.605631
0.884855 0.755962 0.634653
0.943343 0.782315 0.661006
0.254246 0.734661 0.527901
0.326436 0.774746 0.568002
0.40415 0.810712 0.603952
0.507942 0.835004 0.62826
0.638895 0.84564 0.638895
0.765682 0.851118 0.644373
0.859876 0.859876 0.653117
0.917205 0.873762 0.667002
0.962295 0.886702 0.679957
0.369818 0.89366 0.643473
0.429618 0.921355 0.671168
0.492256 0.942245 0.692058
0.580301 0.950805 0.700618
0.696712 0.946899 0.696712
0.810758 0.939635 0.689448
0.894301 0.937743 0.687556
0.943099 0.943099 0.692912
0.981689 0.949538 0.699351
0.444877 1 0.718532
0.490791 1 0.732341
0.541421 1 0.741222
0.619608 1 0.73991
0.728222 1 0.728222
0.836454 0.997482 0.715145
0.91577 0.991363 0.709026
0.961837 0.993988 0.711635
0.999161 0.999161 0.716823
0 0 0.393454
0.0357061 0.00361639 0.398581
0.0804608 0.00660716 0.401572
0.1552 0.00184634 0.396826
0.26276 0 0.38407
0.372259 0 0.372259
0.455177 0 0.369741
0.507088 0 0.37821
0.552865 0 0.391836
0.0160678 0.0481727 0.411032
0.0547341 0.0547341 0.417594
0.102281 0.0605325 0.423392
0.181186 0.0599527 0.422812
0.294377 0.0528115 0.415686
0.411322 0.0484474 0.411322
0.503578 0.0552834 0.418143
0.566842 0.0751049 0.437964
0.625681 0.101793 0.464652
0.0369116 0.110765 0.431876
0.0818189 0.123583 0.444694
0.137514 0.137514 0.458625
0.22649 0.147005 0.468116
0.35169 0.151888 0.472999
0.482292 0.161181 0.482292
0.589593 0.183047 0.504158
0.66772 0.217731 0.538842
0.739406 0.257267 0.578378
0.0589303 0.212268 0.453895
0.116472 0.23772 0.479332
0.186419 0.265904 0.50753
0.290578 0.290578 0.532204
0.430121 0.309804 0.551431
0.572381 0.330755 0.572381
0.687068 0.360006 0.601633
0.768017 0.397513 0.639139
0.838849 0.436194 0.677821
0.0987411 0.372412 0.493706
0.169863 0.411429 0.532738
0.250034 0.449836 0.571145
0.35993 0.480232 0.601541
0.500618 0.500618 0.621927
0.641855 0.520546 0.641855
0.756359 0.549615 0.670924
0.837873 0.587686 0.708995
0.909026 0.626673 0.747982
0.168307 0.563287 0.563287
0.23917 0.602029 0.602029
0.318608 0.639719 0.639719
0.428611 0.670237 0.670237
0.570123 0.691432 0.691432
0.710369 0.710369 0.710369
0.818936 0.733501 0.733501
0.889662 0.760769 0.760769
0.946532 0.785504 0.785504
0.26331 0.743725 0.658274
0.334966 0.783276 0.697841
0.411643 0.818189 0.732754
0.513893 0.840955 0.755505
0.643091 0.849836 0.764401
0.768307 0.853758 0.768307
0.861128 0.861128 0.775692
0.91725 0.873808 0.788373
0.961349 0.885756 0.80032
0.375097 0.898939 0.770062
0.433219 0.924971 0.796078
0.494362 0.944366 0.815473
0.581094 0.951598 0.822721
0.696376 0.946563 0.817685
0.809537 0.938415 0.809537
0.892439 0.935882 0.806989
0.940719 0.940719 0.811841
0.978958 0.946807 0.817929
0.445243 1 0.840208
0.490089 1 0.852949
0.53994 1 0.861051
0.617533 1 0.859144
0.725704 1 0.847013
0.833631 0.994659 0.833631
0.91281 0.988403 0.827375
0.958862 0.991012 0.829984
0.996353 0.996353 0.835309
0 0 0.47805
0.0348058 0.00270085 0.483101
0.0796216 0.00576791 0.486183
0.154574 0.00123598 0.481636
0.262486 0 0.469245
0.372488 0 0.457923
0.456016 0 0.456016
0.508766 0 0.465324
0.555611 0 0.480018
0.0155642 0.0476692 0.495964
0.0546273 0.0546273 0.502922
0.102708 0.0609598 0.50927
0.1823 0.0610513 0.509361
0.296422 0.0548714 0.503166
0.414496 0.0516365 0.499931
0.508064 0.0597543 0.508064
0.572778 0.0810254 0.529335
0.633249 0.109346 0.557656
0.0383154 0.112169 0.51873
0.0842603 0.126024 0.53257
0.141146 0.141146 0.547692
0.231479 0.151995 0.558541
0.35819 0.158389 0.564935
0.490486 0.169375 0.575921
0.599237 0.192676 0.599237
0.678325 0.228336 0.634882
0.750546 0.268406 0.674952
0.0644388 0.217792 0.544854
0.123568 0.244816 0.571878
0.195178 0.274678 0.60174
0.300633 0.300633 0.627695
0.44097 0.320668 0.64773
0.583597 0.34197 0.669032
0.698177 0.371115 0.698177
0.778561 0.408057 0.735119
0.849714 0.447059 0.774121
0.109133 0.382803 0.589548
0.180911 0.422461 0.629206
0.261265 0.461067 0.667811
0.370871 0.491188 0.697932
0.51104 0.51104 0.717784
0.652903 0.531594 0.738354
0.767575 0.56083 0.767575
0.848753 0.598566 0.80531
0.919051 0.636713 0.843458
0.179049 0.574014 0.659449
0.249866 0.612726 0.698161
0.329793 0.650904 0.736339
0.439765 0.681392 0.766827
0.580743 0.702052 0.787503
0.719966 0.719966 0.805417
0.827008 0.741573 0.827008
0.895979 0.767086 0.852537
0.951278 0.790249 0.875685
0.274327 0.754742 0.754742
0.345281 0.793591 0.793591
0.420737 0.827298 0.827283
0.521294 0.848356 0.848356
0.648814 0.855573 0.855573
0.772534 0.857984 0.857984
0.864042 0.864042 0.864042
0.91902 0.875578 0.875578
0.962234 0.886641 0.886641
0.381857 0.905715 0.862272
0.438376 0.930129 0.886687
0.4981 0.948089 0.904646
0.583566 0.95407 0.910628
0.697765 0.947967 0.904524
0.810162 0.93904 0.895598
0.892454 0.935897 0.892454
0.940291 0.940291 0.896849
0.978225 0.946075 0.902632
0.447303 1 0.927703
0.491173 1 0.939467
0.540337 1 0.946883
0.617365 1 0.944427
0.725139 1 0.931884
0.832822 0.993851 0.918257
0.911894 0.987488 0.911894
0.958007 0.990158 0.914565
0.995697 0.995697 0.920104
0 0 0.523049
0.036347 0.00424201 0.528084
0.0812848 0.00743114 0.531273
0.156497 0.00315862 0.527001
0.264805 0 0.514992
0.375326 0 0.504219
0.459541 0 0.502983
0.513222 0 0.513222
0.561196 0.00520333 0.529046
0.0176089 0.0497139 0.541466
0.0571145 0.0571145 0.548867
0.105791 0.0640421 0.555795
0.186114 0.0648814 0.556619
0.301274 0.0597086 0.551461
0.420523 0.0576638 0.549416
0.51545 0.0671397 0.558892
0.581674 0.0899214 0.581674
0.643824 0.119936 0.611688
0.0424964 0.11635 0.566339
0.0895247 0.131273 0.581277
0.147646 0.147646 0.597635
0.239399 0.159899 0.609903
0.367681 0.16788 0.617868
0.501656 0.180545 0.630533
0.611688 0.205127 0.655131
0.6916 0.241611 0.691615
0.764187 0.282048 0.732036
0.0729229 0.226261 0.596765
0.133684 0.254932 0.625422
0.206867 0.286366 0.656855
0.313436 0.313436 0.68394
0.454444 0.334127 0.704631
0.597253 0.355627 0.726131
0.711574 0.384512 0.755016
0.791379 0.420874 0.791379
0.863203 0.460548 0.831052
0.12224 0.395895 0.646082
0.194491 0.436057 0.686244
0.274876 0.474678 0.724865
0.384054 0.504372 0.754559
0.524147 0.524147 0.774334
0.666514 0.545205 0.795392
0.78117 0.574426 0.824613
0.86183 0.611627 0.86183
0.931121 0.648768 0.89897
0.191959 0.586938 0.715816
0.263218 0.626078 0.754955
0.34345 0.664561 0.793439
0.453223 0.69485 0.823728
0.593515 0.714824 0.843702
0.731548 0.731548 0.860426
0.836896 0.751461 0.880339
0.904173 0.77528 0.904173
0.957977 0.796948 0.925826
0.287602 0.768002 0.811444
0.357671 0.805982 0.849424
0.431754 0.8383 0.881743
0.530541 0.857603 0.901045
0.656443 0.863203 0.906645
0.778729 0.864179 0.907622
0.868986 0.868986 0.912428
0.922881 0.879438 0.922881
0.965301 0.889708 0.93315
0.390509 0.914351 0.914351
0.445472 0.937224 0.937224
0.503807 0.953811 0.953811
0.588098 0.958602 0.958602
0.701305 0.951507 0.951507
0.813001 0.941878 0.941878
0.894743 0.938186 0.938186
0.942168 0.942168 0.942168
0.979858 0.947707 0.947707
0.451438 1 0.97528
0.494438 1 0.986175
0.542947 1 0.992935
0.619486 1 0.98999
0.726909 1 0.977111
0.834394 0.995438 0.963287
0.913436 0.989029 0.956878
0.95964 0.991791 0.95964
0.997589 0.997589 0.965438
0.00138857 0.00138857 0.557397
0.0385595 0.00645457 0.562463
0.0836805 0.00981155 0.56582
0.159197 0.00584421 0.561852
0.267933 0 0.550286
0.379049 0 0.540093
0.463996 0 0.53959
0.5187 0 0.550851
0.567864 0.0118563 0.567864
0.0204471 0.0525521 0.576455
0.0604562 0.0604562 0.584344
0.109758 0.0680095 0.591897
0.190936 0.069688 0.593591
0.307149 0.0655985 0.589502
0.427665 0.0647898 0.588693
0.52398 0.0756847 0.599573
0.591775 0.100038 0.623926
0.655619 0.131716 0.655619
0.0476844 0.121538 0.603677
0.0958419 0.137606 0.619745
0.155261 0.155261 0.637415
0.248478 0.168994 0.651133
0.378393 0.178592 0.660746
0.513954 0.192844 0.674998
0.625116 0.21857 0.700725
0.705715 0.255726 0.737865
0.7785 0.296361 0.7785
0.0825818 0.235935 0.638575
0.145037 0.266285 0.668925
0.219638 0.299138 0.701793
0.327169 0.327169 0.729824
0.468681 0.348363 0.751019
0.611536 0.369909 0.772564
0.725429 0.398367 0.801022
0.805127 0.434623 0.837278
0.877455 0.4748 0.877455
0.136217 0.409873 0.69221
0.208804 0.450355 0.732708
0.289052 0.488853 0.771191
0.39765 0.517968 0.800305
0.53814 0.53814 0.820478
0.680827 0.559518 0.841856
0.7953 0.588556 0.870893
0.875273 0.625086 0.907423
0.943374 0.661036 0.943374
0.205493 0.600458 0.761486
0.277378 0.640238 0.801282
0.357748 0.678859 0.839887
0.46717 0.708797 0.869825
0.606592 0.727901 0.88893
0.743252 0.743252 0.90428
0.846845 0.761395 0.922438
0.91249 0.783612 0.94464
0.964874 0.80383 0.964874
0.301274 0.781689 0.857282
0.370306 0.818616 0.894209
0.442832 0.849378 0.924971
0.539879 0.866941 0.942535
0.664225 0.870985 0.946578
0.785138 0.870588 0.946181
0.874189 0.874189 0.949783
0.927092 0.88365 0.959243
0.968811 0.893217 0.968811
0.399252 0.92311 0.955245
0.452735 0.944472 0.976623
0.509758 0.959747 0.991897
0.59292 0.963424 0.99556
0.705242 0.955444 0.987594
0.816281 0.945159 0.97731
0.89752 0.940963 0.973114
0.94461 0.94461 0.976761
0.982086 0.949935 0.982086
0.455879 1 1
0.498116 1 1
0.546029 1 1
0.622126 1 1
0.729259 1 1
0.836591 0.997635 0.997635
0.915633 0.991226 0.991226
0.962005 0.994156 0.994156
1 1 1
