assets/cube/smart_contrast.cube
TITLE "Generated by Resolve"
LUT_3D_SIZE 33
0 0 0
0.00962844 0.00131228 0.00131228
0.0191501 0.00288396 0.00288396
0.0285039 0.00442512 0.00442512
0.0379797 0.00587472 0.00587472
0.0478676 0.00715648 0.00715648
0.0584573 0.00817884 0.00817884
0.0700542 0.00889601 0.00889601
0.0830549 0.00920119 0.00920119
0.0979324 0.00895705 0.00895705
0.115068 0.00807202 0.00807202
0.134783 0.00646983 0.00646983
0.157427 0.00407416 0.00407416
0.182605 0.000991836 0.000991836
0.2094 0 0
0.23682 0 0
0.263935 0 0
0.290471 0 0
0.317876 0 0
0.345296 0 0
0.371695 0 0
0.396033 0 0
0.417441 0 0
0.436027 0 0
0.452186 0 0
0.466285 0 0
0.478813 0 0
0.490272 0 0
0.500969 0 0
0.511238 0 0
0.521416 0 0
0.531792 0 0
0.54258 0 0
0.00469978 0.0130159 0.00469978
0.0143893 0.0143893 0.00607309
0.023743 0.0157931 0.00747692
0.0329442 0.0171817 0.00886549
0.0422827 0.0185092 0.0101778
0.0520638 0.0196689 0.0113527
0.0625772 0.0206149 0.0122835
0.0740978 0.0212558 0.0129397
0.0870527 0.0215152 0.0131991
0.101915 0.0212406 0.0129244
0.119036 0.0203708 0.0120546
0.138781 0.0187839 0.0104677
0.161456 0.016434 0.0081178
0.186709 0.0134127 0.00509651
0.213565 0.0099794 0.00166323
0.241108 0.00642405 0
0.268345 0.00300603 0
0.295033 0 0
0.322606 0 0
0.35021 0 0
0.376822 0 0
0.401389 0 0
0.423041 0 0
0.441917 0 0
0.458366 0 0
0.472786 0 0
0.485649 0 0
0.497459 0 0
0.508537 0 0
0.519219 0 0
0.529809 0 0
0.540642 0.0012665 0
0.551934 0.00425727 0
0.00935378 0.0256352 0.00935378
0.0189212 0.0268711 0.010605
0.0281834 0.0281834 0.011902
0.0372931 0.0294957 0.0132143
0.0465858 0.0307469 0.0144808
0.0563211 0.0318761 0.01561
0.0668193 0.0328069 0.0165408
0.0783551 0.033463 0.0171969
0.0913252 0.0337377 0.0174716
0.106233 0.0335241 0.017258
0.12343 0.0327153 0.0164492
0.143267 0.0312352 0.0149538
0.166064 0.0289769 0.0127108
0.19144 0.0260929 0.00982681
0.218463 0.0228275 0.00654612
0.246159 0.01944 0.00317388
0.27361 0.0162203 0
0.300511 0.0132296 0
0.328313 0.0100862 0
0.356191 0.00704967 0
0.383093 0.0043946 0
0.407965 0.00241093 0
0.429938 0.00134279 0
0.449149 0.0011902 0
0.465965 0.00183108 0
0.480781 0.00317388 0
0.494057 0.00511177 0
0.506294 0.00749218 0
0.517845 0.0102693 0
0.529046 0.0133669 0
0.5402 0.0167086 0.000442512
0.551629 0.0202182 0.00395209
0.563577 0.0238499 0.00756847
0.0137942 0.0378729 0.0137942
0.0233158 0.0390631 0.0149996
0.0325322 0.0403449 0.0162661
0.0416571 0.0416571 0.0175784
0.0509499 0.0429236 0.0188449
0.0607309 0.0440833 0.0200046
0.0712749 0.0450752 0.0209964
0.082887 0.0458076 0.0217288
0.095964 0.0461738 0.0221103
0.110994 0.0460822 0.0220035
0.128328 0.0454108 0.0213321
0.148318 0.0440833 0.0200046
0.171298 0.0420233 0.0179446
0.196887 0.0393378 0.015259
0.224125 0.0363012 0.0122225
0.252079 0.0331579 0.00907912
0.279789 0.0302129 0.00613413
0.306981 0.027512 0.00343328
0.335103 0.0246891 0.000610361
0.363317 0.021973 0
0.390555 0.0196689 0
0.415808 0.0180667 0
0.438178 0.0173953 0
0.457816 0.0176547 0
0.475074 0.0187381 0
0.490364 0.0205692 0
0.504173 0.0230411 0
0.517006 0.0260166 0.0019379
0.529183 0.0294041 0.00534066
0.541024 0.0331579 0.00907912
0.552865 0.037171 0.0131075
0.564996 0.0413825 0.0173037
0.577661 0.0457313 0.0216678
0.0179904 0.0500954 0.0179904
0.0275273 0.0513161 0.0192111
0.0367895 0.0526284 0.0205234
0.0459754 0.0540017 0.0218967
0.0553597 0.0553597 0.0232547
0.0652323 0.0566262 0.0245212
0.0759136 0.0577401 0.0256352
0.0876783 0.0586099 0.0265202
0.100923 0.0591592 0.0270695
0.116136 0.0592508 0.0271611
0.133684 0.0588083 0.0267033
0.153918 0.0577096 0.0256046
0.177157 0.0559091 0.0238041
0.203006 0.0534981 0.0213931
0.230549 0.0507515 0.0186465
0.258824 0.0479286 0.0158389
0.28687 0.0453193 0.0132143
0.314427 0.0429847 0.0108797
0.342931 0.0405432 0.00843824
0.371542 0.0382391 0.00613413
0.399222 0.0363622 0.00425727
0.424918 0.0352026 0.00309758
0.447807 0.03505 0.00294499
0.467979 0.0358587 0.00375372
0.485847 0.0375372 0.00544747
0.501778 0.0400092 0.00790417
0.516243 0.0431373 0.0110323
0.529763 0.0467842 0.0146944
0.542641 0.0509041 0.0187991
0.55523 0.055375 0.0232853
0.567819 0.0601663 0.0280613
0.580743 0.065156 0.033051
0.594217 0.0703136 0.0382086
0.021912 0.0626383 0.021912
0.0315404 0.0639353 0.0232242
0.0409247 0.0653697 0.0246586
0.0502327 0.0668803 0.026154
0.0597696 0.0683909 0.0276799
0.0698405 0.0698405 0.0291142
0.080705 0.0711528 0.0304265
0.0926986 0.0722515 0.0315251
0.106172 0.0730449 0.0323186
0.12166 0.0733959 0.0326848
0.139498 0.073228 0.0325017
0.160021 0.0724346 0.0317235
0.183597 0.0709544 0.0302434
0.209796 0.0688945 0.0281834
0.23772 0.0665141 0.025803
0.266377 0.0641031 0.0233768
0.294835 0.0618906 0.0211795
0.32282 0.0599832 0.0192721
0.351797 0.0580301 0.0173037
0.380941 0.0562448 0.0155184
0.409186 0.0549325 0.0142061
0.435508 0.0543984 0.0136873
0.459022 0.0548867 0.0141604
0.479866 0.0563516 0.0156405
0.498436 0.058732 0.0180209
0.515068 0.0619211 0.02121
0.530282 0.0657969 0.0250706
0.544579 0.070222 0.0294957
0.558251 0.0751202 0.0344091
0.571649 0.080415 0.039704
0.585092 0.0860456 0.0453346
0.598886 0.0919051 0.051194
0.613245 0.0979629 0.0572518
0.0255436 0.0758221 0.0255436
0.0353399 0.0773022 0.0270085
0.0449073 0.0789044 0.0286259
0.0544137 0.0806287 0.0303349
0.0641947 0.0823682 0.0320897
0.0744945 0.084062 0.0337835
0.0856489 0.0856489 0.0353704
0.0979171 0.0870375 0.036759
0.111711 0.0881361 0.0378576
0.127535 0.088838 0.0385443
0.145724 0.0890211 0.0387427
0.166629 0.0886091 0.0383307
0.1906 0.0875257 0.0372473
0.217227 0.085893 0.0356146
0.245579 0.0839551 0.0336767
0.274739 0.0820172 0.0317388
0.303731 0.080354 0.0300755
0.332311 0.0790417 0.0287633
0.361913 0.0776989 0.0274205
0.391699 0.0765698 0.0262913
0.42063 0.0759442 0.0256657
0.447654 0.076112 0.0258335
0.471901 0.0773175 0.027039
0.493492 0.0795453 0.0292668
0.51284 0.0827039 0.0324254
0.530282 0.0866865 0.036408
0.546334 0.0913863 0.0411078
0.561471 0.0966812 0.0464027
0.576028 0.102449 0.0521706
0.590326 0.108659 0.058381
0.6047 0.115221 0.0649424
0.61944 0.122026 0.0717479
0.634791 0.129076 0.0787976
0.0288548 0.090013 0.0288548
0.03888 0.091722 0.0305486
0.0487068 0.0935988 0.0324254
0.0585031 0.0955825 0.0344244
0.0685588 0.0976272 0.0364538
0.0791943 0.0996414 0.0384833
0.0906844 0.101564 0.0404059
0.103319 0.103319 0.0421607
0.11751 0.104814 0.0436561
0.13373 0.105913 0.0447395
0.152346 0.106523 0.0453651
0.173709 0.106569 0.0454108
0.198184 0.106004 0.044831
0.225376 0.104921 0.0437629
0.254337 0.103593 0.0424201
0.284123 0.102296 0.0411231
0.313787 0.101289 0.0401312
0.343053 0.100664 0.0395056
0.373373 0.100038 0.03888
0.403891 0.0996414 0.0384833
0.43357 0.0997787 0.0386053
0.461387 0.100725 0.0395666
0.486458 0.102754 0.0415961
0.508888 0.105821 0.0446632
0.529091 0.10985 0.0486763
0.547417 0.114717 0.0535592
0.564385 0.120333 0.0591745
0.580453 0.126558 0.0653849
0.595987 0.133303 0.0721294
0.611276 0.14049 0.0793317
0.626657 0.148074 0.0869001
0.642466 0.155932 0.0947738
0.658869 0.164034 0.102861
0.0317235 0.105577 0.0317235
0.0420539 0.107591 0.0337377
0.0522011 0.109789 0.035935
0.0623484 0.112123 0.0382696
0.0727855 0.114549 0.0406806
0.0838178 0.11696 0.0431067
0.0957198 0.119295 0.0454414
0.108797 0.121492 0.0476234
0.123461 0.123461 0.0495918
0.1402 0.125078 0.0512245
0.159396 0.126268 0.0524147
0.181384 0.12694 0.0530709
0.2065 0.127001 0.0531472
0.234363 0.126589 0.0527352
0.264012 0.125963 0.0521096
0.29453 0.125383 0.0515297
0.324926 0.125124 0.0512703
0.354971 0.125277 0.0514229
0.386084 0.125444 0.0515908
0.417426 0.125872 0.052018
0.447959 0.126848 0.0529946
0.476646 0.128679 0.0548257
0.502602 0.131594 0.0577401
0.525963 0.135592 0.061738
0.547112 0.140566 0.0667124
0.56643 0.14641 0.0725567
0.584375 0.153017 0.0791638
0.601495 0.160281 0.0864271
0.618067 0.168078 0.0942245
0.634409 0.176318 0.102464
0.650813 0.184909 0.111055
0.667536 0.193713 0.11986
0.684825 0.20267 0.128817
0.0339361 0.122911 0.0339361
0.0446479 0.125307 0.0363317
0.0551919 0.127916 0.0389258
0.0657664 0.130678 0.0416876
0.0766613 0.133532 0.0445563
0.0881819 0.136446 0.0474556
0.100618 0.13933 0.0503395
0.11429 0.142107 0.0531319
0.12958 0.144717 0.0557259
0.14699 0.14699 0.0579995
0.166857 0.148852 0.0598764
0.189548 0.150225 0.0612497
0.215396 0.151034 0.0620432
0.244007 0.151369 0.0623941
0.274449 0.151522 0.0625467
0.30576 0.151751 0.0627756
0.336996 0.152331 0.0633402
0.367895 0.153323 0.0643473
0.399893 0.154376 0.0654002
0.432151 0.155718 0.0667277
0.463615 0.157626 0.0686351
0.493248 0.160418 0.0714275
0.520195 0.164324 0.0753338
0.544564 0.169314 0.0803388
0.566751 0.175326 0.0863508
0.587121 0.182239 0.0932479
0.606119 0.189883 0.100908
0.624216 0.198123 0.109148
0.641703 0.206836 0.117861
0.658885 0.21593 0.12694
0.676051 0.225284 0.136294
0.693492 0.234791 0.1458
0.711391 0.244373 0.155398
0.0354162 0.142412 0.0354162
0.0465858 0.145266 0.0382696
0.0576638 0.148379 0.0413825
0.0687877 0.151705 0.0447089
0.080293 0.155169 0.048188
0.0924544 0.158724 0.0517281
0.105562 0.162264 0.0552682
0.119921 0.165743 0.0587472
0.135912 0.169055 0.0620584
0.154055 0.172061 0.0650797
0.174701 0.174701 0.0677043
0.198184 0.176867 0.0698711
0.224842 0.178485 0.0714885
0.254292 0.179675 0.0726787
0.285603 0.180682 0.0736858
0.317815 0.181796 0.074815
0.349966 0.183291 0.0763104
0.381796 0.185229 0.0782483
0.414755 0.187259 0.0802625
0.448005 0.189578 0.0825971
0.480491 0.192508 0.0855268
0.511177 0.196353 0.0893568
0.539178 0.201312 0.094316
0.564569 0.20734 0.100343
0.587732 0.214313 0.107317
0.608988 0.22211 0.115114
0.628794 0.230564 0.123583
0.647639 0.239551 0.132555
0.665797 0.248936 0.141939
0.683574 0.258625 0.151629
0.701274 0.268513 0.161517
0.719173 0.278477 0.171481
0.737469 0.288457 0.18146
0.0362554 0.164553 0.0362554
0.0480507 0.168032 0.0397192
0.0597543 0.171801 0.0434882
0.0715648 0.175799 0.0474861
0.0837568 0.179965 0.0516518
0.0966354 0.184237 0.0559243
0.110506 0.188525 0.0602121
0.125628 0.192782 0.0644694
0.142443 0.196887 0.068574
0.161395 0.200717 0.0724193
0.182895 0.204211 0.0758984
0.207248 0.207248 0.0789349
0.234806 0.209766 0.0814527
0.265187 0.211872 0.0835737
0.297444 0.21384 0.0855268
0.330632 0.21593 0.0876326
0.363775 0.218433 0.0901198
0.396658 0.221408 0.0930953
0.430671 0.224475 0.0961776
0.464958 0.227863 0.0995499
0.498451 0.231785 0.103487
0.530068 0.236561 0.108248
0.558938 0.242374 0.114076
0.585122 0.249195 0.120882
0.608988 0.256886 0.128588
0.6309 0.265324 0.137026
0.65127 0.274372 0.146059
0.670619 0.283864 0.15555
0.689219 0.293675 0.165362
0.707362 0.303731 0.175418
0.725353 0.313909 0.185595
0.743465 0.324086 0.195789
0.761913 0.334218 0.205905
0.0365606 0.189914 0.0365606
0.049073 0.194095 0.0407568
0.0615244 0.198596 0.045243
0.0740826 0.203342 0.0500038
0.0870527 0.208301 0.0549477
0.100755 0.213382 0.060029
0.115434 0.218509 0.065156
0.131426 0.223621 0.0702678
0.149126 0.228611 0.0752575
0.168994 0.233356 0.0800031
0.191424 0.237766 0.0844282
0.216739 0.241764 0.088426
0.245274 0.245274 0.0919356
0.276677 0.248402 0.0950484
0.309972 0.251408 0.0980697
0.344213 0.254566 0.101213
0.378408 0.258091 0.104753
0.412253 0.262043 0.108705
0.447181 0.266026 0.112688
0.482307 0.270237 0.116899
0.516564 0.274937 0.121584
0.548867 0.2804 0.127047
0.578363 0.286839 0.133501
0.605081 0.294209 0.140856
0.629435 0.302373 0.149035
0.651759 0.311223 0.157885
0.672465 0.320607 0.167254
0.692088 0.330358 0.177005
0.710872 0.340368 0.18703
0.729137 0.350545 0.197192
0.747189 0.360769 0.207431
0.765286 0.370932 0.217594
0.783627 0.380972 0.227634
0.0370184 0.218631 0.0370184
0.050309 0.223606 0.0419928
0.0635691 0.228916 0.047303
0.0769818 0.234516 0.052903
0.0908217 0.240345 0.0587167
0.105409 0.246311 0.0646982
0.121019 0.252354 0.0707408
0.137957 0.258412 0.0767987
0.156619 0.264378 0.0827497
0.177478 0.270115 0.0885023
0.200931 0.275563 0.0939345
0.227298 0.280613 0.0989853
0.256901 0.285161 0.103548
0.289311 0.289311 0.107698
0.323568 0.293263 0.11165
0.358679 0.297307 0.115679
0.393683 0.30164 0.120027
0.428275 0.30634 0.124712
0.463859 0.310979 0.129366
0.49958 0.315785 0.134173
0.534356 0.321004 0.139391
0.567132 0.326925 0.145312
0.596994 0.333745 0.152132
0.624033 0.341421 0.159808
0.64863 0.349828 0.168215
0.671107 0.358862 0.177234
0.69192 0.368322 0.186709
0.711559 0.378103 0.19649
0.730312 0.388067 0.206455
0.748455 0.398123 0.21651
0.766308 0.408164 0.226551
0.784146 0.418067 0.236454
0.802167 0.427771 0.246159
0.0387579 0.25066 0.0387579
0.0529335 0.256519 0.0446021
0.0670939 0.26273 0.0508278
0.0814221 0.269261 0.0573434
0.0962234 0.276036 0.0641184
0.111788 0.282979 0.0710765
0.128405 0.290028 0.0781262
0.14638 0.297124 0.0852216
0.166094 0.304143 0.0922408
0.188006 0.310933 0.0990158
0.212451 0.317372 0.105455
0.23975 0.323354 0.111437
0.270191 0.328756 0.116854
0.303395 0.333684 0.121782
0.338354 0.338354 0.126452
0.374121 0.343038 0.131121
0.409689 0.347936 0.136034
0.444785 0.35314 0.141222
0.480797 0.358206 0.146304
0.516869 0.363363 0.151461
0.551934 0.368872 0.15697
0.584924 0.375006 0.163104
0.614923 0.381979 0.170062
0.642039 0.389715 0.177813
0.666621 0.398123 0.186221
0.689036 0.40708 0.195163
0.709712 0.416403 0.204501
0.729137 0.425971 0.214054
0.747585 0.435645 0.223743
0.765393 0.44535 0.233448
0.782818 0.454963 0.243061
0.800397 0.464607 0.252705
0.818418 0.474327 0.262409
0.0429694 0.285969 0.0429694
0.0581064 0.29279 0.0497902
0.0732586 0.299992 0.0569924
0.0886091 0.30753 0.0645304
0.104463 0.315358 0.0723583
0.12108 0.323354 0.080354
0.13872 0.331441 0.0884413
0.157671 0.339498 0.0964981
0.178286 0.347417 0.104417
0.201022 0.355032 0.112032
0.22623 0.362234 0.119234
0.254215 0.368902 0.125902
0.285267 0.374929 0.13193
0.319005 0.380392 0.137392
0.354452 0.385534 0.142535
0.390616 0.390616 0.147616
0.42652 0.39585 0.15285
0.46186 0.401297 0.158297
0.49807 0.406561 0.163561
0.534264 0.411841 0.168841
0.56936 0.417395 0.174395
0.602319 0.423499 0.180499
0.632227 0.430365 0.187366
0.659175 0.437934 0.194949
0.683528 0.446113 0.203113
0.705623 0.454749 0.211749
0.725902 0.463691 0.220691
0.74493 0.472862 0.229862
0.763226 0.482368 0.239368
0.781125 0.49218 0.24918
0.798932 0.502174 0.259174
0.816922 0.51223 0.26923
0.835279 0.522271 0.279286
0.0508431 0.324498 0.0508431
0.0670329 0.332372 0.0587167
0.083238 0.340627 0.0669566
0.0995956 0.349172 0.0755169
0.116396 0.357946 0.0842908
0.133883 0.366827 0.0931716
0.152331 0.375708 0.102052
0.172015 0.384497 0.110842
0.193286 0.393088 0.119432
0.216617 0.401282 0.127626
0.242329 0.409003 0.135348
0.270771 0.416114 0.142458
0.302205 0.422507 0.148852
0.336248 0.42829 0.154635
0.371923 0.433661 0.160006
0.40824 0.438895 0.16524
0.444236 0.444236 0.170581
0.479591 0.449699 0.176043
0.515755 0.454902 0.181247
0.551827 0.46006 0.186404
0.586725 0.465415 0.19176
0.619425 0.47126 0.197604
0.648997 0.477791 0.204135
0.675532 0.484962 0.211307
0.699535 0.49279 0.219135
0.721584 0.501366 0.22771
0.742077 0.510521 0.236866
0.761517 0.520104 0.246448
0.780194 0.530007 0.256352
0.798413 0.540124 0.266468
0.816449 0.550347 0.276692
0.834577 0.56054 0.286885
0.85301 0.570672 0.297017
0.0627451 0.366293 0.0627451
0.0798505 0.375082 0.0715343
0.0968948 0.384176 0.0806287
0.114031 0.393515 0.0899672
0.131533 0.402991 0.0994278
0.14966 0.412497 0.108949
0.168673 0.421942 0.118395
0.188846 0.431235 0.127687
0.210544 0.440238 0.13669
0.234226 0.448783 0.145235
0.260227 0.456779 0.153231
0.288853 0.464103 0.160555
0.320424 0.470634 0.167086
0.354543 0.476478 0.172915
0.390204 0.481849 0.178286
0.426444 0.487007 0.183444
0.462287 0.49218 0.188632
0.497429 0.497429 0.193881
0.533288 0.502342 0.198795
0.568994 0.507134 0.203586
0.603494 0.512078 0.208515
0.635935 0.517678 0.214115
0.665553 0.524239 0.220691
0.692393 0.531716 0.228168
0.716838 0.539986 0.236423
0.739223 0.548913 0.24535
0.760006 0.558343 0.25478
0.779644 0.568124 0.264576
0.798459 0.578149 0.274601
0.816709 0.588312 0.284764
0.834699 0.598489 0.294942
0.85272 0.608591 0.305043
0.87097 0.618524 0.314977
0.0766918 0.411185 0.0766918
0.0944686 0.420645 0.0861524
0.112139 0.430365 0.0958572
0.129809 0.440223 0.10573
0.147768 0.450172 0.115679
0.166293 0.460075 0.125582
0.185626 0.469841 0.135348
0.206058 0.479377 0.144884
0.227924 0.488563 0.15407
0.251713 0.49723 0.162722
0.27776 0.505257 0.170764
0.306355 0.512551 0.178058
0.337835 0.518975 0.184482
0.371756 0.524636 0.190143
0.407172 0.529763 0.19527
0.443107 0.5346 0.200107
0.478553 0.539391 0.204898
0.513313 0.544259 0.209751
0.549035 0.549035 0.214542
0.584878 0.553948 0.219455
0.61976 0.559289 0.224781
0.652613 0.565286 0.230793
0.682551 0.572183 0.23769
0.709636 0.579904 0.245411
0.734249 0.588342 0.253849
0.756741 0.59736 0.262867
0.777523 0.606806 0.272312
0.797116 0.616541 0.282048
0.815778 0.626429 0.291936
0.833814 0.636362 0.301869
0.851514 0.64625 0.311757
0.869169 0.65597 0.321477
0.886961 0.665461 0.330953
0.0926528 0.458061 0.0926528
0.110887 0.467979 0.102556
0.128908 0.47805 0.112642
0.146883 0.488212 0.122805
0.165072 0.49839 0.132967
0.183749 0.508446 0.143038
0.203174 0.518303 0.15288
0.223606 0.527855 0.162432
0.245411 0.53698 0.171557
0.269078 0.54551 0.180087
0.294911 0.553338 0.18793
0.323247 0.560357 0.194934
0.354376 0.56643 0.201022
0.387884 0.571679 0.206271
0.422995 0.576501 0.211078
0.458885 0.581292 0.215885
0.49456 0.586328 0.220905
0.529747 0.591608 0.2262
0.56585 0.596765 0.231357
0.601984 0.601984 0.236576
0.637095 0.607538 0.24213
0.6701 0.613687 0.24828
0.700099 0.620645 0.255238
0.727169 0.628351 0.262943
0.75169 0.636698 0.27129
0.774014 0.645548 0.28014
0.794553 0.654749 0.289342
0.813825 0.664164 0.298741
0.83209 0.67364 0.308232
0.849638 0.683101 0.317693
0.866789 0.692439 0.327031
0.883803 0.701518 0.33611
0.900877 0.710292 0.344884
0.110811 0.505776 0.110811
0.129229 0.515877 0.120912
0.147387 0.526085 0.131121
0.165423 0.536309 0.141344
0.183597 0.546471 0.151492
0.202197 0.556451 0.161471
0.221454 0.56614 0.171176
0.241657 0.575463 0.180499
0.263172 0.584283 0.189319
0.286473 0.592447 0.197482
0.311894 0.599863 0.204898
0.340002 0.606668 0.211704
0.371191 0.612818 0.217838
0.405035 0.618387 0.223423
0.440574 0.623636 0.228656
0.476814 0.628779 0.233814
0.512764 0.634073 0.239109
0.54815 0.639551 0.244587
0.58436 0.644831 0.249866
0.620539 0.65008 0.255116
0.655589 0.655589 0.260624
0.688472 0.661616 0.266651
0.718273 0.668391 0.273426
0.745083 0.675822 0.280858
0.769253 0.683818 0.288853
0.79115 0.692241 0.297276
0.811185 0.700938 0.305974
0.829862 0.709743 0.314778
0.847456 0.718578 0.323613
0.864271 0.727291 0.332326
0.880598 0.735805 0.340841
0.896712 0.743999 0.34902
0.912825 0.751781 0.356817
0.131319 0.55314 0.131319
0.149706 0.56321 0.14139
0.167758 0.573297 0.151476
0.185595 0.583337 0.161517
0.203525 0.59324 0.17142
0.22179 0.602899 0.181079
0.24065 0.612192 0.190372
0.260487 0.621149 0.199329
0.281895 0.629862 0.208042
0.305348 0.638178 0.216358
0.331167 0.646006 0.224186
0.359686 0.653208 0.231373
0.391196 0.659663 0.237842
0.425284 0.665492 0.243671
0.460975 0.670893 0.249073
0.497307 0.676127 0.254307
0.533272 0.681422 0.259602
0.568566 0.686839 0.265019
0.604639 0.691966 0.270146
0.640589 0.697002 0.275181
0.675349 0.702205 0.280385
0.707851 0.707851 0.28603
0.737194 0.714153 0.292332
0.76347 0.72105 0.299229
0.78703 0.728435 0.306615
0.808225 0.736171 0.314351
0.827482 0.744091 0.322271
0.845319 0.752056 0.330236
0.861997 0.75996 0.33814
0.877806 0.767681 0.345861
0.893065 0.775113 0.353292
0.90808 0.782208 0.360388
0.923095 0.788907 0.367086
0.154177 0.599039 0.154177
0.17229 0.608835 0.163973
0.18999 0.618585 0.173724
0.207416 0.628199 0.183337
0.225055 0.637812 0.19295
0.243305 0.647456 0.202594
0.262425 0.657008 0.212146
0.282704 0.666392 0.22153
0.304479 0.675471 0.23061
0.328206 0.684092 0.239231
0.354253 0.692119 0.247257
0.38291 0.699458 0.254597
0.414466 0.705989 0.261128
0.448539 0.711788 0.266926
0.484138 0.717098 0.272236
0.520287 0.722148 0.277287
0.555993 0.727199 0.282338
0.590982 0.73228 0.287419
0.626627 0.736996 0.292134
0.662104 0.741543 0.296681
0.6963 0.746181 0.30132
0.728161 0.751186 0.306325
0.756771 0.756771 0.31191
0.782254 0.762875 0.318013
0.804929 0.76939 0.324529
0.825177 0.776165 0.331304
0.843412 0.783047 0.338201
0.860151 0.789944 0.345083
0.875731 0.796735 0.351873
0.890455 0.803357 0.358511
0.904662 0.80975 0.364904
0.918654 0.815824 0.370962
0.932677 0.82153 0.376669
0.178531 0.642756 0.178531
0.19646 0.652369 0.188128
0.214237 0.662196 0.197971
0.232029 0.672175 0.20795
0.25008 0.6822 0.217975
0.268681 0.69218 0.227955
0.28806 0.702007 0.237781
0.308507 0.711574 0.247349
0.330388 0.72076 0.256535
0.354162 0.729412 0.265171
0.380148 0.737392 0.273167
0.408682 0.74461 0.280369
0.44004 0.750927 0.286702
0.473838 0.756436 0.29221
0.509071 0.761395 0.297154
0.544778 0.766018 0.301778
0.57998 0.77055 0.306325
0.614359 0.775036 0.310811
0.649348 0.77908 0.314855
0.684062 0.782879 0.318654
0.717433 0.786694 0.322469
0.748394 0.790799 0.326574
0.776028 0.795407 0.331167
0.800443 0.800443 0.336217
0.822034 0.805859 0.341634
0.841184 0.811536 0.347311
0.858335 0.817349 0.353124
0.874052 0.823209 0.358968
0.888609 0.828992 0.364767
0.902358 0.834638 0.370413
0.915602 0.84007 0.375845
0.928679 0.845212 0.380987
0.941802 0.850019 0.385794
0.205615 0.68603 0.205615
0.223926 0.696025 0.21561
0.242023 0.706157 0.225757
0.260044 0.716381 0.235966
0.278264 0.726558 0.246159
0.296941 0.736629 0.256214
0.31632 0.746441 0.266041
0.336706 0.755947 0.275532
0.358419 0.764981 0.284566
0.381964 0.773388 0.292973
0.407645 0.781064 0.300649
0.435782 0.787884 0.307485
0.466682 0.793744 0.313329
0.499931 0.798718 0.318303
0.534554 0.803052 0.322637
0.569558 0.806958 0.326558
0.603967 0.810727 0.330312
0.637507 0.814359 0.333944
0.671565 0.817472 0.337057
0.705272 0.820264 0.339849
0.73756 0.822995 0.342596
0.767422 0.826001 0.345586
0.793957 0.829511 0.349096
0.817319 0.833494 0.353094
0.837888 0.837873 0.357473
0.856016 0.842557 0.362158
0.872221 0.84741 0.366995
0.886976 0.852308 0.371908
0.900618 0.857176 0.376776
0.913466 0.861936 0.381521
0.925856 0.866514 0.386099
0.938109 0.870817 0.390417
0.950408 0.874815 0.394415
0.235691 0.729549 0.235691
0.254124 0.739681 0.245808
0.272267 0.749874 0.256001
0.290257 0.760052 0.266178
0.30837 0.770138 0.276265
0.326863 0.780011 0.286152
0.345983 0.789578 0.295705
0.366033 0.798733 0.30486
0.387335 0.807355 0.313481
0.410391 0.815274 0.321401
0.435492 0.82237 0.328511
0.462989 0.82855 0.334676
0.493156 0.833677 0.339803
0.525597 0.837842 0.343984
0.559335 0.841291 0.347417
0.593378 0.844251 0.350378
0.626764 0.846967 0.353109
0.659205 0.849515 0.355657
0.692164 0.85153 0.357656
0.724788 0.853239 0.359365
0.756024 0.854932 0.361059
0.784863 0.856916 0.363043
0.810422 0.859434 0.36556
0.832822 0.862455 0.368597
0.852445 0.865904 0.372045
0.869673 0.869673 0.375814
0.884993 0.87364 0.379782
0.898894 0.877699 0.383825
0.911727 0.881743 0.387869
0.923781 0.885695 0.391836
0.935393 0.889509 0.395636
0.946899 0.89308 0.399207
0.958495 0.896361 0.402487
0.267414 0.772625 0.267414
0.285725 0.78262 0.277409
0.303655 0.792599 0.287388
0.321355 0.802502 0.297276
0.339101 0.812222 0.306996
0.357153 0.821653 0.316426
0.375753 0.830686 0.325475
0.395193 0.839246 0.334035
0.415824 0.847181 0.34197
0.438117 0.854337 0.349126
0.462394 0.860624 0.355398
0.488975 0.865873 0.360662
0.518151 0.870024 0.364797
0.549538 0.873121 0.36791
0.582177 0.875471 0.37026
0.615122 0.877333 0.372122
0.64744 0.878996 0.37377
0.678843 0.880507 0.375296
0.710796 0.881498 0.376287
0.742428 0.882231 0.37702
0.772732 0.882979 0.377752
0.800641 0.884031 0.37882
0.825299 0.885649 0.380438
0.84683 0.887816 0.382605
0.865614 0.89041 0.385199
0.882033 0.89337 0.388159
0.896559 0.896559 0.391333
0.909697 0.89984 0.394629
0.921798 0.903151 0.39794
0.93315 0.906416 0.401205
0.944091 0.909545 0.404334
0.95494 0.912459 0.407248
0.965927 0.915145 0.409934
0.299474 0.814542 0.299474
0.317388 0.82414 0.309056
0.334844 0.833646 0.318578
