assets/cube/smart_contrast.cube
TITLE "Generated by Resolve"
LUT_3D_SIZE 5
0 0 0
0.0830549 0.00920119 0.00920119
0.263935 0 0
0.452186 0 0
0.54258 0 0
0.0317235 0.105577 0.0317235
0.123461 0.123461 0.0495918
0.324926 0.125124 0.0512703
0.547112 0.140566 0.0667124
0.684825 0.20267 0.128817
0.0508431 0.324498 0.0508431
0.193286 0.393088 0.119432
0.444236 0.444236 0.170581
0.699535 0.49279 0.219135
0.85301 0.570672 0.297017
0.205615 0.68603 0.205615
0.358419 0.764981 0.284566
0.603967 0.810727 0.330312
0.837888 0.837873 0.357473
0.950408 0.874815 0.394415
0.426886 0.982895 0.426886
0.532403 1 0.458549
0.724514 1 0.450858
0.914885 0.990478 0.43447
0.998672 0.998672 0.442679
0.00440986 0.00440986 0.0782635
0.0869001 0.0130465 0.0869001
0.26807 0 0.0682689
0.457694 0 0.0511482
0.550607 0 0.068452
0.0380102 0.111864 0.111864
0.13283 0.13283 0.13283
0.339055 0.139254 0.139254
0.5673 0.160739 0.160754
0.710735 0.22858 0.22858
0.0734874 0.347143 0.147341
0.220401 0.420203 0.220401
0.472145 0.472145 0.272343
0.72668 0.519936 0.320134
0.880858 0.59852 0.398718
0.233494 0.713893 0.307347
0.385519 0.792081 0.385519
0.626291 0.833036 0.42649
0.853498 0.853498 0.446952
0.960739 0.885145 0.478599
0.440421 0.996429 0.514275
0.541161 1 0.541161
0.730358 1 0.530556
0.919112 0.994705 0.512566
1 1 0.520363
0.00137331 0.00137331 0.275029
0.0834058 0.00955215 0.283207
0.265248 0 0.265248
0.456641 0 0.249882
0.55259 0 0.270237
0.0378576 0.111711 0.311513
0.136385 0.136385 0.336187
0.347799 0.147997 0.347799
0.582483 0.175937 0.375738
0.73048 0.248341 0.448142
0.0907607 0.364416 0.364416
0.240894 0.440696 0.440696
0.492195 0.492195 0.492195
0.747219 0.540475 0.540475
0.900725 0.618387 0.618387
0.254246 0.734661 0.527901
0.40415 0.810712 0.603952
0.638895 0.84564 0.638895
0.859876 0.859876 0.653117
0.962295 0.886702 0.679957
0.444877 1 0.718532
0.541421 1 0.741222
0.728222 1 0.728222
0.91577 0.991363 0.709026
0.999161 0.999161 0.716823
0 0 0.47805
0.0796216 0.00576791 0.486183
0.262486 0 0.469245
0.456016 0 0.456016
0.555611 0 0.480018
0.0383154 0.112169 0.51873
0.141146 0.141146 0.547692
0.35819 0.158389 0.564935
0.599237 0.192676 0.599237
0.750546 0.268406 0.674952
0.109133 0.382803 0.589548
0.261265 0.461067 0.667811
0.51104 0.51104 0.717784
0.767575 0.56083 0.767575
0.919051 0.636713 0.843458
0.274327 0.754742 0.754742
0.420737 0.827298 0.827283
0.648814 0.855573 0.855573
0.864042 0.864042 0.864042
0.962234 0.886641 0.886641
0.447303 1 0.927703
0.540337 1 0.946883
0.725139 1 0.931884
0.911894 0.987488 0.911894
0.995697 0.995697 0.920104
0.00138857 0.00138857 0.557397
0.0836805 0.00981155 0.56582
0.267933 0 0.550286
0.463996 0 0.53959
0.567864 0.0118563 0.567864
0.0476844 0.121538 0.603677
0.155261 0.155261 0.637415
0.378393 0.178592 0.660746
0.625116 0.21857 0.700725
0.7785 0.296361 0.7785
0.136217 0.409873 0.69221
0.289052 0.488853 0.771191
0.53814 0.53814 0.820478
0.7953 0.588556 0.870893
0.943374 0.661036 0.943374
0.301274 0.781689 0.857282
0.442832 0.849378 0.924971
0.664225 0.870985 0.946578
0.874189 0.874189 0.949783
0.968811 0.893217 0.968811
0.455879 1 1
0.546029 1 1
0.729259 1 1
0.915633 0.991226 0.991226
1 1 1
