assets/cube/subtle_blue.cube
TITLE "Generated by Resolve"
LUT_3D_SIZE 5
0 0 0.0141909
0.168154 0 0.016907
0.378927 0.00173953 0.0273594
0.579095 0.0149538 0.0404517
0.754589 0.0351415 0.0609903
0 0.216464 0.0647898
0.219272 0.219852 0.0680095
0.430045 0.230503 0.0784924
0.630198 0.243717 0.0915694
0.805615 0.263828 0.112047
0.0337682 0.445335 0.115648
0.270115 0.448722 0.118868
0.480751 0.459251 0.129213
0.681041 0.472587 0.142428
0.856291 0.492515 0.162707
0.0843824 0.674022 0.166293
0.320974 0.677592 0.169711
0.531487 0.687999 0.179934
0.731899 0.701457 0.193286
0.907149 0.721386 0.213565
0.135515 0.902708 0.21735
0.372107 0.906355 0.220844
0.582605 0.916762 0.231067
0.782971 0.93019 0.244373
0.958236 0.950164 0.264698
0 0 0.210742
0.17351 0 0.213962
0.384298 0.0071107 0.22443
0.584451 0.020325 0.237507
0.759777 0.0403296 0.257877
0 0.221805 0.261845
0.224643 0.225208 0.26508
0.435172 0.23563 0.275319
0.635554 0.249073 0.28864
0.810803 0.269017 0.308934
0.03888 0.450446 0.312444
0.275502 0.454078 0.315923
0.486 0.464485 0.326146
0.686412 0.477943 0.339498
0.861662 0.497887 0.359777
0.0897383 0.679316 0.363302
0.326345 0.682948 0.366781
0.536843 0.693355 0.377005
0.737118 0.706691 0.390204
0.912505 0.726757 0.410636
0.140932 0.908064 0.414405
0.377279 0.911528 0.4177
0.587961 0.922133 0.428122
0.788113 0.935347 0.441215
0.963607 0.95552 0.461769
0 0 0.408057
0.178882 0.00180056 0.411276
0.389395 0.0122072 0.4215
0.589807 0.0256657 0.434836
0.765057 0.045594 0.455116
0 0.226902 0.458915
0.229999 0.230549 0.462394
0.440497 0.24097 0.472618
0.640909 0.254429 0.485969
0.816144 0.274357 0.506249
0.0442664 0.455787 0.509758
0.280842 0.459403 0.513237
0.491356 0.469841 0.523476
0.691524 0.48307 0.536568
0.867002 0.503227 0.557107
0.0951247 0.684657 0.560616
0.331441 0.688045 0.563836
0.542199 0.698711 0.574319
0.742351 0.711925 0.587396
0.917845 0.732097 0.60795
0.146319 0.913405 0.611719
0.382574 0.916808 0.614969
0.593317 0.927474 0.625452
0.793454 0.940688 0.638529
0.968704 0.960616 0.658824
0 0.00349432 0.605493
0.184207 0.00712596 0.608972
0.39472 0.0175326 0.619196
0.595071 0.03093 0.632486
0.770367 0.0509194 0.652827
0 0.232227 0.656596
0.235218 0.235752 0.659983
0.445823 0.246281 0.670314
0.645975 0.259495 0.683406
0.821469 0.279683 0.70396
0.0496223 0.461082 0.707454
0.285924 0.4645 0.710689
0.496681 0.475151 0.721172
0.696818 0.488365 0.734249
0.872312 0.508553 0.754803
0.100481 0.689952 0.758297
0.336782 0.69337 0.761532
0.547509 0.704005 0.772
0.747677 0.717235 0.785107
0.922911 0.737163 0.805386
0.151583 0.918639 0.809323
0.3879 0.922133 0.812665
0.598383 0.93254 0.822889
0.798779 0.946014 0.83624
0.974014 0.965942 0.856519
0 0.00859083 0.806302
0.189075 0.0120089 0.809552
0.399802 0.0226291 0.819989
0.59997 0.0358434 0.833066
0.775464 0.0560159 0.853635
0.00383001 0.237324 0.857404
0.240162 0.240726 0.860639
0.450919 0.251377 0.871122
0.651072 0.264591 0.884199
0.826505 0.284718 0.904692
0.0546883 0.466194 0.908263
0.291005 0.469596 0.911482
0.501656 0.48014 0.921859
0.701915 0.493477 0.935058
0.877165 0.513405 0.955337
0.105333 0.694896 0.958938
0.341863 0.698466 0.962341
0.552361 0.708873 0.972564
0.752773 0.722347 0.985916
0.928023 0.742275 1
0.156435 0.923583 1
0.392996 0.92723 1
0.603479 0.937652 1
0.803861 0.951095 1
0.978622 0.970535 1
