assets/cube/subtle_blue.cube
TITLE "Generated by Resolve"
LUT_3D_SIZE 9
0 0 0.0141909
0.0572213 0 0.013489
0.168154 0 0.016907
0.274998 0 0.0217288
0.378927 0.00173953 0.0273594
0.480339 0.00814832 0.0337072
0.579095 0.0149538 0.0404517
0.675517 0.0227054 0.048188
0.754589 0.0351415 0.0609903
0 0.102022 0.0393683
0.0829328 0.1019 0.0391699
0.193835 0.105409 0.0425879
0.300694 0.110338 0.047425
0.404608 0.116075 0.0530709
0.50576 0.122225 0.0591287
0.604761 0.129274 0.0661479
0.701198 0.137026 0.0738842
0.78027 0.149462 0.0867018
0 0.216464 0.0647898
0.10837 0.216342 0.0646067
0.219272 0.219852 0.0680095
0.326116 0.224781 0.0728466
0.430045 0.230503 0.0784924
0.531197 0.236652 0.0845655
0.630198 0.243717 0.0915694
0.726619 0.251469 0.0993057
0.805615 0.263828 0.112047
0.00833143 0.330892 0.0902113
0.1337 0.330694 0.0899367
0.244694 0.334279 0.093431
0.351537 0.339208 0.0982834
0.455467 0.344945 0.103914
0.556619 0.351095 0.109987
0.655619 0.358144 0.116991
0.752041 0.365896 0.124743
0.830869 0.378073 0.137285
0.0337682 0.445335 0.115648
0.158938 0.444968 0.11519
0.270115 0.448722 0.118868
0.376974 0.453651 0.123705
0.480751 0.459251 0.129213
0.58204 0.465522 0.135409
0.681041 0.472587 0.142428
0.777432 0.480293 0.150118
0.856291 0.492515 0.162707
0.0591287 0.559716 0.141009
0.184375 0.559396 0.140612
0.295552 0.563149 0.144289
0.402396 0.568078 0.149126
0.50605 0.573556 0.154513
0.607462 0.579965 0.160845
0.706462 0.58703 0.167849
0.802716 0.594598 0.175402
0.881712 0.606958 0.188128
0.0843824 0.674022 0.166293
0.209796 0.673838 0.166049
0.320974 0.677592 0.169711
0.427817 0.682521 0.174563
0.531487 0.687999 0.179934
0.632898 0.694392 0.186267
0.731899 0.701457 0.193286
0.828077 0.708965 0.200748
0.907149 0.721386 0.213565
0.109743 0.788403 0.191669
0.235218 0.788266 0.19147
0.346395 0.792035 0.195148
0.452995 0.796719 0.199725
0.556909 0.802441 0.205356
0.65832 0.808835 0.211688
0.757321 0.8159 0.218708
0.853498 0.823392 0.226184
0.93257 0.835828 0.238987
0.135515 0.902708 0.21735
0.260945 0.902586 0.217166
0.372107 0.906355 0.220844
0.478676 0.91104 0.225422
0.582605 0.916762 0.231067
0.684001 0.923171 0.2374
0.782971 0.93019 0.244373
0.879179 0.937728 0.251881
0.958236 0.950164 0.264698
0 0 0.112078
0.0599222 0 0.111879
0.17084 0 0.115282
0.277699 0 0.120119
0.381613 0.00444038 0.125765
0.482826 0.0106355 0.131884
0.581781 0.0176547 0.138842
0.678218 0.0254063 0.146578
0.757168 0.0377203 0.159274
0 0.104707 0.137758
0.0855116 0.104463 0.137438
0.196536 0.108095 0.140978
0.30338 0.113039 0.145815
0.407294 0.118761 0.151461
0.508461 0.12491 0.157534
0.607462 0.131975 0.164538
0.703883 0.139727 0.17229
0.782712 0.151904 0.184833
0 0.21915 0.16318
0.110796 0.218784 0.162737
0.221958 0.222538 0.1664
0.328817 0.227466 0.171252
0.432731 0.233188 0.176883
0.533883 0.239353 0.182956
0.632883 0.246403 0.189975
0.729305 0.254154 0.197711
0.808133 0.266331 0.210254
0.0110475 0.333577 0.188602
0.136217 0.333211 0.188159
0.247395 0.33698 0.191836
0.354238 0.341909 0.196674
0.457893 0.347387 0.202045
0.559304 0.35378 0.208377
0.658305 0.360845 0.215396
0.754726 0.368597 0.223133
0.833555 0.380774 0.235676
0.0364843 0.44802 0.214038
0.161654 0.447654 0.213596
0.272816 0.451408 0.217258
0.37966 0.456336 0.222095
0.48333 0.461814 0.227481
0.584741 0.468223 0.233814
0.683742 0.475273 0.240833
0.780056 0.482933 0.248463
0.858976 0.495201 0.261112
0.0617685 0.562341 0.239338
0.187076 0.562081 0.239017
0.298238 0.56585 0.242679
0.405066 0.570748 0.247501
0.508751 0.576257 0.252903
0.610162 0.58265 0.259236
0.709163 0.589715 0.266255
0.805341 0.597223 0.273716
0.884413 0.609644 0.286534
0.0870375 0.676646 0.264637
0.212512 0.676524 0.264439
0.323674 0.680278 0.268116
0.43035 0.685054 0.272786
0.534173 0.690684 0.278325
0.635584 0.697093 0.284657
0.734508 0.704082 0.2916
0.830762 0.71165 0.299153
0.909834 0.724086 0.311971
0.112474 0.791089 0.290059
0.237934 0.790951 0.28986
0.349096 0.79472 0.293538
0.45568 0.799405 0.298116
0.559594 0.805127 0.303746
0.661006 0.811536 0.310094
0.759808 0.818372 0.316884
0.856184 0.826093 0.324575
0.935256 0.838514 0.337392
0.138231 0.905394 0.31574
0.263661 0.905287 0.315557
0.374807 0.909041 0.319234
0.481376 0.913725 0.323812
0.58529 0.919448 0.329458
0.686702 0.925856 0.33579
0.785443 0.932677 0.34255
0.881865 0.940429 0.350286
0.960937 0.95285 0.363104
0 0 0.210742
0.062562 0 0.210498
0.17351 0 0.213962
0.280369 0.00138857 0.218799
0.384298 0.0071107 0.22443
0.485451 0.0132601 0.230503
0.584451 0.020325 0.237507
0.680888 0.0280766 0.245258
0.759777 0.0403296 0.257877
0 0.107378 0.236423
0.0881208 0.107073 0.236042
0.199222 0.11078 0.239643
0.306065 0.115709 0.244495
0.409888 0.12134 0.250034
0.511131 0.127581 0.256199
0.610132 0.134646 0.263218
0.706554 0.142397 0.270954
0.785382 0.154574 0.283497
0 0.221805 0.261845
0.113481 0.221454 0.261402
0.224643 0.225208 0.26508
0.331487 0.230137 0.269917
0.435172 0.23563 0.275319
0.536568 0.242023 0.281636
0.635554 0.249073 0.28864
0.731838 0.256687 0.296239
0.810803 0.269017 0.308934
0.0135653 0.33611 0.287114
0.138903 0.335882 0.286824
0.250065 0.339651 0.290501
0.356909 0.344579 0.295338
0.460578 0.350057 0.300725
0.56199 0.356466 0.307057
0.660975 0.363516 0.314061
0.757153 0.371023 0.321538
0.836225 0.383444 0.334356
0.03888 0.450446 0.312444
0.164324 0.450324 0.312261
0.275502 0.454078 0.315923
0.382345 0.459007 0.320775
0.486 0.464485 0.326146
0.587411 0.470893 0.332479
0.686412 0.477943 0.339498
0.782589 0.485451 0.346975
0.861662 0.497887 0.359777
0.0643015 0.564874 0.337881
0.189761 0.564752 0.337682
0.300923 0.568521 0.34136
0.407507 0.573205 0.345937
0.511421 0.578927 0.351568
0.612833 0.585336 0.357916
0.711833 0.592386 0.36492
0.808011 0.599893 0.372396
0.887083 0.612314 0.385214
0.0897383 0.679316 0.363302
0.215183 0.679194 0.363104
0.326345 0.682948 0.366781
0.432929 0.687633 0.371359
0.536843 0.693355 0.377005
0.638254 0.699763 0.383337
0.737118 0.706691 0.390204
0.833432 0.714321 0.397818
0.912505 0.726757 0.410636
0.11516 0.793744 0.388724
0.24062 0.793622 0.38854
0.35172 0.79733 0.392142
0.458351 0.802075 0.39678
0.56228 0.807797 0.402426
0.663691 0.814206 0.408759
0.762432 0.821012 0.415503
0.858854 0.828763 0.423239
0.937926 0.841184 0.436057
0.140932 0.908064 0.414405
0.266346 0.907958 0.414221
0.377279 0.911528 0.4177
0.484047 0.916396 0.422492
0.587961 0.922133 0.428122
0.689265 0.928435 0.434363
0.788113 0.935347 0.441215
0.884535 0.943099 0.448951
0.963607 0.95552 0.461769
0 0 0.309392
0.0650187 0 0.308934
0.176196 0 0.312596
0.283055 0.0040589 0.317449
0.386954 0.00976577 0.323064
0.488121 0.0159457 0.329152
0.587121 0.0229953 0.336156
0.683558 0.0307469 0.343908
0.762387 0.0429236 0.356451
0 0.110048 0.335073
0.0907301 0.109682 0.334615
0.201892 0.113451 0.338293
0.308736 0.118379 0.34313
0.41239 0.123857 0.348516
0.513817 0.130266 0.354849
0.612802 0.137316 0.361868
0.709163 0.145006 0.369543
0.788052 0.157244 0.382147
0 0.224414 0.360418
0.116167 0.224125 0.360052
0.227329 0.227878 0.363729
0.334173 0.232807 0.368566
0.437827 0.238285 0.373938
0.539239 0.244694 0.380285
0.638224 0.251759 0.387289
0.734462 0.259312 0.394827
0.813474 0.271687 0.407584
0.0161898 0.33872 0.385702
0.141588 0.338552 0.385473
0.25275 0.342321 0.389151
0.359472 0.347127 0.393866
0.463249 0.352728 0.399374
0.56466 0.359136 0.405707
0.663645 0.366186 0.412711
0.759823 0.373693 0.420188
0.838895 0.386114 0.433005
0.0415808 0.453117 0.411093
0.167025 0.452995 0.410895
0.278172 0.456748 0.414572
0.384756 0.461433 0.41915
0.48867 0.467155 0.424796
0.590082 0.473564 0.431128
0.688914 0.480461 0.437964
0.78526 0.488121 0.445624
0.864317 0.500557 0.458427
0.0670024 0.567544 0.436515
0.192447 0.567422 0.436316
0.303609 0.571191 0.439994
0.410178 0.575875 0.444587
0.514107 0.581598 0.450217
0.615518 0.588006 0.45655
0.71426 0.594812 0.463294
0.810681 0.602564 0.471046
0.889754 0.615 0.483864
0.0924392 0.681987 0.461936
0.217868 0.681865 0.461753
0.32903 0.685618 0.465431
0.435615 0.690318 0.470008
0.539528 0.69604 0.475654
0.64094 0.702434 0.481987
0.739681 0.709239 0.488731
0.836103 0.717006 0.496468
0.915175 0.729427 0.509285
0.117861 0.796414 0.487358
0.243305 0.796292 0.487175
0.354192 0.799817 0.490593
0.461036 0.804746 0.49543
0.56495 0.810468 0.501076
0.666331 0.816846 0.507378
0.765103 0.823682 0.514153
0.861524 0.831434 0.521889
0.940597 0.84387 0.534707
0.143633 0.910735 0.513054
0.269032 0.910628 0.512871
0.379889 0.914137 0.516289
0.486732 0.919081 0.521141
0.590646 0.924804 0.526772
0.691875 0.931044 0.532937
0.790784 0.938018 0.539864
0.887205 0.945769 0.547601
0.966201 0.958129 0.560342
0 0 0.408057
0.0677043 0 0.407599
0.178882 0.00180056 0.411276
0.285725 0.00672923 0.416114
0.389395 0.0122072 0.4215
0.490806 0.018616 0.427832
0.589807 0.0256657 0.434836
0.685985 0.0331884 0.442329
0.765057 0.045594 0.455116
0 0.112474 0.433478
0.0934157 0.112352 0.433295
0.204578 0.116121 0.436973
0.311406 0.12105 0.44181
0.415076 0.126528 0.447196
0.516472 0.132937 0.453529
0.615473 0.139986 0.460533
0.71165 0.147494 0.468009
0.790722 0.159915 0.480827
0 0.226902 0.458915
0.118853 0.226795 0.458717
0.229999 0.230549 0.462394
0.336797 0.235431 0.467185
0.440497 0.24097 0.472618
0.541909 0.247364 0.47895
0.640909 0.254429 0.485969
0.737072 0.261936 0.493446
0.816144 0.274357 0.506249
0.0188449 0.341344 0.484337
0.144274 0.341222 0.484138
0.255436 0.344991 0.487816
0.362005 0.349676 0.492393
0.465919 0.355398 0.498039
0.56733 0.361807 0.504387
0.666239 0.368765 0.511284
0.762509 0.376364 0.518868
0.841566 0.388785 0.53167
0.0442664 0.455787 0.509758
0.169696 0.455665 0.509575
0.280842 0.459403 0.513237
0.387427 0.464103 0.51783
0.491356 0.469841 0.523476
0.592767 0.476249 0.529809
0.691524 0.48307 0.536568
0.78793 0.490806 0.544289
0.867002 0.503227 0.557107
0.0697032 0.570214 0.53518
0.195132 0.570092 0.534997
0.306127 0.573709 0.538506
0.412863 0.578546 0.543252
0.516777 0.584268 0.548898
0.618189 0.590677 0.55523
0.71693 0.597482 0.561975
0.813352 0.605234 0.569711
0.892424 0.61767 0.582528
0.0951247 0.684657 0.560616
0.220554 0.684535 0.560418
0.331441 0.688045 0.563836
0.438285 0.692973 0.568673
0.542199 0.698711 0.574319
0.643412 0.704921 0.580453
0.742351 0.711925 0.587396
0.838773 0.719676 0.595148
0.917845 0.732097 0.60795
0.120562 0.799084 0.586038
0.245975 0.798962 0.58584
0.356863 0.802487 0.589258
0.463706 0.807416 0.59411
0.56762 0.813138 0.599741
0.668788 0.819303 0.605814
0.767773 0.826352 0.612833
0.864195 0.834104 0.620569
0.943267 0.84654 0.633387
0.146319 0.913405 0.611719
0.271702 0.913283 0.611536
0.382574 0.916808 0.614969
0.489403 0.921752 0.619806
0.593317 0.927474 0.625452
0.694469 0.933639 0.631525
0.793454 0.940688 0.638529
0.889876 0.94844 0.646281
0.968704 0.960616 0.658824
0 0.000900282 0.506645
0.0703746 0.000717174 0.506371
0.181552 0.00447089 0.510048
0.288304 0.009308 0.514794
0.39205 0.0148775 0.520272
0.493462 0.0212711 0.526604
0.592462 0.028336 0.533608
0.68864 0.0358282 0.541085
0.767712 0.0482643 0.553903
0 0.115129 0.53225
0.0960861 0.115023 0.532067
0.207248 0.118776 0.535744
0.313848 0.123491 0.540352
0.417746 0.129198 0.545968
0.519142 0.135592 0.5523
0.618143 0.142657 0.559319
0.714321 0.150164 0.566781
0.793378 0.162585 0.579599
0 0.229572 0.557671
0.121523 0.22945 0.557488
0.23267 0.233219 0.561166
0.339254 0.237903 0.565744
0.443168 0.243626 0.571389
0.544579 0.250034 0.577722
0.64332 0.25684 0.584466
0.739742 0.264591 0.592218
0.818814 0.277028 0.60502
0.0215152 0.343999 0.583093
0.146944 0.343893 0.58291
0.258106 0.347662 0.586587
0.364675 0.352331 0.591165
0.468589 0.358068 0.596811
0.570001 0.364462 0.603143
0.668742 0.371283 0.609903
0.765164 0.379034 0.617639
0.844236 0.391455 0.630457
0.046952 0.458442 0.60853
0.172381 0.45832 0.608347
0.283452 0.462013 0.611948
0.390097 0.466773 0.616602
0.494011 0.472496 0.622248
0.595422 0.478904 0.62858
0.694163 0.48571 0.635325
0.790585 0.493462 0.643076
0.869657 0.505898 0.655879
0.0723735 0.572869 0.633951
0.197803 0.572763 0.633768
0.30869 0.576272 0.637186
0.415534 0.581216 0.642023
0.519448 0.586938 0.647669
0.620722 0.593225 0.65388
0.719585 0.600153 0.660746
0.816022 0.607904 0.668498
0.895048 0.620295 0.68127
0.0978103 0.687312 0.659373
0.223178 0.687144 0.659144
0.334112 0.690715 0.662608
0.440955 0.695644 0.667445
0.544869 0.701366 0.673091
0.646021 0.70753 0.679164
0.745022 0.71458 0.686183
0.841443 0.722347 0.693919
0.920348 0.7346 0.706554
0.123247 0.80174 0.68481
0.248447 0.80145 0.684428
0.359533 0.805142 0.688029
0.466377 0.810086 0.692882
0.570291 0.815808 0.698528
0.671443 0.821973 0.704601
0.770443 0.829023 0.711604
0.866865 0.836774 0.719341
0.945678 0.848951 0.731884
0.149004 0.91606 0.710491
0.274098 0.915709 0.710048
0.385245 0.919478 0.713741
0.492073 0.924407 0.718578
0.595743 0.929915 0.72398
0.697139 0.936294 0.730297
0.796124 0.943358 0.737316
0.892546 0.95111 0.745052
0.971359 0.963287 0.757595
0 0.00349432 0.605493
0.0730449 0.00335698 0.605295
0.184207 0.00712596 0.608972
0.290898 0.011902 0.613657
0.39472 0.0175326 0.619196
0.496117 0.0239261 0.625528
0.595071 0.03093 0.632486
0.691295 0.0384985 0.640009
0.770367 0.0509194 0.652827
0 0.117784 0.631174
0.0987564 0.117678 0.630991
0.209903 0.121431 0.634668
0.316487 0.126116 0.639246
0.420401 0.131853 0.644892
0.521798 0.138247 0.651225
0.6206 0.145129 0.65803
0.71696 0.152819 0.665705
0.796033 0.16524 0.678523
0 0.232227 0.656596
0.124193 0.232105 0.656413
0.235218 0.235752 0.659983
0.341909 0.240558 0.664683
0.445823 0.246281 0.670314
0.547234 0.252689 0.676661
0.645975 0.259495 0.683406
0.742397 0.267247 0.691142
0.821469 0.279683 0.70396
0.0241855 0.346654 0.682017
0.149615 0.346548 0.681834
0.260502 0.350057 0.685252
0.36733 0.354986 0.690105
0.471244 0.360723 0.69575
0.572656 0.367117 0.702083
0.671397 0.373938 0.708827
0.767819 0.381689 0.716564
0.846891 0.39411 0.729381
0.0496223 0.461082 0.707454
0.175036 0.460975 0.707271
0.285924 0.4645 0.710689
0.392767 0.469429 0.715526
0.496681 0.475151 0.721172
0.597833 0.481315 0.727245
0.696818 0.488365 0.734249
0.79324 0.496117 0.742
0.872312 0.508553 0.754803
0.0750439 0.575525 0.732876
0.200473 0.575418 0.732692
0.311345 0.578927 0.73611
0.418189 0.583871 0.740948
0.522103 0.589593 0.746593
0.623255 0.595743 0.752667
0.72224 0.602808 0.759686
0.818677 0.610559 0.767422
0.897642 0.622889 0.780133
0.100481 0.689952 0.758297
0.225772 0.689738 0.758007
0.336782 0.69337 0.761532
0.44361 0.698299 0.766384
0.547509 0.704005 0.772
0.648676 0.710185 0.778088
0.747677 0.717235 0.785107
0.844099 0.725002 0.792844
0.922911 0.737163 0.805386
0.125917 0.804395 0.783719
0.251041 0.804044 0.783291
0.362203 0.807797 0.786969
0.469032 0.812741 0.791806
0.572793 0.818311 0.797284
0.674098 0.824613 0.80351
0.773098 0.831678 0.810529
0.869459 0.839368 0.818204
0.948333 0.851606 0.830823
0.151583 0.918639 0.809323
0.276768 0.918364 0.808988
0.3879 0.922133 0.812665
0.494728 0.927062 0.817502
0.598383 0.93254 0.822889
0.699779 0.938949 0.829221
0.798779 0.946014 0.83624
0.895003 0.953567 0.843763
0.974014 0.965942 0.856519
0 0.00611887 0.704646
0.0756847 0.0059968 0.704448
0.186847 0.00975052 0.708125
0.293431 0.0144503 0.712703
0.397345 0.0201724 0.718334
0.498756 0.026566 0.724681
0.597513 0.0333867 0.731426
0.693935 0.0411383 0.739162
0.773007 0.0535592 0.75198
0 0.120424 0.730327
0.101396 0.120302 0.730144
0.212512 0.124041 0.733776
0.319127 0.128756 0.738399
0.423041 0.134493 0.744045
0.524437 0.140887 0.750378
0.623178 0.147707 0.757122
0.7196 0.155459 0.764858
0.798672 0.16788 0.777676
0.00141909 0.234852 0.755749
0.126833 0.234745 0.755566
0.237797 0.238331 0.75906
0.344549 0.243198 0.763821
0.448463 0.24892 0.769467
0.549783 0.255238 0.775708
0.648615 0.262135 0.782559
0.745037 0.269886 0.790295
0.824109 0.282322 0.803113
0.0268406 0.349294 0.78117
0.152255 0.349187 0.780987
0.263127 0.352697 0.784405
0.36997 0.357626 0.789242
0.473884 0.363363 0.794888
0.575067 0.369543 0.800992
0.674037 0.376577 0.80798
0.770459 0.384329 0.815717
0.849393 0.396628 0.828397
0.0522774 0.463722 0.806592
0.177523 0.463478 0.806271
0.288563 0.467124 0.809827
0.395407 0.472068 0.814679
0.499321 0.477791 0.820325
0.600473 0.483955 0.826383
0.699458 0.491005 0.833402
0.79588 0.498756 0.841138
0.874708 0.510933 0.853697
0.0776989 0.578164 0.832013
0.202838 0.577813 0.831586
0.313985 0.581567 0.835264
0.420829 0.586496 0.840101
0.524742 0.592233 0.845747
0.625895 0.598383 0.85182
0.72488 0.605447 0.858824
0.821302 0.613199 0.866575
0.90013 0.625376 0.879118
0.103136 0.692592 0.85745
0.22826 0.692241 0.857008
0.339422 0.69601 0.860685
0.44625 0.700938 0.865522
0.549905 0.706416 0.870909
0.651316 0.712825 0.877241
0.750317 0.719875 0.88426
0.846723 0.727626 0.891997
0.925551 0.739803 0.90454
0.128557 0.807034 0.882872
0.253697 0.806683 0.882429
0.364843 0.810437 0.886107
0.471672 0.815381 0.890959
0.575341 0.820859 0.89633
0.676738 0.827253 0.902663
0.775738 0.834318 0.909682
0.872038 0.841947 0.917296
0.950973 0.854246 0.929961
0.154162 0.921218 0.908415
0.279408 0.921004 0.908125
0.390555 0.924773 0.911818
0.497322 0.929656 0.916609
0.601022 0.93518 0.922042
0.702419 0.941588 0.928374
0.801419 0.948653 0.935393
0.897581 0.956161 0.94287
0.976654 0.968582 0.955673
0 0.00859083 0.806302
0.0781262 0.00846876 0.806104
0.189075 0.0120089 0.809552
0.295888 0.016907 0.814359
0.399802 0.0226291 0.819989
0.501228 0.0290379 0.826337
0.59997 0.0358434 0.833066
0.696391 0.043595 0.840818
0.775464 0.0560159 0.853635
0 0.122896 0.831983
0.103838 0.122774 0.8318
0.214725 0.126284 0.835203
0.321569 0.131228 0.840055
0.425483 0.13695 0.845685
0.526894 0.143343 0.852018
0.62565 0.150164 0.858778
0.722072 0.157916 0.866514
0.801144 0.170336 0.879332
0.00383001 0.237324 0.857404
0.129274 0.237217 0.857221
0.240162 0.240726 0.860639
0.347005 0.245655 0.865476
0.450919 0.251377 0.871122
0.552071 0.257542 0.877195
0.651072 0.264591 0.884199
0.747494 0.272343 0.891936
0.826505 0.284718 0.904692
0.0292668 0.351766 0.882841
0.15462 0.351583 0.882582
0.265583 0.355154 0.886061
0.372427 0.360098 0.890898
0.476341 0.36582 0.896544
0.577493 0.371969 0.902617
0.676493 0.379034 0.909636
0.772915 0.386786 0.917372
0.851804 0.399023 0.929976
0.0546883 0.466194 0.908263
0.179904 0.465888 0.907866
0.291005 0.469596 0.911482
0.397848 0.474525 0.916335
0.501656 0.48014 0.921859
0.60293 0.486412 0.928038
0.701915 0.493477 0.935058
0.798337 0.501213 0.942794
0.877165 0.513405 0.955337
0.0801251 0.580636 0.933684
0.20528 0.58027 0.933242
0.316442 0.584039 0.936919
0.423285 0.588968 0.941756
0.52694 0.594446 0.947127
0.628351 0.600839 0.953475
0.727352 0.607904 0.960479
0.823606 0.615488 0.968048
0.902586 0.627832 0.980774
0.105333 0.694896 0.958938
0.230701 0.694713 0.958663
0.341863 0.698466 0.962341
0.448707 0.703395 0.967178
0.552361 0.708873 0.972564
0.653773 0.715282 0.978897
0.752773 0.722347 0.985916
0.848951 0.729839 0.993378
0.928023 0.742275 1
0.130678 0.809262 0.984283
0.256123 0.80914 0.9841
0.367285 0.812909 0.987762
0.474128 0.817838 0.992615
0.577798 0.823316 0.997986
0.679194 0.829725 1
0.778195 0.836774 1
0.874372 0.844282 1
0.953445 0.856703 1
0.156435 0.923583 1
0.281849 0.923461 1
0.392996 0.92723 1
0.499565 0.931914 1
0.603479 0.937652 1
0.70489 0.944045 1
0.803861 0.951095 1
0.900053 0.958618 1
0.978622 0.970535 1
