assets/cube/subtle_blue.cube
TITLE "Generated by Resolve"
LUT_3D_SIZE 33
0 0 0.0141909
0 0 0.012665
0 0 0.0124208
0.0282444 0 0.0129702
0.0572213 0 0.013489
0.0855879 0 0.0141604
0.113436 0 0.0149844
0.140932 0 0.0158999
0.168154 0 0.016907
0.195346 0 0.0182193
0.22208 0 0.0193484
0.248585 0 0.0205234
0.274998 0 0.0217288
0.301228 0 0.0229953
0.32726 0 0.0243839
0.353277 0.00030518 0.0259556
0.378927 0.00173953 0.0273594
0.404425 0.00323491 0.0288243
0.42977 0.00476081 0.0303349
0.454963 0.00631724 0.0318761
0.480339 0.00814832 0.0337072
0.505318 0.00978103 0.0353094
0.530053 0.0114595 0.0369726
0.55465 0.0131838 0.0386969
0.579095 0.0149538 0.0404517
0.603494 0.0168765 0.042359
0.627771 0.0188602 0.044358
0.651759 0.0207675 0.0462348
0.675517 0.0227054 0.048188
0.69807 0.024979 0.0504921
0.717998 0.0279698 0.0535592
0.736629 0.0314946 0.0572213
0.754589 0.0351415 0.0609903
0 0.0161288 0.0202487
0 0.0151217 0.0192264
0.00505074 0.0151522 0.0192569
0.0348516 0.0154574 0.0195468
0.0638132 0.0160067 0.0200656
0.092195 0.0167086 0.020737
0.120027 0.0175479 0.021561
0.147784 0.0187381 0.0227359
0.17499 0.0197604 0.0237278
0.201938 0.0208591 0.0247959
0.228656 0.0220035 0.0259251
0.255161 0.023209 0.0271
0.281575 0.024445 0.0283055
0.308049 0.0259861 0.0298314
0.334035 0.0273289 0.0311589
0.359838 0.0287327 0.0325322
0.385489 0.0301671 0.0339513
0.410986 0.0316472 0.0354009
0.436377 0.0332189 0.0369573
0.461784 0.0349889 0.0387274
0.4869 0.0365759 0.0402838
0.511879 0.0382086 0.041886
0.536614 0.0398871 0.0435645
0.561212 0.0416114 0.0452735
0.585748 0.043473 0.0471199
0.610193 0.0454414 0.0490883
0.634333 0.0472877 0.0509346
0.65832 0.0491798 0.0528267
0.682078 0.051133 0.0547646
0.704631 0.0534066 0.0570687
0.724681 0.0565347 0.0602884
0.743282 0.0600137 0.0639048
0.761151 0.0635538 0.0675822
0 0.0448463 0.0267491
0 0.0438849 0.0257877
0.0113527 0.0436866 0.0255589
0.0411536 0.044007 0.0258488
0.0701305 0.0445411 0.0263676
0.098497 0.0452583 0.0270542
0.126589 0.0463264 0.0281071
0.154101 0.0472877 0.0290379
0.181292 0.0482948 0.0300298
0.20824 0.0493935 0.0310979
0.234958 0.0505379 0.0322271
0.261479 0.0517433 0.033402
0.288136 0.0532387 0.0348821
0.314366 0.0545205 0.0361486
0.340337 0.0558785 0.0374609
0.366155 0.0572671 0.0388342
0.391806 0.0587167 0.0402533
0.417319 0.0602121 0.0417334
0.442908 0.0619669 0.0434882
0.468101 0.0635386 0.0450294
0.493217 0.0651102 0.0465858
0.518181 0.066743 0.0482032
0.542931 0.0684215 0.0498665
0.567773 0.0704051 0.0518502
0.592218 0.0721752 0.0536049
0.616495 0.0739757 0.0554055
0.640635 0.0758373 0.0572366
0.664622 0.0777295 0.0591287
0.688457 0.0797284 0.0611429
0.711192 0.0822003 0.0636454
0.731106 0.0851911 0.0667277
0.749599 0.0885634 0.0702068
0.767468 0.0921035 0.0738842
0 0.0734569 0.0331273
0 0.0724346 0.0320897
0.0176699 0.0722362 0.0318761
0.0474556 0.0725414 0.032166
0.0764324 0.0730907 0.0326696
0.105074 0.0740368 0.0336156
0.132906 0.074876 0.0344396
0.160403 0.0758221 0.0353552
0.187594 0.0768444 0.036347
0.214542 0.0779278 0.0374151
0.241489 0.0792859 0.0387579
0.26804 0.0805371 0.0399786
0.294453 0.0817731 0.0411841
0.320668 0.0830549 0.0424506
0.346639 0.0844129 0.0437781
0.372457 0.0858167 0.0451514
0.398367 0.0874952 0.0468299
0.423865 0.0889754 0.0482948
0.44921 0.0905013 0.0497902
0.474403 0.0920729 0.0513313
0.499519 0.0936599 0.052903
0.524498 0.0952773 0.0545052
0.549493 0.0972152 0.0564431
0.574075 0.0989395 0.0581521
0.59852 0.10071 0.0599069
0.622812 0.102525 0.0617075
0.646952 0.104372 0.0635538
0.670985 0.10631 0.0654765
0.694942 0.108461 0.0676432
0.71751 0.110735 0.0699474
0.737423 0.113725 0.0730297
0.755901 0.117098 0.076524
0.77377 0.120638 0.0802014
0 0.102022 0.0393683
0 0.101015 0.0383307
0.0238804 0.100801 0.038117
0.0538338 0.101259 0.0385443
0.0829328 0.1019 0.0391699
0.111299 0.102602 0.0398566
0.139147 0.103456 0.0406653
0.166644 0.104387 0.0415961
0.193835 0.105409 0.0425879
0.220981 0.106691 0.0438392
0.247761 0.107897 0.0450294
0.274281 0.109102 0.0462196
0.300694 0.110338 0.047425
0.326909 0.111635 0.0486915
0.35288 0.112978 0.0500038
0.378927 0.114611 0.0516213
0.404608 0.116075 0.0530709
0.430106 0.117556 0.0545205
0.455451 0.119066 0.0560311
0.480644 0.120638 0.0575723
0.50576 0.122225 0.0591287
0.530983 0.124102 0.0610056
0.555734 0.12578 0.0626841
0.580316 0.127504 0.0643931
0.604761 0.129274 0.0661479
0.629053 0.13109 0.0679484
0.653437 0.133181 0.0700542
0.677424 0.135088 0.071931
0.701198 0.137026 0.0738842
0.723751 0.139315 0.0761883
0.743664 0.14229 0.0792706
0.762173 0.145678 0.0827649
0.78027 0.149462 0.0867018
0 0.130602 0.0456092
0 0.12958 0.0445869
0.0302434 0.129488 0.04448
0.0601968 0.129931 0.0449073
0.0891737 0.130465 0.0454108
0.11754 0.131167 0.0460975
0.145388 0.132021 0.0469215
0.172885 0.132952 0.047837
0.200351 0.134234 0.0490883
0.227283 0.135317 0.0501564
0.254017 0.136461 0.0512703
0.280522 0.137667 0.0524605
0.306935 0.138903 0.053666
0.333318 0.140352 0.0551003
0.35938 0.141802 0.0565194
0.385199 0.143191 0.0578927
0.410849 0.14464 0.0593118
0.436347 0.14612 0.0607614
0.461692 0.147631 0.0622721
0.487098 0.149401 0.0640269
0.512261 0.151034 0.0656443
0.53724 0.152667 0.0672465
0.561975 0.154345 0.068925
0.586572 0.156069 0.070634
0.611017 0.157839 0.0723888
0.635554 0.159899 0.0744488
0.659693 0.161746 0.0762951
0.68368 0.163653 0.078172
0.707439 0.165591 0.0801251
0.729992 0.167865 0.0824292
0.749905 0.170855 0.0854963
0.768643 0.174487 0.0892653
0.786511 0.178027 0.0929427
0 0.159182 0.0519722
0.0049897 0.158358 0.0511482
0.0367132 0.15816 0.0509194
0.0664988 0.158465 0.0512093
0.0954757 0.159014 0.0517281
0.123842 0.159716 0.0523995
0.151797 0.160647 0.053315
0.179446 0.161746 0.0543984
0.206653 0.162768 0.0553902
0.2336 0.163851 0.0564584
0.260319 0.165011 0.0575875
0.286824 0.166217 0.0587625
0.31339 0.16759 0.0601205
0.339727 0.168978 0.0614939
0.365698 0.170336 0.0628214
0.391516 0.17174 0.0641947
0.417166 0.173175 0.0656138
0.442664 0.174655 0.0670634
0.468193 0.176364 0.0687724
0.493462 0.177996 0.0703899
0.518578 0.179583 0.0719463
0.543542 0.181201 0.0735485
0.568292 0.182895 0.075227
0.592874 0.184619 0.076936
0.617578 0.186633 0.0789654
0.641855 0.188434 0.0807507
0.665995 0.190295 0.0825971
0.689982 0.192187 0.0844892
0.713756 0.194141 0.0864271
0.736522 0.196643 0.0889754
0.756466 0.199649 0.0920729
0.77496 0.203021 0.0955673
0.792828 0.206561 0.0992447
0 0.187915 0.0584878
0.0112917 0.186908 0.0574502
0.0430152 0.186694 0.0572366
0.0728008 0.187015 0.0575265
0.101778 0.187549 0.0580301
0.130236 0.188327 0.058793
0.158267 0.189349 0.0597848
0.185763 0.19028 0.0607156
0.212955 0.191302 0.0617075
0.239902 0.192401 0.0627604
0.266621 0.193545 0.0638895
0.2934 0.194995 0.0653391
0.319814 0.196231 0.0665446
0.346029 0.197528 0.0678111
0.372 0.198871 0.0691234
0.397818 0.200275 0.0704967
0.42359 0.201831 0.0720378
0.449226 0.203449 0.07364
0.474571 0.204974 0.0751507
0.499763 0.206531 0.0766918
0.52488 0.208118 0.0782483
0.549859 0.209751 0.0798657
0.574762 0.211597 0.0816968
0.599435 0.213413 0.0835126
0.62388 0.215167 0.0852674
0.648173 0.216983 0.087068
0.672312 0.21883 0.0888991
0.6963 0.220722 0.0907912
0.720256 0.222873 0.092958
0.74287 0.225208 0.0953078
0.762783 0.228199 0.0983902
0.781262 0.231556 0.101869
0.79913 0.235096 0.105547
0 0.216464 0.0647898
0.0175937 0.215442 0.0637675
0.0493172 0.215244 0.0635386
0.079118 0.215549 0.0638285
0.10837 0.216342 0.0646067
0.136736 0.217044 0.0652781
0.164569 0.217884 0.0661021
0.192065 0.21883 0.0670176
0.219272 0.219852 0.0680095
0.246265 0.220981 0.0691234
0.273198 0.222339 0.0704662
0.299702 0.223545 0.0716411
0.326116 0.224781 0.0728466
0.352346 0.226062 0.0741131
0.378317 0.22742 0.0754406
0.404227 0.228901 0.0769055
0.430045 0.230503 0.0784924
0.455528 0.231983 0.0799573
0.480873 0.233509 0.0814527
0.506081 0.23508 0.0829938
0.531197 0.236652 0.0845655
0.556298 0.238422 0.0863203
0.581155 0.240223 0.0881056
0.605753 0.241947 0.0898146
0.630198 0.243717 0.0915694
0.65449 0.245518 0.09337
0.67863 0.247379 0.0952163
0.702861 0.249516 0.0973678
0.726619 0.251469 0.0993057
0.749172 0.253742 0.10161
0.769085 0.256733 0.104692
0.787579 0.260105 0.108186
0.805615 0.263828 0.112047
0 0.244999 0.071107
0.0238956 0.243992 0.0700694
0.0556191 0.243778 0.0698405
0.0856947 0.244327 0.0703899
0.114672 0.244877 0.0709087
0.143038 0.245579 0.0715953
0.170886 0.246418 0.0724041
0.198383 0.247364 0.0733196
0.225605 0.248417 0.0743572
0.252781 0.249729 0.075639
0.2795 0.250874 0.0767681
0.30602 0.252079 0.0779431
0.332418 0.253315 0.0791638
0.358648 0.254612 0.080415
0.384878 0.256199 0.0820172
0.410697 0.257603 0.0833906
0.436347 0.259037 0.0848096
0.461845 0.260517 0.0862593
0.48719 0.262043 0.0877699
0.512459 0.263676 0.0893873
0.537758 0.265446 0.0911421
0.562722 0.267079 0.0927443
0.587472 0.268757 0.0944228
0.612055 0.270481 0.0961318
0.6365 0.272251 0.0978866
0.660914 0.274174 0.099794
0.685176 0.276158 0.101793
0.709163 0.27805 0.10367
0.732921 0.280003 0.105623
0.755489 0.282277 0.107927
0.775402 0.285267 0.110994
0.794049 0.288808 0.114656
0.811994 0.292439 0.118441
0 0.273548 0.077409
0.0304723 0.272725 0.0766003
0.062211 0.272557 0.0764172
0.0920119 0.272877 0.0767071
0.120974 0.273411 0.0772259
0.149355 0.274128 0.0778973
0.177188 0.274968 0.0787213
0.204944 0.276158 0.0798962
0.232151 0.27718 0.0808881
0.259098 0.278264 0.0819562
0.285817 0.279423 0.0830854
0.312322 0.280613 0.0842603
0.338735 0.281865 0.0854658
0.365209 0.283391 0.0869917
0.391196 0.284749 0.0883192
0.416999 0.286137 0.0896925
0.442649 0.287587 0.0911116
0.468147 0.289067 0.0925612
0.493553 0.290639 0.0941176
0.518944 0.292409 0.0958877
0.54406 0.29398 0.0974441
0.569039 0.295613 0.0990463
0.593774 0.297307 0.100725
0.618372 0.299031 0.102434
0.642908 0.300893 0.10428
0.667353 0.302861 0.106249
0.691493 0.304707 0.108095
0.71548 0.3066 0.109987
0.739239 0.308537 0.111925
0.761791 0.310826 0.114229
0.781949 0.314061 0.117571
0.800443 0.317433 0.121065
0.818311 0.320974 0.124743
0.00204471 0.302266 0.0839094
0.03682 0.301305 0.082948
0.0685283 0.301106 0.0827192
0.0983139 0.301411 0.0830091
0.127291 0.301961 0.0835279
0.155657 0.302663 0.0842145
0.183749 0.303731 0.0852674
0.211261 0.304692 0.0861982
0.238453 0.305715 0.0872053
0.2654 0.306798 0.0882582
0.292119 0.307958 0.0893873
0.318639 0.309163 0.0905623
0.345296 0.310643 0.0920424
0.371527 0.31194 0.0932937
0.397498 0.313283 0.0946212
0.423316 0.314687 0.0959945
0.448966 0.316121 0.0974136
0.474708 0.317861 0.0991379
0.500069 0.319371 0.100649
0.525261 0.320943 0.10219
0.550378 0.32253 0.103746
0.575341 0.324147 0.105364
0.600107 0.325856 0.107057
0.624933 0.32781 0.10901
0.649378 0.32958 0.110765
0.673671 0.331395 0.112566
0.697795 0.333242 0.114397
0.721782 0.335134 0.116289
0.745617 0.337148 0.118303
0.768353 0.33962 0.120806
0.788266 0.342611 0.123888
0.80676 0.345968 0.127367
0.824628 0.349508 0.131044
0.00833143 0.330892 0.0902113
0.0430304 0.329885 0.089189
0.0747387 0.329671 0.0889601
0.10454 0.329992 0.08925
0.1337 0.330694 0.0899367
0.162158 0.331472 0.0906996
0.190005 0.332326 0.0915236
0.217487 0.333257 0.0924392
0.244694 0.334279 0.093431
0.271641 0.335378 0.0944991
0.298573 0.336736 0.0958419
0.325139 0.337972 0.0970626
0.351537 0.339208 0.0982834
0.377768 0.340505 0.0995346
0.403738 0.341848 0.100862
0.429557 0.343252 0.102235
0.455467 0.344945 0.103914
0.480949 0.346426 0.105379
0.50631 0.347951 0.106874
0.531502 0.349508 0.108431
0.556619 0.351095 0.109987
0.581582 0.352728 0.111589
0.606577 0.354665 0.113527
0.631174 0.35639 0.115236
0.655619 0.358144 0.116991
0.679911 0.35996 0.118791
0.704051 0.361807 0.120638
0.728084 0.363745 0.122576
0.752041 0.365896 0.124743
0.774594 0.368185 0.127047
0.794507 0.371176 0.130114
0.813001 0.374533 0.133608
0.830869 0.378073 0.137285
0.0145571 0.359472 0.0964675
0.0492409 0.35845 0.0954299
0.0809644 0.358251 0.095201
0.110933 0.358694 0.0956436
0.140032 0.359335 0.0962692
0.168399 0.360052 0.0969406
0.196231 0.360891 0.0977646
0.223728 0.361837 0.0986801
0.250935 0.36286 0.0996719
0.27808 0.364126 0.100938
0.30486 0.365332 0.102129
0.33138 0.366537 0.103304
0.357778 0.367773 0.104509
0.384009 0.36907 0.105776
0.409979 0.370413 0.107103
0.436057 0.372061 0.108736
0.461707 0.37351 0.110155
0.487205 0.37499 0.11162
0.512551 0.376516 0.113115
0.537743 0.378073 0.114656
0.563104 0.379889 0.116472
0.588083 0.381537 0.118105
0.612833 0.38323 0.119768
0.637415 0.384955 0.121477
0.66186 0.386709 0.123232
0.686152 0.388525 0.125032
0.710536 0.390631 0.127138
0.734524 0.392523 0.12903
0.758282 0.394461 0.130968
0.78085 0.39675 0.133272
0.800763 0.399741 0.136355
0.819272 0.403128 0.139864
0.837369 0.406897 0.143786
0.0208591 0.388006 0.10277
0.0555428 0.386999 0.101747
0.0875715 0.38703 0.101778
0.117357 0.387335 0.102068
0.146334 0.387884 0.102571
0.174701 0.388586 0.103258
0.202548 0.389425 0.104067
0.230167 0.390494 0.105119
0.257511 0.391638 0.106249
0.284443 0.392721 0.107317
0.311162 0.393881 0.108431
0.337682 0.395087 0.109621
0.364096 0.396323 0.110826
0.390478 0.397772 0.112261
0.416541 0.399207 0.11368
0.442359 0.40061 0.115053
0.468009 0.402045 0.116472
0.493507 0.403525 0.117922
0.518853 0.405051 0.119432
0.544259 0.406821 0.121187
0.569421 0.408453 0.122805
0.5944 0.410071 0.124407
0.619135 0.411765 0.126085
0.643732 0.413489 0.127794
0.668177 0.415259 0.129549
0.692714 0.417319 0.131609
0.716854 0.419165 0.133455
0.740841 0.421057 0.135332
0.764599 0.423011 0.137285
0.787152 0.425284 0.13959
0.807065 0.428275 0.142657
0.825803 0.431891 0.146426
0.843671 0.435431 0.150103
0.0272221 0.416602 0.109133
0.06215 0.415763 0.108309
0.0938735 0.415564 0.10808
0.123659 0.415885 0.10837
0.152636 0.416419 0.108888
0.181003 0.417121 0.10956
0.208957 0.418067 0.110491
0.236606 0.419165 0.111559
0.263813 0.420172 0.112551
0.290761 0.421271 0.113619
0.317479 0.422415 0.114748
0.343999 0.423621 0.115923
0.37055 0.42501 0.117281
0.396887 0.426398 0.118654
0.422858 0.427741 0.119982
0.448661 0.429145 0.121355
0.474327 0.430579 0.122774
0.499825 0.432059 0.124224
0.525414 0.433845 0.125994
0.550622 0.435401 0.12755
0.575738 0.436988 0.129107
0.600702 0.438621 0.130709
0.625452 0.440299 0.132387
0.650217 0.442206 0.134295
0.674739 0.444053 0.136126
0.699031 0.445853 0.137926
0.723156 0.4477 0.139757
0.747143 0.449592 0.141649
0.770916 0.451545 0.143587
0.793698 0.454047 0.146136
0.813626 0.457069 0.149233
0.83212 0.460441 0.152728
0.849989 0.463981 0.156405
0.0337682 0.445335 0.115648
0.068452 0.444312 0.114611
0.100175 0.444114 0.114382
0.129961 0.444419 0.114672
0.158938 0.444968 0.11519
0.187594 0.445914 0.116136
0.215427 0.446754 0.116945
0.242924 0.4477 0.117876
0.270115 0.448722 0.118868
0.297063 0.449805 0.119921
0.323857 0.451026 0.121126
0.350561 0.452415 0.122499
0.376974 0.453651 0.123705
0.403189 0.454932 0.124971
0.42916 0.456291 0.126284
0.454978 0.457679 0.127657
0.480751 0.459251 0.129213
0.506386 0.460853 0.1308
0.531731 0.462379 0.132311
0.556924 0.463951 0.133852
0.58204 0.465522 0.135409
0.607019 0.467155 0.137026
0.631922 0.469001 0.138872
0.656596 0.470817 0.140673
0.681041 0.472587 0.142428
0.705333 0.474403 0.144228
0.729473 0.476249 0.146059
0.75346 0.478141 0.147951
0.777432 0.480293 0.150118
0.800031 0.482612 0.152468
0.819944 0.485603 0.15555
0.838422 0.488975 0.15903
0.856291 0.492515 0.162707
0.0400702 0.473869 0.12195
0.0747539 0.472862 0.120928
0.106477 0.472648 0.120699
0.136278 0.472969 0.120989
0.16553 0.473747 0.121767
0.193896 0.474449 0.122438
0.221729 0.475303 0.123262
0.249226 0.476234 0.124178
0.276432 0.477256 0.12517
0.303426 0.478401 0.126284
0.330358 0.479744 0.127626
0.356878 0.480949 0.128801
0.383276 0.482185 0.130007
0.409506 0.483482 0.131273
0.435477 0.484825 0.132601
0.461387 0.48632 0.134081
0.48719 0.487922 0.135653
0.512688 0.489403 0.137118
0.538033 0.490913 0.138613
0.563241 0.492485 0.140154
0.588357 0.494072 0.141726
0.613581 0.495949 0.143603
0.638315 0.497627 0.145266
0.662913 0.499352 0.146975
0.687358 0.501122 0.14873
0.71165 0.502937 0.15053
0.735927 0.504921 0.152514
0.760021 0.506935 0.154528
0.78378 0.508873 0.156481
0.806332 0.511162 0.15877
0.826246 0.514138 0.161852
0.844739 0.51751 0.165347
0.862791 0.521233 0.169223
0.0463722 0.502419 0.128267
0.0810559 0.501396 0.12723
0.112779 0.501198 0.127001
0.142855 0.501747 0.12755
0.171832 0.502281 0.128069
0.200198 0.502998 0.128756
0.228046 0.503838 0.129564
0.255543 0.504784 0.13048
0.283009 0.50605 0.131746
0.309941 0.507134 0.132799
0.33666 0.508293 0.133928
0.36318 0.509499 0.135119
0.389578 0.510735 0.136324
0.415839 0.512047 0.137606
0.442039 0.513619 0.139178
0.467857 0.515007 0.140551
0.493507 0.516457 0.14197
0.519005 0.517937 0.14342
0.54435 0.519463 0.14493
0.569619 0.521096 0.146548
0.594919 0.522866 0.148302
0.619883 0.524483 0.149905
0.644633 0.526177 0.151568
0.669215 0.527901 0.153292
0.69366 0.529671 0.155047
0.718074 0.531594 0.15697
0.742336 0.533578 0.158953
0.766323 0.53547 0.16083
0.790097 0.537423 0.162783
0.81265 0.539696 0.165087
0.832563 0.542687 0.168154
0.851209 0.546212 0.171832
0.869154 0.549844 0.175601
0.0526741 0.530953 0.134569
0.0876326 0.530144 0.133761
0.119371 0.529976 0.133577
0.149172 0.530282 0.133867
0.178134 0.530831 0.134386
0.206516 0.531533 0.135058
0.234348 0.532372 0.135882
0.262104 0.533562 0.137057
0.289311 0.534585 0.138048
0.316258 0.535683 0.139116
0.342977 0.536828 0.140246
0.369482 0.538033 0.141421
0.395895 0.539269 0.142641
0.42237 0.54081 0.144152
0.448341 0.542153 0.14548
0.474159 0.543557 0.146853
0.499809 0.544991 0.148272
0.525307 0.546471 0.149722
0.550713 0.548058 0.151278
0.576104 0.549813 0.153048
0.601221 0.5514 0.154604
0.6262 0.553033 0.156207
0.650935 0.554711 0.157885
0.675532 0.556435 0.159594
0.700221 0.55845 0.161624
0.724514 0.560265 0.163409
0.748653 0.562112 0.165255
0.772641 0.564004 0.167147
0.796399 0.565957 0.169085
0.819043 0.568322 0.171496
0.839109 0.571481 0.174731
0.857603 0.574838 0.178225
0.875471 0.578378 0.181903
0.0591287 0.559716 0.141009
0.0938888 0.558755 0.140032
0.125597 0.558541 0.139818
0.155398 0.558862 0.140108
0.184375 0.559396 0.140612
0.212741 0.560098 0.141299
0.240848 0.561196 0.142382
0.268345 0.562127 0.143297
0.295552 0.563149 0.144289
0.322484 0.564248 0.145357
0.349203 0.565393 0.146471
0.375967 0.566842 0.147906
0.402396 0.568078 0.149126
0.428611 0.569375 0.150393
0.454597 0.570733 0.15172
0.4804 0.572122 0.153094
0.50605 0.573556 0.154513
0.531807 0.575296 0.156222
0.557153 0.576822 0.157733
0.582345 0.578378 0.159274
0.607462 0.579965 0.160845
0.632441 0.581598 0.162448
0.657206 0.583307 0.164141
0.682017 0.58526 0.166094
0.706462 0.58703 0.167849
0.730755 0.58883 0.16965
0.754894 0.590677 0.171496
0.778881 0.592569 0.173373
0.802716 0.594598 0.175402
0.825452 0.597055 0.17789
0.845365 0.600046 0.180972
0.863844 0.603403 0.184466
0.881712 0.606958 0.188128
0.0654154 0.588342 0.147311
0.100099 0.58732 0.146288
0.131823 0.587121 0.146059
0.161624 0.587427 0.146349
0.190799 0.588129 0.147036
0.219242 0.588922 0.147799
0.247089 0.589761 0.148623
0.274586 0.590707 0.149538
0.301778 0.59173 0.15053
0.328725 0.592813 0.151583
0.355673 0.594171 0.152941
0.382223 0.595422 0.154162
0.408637 0.596658 0.155367
0.434852 0.59794 0.156634
0.460838 0.599298 0.157961
0.486641 0.600687 0.159335
0.512551 0.60238 0.161013
0.538048 0.603861 0.162463
0.563394 0.605386 0.163973
0.588602 0.606943 0.165515
0.613718 0.60853 0.167071
0.638682 0.610162 0.168688
0.663676 0.6121 0.170626
0.688273 0.613825 0.172335
0.712718 0.615595 0.17409
0.737011 0.617395 0.175891
0.761135 0.619242 0.177722
0.785382 0.621393 0.179889
0.80914 0.623346 0.181827
0.831693 0.62562 0.184131
0.851606 0.628611 0.187213
0.8701 0.631968 0.190692
0.888014 0.635569 0.19443
0.0717174 0.616876 0.153628
0.106401 0.615869 0.15259
0.138125 0.615656 0.152361
0.168093 0.616114 0.152804
0.197192 0.616754 0.153429
0.225559 0.617456 0.154101
0.253391 0.618296 0.154925
0.280888 0.619242 0.15584
0.308095 0.620264 0.156832
0.335302 0.621592 0.15816
0.36202 0.622751 0.159289
0.38854 0.623957 0.160464
0.414939 0.625193 0.161669
0.441169 0.626474 0.162936
0.467338 0.628016 0.164462
0.493217 0.62948 0.165896
0.518868 0.630915 0.167315
0.544366 0.632395 0.16878
0.569711 0.633921 0.170275
0.594903 0.635493 0.171817
0.620264 0.637308 0.173632
0.645243 0.638941 0.175265
0.669993 0.640635 0.176928
0.694575 0.642359 0.178637
0.71902 0.644129 0.180392
0.743313 0.645945 0.182193
0.767697 0.648035 0.184298
0.791684 0.649927 0.186191
0.815457 0.651881 0.188144
0.83801 0.654154 0.190433
0.857923 0.657145 0.193515
0.876432 0.660548 0.19704
0.894514 0.664302 0.200946
0.0780194 0.645426 0.15993
0.112795 0.64448 0.158984
0.144732 0.644434 0.158923
0.174517 0.644755 0.159228
0.203494 0.645289 0.159731
0.231861 0.645991 0.160418
0.259709 0.646845 0.161227
0.287327 0.647898 0.16228
0.314672 0.649058 0.163409
0.341604 0.650141 0.164477
0.368322 0.651286 0.165591
0.394842 0.652506 0.166781
0.421256 0.653727 0.167987
0.447654 0.655192 0.169421
0.473716 0.656626 0.17084
0.499519 0.658015 0.172213
0.52517 0.659464 0.173632
0.550668 0.660945 0.175082
0.576013 0.662455 0.176593
0.601434 0.66424 0.178363
0.626581 0.665858 0.179965
0.65156 0.667491 0.181567
0.676295 0.669169 0.18323
0.700893 0.670893 0.184955
0.725338 0.672663 0.186709
0.749874 0.674723 0.188769
0.774014 0.67657 0.190616
0.798001 0.678462 0.192493
0.821759 0.680415 0.194446
0.844312 0.682689 0.19675
0.864469 0.685939 0.200092
0.882963 0.689311 0.203586
0.900832 0.692851 0.207263
0.0843824 0.674022 0.166293
0.119326 0.673182 0.165469
0.151034 0.672984 0.16524
0.180819 0.673289 0.16553
0.209796 0.673838 0.166049
0.238163 0.67454 0.16672
0.266117 0.675486 0.167651
0.293767 0.67657 0.168719
0.320974 0.677592 0.169711
0.347921 0.678676 0.170779
0.37464 0.679835 0.171908
0.40116 0.681041 0.173083
0.427817 0.682521 0.174563
0.454047 0.683803 0.175814
0.480018 0.685161 0.177142
0.505821 0.686549 0.178515
0.531487 0.687999 0.179934
0.557122 0.689616 0.181537
0.582574 0.691249 0.183154
0.607782 0.692821 0.18471
0.632898 0.694392 0.186267
0.657862 0.696025 0.187869
0.682612 0.697719 0.189548
0.707393 0.699626 0.191455
0.731899 0.701457 0.193286
0.756191 0.703273 0.195071
0.780316 0.705119 0.196918
0.804303 0.707012 0.19881
0.828077 0.708965 0.200748
0.850858 0.711467 0.203296
0.870787 0.714473 0.206394
0.889281 0.717845 0.209888
0.907149 0.721386 0.213565
0.0909285 0.702739 0.172808
0.125612 0.701717 0.171771
0.157336 0.701518 0.171542
0.187121 0.701839 0.171832
0.216144 0.702403 0.172381
0.244755 0.703319 0.173297
0.272587 0.704173 0.174105
0.300084 0.705104 0.175021
0.327276 0.706127 0.176028
0.354223 0.707225 0.177081
0.381033 0.708446 0.178302
0.407721 0.709834 0.17966
0.434134 0.711055 0.180865
0.460349 0.712352 0.182116
0.48632 0.713695 0.183459
0.512139 0.715099 0.184817
0.537911 0.716655 0.186374
0.563546 0.718273 0.187961
0.588891 0.719799 0.189471
0.614084 0.721355 0.191012
0.6392 0.722942 0.192569
0.664179 0.724559 0.194186
0.689082 0.726421 0.196033
0.713756 0.728237 0.197833
0.738201 0.729992 0.199588
0.762493 0.731807 0.201389
0.786633 0.733654 0.20322
0.81062 0.735546 0.205112
0.834638 0.737758 0.207324
0.857191 0.740032 0.209628
0.877104 0.743023 0.212711
0.895582 0.746395 0.216205
0.913451 0.74992 0.219867
0.0972305 0.731289 0.17911
0.131914 0.730266 0.178088
0.163638 0.730068 0.177859
0.193454 0.730388 0.178164
0.22269 0.731151 0.178927
0.251057 0.731868 0.179599
0.278889 0.732708 0.180423
0.306386 0.733654 0.181338
0.333593 0.734676 0.18233
0.360586 0.735821 0.183459
0.387518 0.737163 0.184787
0.414038 0.738369 0.185962
0.440436 0.739605 0.187167
0.466667 0.740887 0.188434
0.492638 0.742245 0.189761
0.5187 0.743893 0.191394
0.54435 0.745327 0.192813
0.569848 0.746807 0.194278
0.595193 0.748333 0.195773
0.620401 0.749905 0.197314
0.645609 0.751583 0.198993
0.670741 0.753353 0.200763
0.695476 0.755047 0.202426
0.720073 0.756771 0.204135
0.744518 0.758541 0.20589
0.768811 0.760342 0.207691
0.793088 0.762341 0.209689
