assets/cube/yellow_film_01.cube
TITLE "Generated by Resolve"
LUT_3D_SIZE 9
0.0207523 0.0207523 0.0207523
0.0368353 0.0304265 0.0304265
0.0606699 0.0401465 0.0401465
0.0947585 0.0490578 0.0490578
0.141421 0.0563973 0.0563973
0.20238 0.0615854 0.0615854
0.278431 0.064332 0.064332
0.369238 0.0646677 0.0646677
0.473335 0.0628977 0.0628977
0.0452888 0.0719005 0.0452888
0.082887 0.082887 0.0500038
0.132403 0.0916457 0.0602426
0.182544 0.101915 0.070985
0.246067 0.11043 0.0766155
0.322881 0.116884 0.0794385
0.411124 0.121691 0.0806592
0.508095 0.12546 0.0812848
0.610285 0.129107 0.0824598
0.0406043 0.157168 0.0406043
0.0932479 0.170123 0.0401312
0.176181 0.176181 0.0347295
0.27744 0.177615 0.036347
0.363973 0.183368 0.0535134
0.442344 0.192859 0.0720073
0.523995 0.203143 0.0870527
0.612406 0.213138 0.0987716
0.707866 0.222599 0.108278
0.00643931 0.273106 0.00643931
0.0749981 0.286076 0.0103151
0.17293 0.291936 0.0124819
0.29279 0.29279 0.0132753
0.424125 0.291127 0.0189517
0.542336 0.293324 0.0382086
0.641169 0.301778 0.0656443
0.733608 0.313542 0.0915999
0.82948 0.32604 0.112566
0 0.401923 0
0.0613107 0.415473 0
0.164492 0.423728 0.00399786
0.287572 0.427787 0.00805676
0.428244 0.428244 0.00851453
0.580728 0.426108 0.0122683
0.726787 0.426001 0.0269017
0.854902 0.431357 0.0521706
0.968002 0.441825 0.0826581
0 0.543542 0
0.0466011 0.560189 0
0.152819 0.571496 0
0.278889 0.578531 0
0.422492 0.581918 0.00276188
0.582055 0.582055 0.00289921
0.753338 0.579629 0.00543221
0.922423 0.578103 0.0166476
1 0.580743 0.0377813
0 0.70042 0
0.0291752 0.719982 0
0.138247 0.734142 0
0.26714 0.743984 0
0.413504 0.750134 0
0.575784 0.753002 0
0.752865 0.752865 0
0.941375 0.750225 0
1 0.748104 0.0155795
0 0.871626 0
0.00926223 0.893935 0
0.12105 0.910796 0
0.252598 0.923323 0
0.401587 0.932097 0
0.572839 0.933364 0.0101625
0.75639 0.926558 0.0924697
0.919921 0.919921 0.242252
1 0.925216 0.431312
0 1 0
0 1 0
0.139635 1 0
0.341863 1 0.111116
0.565606 1 0.296086
0.763745 1 0.509255
0.927214 1 0.787488
1 1 1
1 1 1
0.0234989 0.0234989 0.0347143
0.0469978 0.0315251 0.0469978
0.0770581 0.0402228 0.0559243
0.111589 0.0495613 0.0661173
0.159899 0.0567636 0.0764477
0.223117 0.0615396 0.0852522
0.301427 0.0638132 0.0919203
0.39411 0.0637369 0.0962997
0.499336 0.0617685 0.0986191
0.0470588 0.0757763 0.0757763
0.0863203 0.0863203 0.0863203
0.126726 0.0982223 0.0982223
0.180056 0.108217 0.108217
0.246616 0.116136 0.116136
0.325597 0.122179 0.122179
0.415213 0.126741 0.126741
0.512581 0.130571 0.130571
0.614374 0.134539 0.134539
0.0404364 0.161746 0.0899977
0.0948501 0.174182 0.0948501
0.179721 0.179721 0.0940871
0.266133 0.184192 0.114565
0.336156 0.194949 0.135653
0.414862 0.205432 0.148196
0.500313 0.215518 0.158618
0.592737 0.225055 0.167666
0.691524 0.234104 0.175921
0.00730907 0.277653 0.0707256
0.0777447 0.290242 0.0777447
0.176944 0.295979 0.0820325
0.297169 0.297169 0.0832227
0.422385 0.296742 0.0991226
0.519203 0.304112 0.134646
0.604532 0.31667 0.165286
0.695445 0.329778 0.186709
0.793622 0.342489 0.202991
0 0.406424 0.0522621
0.0661326 0.420294 0.0661326
0.169619 0.42887 0.0747082
0.293019 0.433234 0.0790723
0.433997 0.433997 0.0798352
0.583719 0.43241 0.0903487
0.715816 0.435294 0.120485
0.824918 0.44535 0.159213
0.926238 0.459281 0.193957
0 0.549096 0.0355077
0.0524605 0.566049 0.0524605
0.158968 0.577646 0.0640574
0.285328 0.58497 0.0713817
0.429221 0.588647 0.0750591
0.589075 0.589075 0.0754864
0.758877 0.586969 0.0829938
0.919158 0.587167 0.106844
1 0.593454 0.143389
0 0.706966 0.0161593
0.0360113 0.726818 0.0360113
0.145373 0.741253 0.0504463
0.274525 0.751369 0.0605631
0.421149 0.757794 0.0669871
0.583719 0.760922 0.0701152
0.761059 0.761059 0.0702525
0.948699 0.758648 0.0758526
1 0.758114 0.113664
0 0.879118 0
0.0170138 0.901701 0.0170138
0.129076 0.918822 0.0341497
0.260884 0.931609 0.0469215
0.411246 0.940093 0.0581979
0.587228 0.938888 0.100511
0.770321 0.93109 0.197421
0.926345 0.926345 0.354086
1 0.9355 0.544671
0 1 0
0.00648508 1 0.00648508
0.171832 1 0.0851606
0.386877 1 0.222477
0.609323 1 0.404852
0.807614 1 0.624781
0.962554 1 0.897475
1 1 1
1 1 1
0.0258335 0.0258335 0.0566262
0.050721 0.0335851 0.0755322
0.0935225 0.0383154 0.0935225
0.150942 0.041413 0.104952
0.208408 0.0468452 0.112078
0.272419 0.0520485 0.120348
0.350576 0.0547799 0.128817
0.442939 0.0550698 0.13608
0.547387 0.0535286 0.14168
0.0476539 0.0785077 0.123171
0.0883803 0.0883803 0.14229
0.155734 0.0927138 0.155734
0.220279 0.100999 0.155322
0.27863 0.112184 0.160601
0.35378 0.119661 0.168902
0.44123 0.125078 0.176547
0.536629 0.129702 0.183307
0.635676 0.134722 0.189822
0.0386053 0.164477 0.164477
0.0946517 0.176272 0.176272
0.181247 0.181247 0.181247
0.248249 0.192874 0.192874
0.324742 0.203296 0.203296
0.407858 0.213199 0.213199
0.49662 0.222858 0.222858
0.591455 0.232105 0.232105
0.691966 0.241032 0.241032
0.00656138 0.279973 0.163546
0.0787671 0.292226 0.173465
0.178988 0.298009 0.178988
0.299535 0.299535 0.180514
0.405341 0.303624 0.213306
0.484337 0.317235 0.2439
0.57229 0.33077 0.261555
0.668421 0.343526 0.275227
0.771344 0.355673 0.287236
0 0.408911 0.14966
0.0689403 0.423102 0.163851
0.172747 0.431983 0.172747
0.296452 0.436667 0.177417
0.437736 0.437736 0.178485
0.580545 0.437537 0.19971
0.688975 0.446326 0.245075
0.783612 0.461128 0.283192
0.883665 0.476661 0.309697
0 0.552636 0.133959
0.0562905 0.569894 0.151217
0.163104 0.581781 0.163104
0.289754 0.589395 0.170733
0.433921 0.593362 0.174685
0.594064 0.594064 0.175387
0.760815 0.592554 0.189715
0.905928 0.596124 0.228717
1 0.607675 0.276951
0 0.711498 0.115618
0.0408179 0.731624 0.135744
0.150454 0.746334 0.150454
0.279881 0.756741 0.160861
0.426795 0.763424 0.167544
0.589609 0.766827 0.170947
0.767208 0.767208 0.171344
0.952743 0.765148 0.183368
1 0.767544 0.242802
0 0.884581 0.0948196
0.0227512 0.907423 0.117678
0.135073 0.924819 0.135073
0.26714 0.93785 0.148104
0.421286 0.944976 0.165377
0.601862 0.941665 0.218494
0.783917 0.93373 0.32343
0.932311 0.932311 0.472908
1 0.945769 0.663523
0 1 0.071809
0.0268101 1 0.118776
0.208591 1 0.208591
0.43508 1 0.351186
0.652613 1 0.519722
0.853071 1 0.740414
0.998322 1 0.994858
1 1 1
1 1 1
0.0277104 0.0277104 0.0874189
0.0538338 0.0349279 0.11548
0.0988022 0.0387274 0.143343
0.168383 0.0375067 0.168383
0.258686 0.0329747 0.183856
0.351492 0.030518 0.189197
0.44062 0.0311284 0.191943
0.532982 0.0323186 0.195682
0.633127 0.0327153 0.200092
0.0470588 0.0800793 0.187808
0.0890974 0.0890974 0.217655
0.158419 0.0924239 0.241169
0.256916 0.0895399 0.256916
0.362463 0.0879683 0.254994
0.4421 0.096376 0.246052
0.517128 0.10692 0.244495
0.600855 0.115862 0.247868
0.689921 0.124422 0.253239
0.0352789 0.165499 0.262089
0.0928359 0.176608 0.281651
0.181003 0.181003 0.292729
0.296056 0.179706 0.296056
0.382727 0.190219 0.280324
0.446555 0.207416 0.279652
0.526741 0.220249 0.287694
0.617441 0.231144 0.297322
0.715831 0.241032 0.307149
0.00453193 0.280415 0.280415
0.0785077 0.292409 0.292409
0.179385 0.298421 0.298421
0.300267 0.300267 0.300267
0.381888 0.313939 0.313939
0.469886 0.327077 0.327077
0.564065 0.339681 0.339681
0.664073 0.351873 0.351873
0.769696 0.363653 0.363653
0 0.409766 0.269551
0.0701152 0.424277 0.284062
0.174228 0.433478 0.293263
0.298238 0.438453 0.298238
0.439826 0.439826 0.299611
0.560678 0.444724 0.339117
0.649531 0.460639 0.37554
0.747478 0.47657 0.396658
0.853605 0.491707 0.413153
0 0.554543 0.254902
0.0585031 0.572091 0.27245
0.165606 0.584268 0.284627
0.292531 0.592172 0.292531
0.436988 0.596414 0.296773
0.597406 0.597406 0.297765
0.756497 0.597406 0.323552
0.875776 0.607507 0.377539
0.979126 0.624384 0.422309
0 0.714382 0.237522
0.0439765 0.734783 0.257939
0.153903 0.749783 0.272923
0.283589 0.760449 0.283589
0.430777 0.767407 0.290562
0.593866 0.771069 0.294224
0.771725 0.771725 0.294881
0.9523 0.770367 0.318029
1 0.777905 0.396582
0 0.888395 0.21767
0.0268254 0.911498 0.240787
0.139406 0.929152 0.258442
0.271748 0.942458 0.271748
0.432425 0.94725 0.296361
0.617548 0.942351 0.355276
0.797818 0.935378 0.45948
0.93843 0.93843 0.591073
1 0.956786 0.776181
0 1 0.197757
0.0518959 1 0.25388
0.250721 1 0.348638
0.484886 1 0.484886
0.702846 1 0.641855
0.900465 1 0.846601
1 1 1
1 1 1
1 1 1
0.0289769 0.0289769 0.128634
0.056199 0.035462 0.1682
0.103197 0.038117 0.208316
0.17554 0.035462 0.245808
0.277638 0.0263981 0.277638
0.403281 0.0133974 0.296452
0.532296 0.00262455 0.300191
0.652354 0 0.296513
0.761852 0 0.291707
0.0452277 0.080415 0.270466
0.088426 0.088426 0.312795
0.159548 0.0906539 0.347707
0.259937 0.0867475 0.373449
0.388983 0.0769818 0.388983
0.526665 0.0681315 0.385229
0.638361 0.0699931 0.36672
0.722805 0.0812085 0.350134
0.797757 0.0958724 0.341558
0.0305486 0.164889 0.381903
0.0895399 0.17528 0.409476
0.179171 0.179171 0.426444
0.29514 0.177722 0.433448
0.431662 0.172488 0.431662
0.553826 0.174853 0.410849
0.631159 0.19202 0.388907
0.702052 0.210864 0.382513
0.785672 0.226276 0.385595
0.00146487 0.279179 0.418479
0.0771191 0.291081 0.431281
0.178378 0.297414 0.437629
0.299596 0.299596 0.439796
0.438422 0.298222 0.438422
0.536156 0.312215 0.418601
0.607919 0.333257 0.418006
0.697765 0.349111 0.427893
0.798474 0.362768 0.439734
0 0.409201 0.409201
0.0698558 0.424018 0.424018
0.174289 0.433539 0.433539
0.298604 0.438819 0.438819
0.440482 0.440482 0.440482
0.533883 0.456336 0.456336
0.633219 0.471672 0.471672
0.73814 0.486564 0.486564
0.848554 0.501015 0.501015
0 0.555016 0.395575
0.059266 0.572854 0.413428
0.166659 0.585336 0.425895
0.293889 0.59353 0.434089
0.438621 0.598047 0.438621
0.599298 0.599298 0.439872
0.734051 0.604929 0.485405
0.832074 0.622965 0.527092
0.939391 0.641108 0.551354
0 0.715831 0.379187
0.045716 0.736522 0.399878
0.155901 0.751781 0.415137
0.285878 0.762722 0.426078
0.43331 0.769955 0.43331
0.596674 0.773877 0.437232
0.774792 0.774792 0.438148
0.94464 0.775387 0.477119
1 0.791592 0.566308
0 0.890761 0.36025
0.0294652 0.914137 0.383627
0.142306 0.932067 0.401556
0.276616 0.944991 0.416327
0.445365 0.947295 0.445365
0.634897 0.941558 0.503151
0.812253 0.936965 0.595712
0.944518 0.944518 0.710689
1 0.969146 0.874434
0 1 0.345373
0.0826429 1 0.405295
0.298466 1 0.496788
0.533745 1 0.614221
0.757092 1 0.757092
0.949844 1 0.935622
1 1 1
1 1 1
1 1 1
0.0295109 0.0295109 0.181735
0.0577096 0.03505 0.235187
0.106584 0.0363622 0.289738
0.181476 0.0321355 0.341573
0.286397 0.0214694 0.387045
0.423148 0.00401312 0.423148
0.582589 0 0.442603
0.743114 0 0.442802
0.889464 0 0.431296
0.0420691 0.0794232 0.372061
0.0863355 0.0863355 0.428183
0.159106 0.0874037 0.47538
0.261219 0.0825055 0.511498
0.391485 0.0720531 0.535286
0.546426 0.057084 0.546426
0.706233 0.0442206 0.537102
0.838758 0.0427558 0.509361
0.938766 0.0525521 0.479835
0.0244602 0.162692 0.523262
0.0848554 0.172412 0.558587
0.175875 0.175875 0.580713
0.292638 0.174426 0.590234
0.428977 0.169741 0.588403
0.581003 0.162325 0.581003
0.727489 0.159365 0.559457
0.837324 0.169528 0.528817
0.920027 0.18822 0.506477
0 0.276463 0.575463
0.0745098 0.288457 0.588098
0.176104 0.295125 0.594766
0.297627 0.297627 0.597269
0.43679 0.296574 0.596216
0.591989 0.292348 0.591989
0.728923 0.296651 0.569543
0.814374 0.317693 0.545159
0.892195 0.340444 0.538216
0 0.407355 0.566781
0.0683299 0.422492 0.581918
0.173068 0.432319 0.591745
0.297688 0.437903 0.59733
0.439857 0.439857 0.599298
0.598032 0.43859 0.598032
0.707362 0.455116 0.576089
0.786831 0.479515 0.575662
0.885695 0.498085 0.587198
0 0.554208 0.554208
0.0587472 0.572335 0.572335
0.16643 0.585107 0.585107
0.293935 0.593576 0.593576
0.438956 0.598383 0.598383
0.599908 0.599908 0.599908
0.704189 0.617777 0.617777
0.813977 0.635142 0.635142
0.929061 0.652079 0.652079
0 0.715984 0.538781
0.0461433 0.73695 0.559747
0.156603 0.752499 0.57528
0.286854 0.763699 0.586496
0.434562 0.771206 0.593988
0.598169 0.775387 0.598169
0.776516 0.776516 0.599847
0.918013 0.783917 0.658351
0.999161 0.809796 0.721904
0 0.891844 0.52076
0.030808 0.91548 0.544396
0.143908 0.933669 0.562585
0.283574 0.945174 0.579141
0.460777 0.945495 0.606455
0.654383 0.939895 0.654383
0.827146 0.939269 0.724651
0.951583 0.951583 0.818967
1 0.983307 0.950973
0 1 0.509758
0.11989 1 0.566476
0.351217 1 0.64477
0.583963 1 0.736355
0.814588 1 0.856718
0.998154 1 0.998154
1 1 1
1 1 1
1 1 1
0.0292058 0.0292058 0.24831
0.0582132 0.0335699 0.317937
0.108812 0.0333867 0.388907
0.186084 0.0274815 0.456657
0.293568 0.0151522 0.516884
0.432593 0 0.566094
0.601846 0 0.601846
0.789273 0 0.617365
0.972152 0 0.610269
0.0375525 0.0770733 0.493431
0.0827955 0.0827955 0.564279
0.157092 0.0826886 0.624155
0.260731 0.0768292 0.670604
0.392035 0.0658274 0.702113
0.547021 0.0508431 0.718212
0.719448 0.0336614 0.719448
0.889326 0.0207828 0.699519
1 0.017319 0.664851
0.0171054 0.158938 0.685527
0.0788739 0.168048 0.727871
0.171221 0.171221 0.753994
0.288701 0.169955 0.764431
0.425071 0.165835 0.761715
0.577432 0.158755 0.754635
0.744747 0.148867 0.744747
0.910246 0.142092 0.722362
1 0.146166 0.688029
0 0.272419 0.749203
0.0707256 0.284672 0.761532
0.172641 0.291676 0.768521
0.294499 0.294499 0.771344
0.433967 0.293751 0.770596
0.589471 0.28983 0.76669
0.759884 0.283024 0.759884
0.921569 0.281621 0.737484
1 0.294957 0.704326
0 0.404334 0.740978
0.0656291 0.419791 0.75642
0.170672 0.429908 0.766552
0.295583 0.435798 0.772442
0.438056 0.438056 0.774701
0.596506 0.437079 0.773724
0.769802 0.433173 0.769802
0.920562 0.439139 0.74583
1 0.463661 0.719173
0 0.552209 0.729412
0.0570535 0.570642 0.747845
0.165011 0.583688 0.760906
0.292805 0.592447 0.769665
0.438102 0.597528 0.774746
0.599329 0.599329 0.776547
0.775372 0.598154 0.775372
0.895537 0.616983 0.751431
0.982238 0.644465 0.751141
0 0.714961 0.714961
0.0453956 0.736202 0.736202
0.15613 0.75201 0.75201
0.286641 0.763485 0.763485
0.434607 0.771252 0.771252
0.598489 0.775692 0.775692
0.777127 0.777127 0.777127
0.885359 0.79852 0.79852
0.976486 0.825483 0.825483
0 0.891722 0.697856
0.0309606 0.915633 0.721767
0.14435 0.934066 0.7402
0.293217 0.943328 0.755413
0.479301 0.942336 0.773129
0.676173 0.938109 0.801266
0.842893 0.942519 0.842893
0.96025 0.96025 0.90779
1 0.999359 0.99852
0 1 0.685664
0.164187 1 0.730327
0.406683 1 0.784863
0.643626 1 0.84889
0.875288 1 0.934127
1 1 1
1 1 1
1 1 1
1 1 1
0.0279088 0.0279088 0.329961
0.0576181 0.0309148 0.417899
0.109804 0.0290684 0.507042
0.189242 0.0214237 0.591928
0.299046 0.00743114 0.667628
0.440009 0 0.730144
0.61033 0 0.776654
0.805661 0 0.805661
1 0 0.811307
0.0316014 0.0732586 0.635309
0.07776 0.07776 0.72137
0.153475 0.0765087 0.793927
0.258518 0.0697795 0.850202
0.390677 0.0583658 0.888457
0.545495 0.0435798 0.908125
0.71632 0.0273136 0.909682
0.89604 0.011368 0.89604
1 0 0.871138
0.00851453 0.153674 0.867994
0.0716869 0.16231 0.916182
0.165347 0.165347 0.944701
0.283482 0.164477 0.95407
0.420066 0.16083 0.950576
0.572763 0.154086 0.943847
0.740398 0.144518 0.934279
0.922103 0.132342 0.922103
1 0.122515 0.898665
0 0.267201 0.937926
0.0658427 0.279805 0.950515
0.168093 0.287114 0.957839
0.290257 0.290272 0.960983
0.430045 0.28983 0.960555
0.585855 0.286213 0.956939
0.756573 0.279713 0.950439
0.941268 0.270542 0.941268
1 0.265171 0.918486
0 0.400214 0.930724
0.0618143 0.415976 0.946487
0.167163 0.426413 0.956924
0.292378 0.432593 0.963104
0.435142 0.435142 0.965652
0.593881 0.434455 0.964965
0.767468 0.430823 0.961334
0.954986 0.424475 0.954986
1 0.424414 0.931701
0 0.549111 0.920195
0.0542458 0.567834 0.938918
0.162493 0.58117 0.952255
0.290562 0.590204 0.961288
0.436133 0.59556 0.966644
0.59765 0.59765 0.968719
0.773953 0.596735 0.967819
0.964157 0.593072 0.964157
1 0.600549 0.938689
0 0.712825 0.906691
0.043534 0.73434 0.928206
0.154528 0.750423 0.944289
0.285313 0.762173 0.956039
0.433555 0.770184 0.964065
0.597681 0.774899 0.968765
0.776989 0.776989 0.965194
0.952148 0.782315 0.952148
1 0.818173 0.922698
0 0.890501 0.890501
0.029984 0.914656 0.914656
0.146014 0.932708 0.932708
0.306264 0.939773 0.939773
0.501503 0.938338 0.938338
0.699733 0.937041 0.937041
0.86183 0.94641 0.94641
0.970993 0.970993 0.970993
1 1 1
0.00335698 1 0.867063
0.215641 1 0.889418
0.461295 1 0.912001
0.708873 1 0.941314
0.938888 1 0.983551
1 1 1
1 1 1
1 1 1
1 1 1
0.0255131 0.0255131 0.428275
0.0557717 0.026978 0.536492
0.109407 0.0233768 0.645182
0.190845 0.013901 0.748119
0.302739 0 0.839628
0.44538 0 0.915221
0.616449 0 0.971771
0.811109 0 1
1 0 1
0.0242008 0.0679637 0.79826
0.0712291 0.0712291 0.899626
0.148302 0.0688792 0.984436
0.254612 0.0614176 1
0.387472 0.0497597 1
0.541939 0.0354009 1
0.710964 0.0203555 1
0.889891 0.00521859 1
1 0 1
0 0.14699 1
0.0634165 0.155261 1
0.158373 0.158373 1
0.277134 0.158114 1
0.414054 0.154803 1
0.567071 0.148394 1
0.735027 0.139147 1
0.917037 0.127275 1
1 0.112978 1
0 0.260975 1
0.0599374 0.273899 1
0.162509 0.281544 1
0.285008 0.285008 1
0.425086 0.284886 1
0.581216 0.281575 1
0.752224 0.275364 1
0.937209 0.266484 1
1 0.2551 1
0 0.395071 1
0.0569772 0.411139 1
0.162631 0.421866 1
0.288136 0.428351 1
0.431189 0.431189 1
0.590219 0.430793 1
0.76408 0.427436 1
0.951873 0.421363 1
1 0.412757 1
0 0.544976 1
0.0503853 0.563989 1
0.158938 0.5776 1
0.287282 0.586923 1
0.433127 0.592554 1
0.594903 0.594903 1
0.771481 0.594263 1
0.961944 0.59086 1
1 0.584878 1
0 0.709636 1
0.0406195 0.731426 1
0.151888 0.747784 1
0.282933 0.759793 1
0.431434 0.768078 1
0.596399 0.773007 1
0.776547 0.776547 1
0.946654 0.786282 1
1 0.811536 1
0 0.888212 1
0.0279698 0.912642 1
0.150988 0.929412 1
0.323461 0.93492 1
0.527764 0.934157 1
0.72401 0.937377 1
0.883619 0.95201 1
0.984237 0.984237 1
1 1 1
0.0416419 1 1
0.27335 1 1
0.519005 1 1
0.778531 1 1
0.997986 1 1
1 1 1
1 1 1
1 1 1
1 1 1
