assets/cube/yellow_film_01.cube
TITLE "Generated by Resolve"
LUT_3D_SIZE 5
0.0207523 0.0207523 0.0207523
0.0606699 0.0401465 0.0401465
0.141421 0.0563973 0.0563973
0.278431 0.064332 0.064332
0.473335 0.0628977 0.0628977
0.0406043 0.157168 0.0406043
0.176181 0.176181 0.0347295
0.363973 0.183368 0.0535134
0.523995 0.203143 0.0870527
0.707866 0.222599 0.108278
0 0.401923 0
0.164492 0.423728 0.00399786
0.428244 0.428244 0.00851453
0.726787 0.426001 0.0269017
0.968002 0.441825 0.0826581
0 0.70042 0
0.138247 0.734142 0
0.413504 0.750134 0
0.752865 0.752865 0
1 0.748104 0.0155795
0 1 0
0.139635 1 0
0.565606 1 0.296086
0.927214 1 0.787488
1 1 1
0.0258335 0.0258335 0.0566262
0.0935225 0.0383154 0.0935225
0.208408 0.0468452 0.112078
0.350576 0.0547799 0.128817
0.547387 0.0535286 0.14168
0.0386053 0.164477 0.164477
0.181247 0.181247 0.181247
0.324742 0.203296 0.203296
0.49662 0.222858 0.222858
0.691966 0.241032 0.241032
0 0.408911 0.14966
0.172747 0.431983 0.172747
0.437736 0.437736 0.178485
0.688975 0.446326 0.245075
0.883665 0.476661 0.309697
0 0.711498 0.115618
0.150454 0.746334 0.150454
0.426795 0.763424 0.167544
0.767208 0.767208 0.171344
1 0.767544 0.242802
0 1 0.071809
0.208591 1 0.208591
0.652613 1 0.519722
0.998322 1 0.994858
1 1 1
0.0289769 0.0289769 0.128634
0.103197 0.038117 0.208316
0.277638 0.0263981 0.277638
0.532296 0.00262455 0.300191
0.761852 0 0.291707
0.0305486 0.164889 0.381903
0.179171 0.179171 0.426444
0.431662 0.172488 0.431662
0.631159 0.19202 0.388907
0.785672 0.226276 0.385595
0 0.409201 0.409201
0.174289 0.433539 0.433539
0.440482 0.440482 0.440482
0.633219 0.471672 0.471672
0.848554 0.501015 0.501015
0 0.715831 0.379187
0.155901 0.751781 0.415137
0.43331 0.769955 0.43331
0.774792 0.774792 0.438148
1 0.791592 0.566308
0 1 0.345373
0.298466 1 0.496788
0.757092 1 0.757092
1 1 1
1 1 1
0.0292058 0.0292058 0.24831
0.108812 0.0333867 0.388907
0.293568 0.0151522 0.516884
0.601846 0 0.601846
0.972152 0 0.610269
0.0171054 0.158938 0.685527
0.171221 0.171221 0.753994
0.425071 0.165835 0.761715
0.744747 0.148867 0.744747
1 0.146166 0.688029
0 0.404334 0.740978
0.170672 0.429908 0.766552
0.438056 0.438056 0.774701
0.769802 0.433173 0.769802
1 0.463661 0.719173
0 0.714961 0.714961
0.15613 0.75201 0.75201
0.434607 0.771252 0.771252
0.777127 0.777127 0.777127
0.976486 0.825483 0.825483
0 1 0.685664
0.406683 1 0.784863
0.875288 1 0.934127
1 1 1
1 1 1
0.0255131 0.0255131 0.428275
0.109407 0.0233768 0.645182
0.302739 0 0.839628
0.616449 0 0.971771
1 0 1
0 0.14699 1
0.158373 0.158373 1
0.414054 0.154803 1
0.735027 0.139147 1
1 0.112978 1
0 0.395071 1
0.162631 0.421866 1
0.431189 0.431189 1
0.76408 0.427436 1
1 0.412757 1
0 0.709636 1
0.151888 0.747784 1
0.431434 0.768078 1
0.776547 0.776547 1
1 0.811536 1
0.0416419 1 1
0.519005 1 1
0.997986 1 1
1 1 1
1 1 1
