assets/cube/yellow_film_01.cube
TITLE "Generated by Resolve"
LUT_3D_SIZE 33
0.0207523 0.0207523 0.0207523
0.0241703 0.0231174 0.0231174
0.0279698 0.0255283 0.0255283
0.0321813 0.0279698 0.0279698
0.0368353 0.0304265 0.0304265
0.0419776 0.0328985 0.0328985
0.0476387 0.0353399 0.0353399
0.0538491 0.0377661 0.0377661
0.0606699 0.0401465 0.0401465
0.0681468 0.0424811 0.0424811
0.0762798 0.0447547 0.0447547
0.0851453 0.046952 0.046952
0.0947585 0.0490578 0.0490578
0.105165 0.0510567 0.0510567
0.116396 0.0529641 0.0529641
0.128466 0.0547341 0.0547341
0.141421 0.0563973 0.0563973
0.155276 0.057908 0.057908
0.170047 0.0592813 0.0592813
0.185748 0.060502 0.060502
0.20238 0.0615854 0.0615854
0.219974 0.062501 0.062501
0.238514 0.0632792 0.0632792
0.258 0.0638743 0.0638743
0.278431 0.064332 0.064332
0.299794 0.0646372 0.0646372
0.322057 0.0647898 0.0647898
0.34522 0.0647898 0.0647898
0.369238 0.0646677 0.0646677
0.394095 0.0643931 0.0643931
0.41976 0.0640116 0.0640116
0.446189 0.063508 0.063508
0.473335 0.0628977 0.0628977
0.0280156 0.0306706 0.0280156
0.0330816 0.0330816 0.0302129
0.0381933 0.0355535 0.0332036
0.0429541 0.0382696 0.0362097
0.0482643 0.0409857 0.0388952
0.0541695 0.0436713 0.0414588
0.0606851 0.0463264 0.043946
0.0678569 0.0489204 0.0463569
0.0756847 0.0514534 0.0486915
0.0842145 0.0539101 0.0509499
0.093492 0.0562753 0.0531014
0.103532 0.0585641 0.0551461
0.114382 0.0607309 0.057084
0.126055 0.0627909 0.0588998
0.138567 0.0647288 0.0605936
0.151965 0.0665293 0.0621347
0.166247 0.0682078 0.0635538
0.18143 0.0697337 0.0648051
0.197513 0.0711223 0.0659342
0.214527 0.0723735 0.0668956
0.232441 0.0734569 0.0677195
0.251286 0.074403 0.0683757
0.271015 0.0752117 0.0688945
0.291646 0.0758679 0.069276
0.313146 0.0763714 0.0695048
0.335485 0.0767529 0.0696117
0.358663 0.076997 0.0695811
0.382635 0.0771344 0.0694438
0.40737 0.0771344 0.0691844
0.432822 0.0770428 0.0688182
0.458961 0.0768597 0.0683757
0.485725 0.076585 0.0678569
0.513069 0.0762493 0.0672618
0.0349432 0.0424201 0.0349432
0.0407568 0.0450904 0.0370489
0.0476081 0.0476081 0.0389868
0.0550851 0.0500191 0.0415656
0.0618448 0.0526741 0.0450446
0.0684825 0.0555123 0.0483406
0.0757153 0.0583352 0.051194
0.0836805 0.0611124 0.0537575
0.0924239 0.0637827 0.0561227
0.10193 0.0663767 0.05832
0.112245 0.0688487 0.0603799
0.123384 0.0712291 0.0622721
0.135363 0.0734722 0.0640421
0.148196 0.0755932 0.0656443
0.161883 0.0775921 0.0671244
0.176471 0.0794385 0.0684367
0.191928 0.0811627 0.0696117
0.208286 0.0827497 0.070634
0.225513 0.084184 0.071519
0.243641 0.085481 0.0722515
0.262623 0.0866407 0.0728618
0.28246 0.0876631 0.0733196
0.303151 0.0885481 0.0736553
0.324666 0.0892958 0.0738689
0.34696 0.0899367 0.0739605
0.370016 0.0904555 0.0739452
0.393805 0.0908675 0.0738231
0.418265 0.0911879 0.0736248
0.443381 0.0914168 0.0733501
0.469108 0.0915694 0.0730144
0.495354 0.0916762 0.0726482
0.522118 0.0917067 0.0722362
0.54931 0.091722 0.0717937
0.0408789 0.0561227 0.0408789
0.047425 0.0590372 0.0428016
0.0551919 0.0617533 0.04448
0.0642405 0.0642405 0.0458991
0.0742657 0.0664988 0.0478218
0.0839704 0.068864 0.0508888
0.0929427 0.071519 0.0544747
0.1019 0.0743114 0.0578164
0.111452 0.0770886 0.0607156
0.121782 0.0797894 0.0632181
0.132967 0.0823987 0.0654154
0.145022 0.0848707 0.0673533
0.157961 0.0872206 0.0690776
0.171771 0.0894331 0.0706035
0.186465 0.0915084 0.0719463
0.202045 0.0934462 0.0731212
0.218494 0.0952468 0.0741588
0.235813 0.09691 0.0750286
0.253971 0.0984512 0.075761
0.272969 0.0998398 0.0763561
0.29279 0.101106 0.0768292
0.31339 0.102266 0.0771954
0.334768 0.103288 0.0774395
0.356878 0.104219 0.0775921
0.379675 0.105028 0.0776532
0.403143 0.10576 0.0776532
0.427222 0.106416 0.0775769
0.451865 0.106996 0.0774701
0.477043 0.107515 0.0773175
0.502663 0.108003 0.0771649
0.528679 0.108461 0.0770123
0.555062 0.108904 0.0768749
0.581735 0.109346 0.0767681
0.0452888 0.0719005 0.0452888
0.0525521 0.0750591 0.046891
0.0612039 0.0779583 0.0482338
0.0712902 0.0805676 0.0492714
0.082887 0.082887 0.0500038
0.0957504 0.0849012 0.0511482
0.10869 0.0869001 0.0534524
0.120867 0.0891432 0.056672
0.132403 0.0916457 0.0602426
0.143938 0.0942855 0.0635691
0.155978 0.0969253 0.0664836
0.168856 0.0994736 0.0689097
0.182544 0.101915 0.070985
0.197116 0.10425 0.0727398
0.212573 0.106432 0.0742504
0.228901 0.108492 0.0755169
0.246067 0.11043 0.0766155
0.264088 0.11223 0.0775158
0.282918 0.113893 0.078294
0.302525 0.11545 0.0789197
0.322881 0.116884 0.0794385
0.343954 0.118227 0.0798505
0.365713 0.119463 0.0801862
0.388113 0.120607 0.0804456
0.411124 0.121691 0.0806592
0.434669 0.122698 0.080827
0.458717 0.123644 0.0809796
0.483223 0.124559 0.0811322
0.508095 0.12546 0.0812848
0.533318 0.126345 0.0814832
0.558801 0.12723 0.0817273
0.584466 0.128145 0.0820478
0.610285 0.129107 0.0824598
0.0476692 0.0898756 0.0476692
0.0556497 0.0932479 0.0489357
0.0651865 0.0963149 0.0498817
0.0762951 0.0990616 0.0505074
0.0890669 0.101457 0.0507973
0.103502 0.103502 0.0507362
0.119417 0.105196 0.0510567
0.135714 0.106752 0.0525216
0.151431 0.108492 0.0550698
0.166201 0.110521 0.0584115
0.180377 0.112825 0.0619821
0.194522 0.115251 0.0653391
0.209079 0.117708 0.0683146
0.224369 0.120089 0.0708171
0.240391 0.122393 0.0729534
0.257206 0.12459 0.0747539
0.274846 0.12668 0.0762646
0.293278 0.128649 0.0775616
0.312459 0.13051 0.0786603
0.332357 0.13228 0.0796063
0.352956 0.133944 0.0804303
0.374182 0.135531 0.0811627
0.396017 0.137026 0.0818189
0.418387 0.138476 0.0824292
0.44126 0.139864 0.0830091
0.464561 0.141207 0.0835889
0.488243 0.14255 0.084184
0.512245 0.143862 0.0848096
0.536507 0.145205 0.0854963
0.560952 0.146563 0.0862745
0.585519 0.147951 0.0871443
0.610117 0.149416 0.0881514
0.634699 0.150973 0.0893111
0.047715 0.110094 0.047715
0.0564279 0.11368 0.0486305
0.0668498 0.116899 0.0492103
0.0789807 0.119753 0.0494392
0.0928664 0.122225 0.0493172
0.108537 0.124315 0.0488594
0.126009 0.126009 0.0480507
0.145052 0.127291 0.0476234
0.164691 0.128405 0.0483101
0.183948 0.12961 0.0501717
0.202258 0.13109 0.0530098
0.219516 0.132921 0.0565652
0.236179 0.135012 0.0602884
0.252705 0.137255 0.063859
0.269474 0.139559 0.0671092
0.286748 0.141848 0.0699779
0.304784 0.14406 0.0723735
0.323384 0.146212 0.0745098
0.342641 0.148302 0.0764019
0.362554 0.150317 0.0780652
0.383062 0.152255 0.0795758
0.40412 0.154131 0.0809644
0.425681 0.155962 0.0822766
0.447684 0.157763 0.0835431
0.470069 0.159533 0.0847944
0.49279 0.161288 0.0860609
0.51577 0.163058 0.0873732
0.538918 0.164858 0.088777
0.562188 0.166705 0.0902724
0.585519 0.168612 0.0918746
0.609125 0.17052 0.0935073
0.633127 0.172396 0.095079
0.657511 0.174258 0.0966049
0.0453346 0.132555 0.0453346
0.0547951 0.136309 0.0459449
0.0661021 0.139666 0.0462043
0.0792401 0.142611 0.0461128
0.0942245 0.145144 0.0456855
0.111055 0.147265 0.0449226
0.129747 0.148974 0.0438239
0.150271 0.150271 0.0424201
0.172412 0.151156 0.0413977
0.19527 0.151797 0.0414893
0.217899 0.152499 0.042771
0.239597 0.15346 0.0452125
0.26009 0.154772 0.0485695
0.279469 0.156451 0.0525521
0.298161 0.158419 0.0567025
0.316594 0.160555 0.0607767
0.335103 0.162799 0.0645762
0.353872 0.165087 0.0680705
0.373205 0.167346 0.0711681
0.39292 0.169604 0.0740368
0.413077 0.171847 0.0766918
0.433661 0.17406 0.0791943
0.454643 0.176257 0.0815747
0.475959 0.178454 0.0838788
0.49752 0.180667 0.086183
0.519295 0.18291 0.0885023
0.541253 0.185168 0.0908522
0.563622 0.187411 0.0930953
0.586435 0.189624 0.0952468
0.609674 0.191791 0.0973068
0.633326 0.193942 0.0992752
0.657389 0.196048 0.101167
0.681865 0.198138 0.103014
0.0406043 0.157168 0.0406043
0.0508278 0.161074 0.0409857
0.063035 0.164523 0.0410315
0.0771801 0.167544 0.0407416
0.0932479 0.170123 0.0401312
0.111192 0.172274 0.0392157
0.131014 0.173999 0.037995
0.152682 0.175296 0.0364996
0.176181 0.176181 0.0347295
0.201236 0.176638 0.0333867
0.227024 0.176883 0.0331731
0.252659 0.177127 0.0341497
0.27744 0.177615 0.036347
0.300954 0.178454 0.0395972
0.322988 0.179736 0.0438239
0.343877 0.181399 0.0485695
0.363973 0.183368 0.0535134
0.383627 0.18555 0.0584421
0.403128 0.1879 0.0631876
0.42266 0.190341 0.0677195
0.442344 0.192859 0.0720073
0.462455 0.195377 0.0759747
0.482612 0.197955 0.079881
0.503075 0.200565 0.0836042
0.523995 0.203143 0.0870527
0.545419 0.205692 0.0902724
0.567285 0.208209 0.0932784
0.589624 0.210681 0.0961013
0.612406 0.213138 0.0987716
0.635645 0.215549 0.10132
0.659297 0.217929 0.103746
0.683375 0.220279 0.10605
0.707866 0.222599 0.108278
0.0337835 0.183795 0.0337835
0.0448463 0.187793 0.0341039
0.0579843 0.191318 0.0340887
0.0731365 0.194385 0.033753
0.0902419 0.196979 0.0331426
0.10927 0.19913 0.0322423
0.130159 0.200855 0.0310979
0.15288 0.202167 0.0297246
0.177356 0.203052 0.0281224
0.203555 0.203555 0.0263371
0.231205 0.203662 0.0250401
0.259525 0.20354 0.0248569
0.287709 0.203449 0.0258946
0.315038 0.203571 0.0281834
0.341024 0.204044 0.0316777
0.365469 0.204974 0.0361944
0.388312 0.206378 0.0416114
0.409888 0.208209 0.0475319
0.430533 0.210361 0.0536965
0.450538 0.212802 0.0598917
0.470359 0.215396 0.0658122
0.490257 0.218112 0.0713817
0.510399 0.220859 0.0765698
0.53109 0.22359 0.0812238
0.552056 0.226352 0.0856336
0.573434 0.229114 0.0897383
0.59527 0.23183 0.0935378
0.617548 0.234546 0.0971084
0.640299 0.237217 0.10045
0.663478 0.239857 0.103609
0.687099 0.242481 0.1066
0.711147 0.24506 0.109438
0.735637 0.247608 0.112139
0.0253605 0.212192 0.0253605
0.0373236 0.216251 0.0257877
0.0514229 0.219806 0.0258946
0.0675822 0.222873 0.0257267
0.0857252 0.225467 0.0252995
0.105791 0.227619 0.0246586
0.127687 0.229328 0.0238193
0.151354 0.230625 0.022797
0.176715 0.231525 0.021622
0.203708 0.232059 0.020325
0.232227 0.232227 0.0189212
0.262013 0.232044 0.0180819
0.292332 0.231693 0.0183719
0.322469 0.231357 0.0198978
0.351705 0.23125 0.0226902
0.379553 0.23151 0.0267491
0.405814 0.232227 0.0318761
0.430411 0.233433 0.0378271
0.453635 0.235096 0.0442817
0.475807 0.237125 0.0509194
0.497292 0.23946 0.057557
0.518364 0.242008 0.0640269
0.539284 0.244709 0.0702068
0.560265 0.247532 0.0760662
0.58143 0.250401 0.0815747
0.602884 0.2533 0.086717
0.62501 0.256153 0.0913252
0.647303 0.259037 0.0957809
0.670008 0.261906 0.0999466
0.693156 0.264759 0.103853
0.716747 0.267597 0.10753
0.740749 0.27039 0.111025
0.765194 0.273167 0.114321
0.0159915 0.242084 0.0159915
0.0289006 0.246143 0.0167086
0.044007 0.249683 0.0171664
0.0612039 0.25272 0.01738
0.0803845 0.255283 0.0173953
0.101427 0.257404 0.017258
0.124269 0.259083 0.016968
0.148821 0.26038 0.016556
0.17496 0.26128 0.016083
0.202609 0.26183 0.0155489
0.231662 0.262058 0.0149996
0.261997 0.261997 0.0144656
0.293339 0.261646 0.0145571
0.325093 0.261173 0.015671
0.356649 0.260746 0.0177005
0.387488 0.260517 0.020676
0.417182 0.260624 0.0245975
0.445487 0.261128 0.0294194
0.472374 0.262089 0.0349737
0.497688 0.263508 0.0412451
0.521798 0.265324 0.0479133
0.544991 0.267506 0.0547494
0.567514 0.269947 0.0615702
0.58967 0.272602 0.0682383
0.611673 0.27541 0.0746624
0.633692 0.278325 0.0807813
0.655879 0.2813 0.0865644
0.678294 0.284321 0.0920424
0.70132 0.287297 0.0970016
0.724529 0.290318 0.101778
0.748104 0.293324 0.106294
0.772122 0.296315 0.110521
0.796536 0.29929 0.114534
0.00643931 0.273106 0.00643931
0.0203861 0.277134 0.00770581
0.0365606 0.280613 0.00874342
0.0548104 0.283574 0.00959792
0.0749981 0.286076 0.0103151
0.0970321 0.288136 0.0109255
0.12076 0.289769 0.0114595
0.146105 0.29102 0.0119783
0.17293 0.291936 0.0124819
0.201114 0.292515 0.0129854
0.230518 0.292836 0.0133211
0.261097 0.292927 0.0134127
0.29279 0.29279 0.0132753
0.32546 0.292424 0.0134585
0.358587 0.29192 0.0144503
0.391623 0.291447 0.0162661
0.424125 0.291127 0.0189517
0.45565 0.291096 0.0225376
0.485939 0.291417 0.0270085
0.514809 0.292165 0.0322881
0.542336 0.293324 0.0382086
0.568444 0.294942 0.0447547
0.593439 0.29691 0.0516213
0.617594 0.299214 0.0586404
0.641169 0.301778 0.0656443
0.664378 0.304524 0.0725109
0.687404 0.307439 0.0791485
0.710445 0.310445 0.0855268
0.733608 0.313542 0.0915999
0.756985 0.31667 0.0973678
0.780652 0.319829 0.102815
0.80502 0.322896 0.107744
0.82948 0.32604 0.112566
0 0.304891 0
0.0127108 0.308812 0
0.0300145 0.312169 0.0016022
0.0493324 0.315022 0.00335698
0.0705577 0.317418 0.00505074
0.0935378 0.319387 0.00671397
0.118074 0.320974 0.00830091
0.143954 0.322286 0.00959792
0.17113 0.323323 0.0106355
0.199557 0.324102 0.011429
0.22916 0.324636 0.0119631
0.259937 0.324926 0.012253
0.291844 0.325002 0.0123293
0.324849 0.324849 0.0121767
0.358801 0.324468 0.0122988
0.39324 0.323949 0.0131838
0.42771 0.32343 0.0148318
0.461753 0.323033 0.0172732
0.495003 0.322881 0.0205539
0.527138 0.323049 0.0246891
0.557992 0.323598 0.029633
0.587579 0.324529 0.0352026
0.615671 0.325917 0.0415503
0.642557 0.327703 0.0483406
0.668437 0.329824 0.0554208
0.693553 0.33225 0.0626078
0.71812 0.334905 0.0697948
0.742351 0.337758 0.0768444
0.7664 0.340764 0.083711
0.790433 0.343877 0.0903182
0.814557 0.347066 0.0966659
0.83888 0.350301 0.102693
0.863447 0.353567 0.108446
0 0.33698 0
0.0069276 0.340719 0
0.0254063 0.343923 0
0.0457008 0.346685 0
0.0675669 0.349111 0.00198367
0.0909133 0.351202 0.00408942
0.115663 0.353002 0.00588998
0.141756 0.354513 0.00740063
0.169131 0.355764 0.00863661
0.197757 0.356741 0.00962844
0.227573 0.357473 0.0103609
0.258549 0.357977 0.0108644
0.290654 0.358251 0.0111238
0.323857 0.358297 0.0111696
0.358129 0.358129 0.011017
0.393332 0.357733 0.0111086
0.429068 0.357198 0.0118868
0.464881 0.356649 0.0133669
0.500404 0.356191 0.01561
0.535256 0.355932 0.018616
0.569131 0.355962 0.022446
0.601846 0.356329 0.0270542
0.633265 0.357092 0.0324254
0.663462 0.358236 0.0383612
0.692256 0.359808 0.0449989
0.719936 0.361746 0.052018
0.746715 0.364004 0.0592813
0.772763 0.366537 0.0666514
0.798306 0.369314 0.0740063
0.823514 0.372274 0.0812543
0.848569 0.375357 0.0883192
0.873564 0.378576 0.0951553
0.89865 0.381857 0.101747
0 0.369039 0
0.00315862 0.372824 0
0.0219577 0.376181 0
0.0424659 0.379141 0
0.0645304 0.381781 0
0.0880903 0.384085 0.0012665
0.113039 0.386084 0.00326543
0.13933 0.387793 0.00497444
0.166918 0.389242 0.00642405
0.195743 0.390417 0.00761425
0.225757 0.391348 0.00854505
0.256931 0.39205 0.00923171
0.289219 0.392523 0.00970474
0.322621 0.392752 0.00994888
0.357092 0.392782 0.0099794
0.392599 0.392599 0.00979629
0.429038 0.392203 0.00984207
0.466011 0.391653 0.010544
0.503136 0.391073 0.011902
0.540063 0.390555 0.0139467
0.576425 0.390219 0.0167239
0.611963 0.390127 0.020264
0.646433 0.390341 0.024567
0.679698 0.390921 0.029633
0.711818 0.391867 0.0352636
0.742519 0.393225 0.0416419
0.77203 0.394965 0.0485389
0.800519 0.397055 0.0557717
0.828153 0.399435 0.0632181
0.855131 0.40209 0.0707713
0.881621 0.404959 0.078294
0.907805 0.408011 0.0857252
0.933806 0.4112 0.0929885
0 0.401923 0
0 0.405905 0
0.0183413 0.409476 0
0.0390326 0.41265 0
0.0613107 0.415473 0
0.085069 0.417975 0
0.110216 0.420172 0.000442512
0.136706 0.422095 0.00236515
0.164492 0.423728 0.00399786
0.1935 0.425116 0.00537118
0.223713 0.426246 0.00650034
0.255085 0.427131 0.00740063
0.287572 0.427787 0.00805676
0.321172 0.428229 0.00848402
0.355825 0.428443 0.0087129
0.391531 0.428443 0.0087129
0.428244 0.428244 0.00851453
0.465873 0.427832 0.00854505
0.504067 0.427283 0.00917067
0.542458 0.426673 0.0103914
0.580728 0.426108 0.0122683
0.61854 0.425696 0.0148318
0.655634 0.425498 0.0181277
0.691768 0.425589 0.0221408
0.726787 0.426001 0.0269017
0.760616 0.42678 0.0323644
0.793347 0.427909 0.0383307
0.824674 0.42945 0.0450294
0.854902 0.431357 0.0521706
0.884199 0.433585 0.059617
0.912703 0.436088 0.0672465
0.940566 0.438865 0.0749676
0.968002 0.441825 0.0826581
0 0.435843 0
0 0.440024 0
0.0145266 0.443778 0
0.0354314 0.447166 0
0.057908 0.450187 0
0.0818494 0.452888 0
0.10721 0.455283 0
0.133898 0.457389 0
0.161868 0.45922 0.00137331
0.191073 0.460792 0.00294499
0.221469 0.462119 0.00425727
0.253025 0.463188 0.00534066
0.28571 0.464042 0.00619516
0.319493 0.464668 0.00682078
0.35433 0.465064 0.00721752
0.390219 0.465263 0.00741588
0.427131 0.465248 0.00740063
0.465034 0.465034 0.007187
0.503838 0.464622 0.007187
0.543206 0.464042 0.00773632
0.582834 0.463416 0.00886549
0.6224 0.462821 0.0105898
0.661601 0.462348 0.0129702
0.70016 0.462058 0.016022
0.737896 0.462013 0.0197757
0.774594 0.462287 0.0242618
0.810162 0.462898 0.0294347
0.844541 0.463874 0.0352636
0.877867 0.465187 0.0415503
0.909865 0.466911 0.0485389
0.940826 0.468956 0.0558938
0.970916 0.471305 0.0635233
1 0.473945 0.0713359
0 0.470756 0
0 0.475135 0
0.0105592 0.479088 0
0.0316472 0.482658 0
0.0543069 0.485893 0
0.0784466 0.488777 0
0.10399 0.491371 0
0.130877 0.49366 0
0.15903 0.495689 0
0.188434 0.497444 0.00030518
0.219028 0.498955 0.00181582
0.250767 0.500221 0.00308232
0.283635 0.501259 0.00411994
0.317601 0.502068 0.00492866
0.352636 0.502663 0.00550851
0.388708 0.503044 0.00588998
0.425803 0.503212 0.00605783
0.46389 0.503182 0.00602731
0.502953 0.502953 0.00581369
0.542901 0.502525 0.00578317
0.583429 0.501945 0.00627146
0.624247 0.501289 0.00729381
0.665064 0.500664 0.00889601
0.705592 0.50013 0.0110933
0.745571 0.499763 0.0139467
0.784817 0.499611 0.0174716
0.823117 0.499763 0.0216678
0.860365 0.500221 0.026566
0.896468 0.501015 0.0321202
0.931609 0.502144 0.038117
0.965347 0.50367 0.044892
0.998016 0.505531 0.0521248
1 0.507729 0.0596933
0 0.506661 0
0 0.511238 0
0.00639353 0.515389 0
0.0276799 0.519142 0
0.0505379 0.52256 0
0.074876 0.525643 0
0.100603 0.52842 0
0.127672 0.530907 0
0.156024 0.53312 0
0.185611 0.535058 0
0.216373 0.536767 0
0.24831 0.538216 0.00062562
0.281361 0.539437 0.00184634
0.315511 0.540429 0.00283818
0.350729 0.541192 0.00360113
0.386969 0.541756 0.00416571
0.424247 0.542107 0.00451667
0.462516 0.54226 0.00466926
0.501762 0.542214 0.00462348
0.54197 0.54197 0.00437934
0.583032 0.541527 0.0043183
0.624704 0.540932 0.00476081
0.666682 0.540261 0.00569161
0.708705 0.539605 0.00717174
0.750515 0.539025 0.00921645
0.791867 0.538582 0.0118715
0.832547 0.538354 0.0151827
0.872389 0.538369 0.0191348
0.911254 0.538689 0.0237583
0.94902 0.539345 0.0290532
0.985672 0.540322 0.0349737
1 0.541619 0.0412909
1 0.543313 0.0483406
0 0.543542 0
0 0.548302 0
0.00207523 0.552636 0
0.0235599 0.556588 0
0.0466011 0.560189 0
0.0711223 0.56347 0
0.0970321 0.56643 0
0.124285 0.5691 0
0.152819 0.571496 0
0.182589 0.573617 0
0.21355 0.575494 0
0.245655 0.577127 0
0.278889 0.578531 0
0.313222 0.579705 0.000534066
0.348608 0.580652 0.00149538
0.385046 0.581384 0.00222782
0.422492 0.581918 0.00276188
0.460929 0.582254 0.00308232
0.500359 0.582376 0.00321965
0.540734 0.582315 0.00314336
0.582055 0.582055 0.00289921
0.624231 0.581613 0.00282292
0.667002 0.581003 0.00320439
0.710124 0.580316 0.0040589
0.753338 0.579629 0.00543221
0.796384 0.579004 0.00733959
0.839048 0.578515 0.00981155
0.881117 0.578195 0.0129091
0.922423 0.578103 0.0166476
0.962829 0.578302 0.0210269
1 0.578805 0.0260471
1 0.579629 0.0317082
1 0.580743 0.0377813
0 0.581369 0
0 0.586328 0
0 0.590845 0
0.0192569 0.59498 0
0.0424811 0.598764 0
0.0671855 0.602213 0
0.0932937 0.605371 0
0.120729 0.608225 0
0.149432 0.610788 0
0.179385 0.613108 0
0.210529 0.615167 0
0.242817 0.616968 0
0.276219 0.618555 0
0.310735 0.619898 0
0.346303 0.621027 0
0.38291 0.621942 9.15541e-05
0.420523 0.622644 0.000793469
0.459144 0.623148 0.00129702
0.498741 0.623453 0.0016022
0.5393 0.62356 0.00170901
0.580789 0.623484 0.00163272
0.623209 0.623209 0.00137331
0.666468 0.622751 0.0012665
0.710338 0.622141 0.0016022
0.754574 0.621439 0.00239567
0.798917 0.620722 0.00364691
0.843168 0.620066 0.00543221
0.887098 0.619516 0.00776684
0.93051 0.61912 0.0106661
0.973236 0.618936 0.0141909
1 0.619013 0.0183261
1 0.619379 0.0231022
1 0.620066 0.0285039
0 0.620142 0
0 0.625269 0
0 0.629984 0
0.0148013 0.634302 0
0.0382086 0.63827 0
0.0630961 0.641901 0
0.0893721 0.645228 0
0.116991 0.648249 0
0.145876 0.651011 0
0.176013 0.653498 0
0.207324 0.655741 0
0.23978 0.657725 0
0.273381 0.65948 0
0.308049 0.661006 0
0.343801 0.662303 0
0.380575 0.663386 0
0.418372 0.664271 0
0.45716 0.664942 0
0.496941 0.665415 0
0.537667 0.66569 7.62951e-05
0.579324 0.665782 0.000167849
0.621912 0.66569 6.10361e-05
0.665415 0.665415 0
0.709743 0.664942 0
0.754665 0.664317 0
0.799985 0.6636 0.000671397
0.845472 0.662867 0.00184634
0.890883 0.662181 0.00350958
0.936034 0.66157 0.00569161
0.980743 0.661112 0.00843824
1 0.660853 0.0117494
1 0.660822 0.015671
1 0.661067 0.0202182
0 0.659831 0
0 0.665141 0
0 0.670024 0
0.0101778 0.674525 0
0.0337682 0.678676 0
0.0588388 0.68249 0
0.0852979 0.685985 0
0.113085 0.689204 0
0.142153 0.692134 0
0.172457 0.694789 0
0.203937 0.6972 0
0.236576 0.699367 0
0.270344 0.701289 0
0.305196 0.702983 0
0.341115 0.704463 0
0.378058 0.705715 0
0.416022 0.706767 0
0.454994 0.707607 0
0.494926 0.708247 0
0.535821 0.708705 0
0.577661 0.708965 0
0.620417 0.709026 0
0.664073 0.708919 0
0.708629 0.708629 0
0.754009 0.708156 0
0.8 0.707515 0
0.846387 0.706798 0
0.892958 0.70605 3.0518e-05
0.939513 0.705318 0.00157168
0.985855 0.704662 0.00361639
1 0.704143 0.00621042
1 0.703807 0.00933852
1 0.703685 0.0130465
0 0.70042 0
0 0.705913 0
0 0.710979 0
0.00541695 0.715663 0
0.0291752 0.719982 0
0.0544137 0.723964 0
0.0810407 0.727642 0
0.10901 0.731029 0
0.138247 0.734142 0
0.168719 0.73698 0
0.200381 0.739559 0
0.233204 0.741894 0
0.26714 0.743984 0
0.302159 0.745846 0
0.338231 0.747494 0
0.375357 0.748928 0
0.413504 0.750134 0
0.452628 0.751156 0
0.492729 0.751965 0
0.533791 0.752575 0
0.575784 0.753002 0
0.618708 0.753231 0
0.662547 0.753292 0
0.707256 0.75317 0
0.752865 0.752865 0
0.799268 0.752377 0
0.846296 0.751736 0
0.893736 0.751003 0
0.941375 0.750225 0
0.989044 0.749477 0
1 0.748791 0.0019379
1 0.748287 0.00706493
1 0.748104 0.0155795
0 0.741909 0
0 0.747585 0
0 0.752819 0
0.000488289 0.757671 0
0.0244297 0.762173 0
0.049836 0.766339 0
0.0766461 0.770184 0
0.104784 0.773739 0
0.134188 0.77702 0
0.164828 0.780026 0
0.196674 0.782773 0
0.229648 0.785275 0
0.263752 0.787549 0
0.298939 0.789578 0
0.335195 0.791394 0
0.372473 0.792981 0
0.410788 0.794369 0
0.45008 0.795544 0
0.490349 0.796521 0
0.531579 0.797299 0
0.573739 0.797894 0
0.616815 0.798291 0
0.660807 0.798505 0
0.705699 0.79855 0
0.751461 0.798413 0
0.798093 0.798093 0
0.845518 0.797589 0
0.893385 0.796887 0
0.940948 0.796033 0.000183108
0.98761 0.795178 0.00782788
1 0.794476 0.019089
1 0.794125 0.0342718
1 0.794293 0.0536202
0 0.784283 0
0 0.790127 0
0 0.795544 0
0 0.800565 0
0.0195163 0.805234 0
0.0451057 0.809567 0
0.0720836 0.813596 0
0.100389 0.817319 0
0.129961 0.820768 0
0.160784 0.823941 0
0.192782 0.826856 0
0.225925 0.829526 0
0.260197 0.831968 0
0.295552 0.834165 0
0.331975 0.836133 0
0.369421 0.837903 0
0.407889 0.839445 0
0.447349 0.840787 0
0.487785 0.841932 0
0.529168 0.842863 0
0.571496 0.843626 0
0.61474 0.844175 0
0.6589 0.844556 0
0.703944 0.844739 0
0.749905 0.844556 0
0.796445 0.843992 0.00030518
0.843137 0.843137 0.00787366
0.889464 0.84213 0.0189059
0.934752 0.841093 0.0339208
0.978241 0.840223 0.0532082
1 0.839704 0.076997
1 0.839734 0.105516
1 0.840513 0.138857
0 0.827527 0
0 0.833539 0
0 0.839139 0
0 0.844327 0
0.0144656 0.849165 0
0.0402228 0.853666 0
0.0673686 0.857862 0
0.0958419 0.861753 0
0.125582 0.865354 0
